omv/luts/01_mojave_natural.cube
# Original OMV LUT; redistribution permitted with OMV.
TITLE "Mojave Natural"
LUT_3D_SIZE 8
DOMAIN_MIN 0.000000 0.000000 0.000000
DOMAIN_MAX 0.903226 0.903226 0.903226
0.006988 0.006988 0.004996
0.122701 0.006623 0.004631
0.259590 0.006192 0.004200
0.395693 0.005763 0.003771
0.531311 0.005334 0.003334
0.666640 0.004893 0.002789
0.801763 0.004438 0.002123
0.936720 0.003970 0.001352
0.005761 0.121839 0.003769
0.121477 0.121474 0.003401
0.258430 0.121030 0.002867
0.394674 0.120572 0.002210
0.530496 0.120103 0.001447
0.666019 0.119623 0.000592
0.801306 0.119135 0.000000
0.936399 0.118639 0.000000
0.004622 0.257646 0.001819
0.120538 0.257241 0.001129
0.257718 0.256751 0.000232
0.394154 0.256255 0.000000
0.530133 0.255754 0.000000
0.665779 0.255250 0.000000
0.801156 0.254744 0.000000
0.936304 0.254237 0.000000
0.004190 0.392532 0.000000
0.120227 0.392102 0.000000
0.257518 0.391590 0.000000
0.394031 0.391079 0.000000
0.530052 0.390570 0.000000
0.665706 0.390064 0.000000
0.801123 0.389582 0.000000
0.936450 0.389158 0.000000
0.004093 0.526865 0.000000
0.120153 0.526431 0.000000
0.257444 0.525921 0.000000
0.394049 0.525456 0.000000
0.530298 0.525050 0.000000
0.666292 0.524698 0.000000
0.802073 0.524394 0.000000
0.937660 0.524132 0.000000
0.004207 0.660932 0.000000
0.120504 0.660605 0.000000
0.258170 0.660265 0.000000
0.395105 0.659974 0.000000
0.531575 0.659726 0.000000
0.667681 0.659515 0.000000
0.803481 0.659333 0.000000
0.939064 0.659161 0.000000
0.005382 0.795248 0.000000
0.121829 0.795050 0.000000
0.259571 0.794847 0.000000
0.396510 0.794669 0.000000
0.532974 0.794498 0.000000
0.669076 0.794326 0.000000
0.804868 0.794146 0.000000
0.940380 0.793953 0.000000
0.006782 0.929753 0.000000
0.123224 0.929607 0.000000
0.260964 0.929431 0.000000
0.397878 0.929245 0.000000
0.534243 0.929044 0.000000
0.670171 0.928819 0.000000
0.805716 0.928566 0.000000
0.940906 0.928276 0.000000
0.006864 0.006864 0.120950
0.122577 0.006499 0.120585
0.259466 0.006068 0.120154
0.395569 0.005639 0.119725
0.531200 0.005208 0.119267
0.666552 0.004762 0.118684
0.801696 0.004302 0.117986
0.936670 0.003831 0.117188
0.005637 0.121715 0.119723
0.121362 0.121348 0.119339
0.258339 0.120899 0.118768
0.394605 0.120438 0.118078
0.530445 0.119964 0.117285
0.665982 0.119482 0.116407
0.801282 0.118991 0.115459
0.936384 0.118494 0.114456
0.004562 0.257509 0.117670
0.120492 0.257101 0.116958
0.257686 0.256609 0.116039
0.394134 0.256111 0.115058
0.530121 0.255608 0.114030
0.665771 0.255103 0.112970
0.801151 0.254596 0.111894
0.936299 0.254090 0.110818
0.004174 0.392386 0.114539
0.120217 0.391956 0.113647
0.257512 0.391443 0.112566
0.394026 0.390932 0.111478
0.530046 0.390423 0.110398
0.665697 0.389918 0.109339
0.801156 0.389452 0.108226
0.936520 0.389044 0.107031
0.004087 0.526718 0.110939
0.120145 0.526284 0.110023
0.257449 0.525780 0.108945
0.394097 0.525333 0.107788
0.530380 0.524943 0.106562
0.666397 0.524604 0.105300
0.802194 0.524313 0.104035
0.937786 0.524063 0.102800
0.004272 0.660816 0.107195
0.120595 0.660502 0.106131
0.258282 0.660177 0.104849
0.395229 0.659898 0.103580
0.531701 0.659661 0.102356
0.667799 0.659460 0.101209
0.803601 0.659283 0.100120
0.939188 0.659112 0.099018
0.005507 0.795178 0.102983
0.121953 0.794988 0.101961
0.259685 0.794795 0.100831
0.396632 0.794619 0.099726
0.533098 0.794448 0.098616
0.669194 0.794274 0.097516
0.804975 0.794091 0.096445
0.940468 0.793892 0.095418
0.006905 0.929703 0.099198
0.123346 0.929557 0.098251
0.261079 0.929378 0.097145
0.397979 0.929189 0.096077
0.534324 0.928981 0.095064
0.670225 0.928749 0.094120
0.805737 0.928485 0.093264
0.940887 0.928183 0.092511
0.006718 0.006718 0.258124
0.122431 0.006353 0.257759
0.259320 0.005921 0.257328
0.395422 0.005493 0.256899
0.531078 0.005056 0.256401
0.666457 0.004605 0.255777
0.801623 0.004141 0.255042
0.936617 0.003666 0.254212
0.005491 0.121569 0.256897
0.121236 0.121197 0.256481
0.258240 0.120743 0.255865
0.394529 0.120277 0.255138
0.530390 0.119800 0.254313
0.665943 0.119314 0.253408
0.801257 0.118820 0.252439
0.936368 0.118321 0.251420
0.004498 0.257346 0.254712
0.120444 0.256935 0.253975
0.257654 0.256439 0.253031
0.394113 0.255939 0.252031
0.530109 0.255435 0.250989
0.665764 0.254928 0.249921
0.801145 0.254421 0.248843
0.936292 0.253915 0.247769
0.004158 0.392214 0.251504
0.120207 0.391782 0.250603
0.257506 0.391268 0.249516
0.394020 0.390757 0.248427
0.530037 0.390249 0.247352
0.665700 0.389751 0.246288
0.801211 0.389305 0.245143
0.936614 0.388916 0.243926
0.004080 0.526543 0.247890
0.120135 0.526110 0.246979
0.257473 0.525621 0.245881
0.394168 0.525193 0.244695
0.530486 0.524821 0.243451
0.666529 0.524499 0.242184
0.802339 0.524223 0.240925
0.937934 0.523986 0.239708
0.004362 0.660686 0.244092
0.120712 0.660386 0.243018
0.258420 0.660077 0.241733
0.395377 0.659813 0.240474
0.531847 0.659588 0.239272
0.667935 0.659397 0.238156
0.803745 0.659223 0.237061
0.939335 0.659053 0.235958
0.005656 0.795099 0.239886
0.122097 0.794919 0.238887
0.259824 0.794734 0.237777
0.396778 0.794561 0.236667
0.533243 0.794389 0.235557
0.669331 0.794213 0.234464
0.805095 0.794025 0.233405
0.940565 0.793819 0.232397
0.007052 0.929645 0.236138
0.123489 0.929497 0.235193
0.261210 0.929315 0.234096
0.398092 0.929120 0.233044
0.534410 0.928905 0.232051
0.670277 0.928662 0.231135
0.805747 0.928386 0.230312
0.940849 0.928069 0.229599
0.006572 0.006572 0.394510
0.122285 0.006207 0.394145
0.259174 0.005776 0.393713
0.395282 0.005346 0.393276
0.530966 0.004904 0.392733
0.666370 0.004448 0.392068
0.801558 0.003979 0.391298
0.936570 0.003500 0.390439
0.005350 0.121422 0.393274
0.121121 0.121046 0.392818
0.258151 0.120586 0.392161
0.394462 0.120115 0.391398
0.530341 0.119635 0.390544
0.665910 0.119145 0.389614
0.801235 0.118650 0.388625
0.936356 0.118149 0.387593
0.004441 0.257183 0.390956
0.120402 0.256769 0.390195
0.257625 0.256270 0.389228
0.394095 0.255768 0.388211
0.530098 0.255262 0.387158
0.665758 0.254755 0.386084
0.801139 0.254248 0.385005
0.936283 0.253742 0.383935
0.004145 0.392041 0.387678
0.120198 0.391609 0.386769
0.257500 0.391095 0.385677
0.394013 0.390584 0.384590
0.530026 0.390076 0.383521
0.665722 0.389592 0.382437
0.801280 0.389166 0.381263
0.936719 0.388794 0.380029
0.004072 0.526370 0.384055
0.120124 0.525939 0.383151
0.257513 0.525469 0.382018
0.394252 0.525060 0.380807
0.530602 0.524706 0.379551
0.666666 0.524400 0.378281
0.802486 0.524137 0.377032
0.938080 0.523913 0.375836
0.004463 0.660562 0.380197
0.120836 0.660276 0.379115
0.258562 0.659983 0.377833
0.395524 0.659732 0.376588
0.531990 0.659520 0.375412
0.668073 0.659337 0.374315
0.803890 0.659165 0.373214
0.939479 0.658994 0.372111
0.005803 0.795024 0.376011
0.122235 0.794854 0.375037
0.259966 0.794675 0.373932
0.396924 0.794502 0.372819
0.533385 0.794330 0.371712
0.669462 0.794150 0.370628
0.805208 0.793957 0.369584
0.940651 0.793743 0.368597
0.007197 0.929586 0.372290
0.123628 0.929437 0.371351
0.261336 0.929251 0.370265
0.398196 0.929049 0.369230
0.534485 0.928825 0.368260
0.670316 0.928572 0.367374
0.805742 0.928282 0.366586
0.940792 0.927950 0.365914
0.006427 0.006427 0.530404
0.122140 0.006062 0.530039
0.259029 0.005631 0.529608
0.395152 0.005198 0.529146
0.530864 0.004750 0.528559
0.666291 0.004289 0.527856
0.801500 0.003817 0.527054
0.936529 0.003334 0.526167
0.005221 0.121274 0.529144
0.121014 0.120893 0.528650
0.258069 0.120428 0.527954
0.394401 0.119953 0.527157
0.530298 0.119469 0.526275
0.665881 0.118977 0.525322
0.801217 0.118479 0.524316
0.936345 0.117977 0.523272
0.004390 0.257019 0.526700
0.120364 0.256602 0.525917
0.257601 0.256101 0.524929
0.394081 0.255596 0.523896
0.530090 0.255090 0.522834
0.665752 0.254582 0.521755
0.801133 0.254075 0.520677
0.936273 0.253570 0.519614
0.004134 0.391869 0.523358
0.120191 0.391436 0.522442
0.257494 0.390922 0.521348
0.394006 0.390411 0.520264
0.530015 0.389905 0.519202
0.665762 0.389440 0.518085
0.801362 0.389033 0.516886
0.936834 0.388679 0.515639
0.004062 0.526198 0.519733
0.120129 0.525774 0.518821
0.257570 0.525325 0.517656
0.394347 0.524934 0.516424
0.530726 0.524596 0.515158
0.666807 0.524306 0.513891
0.802633 0.524057 0.512656
0.938223 0.523844 0.511484
0.004574 0.660444 0.515808
0.120967 0.660173 0.514722
0.258706 0.659893 0.513446
0.395671 0.659656 0.512219
0.532129 0.659455 0.511072
0.668214 0.659278 0.509980
0.804036 0.659107 0.508876
0.939620 0.658935 0.507776
0.005947 0.794954 0.511655
0.122370 0.794793 0.510707
0.260109 0.794616 0.509596
0.397068 0.794444 0.508481
0.533524 0.794270 0.507379
0.669587 0.794086 0.506306
0.805312 0.793886 0.505279
0.940726 0.793664 0.504315
0.007339 0.929527 0.507954
0.123763 0.929376 0.507021
0.261455 0.929185 0.505948
0.398291 0.928976 0.504932
0.534548 0.928742 0.503988
0.670340 0.928477 0.503132
0.805719 0.928174 0.502382
0.940715 0.927826 0.501753
0.006282 0.006282 0.665940
0.121995 0.005917 0.665575
0.258884 0.005486 0.665144
0.395032 0.005048 0.664642
0.530770 0.004595 0.664013
0.666220 0.004130 0.663274
0.801448 0.003653 0.662441
0.936493 0.003168 0.661529
0.005101 0.121124 0.664640
0.120917 0.120739 0.664110
0.257995 0.120269 0.663377
0.394347 0.119790 0.662548
0.530260 0.119303 0.661639
0.665856 0.118808 0.660666
0.801202 0.118308 0.659645
0.936336 0.117805 0.658590
0.004345 0.256854 0.662076
0.120332 0.256435 0.661273
0.257581 0.255931 0.660266
0.394068 0.255425 0.659220
0.530083 0.254917 0.658149
0.665746 0.254409 0.657069
0.801126 0.253902 0.655993
0.936261 0.253399 0.654938
0.004124 0.391698 0.658677
0.120185 0.391263 0.657757
0.257488 0.390749 0.656662
0.393997 0.390239 0.655583
0.530020 0.389740 0.654515
0.665817 0.389295 0.653366
0.801456 0.388907 0.652146
0.936956 0.388569 0.650889
0.004051 0.526026 0.655056
0.120153 0.525617 0.654121
0.257640 0.525187 0.652927
0.394453 0.524814 0.651679
0.530857 0.524493 0.650407
0.666951 0.524216 0.649147
0.802780 0.523980 0.647929
0.938361 0.523780 0.646786
0.004693 0.660332 0.651058
0.121103 0.660074 0.649972
0.258852 0.659809 0.648707
0.395816 0.659584 0.647502
0.532263 0.659394 0.646384
0.668357 0.659219 0.645286
0.804180 0.659049 0.644181
0.939759 0.658876 0.643086
0.006087 0.794887 0.646952
0.122508 0.794733 0.646017
0.260253 0.794558 0.644901
0.397212 0.794386 0.643787
0.533658 0.794209 0.642692
0.669705 0.794020 0.641632
0.805406 0.793813 0.640624
0.940790 0.793581 0.639685
0.007479 0.929468 0.643263
0.123893 0.929314 0.642337
0.261566 0.929117 0.641279
0.398375 0.928900 0.640285
0.534599 0.928656 0.639368
0.670349 0.928379 0.638545
0.805680 0.928060 0.637834
0.940619 0.927696 0.637250
0.006138 0.006138 0.801194
0.121851 0.005773 0.800829
0.258746 0.005340 0.800389
0.394922 0.004897 0.799842
0.530684 0.004439 0.799173
0.666156 0.003969 0.798400
0.801402 0.003489 0.797538
0.936462 0.003001 0.796602
0.004991 0.120973 0.799839
0.120828 0.120583 0.799275
0.257928 0.120109 0.798507
0.394299 0.119627 0.797648
0.530227 0.119136 0.796715
0.665835 0.118639 0.795723
0.801189 0.118137 0.794688
0.936329 0.117633 0.793625
0.004305 0.256689 0.797162
0.120304 0.256267 0.796340
0.257564 0.255761 0.795317
0.394058 0.255254 0.794259
0.530077 0.254745 0.793182
0.665741 0.254237 0.792101
0.801117 0.253731 0.791030
0.936263 0.253234 0.789971
0.004117 0.391526 0.793712
0.120179 0.391091 0.792788
0.257482 0.390577 0.791695
0.393986 0.390068 0.790623
0.530043 0.389583 0.789534
0.665886 0.389157 0.788356
0.801561 0.388786 0.787119
0.937086 0.388465 0.785857
0.004046 0.525859 0.790094
0.120194 0.525466 0.789129
0.257724 0.525056 0.787910
0.394569 0.524700 0.786649
0.530993 0.524394 0.785376
0.667097 0.524132 0.784125
0.802924 0.523908 0.782929
0.938495 0.523718 0.781816
0.004820 0.660226 0.786026
0.121244 0.659981 0.784943
0.258999 0.659729 0.783692
0.395958 0.659516 0.782512
0.532400 0.659334 0.781413
0.668501 0.659161 0.780309
0.804323 0.658991 0.779205
0.939894 0.658815 0.778116
0.006222 0.794824 0.781978
0.122648 0.794674 0.781043
0.260398 0.794500 0.779924
0.397352 0.794327 0.778813
0.533788 0.794147 0.777727
0.669816 0.793952 0.776681
0.805491 0.793738 0.775694
0.940841 0.793496 0.774782
0.007616 0.929408 0.778292
0.124018 0.929250 0.777376
0.261669 0.929047 0.776336
0.398449 0.928821 0.775364
0.534636 0.928566 0.774476
0.670342 0.928276 0.773689
0.805622 0.927942 0.773018
0.940503 0.927559 0.772482
0.005993 0.005993 0.936215
0.121707 0.005629 0.935850
0.258617 0.005193 0.935385
0.394820 0.004744 0.934794
0.530607 0.004281 0.934088
0.666098 0.003808 0.933282
0.801361 0.003324 0.932393
0.936435 0.002833 0.931436
0.004889 0.120820 0.934792
0.120747 0.120426 0.934195
0.257868 0.119948 0.933393
0.394257 0.119462 0.932506
0.530199 0.118969 0.931550
0.665818 0.118470 0.930541
0.801179 0.117966 0.929495
0.936322 0.117461 0.928426
0.004271 0.256522 0.932008
0.120280 0.256098 0.931169
0.257549 0.255591 0.930130
0.394050 0.255082 0.929063
0.530071 0.254573 0.927982
0.665734 0.254065 0.926901
0.801107 0.253560 0.925837
0.936283 0.253076 0.924760
0.004110 0.391354 0.928513
0.120174 0.390919 0.927588
0.257474 0.390405 0.926498
0.393976 0.389898 0.925432
0.530083 0.389433 0.924310
0.665969 0.389026 0.923107
0.801675 0.388672 0.921857
0.937221 0.388366 0.920593
0.004061 0.525698 0.924886
0.120250 0.525323 0.923895
0.257819 0.524930 0.922655
0.394692 0.524592 0.921385
0.531133 0.524301 0.920115
0.667243 0.524052 0.918877
0.803066 0.523840 0.917706
0.938632 0.523658 0.916613
0.004953 0.660125 0.920762
0.121387 0.659892 0.919685
0.259145 0.659654 0.918451
0.396095 0.659452 0.917301
0.532540 0.659275 0.916206
0.668645 0.659103 0.915100
0.804464 0.658932 0.913998
0.940023 0.658753 0.912918
0.006357 0.794764 0.916776
0.122791 0.794615 0.915835
0.260542 0.794442 0.914714
0.397490 0.794267 0.913608
0.533912 0.794083 0.912533
0.669919 0.793882 0.911505
0.805565 0.793659 0.910541
0.940879 0.793406 0.909658
0.007748 0.929346 0.913092
0.124136 0.929184 0.912188
0.261762 0.928974 0.911166
0.398511 0.928739 0.910220
0.534660 0.928472 0.909364
0.670319 0.928168 0.908613
0.805545 0.927818 0.907986
0.940365 0.927417 0.907497
