omv/luts/01_mojave_natural.cube
# Original OMV LUT; redistribution permitted with OMV.
TITLE "Mojave Natural"
LUT_3D_SIZE 5
DOMAIN_MIN 0.000000 0.000000 0.000000
DOMAIN_MAX 0.903226 0.903226 0.903226
0.006988 0.006988 0.004996
0.225461 0.006299 0.004307
0.463550 0.005549 0.003557
0.700438 0.004781 0.002633
0.936720 0.003970 0.001352
0.004827 0.223802 0.002431
0.223636 0.223046 0.001204
0.462253 0.222190 0.000000
0.699672 0.221316 0.000000
0.936319 0.220432 0.000000
0.004124 0.459753 0.000000
0.223255 0.458932 0.000000
0.462050 0.458041 0.000000
0.699747 0.457251 0.000000
0.936968 0.456630 0.000000
0.004422 0.694484 0.000000
0.224164 0.693964 0.000000
0.463753 0.693525 0.000000
0.701994 0.693191 0.000000
0.939422 0.692892 0.000000
0.006782 0.929753 0.000000
0.226624 0.929475 0.000000
0.466120 0.929147 0.000000
0.704092 0.928759 0.000000
0.940906 0.928276 0.000000
0.006754 0.006754 0.223924
0.225227 0.006066 0.223235
0.463324 0.005314 0.222472
0.700288 0.004530 0.221426
0.936630 0.003707 0.220050
0.004689 0.223549 0.221205
0.223551 0.222783 0.219893
0.462211 0.221918 0.218230
0.699654 0.221039 0.216418
0.936309 0.220153 0.214539
0.004112 0.459474 0.215565
0.223245 0.458654 0.213820
0.462055 0.457774 0.211939
0.699884 0.457039 0.209866
0.937182 0.456465 0.207663
0.004598 0.694294 0.208909
0.224392 0.693814 0.206864
0.463985 0.693411 0.204744
0.702223 0.693096 0.202818
0.939650 0.692797 0.200890
0.007015 0.929659 0.201995
0.226844 0.929377 0.200222
0.466288 0.929034 0.198387
0.704171 0.928619 0.196756
0.940860 0.928098 0.195419
0.006499 0.006499 0.462508
0.224972 0.005811 0.461819
0.463106 0.005051 0.460997
0.700148 0.004252 0.459827
0.936549 0.003417 0.458355
0.004561 0.223269 0.459587
0.223476 0.222492 0.458191
0.462175 0.221619 0.456464
0.699640 0.220736 0.454617
0.936299 0.219849 0.452733
0.004102 0.459171 0.453758
0.223231 0.458351 0.452019
0.462114 0.457504 0.450097
0.700066 0.456826 0.447957
0.937429 0.456300 0.445748
0.004817 0.694102 0.446990
0.224649 0.693664 0.444962
0.464227 0.693298 0.442920
0.702478 0.692994 0.440995
0.939890 0.692690 0.439078
0.007268 0.929557 0.440173
0.227069 0.929267 0.438422
0.466444 0.928902 0.436643
0.704217 0.928455 0.435100
0.940756 0.927889 0.433882
0.006246 0.006246 0.699778
0.224719 0.005557 0.699089
0.462917 0.004785 0.698163
0.700031 0.003971 0.696879
0.936485 0.003126 0.695323
0.004454 0.222986 0.696622
0.223416 0.222200 0.695151
0.462149 0.221320 0.693370
0.699629 0.220434 0.691499
0.936285 0.219548 0.689619
0.004092 0.458868 0.690639
0.223212 0.458050 0.688915
0.462222 0.457255 0.686913
0.700277 0.456631 0.684727
0.937684 0.456150 0.682533
0.005054 0.693929 0.683759
0.224906 0.693529 0.681767
0.464467 0.693193 0.679795
0.702730 0.692892 0.677860
0.940115 0.692580 0.675965
0.007514 0.929453 0.677044
0.227275 0.929151 0.675325
0.466567 0.928761 0.673612
0.704216 0.928277 0.672168
0.940592 0.927662 0.671080
0.005993 0.005993 0.936215
0.224475 0.005303 0.935513
0.462756 0.004514 0.934455
0.699934 0.003688 0.933067
0.936435 0.002833 0.931436
0.004367 0.222700 0.932795
0.223370 0.221906 0.931258
0.462130 0.221021 0.929434
0.699619 0.220133 0.927548
0.936267 0.219249 0.925682
0.004080 0.458568 0.926690
0.223218 0.457762 0.924964
0.462370 0.457027 0.922876
0.700508 0.456454 0.920665
0.937940 0.456014 0.918506
0.005303 0.693770 0.919705
0.225156 0.693406 0.917768
0.464714 0.693090 0.915832
0.702977 0.692789 0.913898
0.940320 0.692465 0.912036
0.007748 0.929346 0.913092
0.227456 0.929028 0.911415
0.466652 0.928610 0.909779
0.704165 0.928085 0.908444
0.940365 0.927417 0.907497
