omv/luts/01_mojave_natural.cube
# Original OMV LUT; redistribution permitted with OMV.
TITLE "Mojave Natural"
LUT_3D_SIZE 32
DOMAIN_MIN 0.0 0.0 0.0
DOMAIN_MAX 1.0 1.0 1.0
0.006988 0.006988 0.004996
0.018804 0.006951 0.004959
0.053683 0.006841 0.004849
0.088268 0.006732 0.004740
0.122701 0.006623 0.004631
0.157029 0.006515 0.004523
0.191277 0.006407 0.004415
0.225461 0.006299 0.004307
0.259590 0.006192 0.004200
0.293673 0.006084 0.004092
0.327715 0.005977 0.003985
0.361720 0.005870 0.003878
0.395693 0.005763 0.003771
0.429635 0.005656 0.003664
0.463550 0.005549 0.003557
0.497440 0.005442 0.003449
0.531311 0.005334 0.003334
0.565165 0.005225 0.003210
0.599004 0.005116 0.003077
0.632829 0.005005 0.002937
0.666640 0.004893 0.002789
0.700438 0.004781 0.002633
0.734224 0.004667 0.002470
0.767999 0.004553 0.002300
0.801763 0.004438 0.002123
0.835517 0.004322 0.001939
0.869260 0.004205 0.001749
0.902995 0.004088 0.001554
0.936720 0.003970 0.001352
0.970436 0.003851 0.001145
1.000000 0.003732 0.000932
1.000000 0.003692 0.000861
0.006863 0.018716 0.004871
0.018678 0.018678 0.004833
0.053557 0.018568 0.004724
0.088143 0.018459 0.004615
0.122576 0.018351 0.004506
0.156904 0.018243 0.004398
0.191152 0.018135 0.004290
0.225336 0.018027 0.004182
0.259465 0.017919 0.004075
0.293548 0.017812 0.003967
0.327590 0.017705 0.003860
0.361595 0.017598 0.003753
0.395567 0.017490 0.003646
0.429510 0.017384 0.003539
0.463426 0.017276 0.003430
0.497321 0.017168 0.003313
0.531199 0.017059 0.003187
0.565059 0.016949 0.003053
0.598904 0.016838 0.002911
0.632735 0.016726 0.002762
0.666551 0.016613 0.002604
0.700355 0.016500 0.002440
0.734146 0.016385 0.002268
0.767926 0.016270 0.002090
0.801695 0.016154 0.001906
0.835453 0.016037 0.001715
0.869202 0.015919 0.001518
0.902940 0.015801 0.001315
0.936670 0.015682 0.001107
0.970390 0.015563 0.000893
1.000000 0.015443 0.000675
1.000000 0.015403 0.000601
0.006493 0.053335 0.004501
0.018309 0.053298 0.004464
0.053188 0.053188 0.004354
0.087773 0.053079 0.004245
0.122206 0.052970 0.004136
0.156534 0.052862 0.004028
0.190782 0.052754 0.003920
0.224966 0.052646 0.003812
0.259095 0.052539 0.003705
0.293178 0.052431 0.003597
0.327220 0.052324 0.003490
0.361229 0.052216 0.003377
0.395210 0.052107 0.003256
0.429166 0.051997 0.003126
0.463101 0.051887 0.002988
0.497014 0.051775 0.002842
0.530909 0.051662 0.002689
0.564787 0.051549 0.002528
0.598648 0.051435 0.002360
0.632494 0.051319 0.002185
0.666326 0.051204 0.002003
0.700145 0.051087 0.001815
0.733950 0.050970 0.001621
0.767744 0.050852 0.001421
0.801526 0.050733 0.001215
0.835297 0.050614 0.001004
0.869057 0.050494 0.000788
0.902807 0.050373 0.000567
0.936547 0.050252 0.000341
0.970278 0.050130 0.000111
1.000000 0.050008 0.000000
1.000000 0.049968 0.000000
0.006126 0.087663 0.004134
0.017942 0.087626 0.004097
0.052821 0.087516 0.003987
0.087407 0.087407 0.003878
0.121839 0.087298 0.003770
0.156167 0.087190 0.003661
0.190416 0.087082 0.003553
0.224600 0.086974 0.003444
0.258735 0.086865 0.003328
0.292829 0.086756 0.003202
0.326887 0.086645 0.003068
0.360914 0.086534 0.002927
0.394913 0.086421 0.002777
0.428887 0.086308 0.002620
0.462838 0.086194 0.002455
0.496768 0.086079 0.002284
0.530678 0.085963 0.002105
0.564570 0.085847 0.001921
0.598446 0.085730 0.001729
0.632306 0.085612 0.001532
0.666151 0.085493 0.001329
0.699982 0.085374 0.001121
0.733800 0.085254 0.000907
0.767605 0.085134 0.000689
0.801399 0.085013 0.000465
0.835180 0.084891 0.000237
0.868951 0.084770 0.000005
0.902710 0.084647 0.000000
0.936459 0.084524 0.000000
0.970199 0.084401 0.000000
1.000000 0.084277 0.000000
1.000000 0.084236 0.000000
0.005761 0.121839 0.003769
0.017577 0.121802 0.003732
0.052456 0.121692 0.003622
0.087042 0.121583 0.003513
0.121477 0.121474 0.003401
0.155813 0.121364 0.003280
0.190074 0.121253 0.003150
0.224276 0.121142 0.003013
0.258430 0.121030 0.002867
0.292541 0.120917 0.002714
0.326616 0.120803 0.002553
0.360660 0.120688 0.002385
0.394674 0.120572 0.002210
0.428663 0.120456 0.002029
0.462629 0.120339 0.001841
0.496572 0.120221 0.001647
0.530496 0.120103 0.001447
0.564402 0.119984 0.001241
0.598290 0.119864 0.001030
0.632162 0.119744 0.000814
0.666019 0.119623 0.000592
0.699861 0.119502 0.000367
0.733689 0.119380 0.000136
0.767504 0.119257 0.000000
0.801306 0.119135 0.000000
0.835097 0.119011 0.000000
0.868875 0.118888 0.000000
0.902643 0.118764 0.000000
0.936399 0.118639 0.000000
0.970145 0.118515 0.000000
1.000000 0.118390 0.000000
1.000000 0.118348 0.000000
0.005399 0.155911 0.003401
0.017217 0.155873 0.003361
0.052106 0.155761 0.003235
0.086707 0.155649 0.003101
0.121161 0.155536 0.002959
0.155515 0.155423 0.002810
0.189794 0.155309 0.002653
0.224013 0.155194 0.002489
0.258182 0.155079 0.002317
0.292309 0.154962 0.002139
0.326399 0.154845 0.001955
0.360457 0.154728 0.001763
0.394485 0.154609 0.001566
0.428487 0.154490 0.001364
0.462466 0.154371 0.001155
0.496422 0.154251 0.000941
0.530358 0.154130 0.000723
0.564274 0.154009 0.000499
0.598173 0.153887 0.000271
0.632055 0.153765 0.000038
0.665921 0.153642 0.000000
0.699773 0.153519 0.000000
0.733609 0.153395 0.000000
0.767432 0.153271 0.000000
0.801242 0.153147 0.000000
0.835040 0.153022 0.000000
0.868825 0.152897 0.000000
0.902598 0.152772 0.000000
0.936360 0.152647 0.000000
0.970111 0.152521 0.000000
1.000000 0.152395 0.000000
1.000000 0.152354 0.000000
0.005084 0.189894 0.002962
0.016908 0.189855 0.002911
0.051815 0.189740 0.002756
0.086434 0.189624 0.002595
0.120904 0.189508 0.002427
0.155273 0.189392 0.002252
0.189568 0.189275 0.002070
0.223801 0.189157 0.001882
0.257985 0.189038 0.001688
0.292126 0.188919 0.001488
0.326229 0.188800 0.001282
0.360299 0.188680 0.001071
0.394340 0.188559 0.000855
0.428354 0.188438 0.000634
0.462343 0.188316 0.000408
0.496309 0.188194 0.000177
0.530255 0.188071 0.000000
0.564181 0.187948 0.000000
0.598089 0.187824 0.000000
0.631979 0.187700 0.000000
0.665853 0.187576 0.000000
0.699712 0.187451 0.000000
0.733555 0.187326 0.000000
0.767384 0.187201 0.000000
0.801200 0.187076 0.000000
0.835002 0.186950 0.000000
0.868792 0.186824 0.000000
0.902570 0.186698 0.000000
0.936335 0.186572 0.000000
0.970089 0.186446 0.000000
1.000000 0.186320 0.000000
1.000000 0.186278 0.000000
0.004827 0.223802 0.002431
0.016657 0.223762 0.002371
0.051580 0.223643 0.002191
0.086213 0.223525 0.002005
0.120698 0.223406 0.001814
0.155082 0.223286 0.001616
0.189390 0.223167 0.001413
0.223636 0.223046 0.001204
0.257832 0.222925 0.000990
0.291985 0.222804 0.000771
0.326100 0.222682 0.000547
0.360181 0.222560 0.000319
0.394232 0.222437 0.000086
0.428255 0.222314 0.000000
0.462253 0.222190 0.000000
0.496229 0.222066 0.000000
0.530182 0.221942 0.000000
0.564116 0.221817 0.000000
0.598031 0.221692 0.000000
0.631928 0.221567 0.000000
0.665808 0.221441 0.000000
0.699672 0.221316 0.000000
0.733520 0.221190 0.000000
0.767354 0.221064 0.000000
0.801173 0.220937 0.000000
0.834979 0.220811 0.000000
0.868772 0.220685 0.000000
0.902551 0.220558 0.000000
0.936319 0.220432 0.000000
0.970074 0.220305 0.000000
1.000000 0.220179 0.000000
1.000000 0.220137 0.000000
0.004622 0.257646 0.001819
0.016456 0.257605 0.001751
0.051393 0.257483 0.001549
0.086040 0.257362 0.001341
0.120538 0.257241 0.001129
0.154934 0.257119 0.000912
0.189253 0.256997 0.000690
0.223511 0.256874 0.000463
0.257718 0.256751 0.000232
0.291881 0.256628 0.000000
0.326005 0.256504 0.000000
0.360095 0.256380 0.000000
0.394154 0.256255 0.000000
0.428186 0.256130 0.000000
0.462191 0.256005 0.000000
0.496173 0.255880 0.000000
0.530133 0.255754 0.000000
0.564073 0.255628 0.000000
0.597993 0.255502 0.000000
0.631894 0.255376 0.000000
0.665779 0.255250 0.000000
0.699646 0.255123 0.000000
0.733498 0.254997 0.000000
0.767334 0.254870 0.000000
0.801156 0.254744 0.000000
0.834963 0.254617 0.000000
0.868757 0.254490 0.000000
0.902537 0.254364 0.000000
0.936304 0.254237 0.000000
0.970059 0.254111 0.000000
1.000000 0.253985 0.000000
1.000000 0.253943 0.000000
0.004461 0.291434 0.001136
0.016300 0.291393 0.001062
0.051249 0.291269 0.000839
0.085908 0.291145 0.000613
0.120417 0.291021 0.000383
0.154823 0.290897 0.000149
0.189153 0.290773 0.000000
0.223420 0.290649 0.000000
0.257635 0.290524 0.000000
0.291806 0.290399 0.000000
0.325938 0.290274 0.000000
0.360035 0.290148 0.000000
0.394101 0.290022 0.000000
0.428139 0.289896 0.000000
0.462150 0.289770 0.000000
0.496137 0.289644 0.000000
0.530102 0.289517 0.000000
0.564045 0.289391 0.000000
0.597969 0.289264 0.000000
0.631873 0.289137 0.000000
0.665760 0.289010 0.000000
0.699629 0.288883 0.000000
0.733482 0.288756 0.000000
0.767320 0.288630 0.000000
0.801142 0.288503 0.000000
0.834949 0.288376 0.000000
0.868742 0.288250 0.000000
0.902521 0.288124 0.000000
0.936286 0.287998 0.000000
0.970039 0.287872 0.000000
1.000000 0.287746 0.000000
1.000000 0.287704 0.000000
0.004340 0.325175 0.000391
0.016182 0.325132 0.000311
0.051142 0.325006 0.000072
0.085811 0.324880 0.000000
0.120329 0.324755 0.000000
0.154744 0.324629 0.000000
0.189081 0.324503 0.000000
0.223356 0.324377 0.000000
0.257579 0.324251 0.000000
0.291756 0.324125 0.000000
0.325894 0.323998 0.000000
0.359996 0.323872 0.000000
0.394067 0.323745 0.000000
0.428109 0.323618 0.000000
0.462124 0.323491 0.000000
0.496115 0.323364 0.000000
0.530082 0.323237 0.000000
0.564028 0.323110 0.000000
0.597953 0.322983 0.000000
0.631859 0.322856 0.000000
0.665746 0.322729 0.000000
0.699615 0.322602 0.000000
0.733468 0.322475 0.000000
0.767304 0.322349 0.000000
0.801125 0.322222 0.000000
0.834930 0.322096 0.000000
0.868720 0.321970 0.000000
0.902497 0.321844 0.000000
0.936260 0.321720 0.000000
0.970021 0.321598 0.000000
1.000000 0.321480 0.000000
1.000000 0.321442 0.000000
0.004252 0.358872 0.000000
0.016097 0.358829 0.000000
0.051066 0.358701 0.000000
0.085742 0.358574 0.000000
0.120267 0.358447 0.000000
0.154690 0.358320 0.000000
0.189033 0.358193 0.000000
0.223314 0.358066 0.000000
0.257541 0.357939 0.000000
0.291723 0.357811 0.000000
0.325865 0.357684 0.000000
0.359972 0.357557 0.000000
0.394046 0.357429 0.000000
0.428090 0.357302 0.000000
0.462107 0.357174 0.000000
0.496099 0.357047 0.000000
0.530067 0.356920 0.000000
0.564014 0.356793 0.000000
0.597939 0.356666 0.000000
0.631844 0.356539 0.000000
0.665730 0.356412 0.000000
0.699598 0.356285 0.000000
0.733448 0.356159 0.000000
0.767282 0.356033 0.000000
0.801099 0.355907 0.000000
0.834906 0.355783 0.000000
0.868709 0.355663 0.000000
0.902508 0.355547 0.000000
0.936304 0.355434 0.000000
0.970096 0.355325 0.000000
1.000000 0.355220 0.000000
1.000000 0.355186 0.000000
0.004190 0.392532 0.000000
0.016038 0.392488 0.000000
0.051013 0.392359 0.000000
0.085696 0.392230 0.000000
0.120227 0.392102 0.000000
0.154654 0.391974 0.000000
0.189002 0.391846 0.000000
0.223287 0.391718 0.000000
0.257518 0.391590 0.000000
0.291703 0.391463 0.000000
0.325847 0.391335 0.000000
0.359955 0.391207 0.000000
0.394031 0.391079 0.000000
0.428076 0.390952 0.000000
0.462093 0.390824 0.000000
0.496085 0.390697 0.000000
0.530052 0.390570 0.000000
0.563997 0.390443 0.000000
0.597920 0.390316 0.000000
0.631823 0.390190 0.000000
0.665706 0.390064 0.000000
0.699571 0.389938 0.000000
0.733427 0.389815 0.000000
0.767278 0.389697 0.000000
0.801123 0.389582 0.000000
0.834962 0.389470 0.000000
0.868797 0.389363 0.000000
0.902626 0.389258 0.000000
0.936450 0.389158 0.000000
0.970268 0.389060 0.000000
1.000000 0.388966 0.000000
1.000000 0.388936 0.000000
0.004149 0.426157 0.000000
0.015999 0.426113 0.000000
0.050979 0.425983 0.000000
0.085666 0.425854 0.000000
0.120201 0.425725 0.000000
0.154632 0.425596 0.000000
0.188983 0.425468 0.000000
0.223269 0.425339 0.000000
0.257502 0.425211 0.000000
0.291688 0.425083 0.000000
0.325833 0.424955 0.000000
0.359941 0.424827 0.000000
0.394016 0.424700 0.000000
0.428060 0.424572 0.000000
0.462076 0.424445 0.000000
0.496066 0.424318 0.000000
0.530031 0.424192 0.000000
0.563972 0.424065 0.000000
0.597895 0.423940 0.000000
0.631807 0.423819 0.000000
0.665712 0.423701 0.000000
0.699608 0.423588 0.000000
0.733496 0.423478 0.000000
0.767377 0.423371 0.000000
0.801251 0.423268 0.000000
0.835118 0.423169 0.000000
0.868978 0.423072 0.000000
0.902831 0.422980 0.000000
0.936677 0.422890 0.000000
0.970517 0.422803 0.000000
1.000000 0.422720 0.000000
1.000000 0.422693 0.000000
0.004124 0.459753 0.000000
0.015974 0.459708 0.000000
0.050958 0.459577 0.000000
0.085647 0.459448 0.000000
0.120184 0.459318 0.000000
0.154616 0.459189 0.000000
0.188968 0.459061 0.000000
0.223255 0.458932 0.000000
0.257488 0.458804 0.000000
0.291673 0.458676 0.000000
0.325817 0.458548 0.000000
0.359923 0.458421 0.000000
0.393996 0.458294 0.000000
0.428037 0.458167 0.000000
0.462050 0.458041 0.000000
0.496042 0.457916 0.000000
0.530021 0.457796 0.000000
0.563988 0.457680 0.000000
0.597944 0.457567 0.000000
0.631888 0.457458 0.000000
0.665822 0.457353 0.000000
0.699747 0.457251 0.000000
0.733662 0.457153 0.000000
0.767568 0.457058 0.000000
0.801466 0.456966 0.000000
0.835354 0.456878 0.000000
0.869234 0.456792 0.000000
0.903105 0.456710 0.000000
0.936968 0.456630 0.000000
0.970822 0.456554 0.000000
1.000000 0.456480 0.000000
1.000000 0.456456 0.000000
0.004107 0.493321 0.000000
0.015958 0.493276 0.000000
0.050943 0.493145 0.000000
0.085633 0.493015 0.000000
0.120170 0.492886 0.000000
0.154602 0.492757 0.000000
0.188953 0.492629 0.000000
0.223239 0.492500 0.000000
0.257469 0.492373 0.000000
0.291652 0.492245 0.000000
0.325793 0.492118 0.000000
0.359897 0.491992 0.000000
0.393977 0.491869 0.000000
0.428036 0.491750 0.000000
0.462078 0.491634 0.000000
0.496103 0.491523 0.000000
0.530114 0.491415 0.000000
0.564110 0.491311 0.000000
0.598093 0.491210 0.000000
0.632064 0.491113 0.000000
0.666022 0.491019 0.000000
0.699970 0.490928 0.000000
0.733906 0.490841 0.000000
0.767831 0.490756 0.000000
0.801746 0.490675 0.000000
0.835651 0.490597 0.000000
0.869545 0.490521 0.000000
0.903428 0.490448 0.000000
0.937302 0.490378 0.000000
0.971165 0.490311 0.000000
1.000000 0.490246 0.000000
1.000000 0.490225 0.000000
0.004093 0.526865 0.000000
0.015944 0.526821 0.000000
0.050928 0.526690 0.000000
0.085618 0.526560 0.000000
0.120153 0.526431 0.000000
0.154583 0.526303 0.000000
0.188931 0.526174 0.000000
0.223214 0.526047 0.000000
0.257444 0.525921 0.000000
0.291638 0.525799 0.000000
0.325801 0.525681 0.000000
0.359937 0.525567 0.000000
0.394049 0.525456 0.000000
0.428139 0.525349 0.000000
0.462210 0.525246 0.000000
0.496262 0.525146 0.000000
0.530298 0.525050 0.000000
0.564318 0.524957 0.000000
0.598323 0.524868 0.000000
0.632314 0.524781 0.000000
0.666292 0.524698 0.000000
0.700256 0.524617 0.000000
0.734207 0.524540 0.000000
0.768147 0.524465 0.000000
0.802073 0.524394 0.000000
0.835988 0.524324 0.000000
0.869891 0.524258 0.000000
0.903781 0.524194 0.000000
0.937660 0.524132 0.000000
0.971527 0.524073 0.000000
1.000000 0.524016 0.000000
1.000000 0.523998 0.000000
0.004076 0.560388 0.000000
0.015926 0.560344 0.000000
0.050908 0.560213 0.000000
0.085595 0.560084 0.000000
0.120127 0.559956 0.000000
0.154560 0.559830 0.000000
0.188923 0.559709 0.000000
0.223232 0.559592 0.000000
0.257495 0.559478 0.000000
0.291721 0.559369 0.000000
0.325914 0.559263 0.000000
0.360079 0.559161 0.000000
0.394217 0.559062 0.000000
0.428332 0.558967 0.000000
0.462426 0.558875 0.000000
0.496500 0.558786 0.000000
0.530556 0.558701 0.000000
0.564594 0.558618 0.000000
0.598615 0.558539 0.000000
0.632621 0.558462 0.000000
0.666611 0.558388 0.000000
0.700587 0.558318 0.000000
0.734548 0.558249 0.000000
0.768495 0.558184 0.000000
0.802428 0.558120 0.000000
0.836347 0.558060 0.000000
0.870253 0.558001 0.000000
0.904145 0.557945 0.000000
0.938023 0.557892 0.000000
0.971888 0.557840 0.000000
1.000000 0.557790 0.000000
1.000000 0.557774 0.000000
0.004050 0.593893 0.000000
0.015900 0.593849 0.000000
0.050889 0.593722 0.000000
0.085594 0.593601 0.000000
0.120156 0.593484 0.000000
0.154622 0.593371 0.000000
0.189017 0.593262 0.000000
0.223355 0.593157 0.000000
0.257646 0.593056 0.000000
0.291898 0.592958 0.000000
0.326116 0.592864 0.000000
0.360303 0.592773 0.000000
0.394462 0.592685 0.000000
0.428596 0.592600 0.000000
0.462708 0.592519 0.000000
0.496798 0.592440 0.000000
0.530867 0.592364 0.000000
0.564918 0.592292 0.000000
0.598950 0.592221 0.000000
0.632965 0.592154 0.000000
0.666962 0.592089 0.000000
0.700944 0.592027 0.000000
0.734909 0.591967 0.000000
0.768858 0.591910 0.000000
0.802791 0.591854 0.000000
0.836709 0.591801 0.000000
0.870612 0.591750 0.000000
0.904500 0.591701 0.000000
0.938372 0.591654 0.000000
0.972229 0.591609 0.000000
1.000000 0.591565 0.000000
1.000000 0.591550 0.000000
0.004076 0.627401 0.000000
0.015938 0.627361 0.000000
0.050960 0.627248 0.000000
0.085697 0.627139 0.000000
0.120288 0.627034 0.000000
0.154781 0.626933 0.000000
0.189202 0.626836 0.000000
0.223564 0.626742 0.000000
0.257878 0.626652 0.000000
0.292150 0.626565 0.000000
0.326386 0.626481 0.000000
0.360590 0.626401 0.000000
0.394765 0.626323 0.000000
0.428912 0.626248 0.000000
0.463036 0.626176 0.000000
0.497136 0.626107 0.000000
0.531214 0.626040 0.000000
0.565271 0.625976 0.000000
0.599308 0.625915 0.000000
0.633326 0.625856 0.000000
0.667325 0.625799 0.000000
0.701306 0.625744 0.000000
0.735270 0.625692 0.000000
0.769215 0.625642 0.000000
0.803144 0.625593 0.000000
0.837055 0.625547 0.000000
0.870952 0.625502 0.000000
0.904837 0.625458 0.000000
0.938710 0.625415 0.000000
0.972573 0.625371 0.000000
1.000000 0.625329 0.000000
1.000000 0.625314 0.000000
0.004207 0.660932 0.000000
0.016078 0.660896 0.000000
0.051128 0.660795 0.000000
0.085890 0.660698 0.000000
0.120504 0.660605 0.000000
0.155019 0.660515 0.000000
0.189460 0.660428 0.000000
0.223840 0.660345 0.000000
0.258170 0.660265 0.000000
0.292457 0.660188 0.000000
0.326706 0.660114 0.000000
0.360921 0.660043 0.000000
0.395105 0.659974 0.000000
0.429261 0.659909 0.000000
0.463390 0.659845 0.000000
0.497495 0.659784 0.000000
0.531575 0.659726 0.000000
0.565634 0.659670 0.000000
0.599670 0.659616 0.000000
0.633686 0.659565 0.000000
0.667681 0.659515 0.000000
0.701657 0.659467 0.000000
0.735613 0.659422 0.000000
0.769553 0.659377 0.000000
0.803481 0.659333 0.000000
0.837395 0.659290 0.000000
0.871297 0.659247 0.000000
0.905187 0.659204 0.000000
0.939064 0.659161 0.000000
0.972930 0.659119 0.000000
1.000000 0.659076 0.000000
1.000000 0.659062 0.000000
0.004422 0.694484 0.000000
0.016301 0.694453 0.000000
0.051372 0.694362 0.000000
0.086153 0.694276 0.000000
0.120785 0.694193 0.000000
0.155317 0.694114 0.000000
0.189771 0.694037 0.000000
0.224164 0.693964 0.000000
0.258505 0.693893 0.000000
0.292801 0.693826 0.000000
0.327057 0.693760 0.000000
0.361277 0.693698 0.000000
0.395465 0.693638 0.000000
0.429623 0.693580 0.000000
0.463753 0.693525 0.000000
0.497856 0.693471 0.000000
0.531934 0.693420 0.000000
0.565987 0.693371 0.000000
0.600018 0.693324 0.000000
0.634026 0.693279 0.000000
0.668018 0.693235 0.000000
0.701994 0.693191 0.000000
0.735955 0.693148 0.000000
0.769901 0.693105 0.000000
0.803833 0.693062 0.000000
0.837750 0.693019 0.000000
0.871654 0.692977 0.000000
0.905545 0.692934 0.000000
0.939422 0.692892 0.000000
0.973285 0.692849 0.000000
1.000000 0.692806 0.000000
1.000000 0.692791 0.000000
0.004702 0.728056 0.000000
0.016587 0.728028 0.000000
0.051673 0.727948 0.000000
0.086468 0.727872 0.000000
0.121113 0.727798 0.000000
0.155654 0.727728 0.000000
0.190117 0.727661 0.000000
0.224516 0.727596 0.000000
0.258862 0.727534 0.000000
0.293161 0.727475 0.000000
0.327419 0.727418 0.000000
0.361640 0.727363 0.000000
0.395826 0.727310 0.000000
0.429980 0.727260 0.000000
0.464105 0.727212 0.000000
0.498201 0.727165 0.000000
0.532272 0.727120 0.000000
0.566324 0.727076 0.000000
0.600356 0.727032 0.000000
0.634370 0.726989 0.000000
0.668367 0.726946 0.000000
0.702347 0.726903 0.000000
0.736310 0.726861 0.000000
0.770258 0.726818 0.000000
0.804190 0.726776 0.000000
0.838107 0.726733 0.000000
0.872009 0.726690 0.000000
0.905896 0.726646 0.000000
0.939768 0.726602 0.000000
0.973627 0.726558 0.000000
1.000000 0.726513 0.000000
1.000000 0.726497 0.000000
0.005028 0.761644 0.000000
0.016917 0.761620 0.000000
0.052013 0.761549 0.000000
0.086816 0.761482 0.000000
0.121467 0.761418 0.000000
0.156013 0.761356 0.000000
0.190478 0.761297 0.000000
0.224879 0.761241 0.000000
0.259224 0.761187 0.000000
0.293521 0.761135 0.000000
0.327774 0.761085 0.000000
0.361989 0.761037 0.000000
0.396168 0.760991 0.000000
0.430317 0.760946 0.000000
0.464441 0.760902 0.000000
0.498541 0.760858 0.000000
0.532618 0.760815 0.000000
0.566674 0.760772 0.000000
0.600710 0.760729 0.000000
0.634726 0.760687 0.000000
0.668724 0.760644 0.000000
0.702704 0.760601 0.000000
0.736666 0.760558 0.000000
0.770611 0.760515 0.000000
0.804540 0.760471 0.000000
0.838452 0.760427 0.000000
0.872348 0.760382 0.000000
0.906228 0.760337 0.000000
0.940092 0.760290 0.000000
0.973941 0.760243 0.000000
1.000000 0.760195 0.000000
1.000000 0.760178 0.000000
0.005382 0.795248 0.000000
0.017272 0.795227 0.000000
0.052373 0.795165 0.000000
0.087178 0.795106 0.000000
0.121829 0.795050 0.000000
0.156374 0.794996 0.000000
0.190836 0.794944 0.000000
0.225232 0.794895 0.000000
0.259571 0.794847 0.000000
0.293860 0.794802 0.000000
0.328110 0.794757 0.000000
0.362326 0.794713 0.000000
0.396510 0.794669 0.000000
0.430665 0.794626 0.000000
0.464792 0.794583 0.000000
0.498895 0.794541 0.000000
0.532974 0.794498 0.000000
0.567031 0.794455 0.000000
0.601066 0.794412 0.000000
0.635081 0.794369 0.000000
0.669076 0.794326 0.000000
0.703052 0.794282 0.000000
0.737009 0.794237 0.000000
0.770947 0.794192 0.000000
0.804868 0.794146 0.000000
0.838772 0.794099 0.000000
0.872658 0.794051 0.000000
0.906527 0.794003 0.000000
0.940380 0.793953 0.000000
0.974215 0.793901 0.000000
1.000000 0.793848 0.000000
1.000000 0.793831 0.000000
0.005744 0.828865 0.000000
0.017634 0.828846 0.000000
0.052733 0.828792 0.000000
0.087535 0.828741 0.000000
0.122180 0.828692 0.000000
0.156718 0.828645 0.000000
0.191174 0.828599 0.000000
0.225568 0.828554 0.000000
0.259909 0.828510 0.000000
0.294204 0.828467 0.000000
0.328459 0.828423 0.000000
0.362679 0.828380 0.000000
0.396865 0.828337 0.000000
0.431021 0.828295 0.000000
0.465149 0.828252 0.000000
0.499251 0.828209 0.000000
0.533328 0.828165 0.000000
0.567382 0.828122 0.000000
0.601412 0.828078 0.000000
0.635422 0.828033 0.000000
0.669410 0.827987 0.000000
0.703377 0.827941 0.000000
0.737325 0.827894 0.000000
0.771254 0.827845 0.000000
0.805164 0.827796 0.000000
0.839054 0.827745 0.000000
0.872927 0.827694 0.000000
0.906781 0.827640 0.000000
0.940618 0.827585 0.000000
0.974436 0.827529 0.000000
1.000000 0.827471 0.000000
1.000000 0.827451 0.000000
0.006095 0.862493 0.000000
0.017983 0.862476 0.000000
0.053075 0.862429 0.000000
0.087871 0.862383 0.000000
0.122516 0.862338 0.000000
0.157057 0.862294 0.000000
0.191520 0.862250 0.000000
0.225918 0.862207 0.000000
0.260262 0.862164 0.000000
0.294560 0.862121 0.000000
0.328816 0.862078 0.000000
0.363035 0.862035 0.000000
0.397220 0.861992 0.000000
0.431374 0.861948 0.000000
0.465498 0.861904 0.000000
0.499595 0.861860 0.000000
0.533666 0.861814 0.000000
0.567712 0.861769 0.000000
0.601735 0.861722 0.000000
0.635735 0.861674 0.000000
0.669712 0.861626 0.000000
0.703668 0.861576 0.000000
0.737603 0.861525 0.000000
0.771517 0.861472 0.000000
0.805412 0.861418 0.000000
0.839286 0.861363 0.000000
0.873141 0.861306 0.000000
0.906977 0.861247 0.000000
0.940793 0.861186 0.000000
0.974591 0.861123 0.000000
1.000000 0.861058 0.000000
1.000000 0.861036 0.000000
0.006431 0.896126 0.000000
0.018320 0.896111 0.000000
0.053416 0.896066 0.000000
0.088218 0.896022 0.000000
0.122867 0.895978 0.000000
0.157411 0.895935 0.000000
0.191875 0.895892 0.000000
0.226274 0.895849 0.000000
0.260618 0.895805 0.000000
0.294914 0.895762 0.000000
0.329167 0.895718 0.000000
0.363382 0.895674 0.000000
0.397562 0.895629 0.000000
0.431709 0.895583 0.000000
0.465826 0.895537 0.000000
0.499914 0.895490 0.000000
0.533976 0.895442 0.000000
0.568011 0.895393 0.000000
0.602021 0.895342 0.000000
