omv/luts/02_dusty_western.cube
# Original OMV LUT; redistribution permitted with OMV.
TITLE "Dusty Western"
LUT_3D_SIZE 8
DOMAIN_MIN 0.000000 0.000000 0.000000
DOMAIN_MAX 0.903226 0.903226 0.903226
0.039700 0.022870 0.000000
0.130623 0.025432 0.000000
0.259303 0.029057 0.000000
0.385950 0.032625 0.000000
0.511382 0.036155 0.000000
0.635866 0.039616 0.000176
0.759585 0.043010 0.003861
0.882675 0.046349 0.007611
0.048318 0.119849 0.000000
0.139241 0.122411 0.000000
0.267882 0.126017 0.000000
0.394385 0.129513 0.001826
0.519590 0.132930 0.005596
0.643860 0.136284 0.009418
0.767398 0.139587 0.013283
0.890339 0.142851 0.017183
0.060177 0.256932 0.004421
0.150897 0.259392 0.007186
0.279224 0.262841 0.011164
0.405462 0.266204 0.015141
0.530452 0.269513 0.019126
0.654553 0.272783 0.023117
0.777969 0.276026 0.027105
0.900833 0.279251 0.031081
0.070933 0.391390 0.017672
0.161516 0.393781 0.020574
0.289691 0.397154 0.024704
0.415826 0.400466 0.028785
0.540759 0.403747 0.032827
0.664848 0.407011 0.036829
0.788464 0.410337 0.040641
0.911934 0.413812 0.044091
0.081157 0.524354 0.031226
0.171716 0.526733 0.034153
0.299912 0.530115 0.038265
0.426414 0.533579 0.042025
0.552114 0.537176 0.045401
0.677312 0.540897 0.048440
0.802158 0.544733 0.051180
0.926734 0.548674 0.053656
0.092075 0.656720 0.044026
0.183307 0.659377 0.046368
0.312736 0.663267 0.049408
0.440443 0.667234 0.052114
0.567214 0.671283 0.054543
0.693353 0.675410 0.056738
0.818968 0.679582 0.058783
0.944067 0.683751 0.060785
0.106654 0.789920 0.053510
0.198619 0.792889 0.055200
0.328973 0.797181 0.057408
0.457379 0.801452 0.059481
0.584585 0.805693 0.061515
0.710892 0.809893 0.063558
0.836445 0.814040 0.065654
0.961321 0.818120 0.067846
0.123789 0.923666 0.060595
0.215989 0.926739 0.062072
0.346433 0.931070 0.064198
0.474721 0.935295 0.066371
0.601645 0.939422 0.068645
0.727508 0.943444 0.071066
0.852457 0.947350 0.073676
0.976571 0.951125 0.076515
0.040570 0.023740 0.072502
0.131493 0.026302 0.075063
0.260173 0.029927 0.078689
0.386820 0.033495 0.082257
0.512238 0.037018 0.085815
0.636696 0.040466 0.089448
0.760393 0.043850 0.093154
0.883465 0.047179 0.096923
0.049188 0.120719 0.081119
0.140111 0.123281 0.083681
0.268727 0.126874 0.087371
0.395205 0.130358 0.091108
0.520390 0.133764 0.094898
0.644642 0.137110 0.098737
0.768166 0.140407 0.102617
0.891097 0.143665 0.106527
0.060983 0.257770 0.093717
0.151689 0.260222 0.096496
0.279999 0.263663 0.100491
0.406225 0.267021 0.104480
0.531206 0.270325 0.108475
0.655301 0.273592 0.112471
0.778713 0.276833 0.116462
0.901578 0.280059 0.120438
0.071689 0.392203 0.107017
0.162267 0.394592 0.109925
0.290437 0.397962 0.114060
0.416570 0.401274 0.118142
0.541506 0.404555 0.122182
0.665606 0.407824 0.126174
0.789324 0.411192 0.129898
0.912889 0.414706 0.133266
0.081903 0.525162 0.120582
0.172463 0.527542 0.123507
0.300707 0.530943 0.127577
0.427312 0.534450 0.131249
0.553105 0.538085 0.134544
0.678386 0.541841 0.137509
0.803306 0.545709 0.140184
0.927947 0.549677 0.142601
0.093028 0.657613 0.133202
0.184324 0.660297 0.135488
0.313836 0.664222 0.138455
0.441616 0.668220 0.141096
0.568449 0.672296 0.143468
0.694641 0.676447 0.145615
0.820270 0.680624 0.147647
0.945371 0.684795 0.149647
0.107863 0.790922 0.142459
0.199870 0.793910 0.144110
0.330267 0.798220 0.146279
0.458683 0.802496 0.148343
0.585887 0.806736 0.150379
0.712180 0.810930 0.152435
0.837706 0.815067 0.154553
0.962544 0.819132 0.156777
0.125094 0.924710 0.149458
0.217288 0.927780 0.150939
0.347714 0.932104 0.153080
0.475971 0.936317 0.155279
0.602852 0.940427 0.157590
0.728660 0.944427 0.160057
0.853542 0.948306 0.162724
0.977578 0.952050 0.165630
0.041801 0.024971 0.198787
0.132725 0.027533 0.201349
0.261405 0.031158 0.204975
0.388051 0.034726 0.208543
0.513437 0.038233 0.212132
0.637861 0.041664 0.215800
0.761529 0.045033 0.219535
0.884576 0.048350 0.223329
0.050419 0.121951 0.207405
0.141333 0.124508 0.209976
0.269911 0.128082 0.213704
0.396356 0.131549 0.217473
0.521513 0.134942 0.221292
0.645742 0.138275 0.225154
0.769248 0.141563 0.229052
0.892165 0.144815 0.232975
0.062114 0.258951 0.220102
0.152802 0.261395 0.222900
0.281091 0.264825 0.226916
0.407300 0.268174 0.230922
0.532269 0.271472 0.234928
0.656357 0.274735 0.238932
0.779767 0.277975 0.242925
0.902634 0.281202 0.246899
0.072756 0.393352 0.233467
0.163327 0.395738 0.236381
0.291492 0.399105 0.240523
0.417624 0.402416 0.244605
0.542563 0.405699 0.248641
0.666721 0.408992 0.252583
0.790583 0.412419 0.256183
0.914279 0.415987 0.259437
0.082959 0.526305 0.247044
0.173524 0.528688 0.249964
0.301876 0.532134 0.253940
0.428623 0.535698 0.257488
0.554543 0.539386 0.260672
0.679939 0.543191 0.263537
0.804960 0.547102 0.266121
0.929689 0.551109 0.268459
0.094415 0.658893 0.259376
0.185800 0.661614 0.261584
0.315425 0.665587 0.264450
0.443303 0.669627 0.267003
0.570222 0.673742 0.269298
0.696472 0.677918 0.271392
0.822116 0.682101 0.273411
0.947215 0.686271 0.275413
0.109600 0.792351 0.268321
0.201665 0.795365 0.269919
0.332104 0.799694 0.272050
0.460530 0.803974 0.274106
0.587726 0.808210 0.276149
0.713993 0.812394 0.278226
0.839477 0.816514 0.280381
0.964256 0.820555 0.282655
0.126938 0.926187 0.275222
0.219121 0.929252 0.276713
0.349516 0.933564 0.278881
0.477724 0.937757 0.281122
0.604539 0.941840 0.283488
0.730264 0.945808 0.286026
0.855047 0.949647 0.288777
0.978967 0.953345 0.291781
0.043013 0.026183 0.323078
0.133936 0.028745 0.325639
0.262616 0.032370 0.329265
0.389256 0.035935 0.332839
0.514606 0.039423 0.336466
0.638997 0.042838 0.340165
0.762637 0.046193 0.343929
0.885662 0.049498 0.347746
0.051631 0.123162 0.331695
0.142523 0.125709 0.334288
0.271065 0.129265 0.338052
0.397479 0.132717 0.341852
0.522611 0.136096 0.345696
0.646819 0.139419 0.349579
0.770308 0.142699 0.353494
0.893213 0.145945 0.357430
0.063219 0.260109 0.344499
0.153890 0.262545 0.347314
0.282159 0.265965 0.351350
0.408353 0.269307 0.355371
0.533312 0.272600 0.359387
0.657395 0.275860 0.363396
0.780804 0.279100 0.367390
0.903675 0.282328 0.371360
0.073803 0.394481 0.357922
0.164368 0.396864 0.360842
0.292529 0.400230 0.364987
0.418662 0.403541 0.369068
0.543607 0.406827 0.373099
0.667870 0.410163 0.376950
0.791869 0.413646 0.380432
0.915688 0.417266 0.383578
0.083999 0.527431 0.371504
0.174578 0.529820 0.374412
0.303076 0.533326 0.378263
0.429958 0.536946 0.381694
0.556000 0.540684 0.384772
0.681503 0.544534 0.387541
0.806619 0.548486 0.390040
0.931431 0.552530 0.392302
0.095822 0.660171 0.383518
0.187291 0.662926 0.385653
0.317024 0.666946 0.388424
0.444994 0.671026 0.390893
0.571992 0.675175 0.393115
0.698280 0.679368 0.395174
0.823933 0.683556 0.397186
0.949025 0.687722 0.399195
0.111337 0.793770 0.392169
0.203455 0.796808 0.393719
0.333918 0.801146 0.395828
0.462346 0.805427 0.397882
0.589528 0.809658 0.399937
0.715764 0.813830 0.402040
0.841201 0.817931 0.404235
0.965916 0.821946 0.406564
0.128749 0.927638 0.399003
0.220917 0.930698 0.400507
0.351275 0.934994 0.402706
0.479429 0.939166 0.404993
0.606173 0.943221 0.407420
0.731811 0.947153 0.410032
0.856490 0.950951 0.412871
0.980290 0.954601 0.415977
0.044213 0.027383 0.446185
0.135137 0.029945 0.448747
0.263817 0.033570 0.452372
0.390437 0.037125 0.455966
0.515751 0.040596 0.459628
0.640113 0.043996 0.463358
0.763727 0.047338 0.467147
0.886730 0.050633 0.470985
0.052824 0.124359 0.454810
0.143689 0.126892 0.457429
0.272197 0.130431 0.461227
0.398582 0.133869 0.465057
0.523690 0.137236 0.468925
0.647878 0.140550 0.472827
0.771353 0.143822 0.476756
0.894248 0.147062 0.480702
0.064305 0.261252 0.467721
0.154961 0.263680 0.470551
0.283212 0.267091 0.474605
0.409393 0.270427 0.478639
0.534344 0.273715 0.482663
0.658422 0.276974 0.486676
0.781832 0.280214 0.490669
0.904708 0.283445 0.494635
0.074837 0.395598 0.481196
0.165398 0.397979 0.484121
0.293556 0.401343 0.488268
0.419692 0.404656 0.492346
0.544653 0.407949 0.496363
0.669056 0.411342 0.500092
0.793186 0.414879 0.503460
0.917124 0.418549 0.506503
0.085033 0.528548 0.494779
0.175669 0.530960 0.497637
0.304312 0.534525 0.501362
0.431323 0.538199 0.504681
0.557481 0.541986 0.507657
0.683087 0.545880 0.510334
0.808293 0.549871 0.512752
0.933182 0.553949 0.514944
0.097256 0.661453 0.506445
0.188804 0.664242 0.508509
0.318639 0.668305 0.511189
0.446698 0.672424 0.513578
0.573767 0.676606 0.515734
0.700077 0.680807 0.517775
0.825733 0.684995 0.519784
0.950810 0.689156 0.521804
0.113084 0.795188 0.514814
0.205239 0.798242 0.516330
0.335717 0.802586 0.518427
0.464143 0.806866 0.520482
0.591305 0.811089 0.522554
0.717505 0.815246 0.524688
0.842889 0.819326 0.526928
0.967535 0.823314 0.529316
0.130537 0.929074 0.521611
0.222686 0.932125 0.523131
0.353000 0.936405 0.525367
0.481095 0.940552 0.527704
0.607764 0.944577 0.530195
0.733309 0.948473 0.532886
0.857880 0.952227 0.535817
0.981556 0.955827 0.539029
0.045405 0.028575 0.568448
0.136329 0.031137 0.571010
0.265009 0.034762 0.574636
0.391598 0.038302 0.578261
0.516878 0.041756 0.581956
0.641211 0.045141 0.585715
0.764802 0.048471 0.589528
0.887785 0.051756 0.593385
0.053996 0.125541 0.577093
0.144836 0.128061 0.579738
0.273311 0.131584 0.583569
0.399669 0.135008 0.587425
0.524755 0.138364 0.591315
0.648926 0.141669 0.595235
0.772387 0.144935 0.599178
0.895273 0.148171 0.603133
0.065376 0.262384 0.590105
0.156017 0.264805 0.592949
0.284252 0.268207 0.597019
0.410422 0.271537 0.601065
0.535366 0.274823 0.605096
0.659442 0.278080 0.609111
0.782854 0.281321 0.613102
0.905739 0.284556 0.617059
0.075861 0.396706 0.603627
0.166419 0.399085 0.606555
0.294576 0.402450 0.610703
0.420716 0.405764 0.614777
0.545737 0.409082 0.618741
0.670280 0.412532 0.622351
0.794536 0.416122 0.625608
0.918588 0.419839 0.628551
0.086066 0.529661 0.617201
0.176801 0.532113 0.619974
0.305583 0.535735 0.623579
0.432719 0.539461 0.626789
0.558988 0.543294 0.629667
0.684692 0.547230 0.632258
0.809983 0.551259 0.634598
0.934943 0.555369 0.636723
0.098718 0.662742 0.628495
0.190343 0.665564 0.630491
0.320275 0.669669 0.633084
0.448416 0.673824 0.635398
0.575540 0.678030 0.637503
0.701864 0.682237 0.639532
0.827517 0.686424 0.641544
0.952576 0.690577 0.643580
0.114842 0.796606 0.636597
0.207018 0.799668 0.638094
0.337505 0.804017 0.640183
0.465922 0.808293 0.642246
0.593059 0.812506 0.644339
0.719217 0.816646 0.646509
0.844543 0.820703 0.648799
0.969115 0.824661 0.651249
0.132305 0.930496 0.643385
0.224430 0.933538 0.644925
0.354697 0.937798 0.647202
0.482727 0.941920 0.649594
0.609314 0.945913 0.652154
0.734762 0.949769 0.654927
0.859220 0.953479 0.657955
0.982767 0.957027 0.661276
0.046591 0.029761 0.690055
0.137514 0.032322 0.692617
0.266188 0.035945 0.696249
0.392740 0.039466 0.699911
0.517989 0.042904 0.703638
0.642295 0.046276 0.707423
0.765863 0.049595 0.711259
0.888828 0.052871 0.715134
0.055149 0.126711 0.698732
0.145965 0.129218 0.701402
0.274410 0.132726 0.705262
0.400743 0.136138 0.709144
0.525807 0.139483 0.713055
0.649962 0.142780 0.716991
0.773412 0.146040 0.720945
0.896291 0.149272 0.724908
0.066435 0.263506 0.711839
0.157063 0.265920 0.714696
0.285283 0.269316 0.718781
0.411443 0.272640 0.722836
0.536382 0.275923 0.726873
0.660457 0.279180 0.730889
0.783873 0.282423 0.734877
0.906804 0.285678 0.738793
0.076878 0.397808 0.725403
0.167433 0.400185 0.728333
0.295592 0.403550 0.732479
0.421738 0.406868 0.736549
0.546864 0.410229 0.740421
0.671541 0.413734 0.743914
0.795919 0.417374 0.747066
0.920080 0.421137 0.749912
0.087136 0.530784 0.738930
0.177974 0.533278 0.741615
0.306891 0.536956 0.745103
0.434146 0.540731 0.748208
0.560521 0.544610 0.750992
0.686318 0.548586 0.753499
0.811689 0.552650 0.755766
0.936706 0.556785 0.757840
0.100208 0.664039 0.749858
0.191906 0.666892 0.751789
0.321930 0.671037 0.754299
0.450149 0.675227 0.756541
0.577311 0.679450 0.758613
0.703642 0.683660 0.760635
0.829287 0.687844 0.762654
0.954321 0.691987 0.764711
0.116603 0.798021 0.757715
0.208792 0.801089 0.759201
0.339282 0.805439 0.761287
0.467686 0.809710 0.763362
0.594792 0.813910 0.765481
0.720903 0.818032 0.767691
0.846165 0.822063 0.770035
0.970657 0.825989 0.772553
0.134053 0.931907 0.764513
0.226151 0.934938 0.766076
0.356364 0.939177 0.768399
0.484324 0.943270 0.770850
0.610825 0.947228 0.773484
0.736171 0.951044 0.776344
0.860510 0.954706 0.779472
0.983953 0.958213 0.782883
0.047771 0.030941 0.811125
0.138695 0.033503 0.813687
0.267349 0.037115 0.817338
0.393867 0.040619 0.821035
0.519086 0.044042 0.824791
0.643366 0.047402 0.828602
0.766913 0.050710 0.832459
0.889862 0.053978 0.836351
0.056286 0.127869 0.819845
0.147079 0.130366 0.822538
0.275495 0.133859 0.826428
0.401804 0.137258 0.830333
0.526849 0.140595 0.834263
0.650990 0.143884 0.838214
0.774429 0.147139 0.842178
0.897302 0.150368 0.846146
0.067483 0.264620 0.833042
0.158098 0.267028 0.835911
0.286306 0.270417 0.840009
0.412457 0.273738 0.844073
0.537392 0.277019 0.848113
0.661468 0.280276 0.852128
0.784889 0.283521 0.856111
0.907912 0.286814 0.859947
0.077889 0.398904 0.846642
0.168444 0.401281 0.849573
0.296605 0.404647 0.853717
0.422767 0.407972 0.857771
0.548033 0.411390 0.861523
0.672839 0.414948 0.864904
0.797335 0.418637 0.867953
0.921600 0.422444 0.870707
0.088250 0.531922 0.860080
0.179187 0.534457 0.862679
0.308233 0.538188 0.866054
0.435603 0.542012 0.869058
0.562080 0.545934 0.871752
0.687965 0.549949 0.874179
0.813413 0.554047 0.876375
0.938468 0.558198 0.878416
0.101726 0.665346 0.870654
0.193493 0.668228 0.872523
0.323605 0.672412 0.874954
0.451895 0.676634 0.877130
0.579077 0.680865 0.879185
0.705412 0.685076 0.881205
0.831043 0.689254 0.883235
0.956047 0.693386 0.885318
0.118364 0.799434 0.878292
0.210561 0.802505 0.879770
0.341049 0.806854 0.881859
0.469433 0.811117 0.883950
0.596503 0.815302 0.886100
0.722561 0.819403 0.888355
0.847755 0.823407 0.890757
0.972163 0.827300 0.893346
0.135783 0.933307 0.885116
0.227849 0.936326 0.886706
0.358003 0.940541 0.889079
0.485888 0.944604 0.891595
0.612297 0.948525 0.894307
0.737535 0.952298 0.897258
0.861751 0.955911 0.900491
0.985133 0.959393 0.903953
