omv/luts/02_dusty_western.cube
# Original OMV LUT; redistribution permitted with OMV.
TITLE "Dusty Western"
LUT_3D_SIZE 32
DOMAIN_MIN 0.0 0.0 0.0
DOMAIN_MAX 1.0 1.0 1.0
0.039700 0.022870 0.000000
0.039700 0.022870 0.000000
0.064586 0.023571 0.000000
0.097860 0.024509 0.000000
0.130623 0.025432 0.000000
0.163079 0.026346 0.000000
0.195315 0.027254 0.000000
0.227380 0.028158 0.000000
0.259303 0.029057 0.000000
0.291108 0.029953 0.000000
0.322810 0.030846 0.000000
0.354421 0.031737 0.000000
0.385950 0.032625 0.000000
0.417406 0.033512 0.000000
0.448794 0.034396 0.000000
0.480120 0.035278 0.000000
0.511382 0.036155 0.000000
0.542584 0.037027 0.000000
0.573730 0.037894 0.000000
0.604823 0.038757 0.000000
0.635866 0.039616 0.000176
0.666861 0.040470 0.001091
0.697811 0.041321 0.002010
0.728718 0.042167 0.002933
0.759585 0.043010 0.003861
0.790412 0.043850 0.004793
0.821202 0.044686 0.005729
0.851956 0.045519 0.006668
0.882675 0.046349 0.007611
0.913362 0.047176 0.008558
0.935442 0.047769 0.009242
0.935442 0.047769 0.009242
0.039700 0.022870 0.000000
0.039700 0.022870 0.000000
0.064586 0.023571 0.000000
0.097860 0.024509 0.000000
0.130623 0.025432 0.000000
0.163079 0.026346 0.000000
0.195315 0.027254 0.000000
0.227380 0.028158 0.000000
0.259303 0.029057 0.000000
0.291108 0.029953 0.000000
0.322810 0.030846 0.000000
0.354421 0.031737 0.000000
0.385950 0.032625 0.000000
0.417406 0.033512 0.000000
0.448794 0.034396 0.000000
0.480120 0.035278 0.000000
0.511382 0.036155 0.000000
0.542584 0.037027 0.000000
0.573730 0.037894 0.000000
0.604823 0.038757 0.000000
0.635866 0.039616 0.000176
0.666861 0.040470 0.001091
0.697811 0.041321 0.002010
0.728718 0.042167 0.002933
0.759585 0.043010 0.003861
0.790412 0.043850 0.004793
0.821202 0.044686 0.005729
0.851956 0.045519 0.006668
0.882675 0.046349 0.007611
0.913362 0.047176 0.008558
0.935442 0.047769 0.009242
0.935442 0.047769 0.009242
0.042059 0.049413 0.000000
0.042059 0.049413 0.000000
0.066944 0.050114 0.000000
0.100219 0.051052 0.000000
0.132982 0.051975 0.000000
0.165438 0.052889 0.000000
0.197674 0.053798 0.000000
0.229738 0.054701 0.000000
0.261662 0.055600 0.000000
0.293467 0.056496 0.000000
0.325169 0.057390 0.000000
0.356779 0.058280 0.000000
0.388308 0.059168 0.000000
0.419759 0.060052 0.000000
0.451135 0.060930 0.000000
0.482442 0.061803 0.000000
0.513686 0.062671 0.000000
0.544871 0.063534 0.000000
0.576000 0.064393 0.000810
0.607076 0.065248 0.001731
0.638103 0.066099 0.002656
0.669083 0.066946 0.003586
0.700019 0.067789 0.004519
0.730912 0.068628 0.005457
0.761765 0.069464 0.006398
0.792579 0.070297 0.007343
0.823357 0.071127 0.008291
0.854099 0.071954 0.009242
0.884807 0.072779 0.010197
0.915483 0.073600 0.011154
0.937556 0.074190 0.011845
0.937556 0.074190 0.011845
0.045212 0.084904 0.000000
0.045212 0.084904 0.000000
0.070098 0.085605 0.000000
0.103373 0.086543 0.000000
0.136136 0.087466 0.000000
0.168592 0.088380 0.000000
0.200828 0.089289 0.000000
0.232892 0.090192 0.000000
0.264816 0.091091 0.000000
0.296618 0.091986 0.000000
0.328310 0.092875 0.000000
0.359905 0.093757 0.000000
0.391411 0.094634 0.000000
0.422837 0.095505 0.000000
0.454190 0.096371 0.000426
0.485475 0.097233 0.001350
0.516697 0.098090 0.002279
0.547860 0.098943 0.003212
0.578969 0.099792 0.004148
0.610026 0.100637 0.005089
0.641034 0.101478 0.006033
0.671996 0.102316 0.006980
0.702915 0.103151 0.007931
0.733791 0.103982 0.008885
0.764628 0.104810 0.009842
0.795428 0.105636 0.010802
0.826191 0.106459 0.011765
0.856919 0.107279 0.012729
0.887615 0.108096 0.013697
0.918278 0.108912 0.014666
0.940343 0.109498 0.015366
0.940343 0.109498 0.015366
0.048318 0.119849 0.000000
0.048318 0.119849 0.000000
0.073203 0.120551 0.000000
0.106478 0.121488 0.000000
0.139241 0.122411 0.000000
0.171697 0.123325 0.000000
0.203927 0.124231 0.000000
0.235979 0.125128 0.000000
0.267882 0.126017 0.000000
0.299661 0.126900 0.000000
0.331329 0.127777 0.000000
0.362900 0.128647 0.000892
0.394385 0.129513 0.001826
0.425789 0.130374 0.002763
0.457122 0.131230 0.003704
0.488387 0.132082 0.004648
0.519590 0.132930 0.005596
0.550736 0.133773 0.006547
0.581827 0.134613 0.007501
0.612867 0.135450 0.008458
0.643860 0.136284 0.009418
0.674807 0.137114 0.010381
0.705710 0.137941 0.011346
0.736573 0.138766 0.012313
0.767398 0.139587 0.013283
0.798185 0.140407 0.014255
0.828936 0.141224 0.015229
0.859654 0.142039 0.016205
0.890339 0.142851 0.017183
0.920994 0.143662 0.018162
0.943052 0.144245 0.018867
0.943052 0.144245 0.018867
0.051394 0.154467 0.000000
0.051394 0.154467 0.000000
0.076278 0.155168 0.000000
0.109545 0.156101 0.000000
0.142292 0.157016 0.000000
0.174725 0.157919 0.000000
0.206931 0.158812 0.000000
0.238959 0.159697 0.000366
0.270840 0.160576 0.001308
0.302596 0.161448 0.002253
0.334244 0.162314 0.003200
0.365795 0.163175 0.004150
0.397260 0.164031 0.005103
0.428647 0.164882 0.006058
0.459961 0.165730 0.007017
0.491210 0.166573 0.007978
0.522397 0.167412 0.008942
0.553527 0.168249 0.009908
0.584603 0.169081 0.010877
0.615630 0.169911 0.011848
0.646609 0.170738 0.012821
0.677543 0.171562 0.013796
0.708435 0.172383 0.014773
0.739287 0.173202 0.015752
0.770101 0.174019 0.016732
0.800878 0.174833 0.017714
0.831621 0.175646 0.018697
0.862331 0.176457 0.019681
0.893009 0.177266 0.020666
0.923656 0.178073 0.021651
0.945710 0.178654 0.022362
0.945710 0.178654 0.022362
0.054412 0.188832 0.000000
0.054412 0.188832 0.000000
0.079278 0.189523 0.000000
0.112519 0.190444 0.000000
0.145243 0.191347 0.000710
0.177653 0.192239 0.001670
0.209838 0.193121 0.002630
0.241846 0.193996 0.003590
0.273707 0.194865 0.004552
0.305445 0.195727 0.005515
0.337074 0.196584 0.006480
0.368608 0.197436 0.007448
0.400056 0.198284 0.008417
0.431427 0.199128 0.009389
0.462726 0.199967 0.010362
0.493960 0.200804 0.011338
0.525134 0.201636 0.012315
0.556251 0.202466 0.013294
0.587315 0.203293 0.014275
0.618330 0.204117 0.015258
0.649299 0.204938 0.016242
0.680223 0.205757 0.017227
0.711106 0.206574 0.018213
0.741950 0.207389 0.019200
0.772756 0.208201 0.020188
0.803526 0.209012 0.021177
0.834262 0.209822 0.022166
0.864966 0.210630 0.023156
0.895639 0.211436 0.024146
0.926282 0.212241 0.025136
0.948333 0.212821 0.025849
0.948333 0.212821 0.025849
0.057336 0.222974 0.001211
0.057336 0.222974 0.001211
0.082184 0.223657 0.001949
0.115404 0.224567 0.002941
0.148107 0.225460 0.003924
0.180498 0.226341 0.004904
0.212664 0.227215 0.005882
0.244653 0.228081 0.006860
0.276498 0.228940 0.007839
0.308219 0.229795 0.008819
0.339833 0.230644 0.009800
0.371352 0.231489 0.010782
0.402786 0.232329 0.011765
0.434143 0.233166 0.012750
0.465430 0.234000 0.013736
0.496653 0.234830 0.014724
0.527815 0.235657 0.015712
0.558922 0.236482 0.016702
0.589977 0.237304 0.017692
0.620983 0.238123 0.018683
0.651943 0.238941 0.019675
0.682860 0.239756 0.020668
0.713736 0.240569 0.021661
0.744574 0.241381 0.022654
0.775374 0.242191 0.023648
0.806140 0.243000 0.024641
0.836873 0.243807 0.025634
0.867573 0.244614 0.026627
0.898243 0.245419 0.027620
0.928885 0.246223 0.028611
0.950935 0.246802 0.029325
0.950935 0.246802 0.029325
0.060177 0.256932 0.004421
0.060177 0.256932 0.004421
0.085011 0.257607 0.005173
0.118212 0.258508 0.006185
0.150897 0.259392 0.007186
0.183271 0.260265 0.008183
0.215420 0.261130 0.009177
0.247394 0.261988 0.010171
0.279224 0.262841 0.011164
0.310931 0.263688 0.012158
0.342532 0.264531 0.013152
0.374039 0.265370 0.014146
0.405462 0.266204 0.015141
0.436808 0.267036 0.016137
0.468085 0.267865 0.017133
0.499298 0.268690 0.018129
0.530452 0.269513 0.019126
0.561551 0.270334 0.020124
0.592599 0.271152 0.021121
0.623599 0.271968 0.022119
0.654553 0.272783 0.023117
0.685465 0.273596 0.024114
0.716337 0.274407 0.025112
0.747171 0.275217 0.026109
0.777969 0.276026 0.027105
0.808732 0.276833 0.028100
0.839463 0.277640 0.029095
0.870163 0.278446 0.030089
0.900833 0.279251 0.031081
0.931475 0.280056 0.032072
0.953526 0.280635 0.032785
0.953526 0.280635 0.032785
0.062948 0.290733 0.007679
0.062948 0.290733 0.007679
0.087769 0.291402 0.008445
0.120953 0.292294 0.009473
0.153623 0.293170 0.010489
0.185982 0.294036 0.011500
0.218118 0.294895 0.012509
0.250079 0.295746 0.013515
0.281897 0.296593 0.014521
0.313593 0.297435 0.015525
0.345183 0.298272 0.016530
0.376680 0.299106 0.017534
0.408094 0.299936 0.018538
0.439432 0.300764 0.019542
0.470702 0.301589 0.020545
0.501908 0.302411 0.021549
0.533056 0.303231 0.022552
0.564149 0.304049 0.023555
0.595192 0.304865 0.024557
0.626188 0.305679 0.025559
0.657139 0.306492 0.026560
0.688049 0.307303 0.027560
0.718919 0.308114 0.028559
0.749751 0.308923 0.029557
0.780549 0.309732 0.030554
0.811312 0.310539 0.031549
0.842044 0.311346 0.032543
0.872746 0.312153 0.033535
0.903418 0.312959 0.034525
0.934063 0.313766 0.035513
0.956117 0.314346 0.036224
0.956117 0.314346 0.036224
0.065657 0.324399 0.010979
0.065657 0.324399 0.010979
0.090468 0.325062 0.011755
0.123638 0.325948 0.012797
0.156295 0.326817 0.013826
0.188642 0.327677 0.014850
0.220767 0.328530 0.015869
0.252718 0.329377 0.016886
0.284526 0.330218 0.017901
0.316213 0.331056 0.018914
0.347795 0.331889 0.019927
0.379285 0.332719 0.020938
0.410692 0.333547 0.021949
0.442025 0.334371 0.022959
0.473289 0.335193 0.023967
0.504491 0.336013 0.024975
0.535635 0.336831 0.025982
0.566726 0.337648 0.026988
0.597766 0.338463 0.027992
0.628761 0.339276 0.028995
0.659711 0.340089 0.029997
0.690620 0.340900 0.030997
0.721491 0.341711 0.031996
0.752325 0.342521 0.032993
0.783124 0.343330 0.033988
0.813890 0.344139 0.034980
0.844626 0.344948 0.035971
0.875331 0.345757 0.036959
0.906016 0.346568 0.037938
0.936699 0.347390 0.038893
0.958795 0.347988 0.039566
0.958795 0.347988 0.039566
0.068316 0.357946 0.014312
0.068316 0.357946 0.014312
0.093117 0.358605 0.015097
0.126277 0.359485 0.016151
0.158923 0.360350 0.017190
0.191261 0.361205 0.018223
0.223377 0.362053 0.019251
0.255320 0.362896 0.020276
0.287121 0.363734 0.021298
0.318802 0.364568 0.022318
0.350379 0.365399 0.023336
0.381864 0.366227 0.024352
0.413267 0.367052 0.025367
0.444596 0.367875 0.026380
0.475857 0.368695 0.027391
0.507057 0.369514 0.028401
0.538200 0.370332 0.029409
0.569290 0.371148 0.030415
0.600331 0.371963 0.031420
0.631326 0.372777 0.032422
0.662278 0.373590 0.033422
0.693189 0.374403 0.034420
0.724063 0.375215 0.035416
0.754900 0.376027 0.036409
0.785705 0.376838 0.037399
0.816495 0.377658 0.038371
0.847279 0.378487 0.039319
0.878058 0.379325 0.040243
0.908833 0.380173 0.041145
0.939603 0.381031 0.042025
0.961761 0.381654 0.042645
0.961761 0.381654 0.042645
0.070933 0.391390 0.017672
0.070933 0.391390 0.017672
0.095727 0.392045 0.018464
0.128878 0.392921 0.019526
0.161516 0.393781 0.020574
0.193847 0.394633 0.021613
0.225957 0.395478 0.022648
0.257895 0.396319 0.023678
0.289691 0.397154 0.024704
0.321368 0.397986 0.025728
0.352942 0.398816 0.026749
0.384424 0.399642 0.027768
0.415826 0.400466 0.028785
0.447154 0.401289 0.029799
0.478415 0.402109 0.030810
0.509615 0.402929 0.031820
0.540759 0.403747 0.032827
0.571851 0.404564 0.033831
0.602894 0.405380 0.034833
0.633893 0.406196 0.035832
0.664848 0.407011 0.036829
0.695771 0.407828 0.037817
0.726679 0.408655 0.038782
0.757577 0.409491 0.039723
0.788464 0.410337 0.040641
0.819343 0.411192 0.041537
0.850214 0.412057 0.042410
0.881078 0.412930 0.043261
0.911934 0.413812 0.044091
0.942785 0.414703 0.044901
0.965000 0.415350 0.045472
0.965000 0.415350 0.045472
0.073517 0.424742 0.021051
0.073517 0.424742 0.021051
0.098306 0.425395 0.021848
0.131450 0.426267 0.022916
0.164084 0.427125 0.023969
0.196410 0.427975 0.025013
0.228516 0.428818 0.026051
0.260451 0.429657 0.027084
0.292245 0.430492 0.028113
0.323921 0.431323 0.029138
0.355493 0.432152 0.030160
0.386976 0.432978 0.031179
0.418378 0.433803 0.032195
0.449707 0.434626 0.033207
0.480971 0.435448 0.034217
0.512174 0.436268 0.035224
0.543321 0.437088 0.036227
0.574417 0.437907 0.037227
0.605481 0.438732 0.038212
0.636524 0.439566 0.039171
0.667551 0.440410 0.040107
0.698561 0.441263 0.041019
0.729558 0.442126 0.041908
0.760541 0.442998 0.042775
0.791512 0.443878 0.043621
0.822473 0.444767 0.044445
0.853424 0.445664 0.045249
0.884365 0.446570 0.046032
0.915298 0.447484 0.046796
0.946223 0.448405 0.047541
0.968490 0.449074 0.048066
0.968490 0.449074 0.048066
0.076077 0.458014 0.024441
0.076077 0.458014 0.024441
0.100863 0.458665 0.025242
0.134003 0.459536 0.026313
0.166634 0.460392 0.027369
0.198958 0.461241 0.028415
0.231063 0.462084 0.029454
0.262997 0.462922 0.030488
0.294791 0.463757 0.031517
0.326468 0.464589 0.032541
0.358043 0.465418 0.033561
0.389527 0.466246 0.034578
0.420932 0.467072 0.035590
0.452266 0.467897 0.036599
0.483536 0.468722 0.037602
0.514769 0.469555 0.038583
0.545972 0.470398 0.039538
0.577148 0.471249 0.040469
0.608301 0.472111 0.041376
0.639432 0.472981 0.042261
0.670543 0.473859 0.043123
0.701637 0.474747 0.043963
0.732715 0.475643 0.044781
0.763777 0.476547 0.045580
0.794826 0.477460 0.046358
0.825862 0.478380 0.047116
0.856886 0.479308 0.047855
0.887899 0.480243 0.048576
0.918901 0.481186 0.049279
0.949894 0.482136 0.049965
0.972208 0.482825 0.050448
0.972208 0.482825 0.050448
0.078621 0.491215 0.027835
0.078621 0.491215 0.027835
0.103405 0.491865 0.028637
0.136545 0.492735 0.029710
0.169175 0.493592 0.030766
0.201500 0.494441 0.031812
0.233606 0.495284 0.032850
0.265542 0.496123 0.033882
0.297339 0.496959 0.034908
0.329019 0.497793 0.035929
0.360597 0.498624 0.036945
0.392095 0.499458 0.037949
0.423540 0.500300 0.038928
0.454938 0.501152 0.039881
0.486295 0.502012 0.040808
0.517617 0.502882 0.041712
0.548907 0.503760 0.042593
0.580168 0.504647 0.043450
0.611403 0.505542 0.044286
0.642615 0.506445 0.045100
0.673805 0.507356 0.045894
0.704975 0.508276 0.046667
0.736127 0.509203 0.047421
0.767262 0.510137 0.048155
0.798382 0.511079 0.048871
0.829487 0.512028 0.049569
0.860578 0.512985 0.050249
0.891655 0.513948 0.050913
0.922721 0.514917 0.051559
0.953774 0.515894 0.052190
0.976131 0.516601 0.052635
0.976131 0.516601 0.052635
0.081157 0.524354 0.031226
0.081157 0.524354 0.031226
0.105943 0.525005 0.032028
0.139084 0.525875 0.033099
0.171716 0.526733 0.034153
0.204043 0.527583 0.035196
0.236153 0.528428 0.036230
0.268093 0.529270 0.037257
0.299912 0.530115 0.038265
0.331640 0.530968 0.039244
0.363292 0.531830 0.040196
0.394881 0.532700 0.041123
0.426414 0.533579 0.042025
0.457898 0.534466 0.042903
0.489340 0.535361 0.043758
0.520744 0.536264 0.044590
0.552114 0.537176 0.045401
0.583453 0.538095 0.046191
0.614764 0.539021 0.046960
0.646050 0.539955 0.047709
0.677312 0.540897 0.048440
0.708552 0.541846 0.049151
0.739773 0.542801 0.049845
0.770974 0.543764 0.050521
0.802158 0.544733 0.051180
0.833325 0.545709 0.051822
0.864476 0.546691 0.052449
0.895612 0.547679 0.053060
0.926734 0.548674 0.053656
0.957842 0.549673 0.054237
0.980237 0.550397 0.054648
0.980237 0.550397 0.054648
0.083695 0.557439 0.034606
0.083695 0.557439 0.034606
0.108482 0.558091 0.035405
0.141627 0.558964 0.036473
0.174266 0.559825 0.037520
0.206622 0.560687 0.038538
0.238789 0.561555 0.039523
0.270811 0.562430 0.040480
0.302721 0.563312 0.041409
0.334537 0.564202 0.042311
0.366276 0.565099 0.043189
0.397948 0.566004 0.044043
0.429563 0.566917 0.044874
0.461128 0.567837 0.045682
0.492647 0.568764 0.046469
0.524127 0.569699 0.047236
0.555570 0.570640 0.047982
0.586981 0.571589 0.048709
0.618362 0.572545 0.049417
0.649715 0.573508 0.050107
0.681042 0.574477 0.050779
0.712346 0.575453 0.051434
0.743628 0.576435 0.052073
0.774889 0.577423 0.052695
0.806131 0.578418 0.053302
0.837354 0.579418 0.053895
0.868559 0.580423 0.054472
0.899747 0.581434 0.055036
0.930919 0.582451 0.055587
0.962075 0.583472 0.056124
0.984504 0.584210 0.056503
0.984504 0.584210 0.056503
0.086250 0.590482 0.037960
0.086250 0.590482 0.037960
0.111067 0.591146 0.038734
0.144276 0.592045 0.039746
0.177003 0.592942 0.040717
0.209451 0.593842 0.041656
0.241706 0.594746 0.042564
0.273816 0.595657 0.043446
0.305809 0.596574 0.044302
0.337708 0.597497 0.045133
0.369526 0.598427 0.045942
0.401276 0.599364 0.046728
0.432966 0.600308 0.047493
0.464604 0.601259 0.048237
0.496194 0.602216 0.048962
0.527743 0.603180 0.049667
0.559254 0.604150 0.050354
0.590729 0.605127 0.051023
0.622173 0.606109 0.051675
0.653587 0.607098 0.052310
0.684974 0.608093 0.052930
0.716335 0.609093 0.053533
0.747672 0.610099 0.054122
0.778987 0.611111 0.054697
0.810279 0.612128 0.055257
0.841552 0.613150 0.055804
0.872804 0.614176 0.056338
0.904038 0.615208 0.056860
0.935251 0.616243 0.057372
0.966440 0.617278 0.057880
0.988886 0.618025 0.058244
0.988886 0.618025 0.058244
0.089022 0.623566 0.041118
0.089022 0.623566 0.041118
0.113909 0.624259 0.041832
0.147209 0.625195 0.042765
0.180024 0.626128 0.043660
0.212557 0.627062 0.044525
0.244895 0.628001 0.045362
0.277084 0.628945 0.046174
0.309155 0.629894 0.046962
0.341129 0.630849 0.047728
0.373020 0.631810 0.048472
0.404841 0.632776 0.049196
0.436600 0.633749 0.049900
0.468304 0.634728 0.050585
0.499960 0.635713 0.051253
0.531571 0.636703 0.051902
0.563142 0.637699 0.052535
0.594676 0.638701 0.053152
0.626177 0.639708 0.053753
0.657646 0.640721 0.054339
0.689085 0.641739 0.054910
0.720497 0.642762 0.055468
0.751883 0.643789 0.056012
0.783244 0.644822 0.056543
0.814582 0.645859 0.057062
0.845892 0.646897 0.057574
0.877173 0.647937 0.058083
0.908426 0.648976 0.058587
0.939651 0.650016 0.059089
0.970849 0.651056 0.059589
0.993301 0.651804 0.059948
0.993301 0.651804 0.059948
0.092075 0.656720 0.044026
0.092075 0.656720 0.044026
0.117026 0.657439 0.044684
0.150411 0.658410 0.045543
0.183307 0.659377 0.046368
0.215918 0.660344 0.047164
0.248332 0.661314 0.047935
0.280594 0.662288 0.048683
0.312736 0.663267 0.049408
0.344778 0.664251 0.050113
0.376736 0.665240 0.050799
0.408622 0.666234 0.051465
0.440443 0.667234 0.052114
0.472207 0.668238 0.052745
0.503921 0.669248 0.053360
0.535588 0.670263 0.053959
0.567214 0.671283 0.054543
0.598800 0.672308 0.055113
0.630351 0.673337 0.055668
0.661868 0.674371 0.056210
0.693353 0.675410 0.056738
0.724808 0.676452 0.057256
0.756229 0.677495 0.057769
0.787615 0.678538 0.058277
0.818968 0.679582 0.058783
0.850289 0.680625 0.059285
0.881579 0.681668 0.059786
0.912838 0.682710 0.060286
0.944067 0.683751 0.060785
0.975266 0.684791 0.061284
0.997717 0.685539 0.061643
0.997717 0.685539 0.061643
0.095387 0.689938 0.046701
0.095387 0.689938 0.046701
0.120397 0.690682 0.047307
0.153859 0.691685 0.048099
0.186830 0.692683 0.048858
0.219513 0.693680 0.049591
0.251995 0.694680 0.050301
0.284324 0.695682 0.050990
0.316530 0.696689 0.051658
0.348635 0.697699 0.052307
0.380653 0.698714 0.052939
0.412596 0.699733 0.053554
0.444473 0.700757 0.054152
0.476291 0.701785 0.054735
0.508057 0.702818 0.055303
0.539774 0.703854 0.055856
0.571447 0.704896 0.056396
0.603079 0.705941 0.056923
0.634670 0.706988 0.057441
0.666218 0.708036 0.057955
0.697725 0.709084 0.058464
0.729194 0.710132 0.058971
0.760624 0.711179 0.059474
0.792018 0.712225 0.059977
0.823376 0.713271 0.060478
0.854700 0.714315 0.060978
0.885990 0.715358 0.061479
0.917247 0.716399 0.061981
0.948470 0.717438 0.062484
0.979662 0.718475 0.062989
1.000000 0.719220 0.063355
1.000000 0.719220 0.063355
0.098935 0.723215 0.049162
0.098935 0.723215 0.049162
0.123999 0.723982 0.049720
0.157532 0.725015 0.050449
0.190570 0.726041 0.051148
0.223318 0.727066 0.051824
0.255863 0.728093 0.052478
0.288252 0.729121 0.053113
0.320516 0.730152 0.053729
0.352676 0.731187 0.054328
0.384748 0.732225 0.054911
0.416742 0.733267 0.055479
0.448669 0.734313 0.056032
0.480534 0.735362 0.056571
0.512345 0.736415 0.057098
0.544099 0.737468 0.057617
0.575800 0.738522 0.058132
0.607451 0.739575 0.058642
0.639053 0.740627 0.059150
0.670611 0.741679 0.059656
0.702125 0.742729 0.060159
0.733597 0.743779 0.060662
0.765029 0.744826 0.061165
0.796422 0.745872 0.061668
0.827777 0.746916 0.062172
0.859095 0.747958 0.062677
0.890377 0.748998 0.063185
0.921622 0.750034 0.063696
0.952833 0.751068 0.064211
0.984008 0.752099 0.064730
1.000000 0.752839 0.065106
1.000000 0.752839 0.065106
0.102697 0.756544 0.051426
0.102697 0.756544 0.051426
0.127811 0.757332 0.051940
0.161408 0.758393 0.052612
0.194507 0.759445 0.053257
0.227313 0.760496 0.053880
0.259913 0.761546 0.054483
0.292356 0.762598 0.055069
0.324672 0.763652 0.055639
0.356881 0.764709 0.056193
0.389000 0.765768 0.056733
0.421038 0.766829 0.057260
0.452999 0.767890 0.057781
0.484889 0.768951 0.058298
0.516715 0.770010 0.058811
0.548481 0.771068 0.059321
0.580190 0.772125 0.059828
0.611847 0.773180 0.060334
0.643453 0.774234 0.060839
0.675011 0.775286 0.061344
0.706523 0.776335 0.061849
0.737991 0.777383 0.062356
0.769416 0.778428 0.062864
0.800800 0.779470 0.063375
0.832143 0.780509 0.063889
0.863446 0.781546 0.064407
0.894711 0.782578 0.064929
0.925937 0.783607 0.065457
0.957126 0.784632 0.065990
0.988277 0.785653 0.066530
1.000000 0.786385 0.066923
1.000000 0.786385 0.066923
0.106654 0.789920 0.053510
0.106654 0.789920 0.053510
0.131812 0.790727 0.053984
0.165466 0.791813 0.054605
0.198619 0.792889 0.055200
0.231476 0.793962 0.055776
0.264126 0.795035 0.056334
0.296616 0.796108 0.056877
0.328973 0.797181 0.057408
0.361215 0.798252 0.057933
0.393355 0.799320 0.058452
0.425407 0.800387 0.058968
0.457379 0.801452 0.059481
0.489277 0.802516 0.059991
0.521108 0.803577 0.060500
0.552876 0.804636 0.061007
0.584585 0.805693 0.061515
0.616239 0.806747 0.062023
0.647839 0.807799 0.062532
0.679390 0.808847 0.063044
0.710892 0.809893 0.063558
0.742347 0.810935 0.064075
0.773757 0.811974 0.064597
0.805122 0.813009 0.065123
0.836445 0.814040 0.065654
0.867725 0.815067 0.066192
0.898964 0.816090 0.066736
0.930163 0.817107 0.067287
0.961321 0.818120 0.067846
0.992439 0.819128 0.068414
1.000000 0.819850 0.068828
1.000000 0.819850 0.068828
0.110782 0.823336 0.055432
0.110782 0.823336 0.055432
0.135979 0.824161 0.055871
0.169683 0.825269 0.056445
0.202884 0.826367 0.056996
0.235782 0.827458 0.057535
0.268461 0.828544 0.058066
0.300971 0.829625 0.058591
0.333341 0.830703 0.059111
0.365592 0.831778 0.059628
0.397740 0.832849 0.060142
0.429796 0.833918 0.060654
0.461769 0.834984 0.061165
0.493666 0.836047 0.061676
0.525493 0.837106 0.062188
0.557255 0.838163 0.062701
0.588956 0.839216 0.063216
0.620598 0.840266 0.063733
0.652185 0.841312 0.064255
0.683719 0.842354 0.064780
0.715203 0.843392 0.065310
0.746636 0.844426 0.065846
0.778022 0.845455 0.066387
0.809361 0.846480 0.066936
0.840655 0.847500 0.067492
0.871904 0.848514 0.068056
0.903109 0.849523 0.068629
0.934272 0.850526 0.069211
0.965391 0.851523 0.069803
0.996468 0.852515 0.070405
1.000000 0.853225 0.070846
1.000000 0.853225 0.070846
0.115060 0.856786 0.057211
0.115060 0.856786 0.057211
0.140285 0.857624 0.057623
0.174019 0.858745 0.058170
0.207237 0.859850 0.058706
0.240148 0.860946 0.059235
0.272836 0.862035 0.059758
0.305352 0.863119 0.060278
0.337725 0.864199 0.060795
0.369978 0.865274 0.061311
0.402124 0.866344 0.061826
0.434175 0.867411 0.062342
0.466141 0.868474 0.062859
0.498029 0.869533 0.063378
0.529844 0.870588 0.063900
0.561592 0.871639 0.064425
0.593275 0.872685 0.064955
0.624897 0.873727 0.065489
0.656462 0.874764 0.066030
0.687971 0.875797 0.066576
0.719427 0.876824 0.067129
0.750831 0.877846 0.067690
0.782185 0.878862 0.068260
0.813489 0.879873 0.068838
0.844746 0.880877 0.069425
0.875955 0.881876 0.070023
0.907118 0.882868 0.070632
0.938235 0.883853 0.071252
0.969308 0.884832 0.071884
1.000000 0.885803 0.072529
1.000000 0.886498 0.073001
1.000000 0.886498 0.073001
0.119414 0.890238 0.058914
0.119414 0.890238 0.058914
0.144648 0.891078 0.059319
0.178391 0.892203 0.059859
0.211615 0.893310 0.060390
0.244528 0.894408 0.060916
0.277217 0.895497 0.061439
0.309731 0.896580 0.061961
0.342099 0.897657 0.062482
0.374343 0.898729 0.063005
0.406479 0.899796 0.063529
0.438518 0.900858 0.064056
0.470468 0.901915 0.064586
0.502338 0.902966 0.065121
0.534132 0.904013 0.065660
0.565856 0.905055 0.066205
0.597514 0.906091 0.066757
0.629108 0.907121 0.067315
0.660642 0.908146 0.067882
