omv/luts/02_dusty_western.cube
# Original OMV LUT; redistribution permitted with OMV.
TITLE "Dusty Western"
LUT_3D_SIZE 5
DOMAIN_MIN 0.000000 0.000000 0.000000
DOMAIN_MAX 0.903226 0.903226 0.903226
0.039700 0.022870 0.000000
0.227380 0.028158 0.000000
0.448794 0.034396 0.000000
0.666861 0.040470 0.001091
0.882675 0.046349 0.007611
0.057336 0.222974 0.001211
0.244653 0.228081 0.006860
0.465430 0.234000 0.013736
0.682860 0.239756 0.020668
0.898243 0.245419 0.027620
0.076077 0.458014 0.024441
0.262997 0.462922 0.030488
0.483536 0.468722 0.037602
0.701637 0.474747 0.043963
0.918901 0.481186 0.049279
0.095387 0.689938 0.046701
0.284324 0.695682 0.050990
0.508057 0.702818 0.055303
0.729194 0.710132 0.058971
0.948470 0.717438 0.062484
0.123789 0.923666 0.060595
0.314079 0.929998 0.063665
0.538329 0.937371 0.067492
0.758826 0.944432 0.071699
0.976571 0.951125 0.076515
0.041496 0.024666 0.167458
0.229175 0.029953 0.172745
0.450581 0.036187 0.178993
0.668557 0.042216 0.185378
0.884301 0.048060 0.191969
0.059030 0.224719 0.185500
0.246286 0.229795 0.191211
0.467010 0.235688 0.198140
0.684408 0.241428 0.205103
0.899780 0.247085 0.212066
0.077616 0.459681 0.208885
0.264535 0.464589 0.214933
0.485169 0.470428 0.221964
0.703625 0.476600 0.228017
0.921186 0.483163 0.233073
0.097528 0.691855 0.230621
0.286702 0.697700 0.234700
0.510660 0.704934 0.238808
0.731884 0.712286 0.242397
0.951143 0.719584 0.245926
0.126481 0.925821 0.244021
0.316728 0.932136 0.247126
0.540857 0.939459 0.251058
0.761155 0.946441 0.255434
0.978627 0.953025 0.260481
0.043614 0.026784 0.384753
0.231294 0.032072 0.390041
0.452652 0.038282 0.396336
0.670528 0.044261 0.402821
0.886198 0.050067 0.409486
0.061000 0.226763 0.402944
0.248190 0.231806 0.408721
0.468859 0.237671 0.415705
0.686228 0.243397 0.422698
0.901594 0.249051 0.429666
0.079430 0.461647 0.426485
0.266354 0.466557 0.432528
0.487236 0.472499 0.439344
0.706090 0.478835 0.445050
0.923980 0.485538 0.449815
0.100164 0.694161 0.447504
0.289598 0.700118 0.451350
0.513794 0.707458 0.455240
0.735061 0.714827 0.458793
0.954270 0.722106 0.462364
0.129646 0.928358 0.460427
0.319819 0.934643 0.463595
0.543773 0.941897 0.467675
0.763809 0.948774 0.472274
0.980930 0.955218 0.477619
0.045702 0.028872 0.598906
0.233382 0.034160 0.604194
0.454657 0.040328 0.610572
0.672443 0.046262 0.617147
0.888047 0.052036 0.623878
0.062913 0.228764 0.617272
0.250045 0.233778 0.623107
0.470669 0.239620 0.630136
0.688016 0.245335 0.637150
0.903386 0.250991 0.644116
0.081217 0.463585 0.640939
0.268153 0.468501 0.646970
0.489414 0.474598 0.653458
0.708639 0.481088 0.658841
0.926830 0.487920 0.663337
0.102869 0.696481 0.661156
0.292542 0.702541 0.664787
0.516910 0.709957 0.668520
0.738186 0.717330 0.672065
0.957314 0.724577 0.675705
0.132744 0.930850 0.673722
0.322817 0.937095 0.676975
0.546569 0.944268 0.681226
0.766315 0.951029 0.686072
0.983064 0.957324 0.691734
0.047771 0.030941 0.811125
0.235441 0.036224 0.816423
0.456611 0.042340 0.822906
0.674316 0.048233 0.829562
0.889862 0.053978 0.836351
0.064784 0.230734 0.829688
0.251866 0.235723 0.835574
0.472452 0.241546 0.842641
0.689787 0.247255 0.849668
0.905167 0.252916 0.856623
0.082990 0.465506 0.853454
0.270027 0.470464 0.859396
0.491704 0.476733 0.865524
0.711273 0.483367 0.870604
0.929742 0.490319 0.874851
0.105649 0.698822 0.872789
0.295538 0.704978 0.876223
0.520010 0.712438 0.879863
0.741264 0.719803 0.883426
0.960284 0.727006 0.887158
0.135783 0.933307 0.885116
0.325732 0.939502 0.888475
0.549252 0.946583 0.892923
0.768681 0.953217 0.898038
0.985133 0.959393 0.903953
