omv/luts/03_bleached_wasteland.cube
# Original OMV LUT; redistribution permitted with OMV.
TITLE "Bleached Wasteland"
LUT_3D_SIZE 5
DOMAIN_MIN 0.000000 0.000000 0.000000
DOMAIN_MAX 0.903226 0.903226 0.903226
0.028900 0.035725 0.036700
0.169050 0.047428 0.048403
0.356887 0.063114 0.064089
0.546475 0.078826 0.079685
0.737221 0.094367 0.094851
0.068295 0.203480 0.075947
0.208529 0.214973 0.087229
0.396555 0.230188 0.101973
0.586350 0.245381 0.116531
0.777241 0.260563 0.130980
0.121762 0.426650 0.125216
0.262134 0.437797 0.135806
0.450270 0.452736 0.149999
0.640331 0.468072 0.164480
0.832068 0.484176 0.179406
0.176705 0.651857 0.173836
0.317873 0.663934 0.184972
0.507361 0.680611 0.200338
0.698730 0.697902 0.216378
0.891229 0.715403 0.232611
0.235979 0.883938 0.226910
0.377510 0.896792 0.238843
0.567044 0.913892 0.254811
0.757958 0.930863 0.270868
0.949411 0.947493 0.286926
0.032875 0.039700 0.169121
0.173024 0.051403 0.180824
0.360862 0.067085 0.196504
0.550478 0.082729 0.211963
0.741247 0.098215 0.227019
0.072292 0.207399 0.208256
0.212544 0.218847 0.219449
0.400588 0.234015 0.234100
0.590395 0.249178 0.248599
0.781291 0.264347 0.263020
0.125811 0.430437 0.257263
0.266185 0.441580 0.267845
0.454318 0.456529 0.282056
0.644538 0.472031 0.296615
0.836403 0.488297 0.311649
0.180999 0.655921 0.306036
0.322242 0.668109 0.317262
0.511785 0.684918 0.332769
0.703178 0.702271 0.348878
0.895670 0.719766 0.365110
0.240429 0.888308 0.359410
0.381937 0.901144 0.371339
0.571402 0.918186 0.387296
0.762202 0.935063 0.403334
0.953496 0.951559 0.419366
0.038201 0.045026 0.346599
0.178351 0.056730 0.358303
0.366202 0.072381 0.373921
0.555853 0.087936 0.389201
0.746648 0.103355 0.404124
0.077659 0.212625 0.385534
0.217933 0.224018 0.396616
0.405999 0.239131 0.411157
0.595820 0.254261 0.425588
0.786721 0.269418 0.439987
0.131240 0.435510 0.434233
0.271614 0.446652 0.444814
0.459796 0.461666 0.459070
0.650234 0.477404 0.473749
0.842249 0.493879 0.488938
0.186798 0.661428 0.483264
0.328125 0.673760 0.494616
0.517723 0.690737 0.510322
0.709144 0.708131 0.526463
0.901609 0.725603 0.542690
0.246383 0.894158 0.536993
0.387849 0.906958 0.548915
0.577205 0.923909 0.564854
0.767835 0.940644 0.580863
0.958897 0.956948 0.596857
0.043577 0.050402 0.525688
0.183726 0.062105 0.537392
0.371603 0.077692 0.552881
0.561286 0.093165 0.567998
0.752106 0.108524 0.582801
0.083086 0.217872 0.564366
0.223380 0.229215 0.575347
0.411465 0.244280 0.589792
0.601297 0.259383 0.604170
0.792199 0.274536 0.618562
0.136718 0.440627 0.612805
0.277091 0.451774 0.623396
0.465406 0.466933 0.637728
0.656041 0.482899 0.652539
0.848183 0.499576 0.667896
0.192693 0.667054 0.662156
0.334088 0.679523 0.673645
0.523728 0.696637 0.689516
0.715161 0.714041 0.705659
0.907578 0.731473 0.721878
0.252376 0.900049 0.716185
0.393783 0.912799 0.728097
0.583008 0.929642 0.744014
0.773447 0.946217 0.759992
0.964277 0.962327 0.775946
0.048982 0.055807 0.705774
0.189133 0.067506 0.717470
0.377046 0.083002 0.732777
0.566759 0.098400 0.747744
0.757600 0.113707 0.762442
0.088553 0.223124 0.744144
0.228865 0.234421 0.755036
0.416966 0.249445 0.769399
0.606805 0.264529 0.783740
0.797706 0.279687 0.798138
0.142227 0.445773 0.792374
0.282597 0.456932 0.802986
0.471122 0.472311 0.817422
0.661931 0.488497 0.832379
0.854177 0.505366 0.847917
0.198657 0.672776 0.842105
0.340103 0.685377 0.853740
0.529778 0.702579 0.869709
0.721203 0.719976 0.885851
0.913550 0.737350 0.902059
0.258380 0.905952 0.896370
0.399712 0.918641 0.908271
0.588786 0.935357 0.924162
0.779010 0.951754 0.940104
0.969683 0.967733 0.956033
