omv/luts/03_bleached_wasteland.cube
# Original OMV LUT; redistribution permitted with OMV.
TITLE "Bleached Wasteland"
LUT_3D_SIZE 8
DOMAIN_MIN 0.000000 0.000000 0.000000
DOMAIN_MAX 0.903226 0.903226 0.903226
0.028900 0.035725 0.036700
0.089548 0.040789 0.041764
0.195728 0.049656 0.050631
0.302997 0.058614 0.059589
0.410910 0.067620 0.068591
0.519310 0.076592 0.077485
0.628103 0.085506 0.086232
0.737221 0.094367 0.094851
0.045937 0.108346 0.053737
0.106585 0.113410 0.058802
0.212766 0.122275 0.067665
0.320062 0.131166 0.076489
0.428035 0.140022 0.085189
0.536497 0.148839 0.093774
0.645343 0.157620 0.102257
0.754505 0.166373 0.110659
0.075837 0.235306 0.083203
0.136530 0.240258 0.088044
0.242809 0.248875 0.096412
0.350204 0.257522 0.104748
0.458258 0.266173 0.113038
0.566787 0.274824 0.121291
0.675683 0.283480 0.129524
0.784879 0.292148 0.137755
0.106355 0.362793 0.111420
0.167089 0.367642 0.116053
0.273429 0.376109 0.124120
0.380868 0.384644 0.132232
0.488951 0.393222 0.140378
0.597492 0.401842 0.148568
0.706413 0.410531 0.156825
0.815832 0.419453 0.165200
0.137227 0.490612 0.138945
0.197972 0.495434 0.143524
0.304318 0.503885 0.151559
0.411833 0.512515 0.159732
0.520212 0.521425 0.168061
0.629241 0.530593 0.176552
0.738782 0.539997 0.185218
0.848735 0.549618 0.194075
0.168557 0.619289 0.166706
0.229537 0.624374 0.171430
0.336425 0.633437 0.179803
0.444545 0.642786 0.188411
0.553409 0.652373 0.197241
0.662798 0.662168 0.206300
0.772582 0.672122 0.215547
0.882691 0.682133 0.224832
0.201796 0.750566 0.195900
0.263005 0.756014 0.200929
0.370197 0.765673 0.209884
0.478523 0.775511 0.219018
0.587514 0.785422 0.228209
0.696952 0.795362 0.237436
0.806703 0.805294 0.246686
0.916667 0.815184 0.255947
0.235979 0.883938 0.226910
0.297232 0.889506 0.232075
0.404443 0.899233 0.241113
0.512695 0.909008 0.250235
0.621499 0.918764 0.259395
0.730638 0.928455 0.268572
0.839975 0.938043 0.277753
0.949411 0.947493 0.286926
0.030620 0.037445 0.094003
0.091268 0.042509 0.099068
0.197448 0.051376 0.107935
0.304717 0.060334 0.116892
0.412633 0.069333 0.125880
0.521040 0.078287 0.134738
0.629839 0.087185 0.143455
0.738963 0.096034 0.152048
0.047657 0.110066 0.111041
0.108305 0.115130 0.116105
0.214488 0.123989 0.124957
0.321791 0.132862 0.133746
0.429770 0.141703 0.142415
0.538237 0.150507 0.150974
0.647088 0.159277 0.159435
0.756253 0.168021 0.167820
0.077571 0.236990 0.140436
0.138267 0.241935 0.145261
0.244552 0.250540 0.153604
0.351950 0.259177 0.161920
0.460008 0.267820 0.170195
0.568538 0.276465 0.178437
0.677436 0.285118 0.186663
0.786632 0.293785 0.194894
0.108104 0.364441 0.168579
0.168839 0.369287 0.173206
0.275181 0.377749 0.181264
0.382620 0.386281 0.189371
0.490704 0.394860 0.197517
0.599244 0.403482 0.205712
0.708190 0.412199 0.213982
0.817651 0.421165 0.222379
0.138980 0.492249 0.196083
0.199725 0.497072 0.200664
0.306069 0.505526 0.208705
0.413626 0.514198 0.216897
0.522044 0.523151 0.225248
0.631104 0.532359 0.233765
0.740671 0.541800 0.242461
0.850641 0.551455 0.251352
0.170383 0.621008 0.223889
0.231382 0.626116 0.228627
0.338299 0.635217 0.237027
0.446441 0.644602 0.245666
0.555319 0.654222 0.254531
0.664715 0.664047 0.263629
0.774506 0.674012 0.272884
0.884617 0.684025 0.282170
0.203705 0.752411 0.253185
0.264919 0.757876 0.258234
0.372117 0.767559 0.267221
0.480449 0.777402 0.276355
0.589439 0.787313 0.285546
0.698871 0.797248 0.294773
0.808608 0.807169 0.304021
0.918553 0.817043 0.313279
0.237905 0.885830 0.284247
0.299155 0.891396 0.289412
0.406357 0.901114 0.298449
0.514593 0.910877 0.307568
0.623376 0.920615 0.316724
0.732487 0.930283 0.325897
0.841789 0.939842 0.335073
0.951184 0.949257 0.344239
0.033631 0.040456 0.194328
0.094279 0.045521 0.199392
0.200459 0.054387 0.208259
0.307728 0.063345 0.217216
0.415652 0.072323 0.226161
0.524072 0.081247 0.234960
0.632881 0.090119 0.243626
0.742013 0.098946 0.252175
0.050668 0.113077 0.211365
0.111316 0.118141 0.216429
0.217506 0.126982 0.225245
0.324822 0.135826 0.233974
0.432811 0.144640 0.242591
0.541287 0.153422 0.251106
0.650145 0.162174 0.259531
0.759315 0.170905 0.267888
0.080610 0.239933 0.240623
0.141311 0.244864 0.245421
0.247604 0.253449 0.253724
0.355008 0.262069 0.262007
0.463071 0.270700 0.270257
0.571605 0.279337 0.278482
0.680505 0.287985 0.286699
0.789701 0.296652 0.294929
0.111166 0.367323 0.268645
0.171904 0.372163 0.273260
0.278248 0.380618 0.281305
0.385689 0.389148 0.289406
0.493773 0.397727 0.297554
0.602311 0.406355 0.305759
0.711323 0.415138 0.314060
0.820853 0.424181 0.322495
0.142049 0.495117 0.296119
0.202793 0.499941 0.300704
0.309150 0.508415 0.308760
0.416784 0.517165 0.316987
0.525266 0.526192 0.325380
0.634380 0.535469 0.333945
0.743986 0.544974 0.342695
0.853983 0.554688 0.351646
0.173596 0.624037 0.324014
0.234628 0.629185 0.328777
0.341591 0.638351 0.337226
0.449767 0.647797 0.345921
0.558668 0.657474 0.354849
0.668074 0.667348 0.364010
0.777877 0.677323 0.373268
0.887988 0.687336 0.382554
0.207051 0.755654 0.353493
0.268273 0.761150 0.358579
0.375482 0.770865 0.367604
0.483821 0.780714 0.376740
0.592808 0.790622 0.385930
0.702225 0.800545 0.395154
0.811936 0.810444 0.404398
0.921844 0.820287 0.413649
0.241275 0.889140 0.384631
0.302519 0.894701 0.389795
0.409702 0.904404 0.398829
0.517909 0.914142 0.407943
0.626651 0.923846 0.417092
0.735709 0.933470 0.426257
0.844948 0.942976 0.435421
0.954268 0.952329 0.444575
0.036673 0.043498 0.295682
0.097321 0.048563 0.300746
0.203501 0.057429 0.309613
0.310771 0.066386 0.318568
0.418707 0.075332 0.327451
0.527138 0.084228 0.336193
0.635958 0.093076 0.344809
0.745098 0.101882 0.353317
0.053710 0.116119 0.312719
0.114358 0.121183 0.317783
0.220560 0.129995 0.326541
0.327887 0.138810 0.335212
0.435886 0.147599 0.343780
0.544371 0.156360 0.352253
0.653235 0.165096 0.360645
0.762411 0.173814 0.368976
0.083683 0.242898 0.341823
0.144389 0.247816 0.346595
0.250689 0.256382 0.354860
0.358100 0.264987 0.363112
0.466168 0.273606 0.371339
0.574705 0.282236 0.379550
0.683605 0.290881 0.387761
0.792801 0.299549 0.395993
0.114262 0.370231 0.369732
0.175002 0.375066 0.374337
0.281348 0.383516 0.382370
0.388790 0.392044 0.390468
0.496872 0.400626 0.398620
0.605421 0.409271 0.406841
0.714512 0.418135 0.415177
0.824109 0.427252 0.423655
0.145148 0.498014 0.397184
0.205891 0.502842 0.401775
0.312291 0.511360 0.409855
0.419998 0.520188 0.418119
0.528541 0.529287 0.426555
0.637703 0.538632 0.435170
0.747345 0.548200 0.443978
0.857365 0.557972 0.452993
0.176862 0.627122 0.425182
0.237924 0.632308 0.429971
0.344930 0.641539 0.438472
0.453136 0.651045 0.447226
0.562056 0.660777 0.456219
0.671473 0.670687 0.465423
0.781283 0.680669 0.474683
0.891392 0.690679 0.483968
0.210436 0.758949 0.454853
0.271665 0.764474 0.459978
0.378885 0.774208 0.469018
0.487228 0.784060 0.478155
0.596207 0.793962 0.487344
0.705606 0.803869 0.496565
0.815287 0.813744 0.505803
0.925154 0.823552 0.515048
0.244676 0.892481 0.486045
0.305912 0.898035 0.491208
0.413073 0.907720 0.500238
0.521246 0.917430 0.509346
0.629942 0.927096 0.518488
0.738944 0.936673 0.527643
0.848116 0.946123 0.536796
0.957357 0.955410 0.545937
0.039733 0.046558 0.397642
0.100381 0.051623 0.402706
0.206561 0.060489 0.411573
0.313836 0.069435 0.420505
0.421785 0.078350 0.429325
0.530226 0.087218 0.438012
0.639055 0.096043 0.446582
0.748203 0.104830 0.455052
0.056771 0.119179 0.414679
0.117422 0.124235 0.419726
0.223636 0.133016 0.428422
0.330974 0.141803 0.437038
0.438983 0.150569 0.445558
0.547475 0.159310 0.453992
0.656346 0.168031 0.462353
0.765526 0.176737 0.470662
0.086777 0.245872 0.443611
0.147489 0.250779 0.448360
0.253796 0.259326 0.456589
0.361212 0.267917 0.464813
0.469284 0.276526 0.473020
0.577823 0.285151 0.481219
0.686724 0.293794 0.489427
0.795919 0.302465 0.497664
0.117377 0.373154 0.471416
0.178119 0.377984 0.476012
0.284467 0.386430 0.484036
0.391909 0.394957 0.492134
0.499990 0.403543 0.500294
0.608578 0.412232 0.508538
0.717744 0.421175 0.516912
0.827403 0.430366 0.525434
0.148266 0.500930 0.498856
0.209008 0.505762 0.503454
0.315477 0.514351 0.511565
0.423253 0.523254 0.519868
0.531854 0.532425 0.528351
0.641060 0.541836 0.537019
0.750734 0.551466 0.545886
0.860773 0.561294 0.554967
0.180167 0.630248 0.526970
0.241256 0.635473 0.531787
0.348300 0.644767 0.540343
0.456534 0.654332 0.549158
0.565467 0.664117 0.558218
0.674896 0.674050 0.567443
0.784711 0.684035 0.576704
0.894812 0.694039 0.585988
0.213846 0.762282 0.556841
0.275080 0.767830 0.561997
0.382311 0.777574 0.571039
0.490654 0.787425 0.580175
0.599622 0.797318 0.589363
0.708998 0.807206 0.598580
0.818646 0.817053 0.607813
0.928467 0.826824 0.617050
0.248093 0.895839 0.588064
0.309319 0.901384 0.593225
0.416453 0.911047 0.602251
0.524588 0.920725 0.611353
0.633236 0.930351 0.620487
0.742177 0.939877 0.629632
0.851277 0.949267 0.638773
0.960434 0.958484 0.647900
0.042807 0.049632 0.500034
0.103455 0.054696 0.505099
0.209634 0.063563 0.513965
0.316918 0.072485 0.522853
0.424879 0.081371 0.531613
0.533331 0.090213 0.540248
0.642169 0.099015 0.548773
0.751324 0.107785 0.557208
0.059844 0.122251 0.517068
0.120503 0.127289 0.522080
0.226729 0.136040 0.530715
0.334078 0.144800 0.539279
0.442095 0.153544 0.547755
0.550595 0.162267 0.556151
0.659471 0.170973 0.564485
0.768655 0.179669 0.572773
0.089888 0.248852 0.545817
0.150604 0.253747 0.550543
0.256918 0.262278 0.558739
0.364339 0.270857 0.566938
0.472414 0.279457 0.575127
0.580955 0.288077 0.583318
0.689856 0.296720 0.591525
0.799049 0.305395 0.599770
0.120507 0.376086 0.573526
0.181250 0.380913 0.578116
0.287599 0.389355 0.586134
0.395041 0.397884 0.594234
0.503119 0.406475 0.602405
0.611775 0.415233 0.610679
0.721012 0.424253 0.619094
0.830730 0.433517 0.627663
0.151396 0.503861 0.600964
0.212155 0.508713 0.605574
0.318701 0.517380 0.613720
0.426543 0.526358 0.622065
0.535197 0.535599 0.630596
0.644444 0.545076 0.639320
0.754145 0.554765 0.648249
0.864199 0.564648 0.657399
0.183502 0.633411 0.629207
0.244616 0.638674 0.634054
0.351696 0.648029 0.642666
0.459951 0.657651 0.651545
0.568896 0.667486 0.660670
0.678337 0.677429 0.669898
0.788151 0.687415 0.679158
0.898242 0.697410 0.688440
0.217273 0.765646 0.659287
0.278515 0.771205 0.664450
0.385753 0.780954 0.673493
0.494092 0.790803 0.682629
0.603045 0.800682 0.691814
0.712395 0.810549 0.701027
0.822005 0.820364 0.710253
0.931777 0.830094 0.719482
0.251519 0.899206 0.690516
0.312732 0.904741 0.695675
0.419836 0.914378 0.704695
0.527929 0.924022 0.713790
0.636524 0.933603 0.722915
0.745401 0.943076 0.732050
0.854424 0.952402 0.741178
0.963507 0.961557 0.750292
0.045890 0.052715 0.602766
0.106538 0.057779 0.607830
0.212718 0.066644 0.616693
0.320015 0.075536 0.625518
0.427987 0.084392 0.634220
0.536449 0.093209 0.642805
0.645295 0.101991 0.651289
0.754457 0.110744 0.659691
0.062933 0.125322 0.619774
0.123599 0.130342 0.624750
0.229836 0.139064 0.633328
0.337195 0.147799 0.641841
0.445221 0.156522 0.650275
0.553727 0.165228 0.658638
0.662608 0.173922 0.666946
0.771796 0.182609 0.675218
0.093012 0.251834 0.648346
0.153732 0.256719 0.653051
0.260052 0.265235 0.661217
0.367478 0.273802 0.669393
0.475555 0.282395 0.677568
0.584098 0.291012 0.685752
0.692998 0.299657 0.693962
0.802189 0.308337 0.702218
0.123648 0.379025 0.675969
0.184392 0.383849 0.680553
0.290742 0.392290 0.688569
0.398182 0.400822 0.696674
0.506273 0.409432 0.704861
0.615009 0.418271 0.713171
0.724313 0.427367 0.721628
0.834084 0.436702 0.730246
0.154539 0.506807 0.703415
0.215341 0.511701 0.708043
0.321961 0.520446 0.716226
0.429864 0.529498 0.724616
0.538567 0.538807 0.733198
0.647850 0.548346 0.741979
0.757574 0.558094 0.750972
0.867638 0.568027 0.760188
0.186865 0.636608 0.731800
0.248002 0.641907 0.736678
0.355112 0.651323 0.745349
0.463385 0.661001 0.754293
0.572341 0.670871 0.763461
0.681790 0.680820 0.772690
0.791601 0.690803 0.781950
0.901677 0.700786 0.791230
0.220716 0.769029 0.762078
0.281964 0.774593 0.767242
0.389206 0.784345 0.776286
0.497538 0.794188 0.785421
0.606472 0.804052 0.794602
0.715791 0.813893 0.803810
0.825359 0.823673 0.813030
0.935078 0.833358 0.822250
0.254949 0.902578 0.793305
0.316147 0.908101 0.798461
0.423217 0.917709 0.807476
0.531265 0.927315 0.816563
0.639802 0.936849 0.825679
0.748611 0.946264 0.834802
0.857554 0.955523 0.843917
0.966591 0.964641 0.853024
0.048982 0.055807 0.705774
0.109630 0.060871 0.710839
0.215815 0.069724 0.719677
0.323124 0.078584 0.728439
0.431107 0.087412 0.737086
0.539579 0.096206 0.745625
0.648432 0.104969 0.754070
0.757600 0.113707 0.762442
0.066034 0.128390 0.722736
0.126707 0.133392 0.727677
0.232955 0.142087 0.736199
0.340323 0.150799 0.744665
0.448357 0.159502 0.753060
0.556870 0.168192 0.761392
0.665756 0.176875 0.769678
0.774946 0.185555 0.777935
0.096147 0.254818 0.751140
0.156870 0.259693 0.755825
0.263196 0.268196 0.763963
0.370626 0.276753 0.772120
0.478706 0.285340 0.780283
0.587249 0.293955 0.788464
0.696149 0.302602 0.796679
0.805353 0.311303 0.804951
0.126798 0.381971 0.778686
0.187543 0.386793 0.783266
0.293893 0.395234 0.791281
0.401332 0.403769 0.799394
0.509464 0.412425 0.807605
0.618275 0.421343 0.815954
0.727642 0.430514 0.824455
0.837463 0.439918 0.833125
0.157716 0.509786 0.806153
0.218563 0.514726 0.810801
0.325251 0.523547 0.819024
0.433212 0.532669 0.827461
0.541959 0.542045 0.836096
0.651274 0.551647 0.844937
0.761017 0.561451 0.853997
0.871093 0.571421 0.863257
0.190251 0.639836 0.834689
0.251409 0.645171 0.839599
0.358545 0.654645 0.848331
0.466832 0.664377 0.857344
0.575799 0.674268 0.866531
0.685252 0.684221 0.875761
0.795056 0.694198 0.885020
0.905113 0.704165 0.894296
0.224173 0.772425 0.865148
0.285426 0.777993 0.870313
0.392667 0.787745 0.879357
0.500987 0.797578 0.888489
0.609899 0.807423 0.897667
0.719183 0.817235 0.906869
0.828706 0.826978 0.916081
0.938367 0.836615 0.925292
0.258380 0.905952 0.896370
0.319561 0.911461 0.901524
0.426593 0.921038 0.910532
0.534591 0.930602 0.919611
0.643067 0.940085 0.928717
0.751803 0.949440 0.937827
0.860661 0.958629 0.946929
0.969683 0.967733 0.956033
