omv/luts/03_bleached_wasteland.cube
# Original OMV LUT; redistribution permitted with OMV.
TITLE "Bleached Wasteland"
LUT_3D_SIZE 32
DOMAIN_MIN 0.0 0.0 0.0
DOMAIN_MAX 1.0 1.0 1.0
0.028900 0.035725 0.036700
0.028900 0.035725 0.036700
0.037445 0.036439 0.037414
0.063333 0.038600 0.039575
0.089548 0.040789 0.041764
0.115937 0.042993 0.043968
0.142447 0.045207 0.046182
0.169050 0.047428 0.048403
0.195728 0.049656 0.050631
0.222469 0.051889 0.052864
0.249265 0.054127 0.055102
0.276110 0.056368 0.057343
0.302997 0.058614 0.059589
0.329924 0.060862 0.061837
0.356887 0.063114 0.064089
0.383882 0.065368 0.066343
0.410910 0.067620 0.068591
0.437968 0.069869 0.070829
0.465055 0.072114 0.073057
0.492170 0.074355 0.075276
0.519310 0.076592 0.077485
0.546475 0.078826 0.079685
0.573662 0.081056 0.081876
0.600872 0.083282 0.084058
0.628103 0.085506 0.086232
0.655355 0.087725 0.088398
0.682625 0.089942 0.090557
0.709915 0.092156 0.092708
0.737221 0.094367 0.094851
0.764546 0.096575 0.096988
0.773820 0.097324 0.097712
0.773820 0.097324 0.097712
0.028900 0.035725 0.036700
0.028900 0.035725 0.036700
0.037445 0.036439 0.037414
0.063333 0.038600 0.039575
0.089548 0.040789 0.041764
0.115937 0.042993 0.043968
0.142447 0.045207 0.046182
0.169050 0.047428 0.048403
0.195728 0.049656 0.050631
0.222469 0.051889 0.052864
0.249265 0.054127 0.055102
0.276110 0.056368 0.057343
0.302997 0.058614 0.059589
0.329924 0.060862 0.061837
0.356887 0.063114 0.064089
0.383882 0.065368 0.066343
0.410910 0.067620 0.068591
0.437968 0.069869 0.070829
0.465055 0.072114 0.073057
0.492170 0.074355 0.075276
0.519310 0.076592 0.077485
0.546475 0.078826 0.079685
0.573662 0.081056 0.081876
0.600872 0.083282 0.084058
0.628103 0.085506 0.086232
0.655355 0.087725 0.088398
0.682625 0.089942 0.090557
0.709915 0.092156 0.092708
0.737221 0.094367 0.094851
0.764546 0.096575 0.096988
0.773820 0.097324 0.097712
0.773820 0.097324 0.097712
0.031300 0.045957 0.039100
0.031300 0.045957 0.039100
0.039846 0.046671 0.039814
0.065733 0.048832 0.041976
0.091949 0.051022 0.044165
0.118338 0.053225 0.046369
0.144848 0.055439 0.048582
0.171450 0.057660 0.050804
0.198128 0.059888 0.053032
0.224869 0.062121 0.055265
0.251666 0.064359 0.057502
0.278510 0.066601 0.059744
0.305398 0.068846 0.061989
0.332325 0.071094 0.064238
0.359287 0.073346 0.066489
0.386285 0.075595 0.068734
0.413315 0.077841 0.070969
0.440376 0.080083 0.073194
0.467465 0.082322 0.075410
0.494582 0.084557 0.077616
0.521725 0.086788 0.079814
0.548892 0.089016 0.082003
0.576082 0.091241 0.084183
0.603294 0.093462 0.086355
0.630527 0.095681 0.088519
0.657780 0.097896 0.090675
0.685052 0.100108 0.092824
0.712343 0.102317 0.094966
0.739652 0.104524 0.097102
0.766978 0.106728 0.099231
0.776253 0.107476 0.099952
0.776253 0.107476 0.099952
0.038573 0.076955 0.046373
0.038573 0.076955 0.046373
0.047118 0.077669 0.047086
0.073006 0.079831 0.049248
0.099221 0.082020 0.051437
0.125610 0.084223 0.053641
0.152120 0.086437 0.055855
0.178723 0.088659 0.058076
0.205400 0.090886 0.060304
0.232142 0.093119 0.062537
0.258938 0.095357 0.064775
0.285783 0.097598 0.067015
0.312673 0.099837 0.069248
0.339605 0.102074 0.071472
0.366575 0.104307 0.073687
0.393580 0.106537 0.075893
0.420617 0.108764 0.078091
0.447685 0.110989 0.080280
0.474782 0.113210 0.082461
0.501906 0.115428 0.084634
0.529055 0.117643 0.086799
0.556228 0.119855 0.088956
0.583424 0.122065 0.091106
0.610642 0.124272 0.093249
0.637880 0.126476 0.095386
0.665139 0.128678 0.097515
0.692416 0.130877 0.099639
0.719712 0.133075 0.101757
0.747025 0.135270 0.103870
0.774355 0.137464 0.105978
0.783632 0.138208 0.106692
0.783632 0.138208 0.106692
0.045937 0.108346 0.053737
0.045937 0.108346 0.053737
0.054482 0.109059 0.054451
0.080370 0.111221 0.056613
0.106585 0.113410 0.058802
0.132974 0.115614 0.061005
0.159484 0.117828 0.063219
0.186087 0.120049 0.065440
0.212766 0.122275 0.067665
0.239510 0.124500 0.069882
0.266312 0.126724 0.072092
0.293164 0.128946 0.074294
0.320062 0.131166 0.076489
0.347001 0.133383 0.078675
0.373978 0.135599 0.080854
0.400990 0.137811 0.083025
0.428035 0.140022 0.085189
0.455109 0.142230 0.087346
0.482212 0.144435 0.089495
0.509342 0.146638 0.091638
0.536497 0.148839 0.093774
0.563675 0.151037 0.095904
0.590877 0.153234 0.098027
0.618100 0.155428 0.100145
0.645343 0.157620 0.102257
0.672606 0.159811 0.104365
0.699888 0.162000 0.106467
0.727188 0.164187 0.108565
0.754505 0.166373 0.110659
0.781838 0.168557 0.112749
0.791116 0.169298 0.113457
0.791116 0.169298 0.113457
0.053350 0.139945 0.061150
0.053350 0.139945 0.061150
0.061896 0.140658 0.061864
0.087783 0.142820 0.064026
0.113998 0.145009 0.066215
0.140389 0.147209 0.068411
0.166903 0.149413 0.070605
0.193512 0.151619 0.072795
0.220198 0.153825 0.074980
0.246950 0.156031 0.077159
0.273760 0.158236 0.079332
0.300619 0.160440 0.081498
0.327524 0.162643 0.083658
0.354470 0.164844 0.085811
0.381454 0.167043 0.087958
0.408472 0.169240 0.090098
0.435522 0.171435 0.092232
0.462602 0.173629 0.094360
0.489711 0.175821 0.096482
0.516846 0.178010 0.098598
0.544006 0.180199 0.100709
0.571189 0.182385 0.102815
0.598395 0.184570 0.104916
0.625622 0.186754 0.107013
0.652869 0.188936 0.109105
0.680136 0.191118 0.111194
0.707421 0.193298 0.113279
0.734724 0.195477 0.115361
0.762044 0.197655 0.117439
0.789381 0.199833 0.119516
0.798659 0.200572 0.120219
0.798659 0.200572 0.120219
0.060799 0.171684 0.068589
0.060799 0.171684 0.068589
0.069346 0.172394 0.069297
0.095238 0.174544 0.071435
0.121460 0.176716 0.073589
0.147859 0.178897 0.075747
0.174380 0.181082 0.077903
0.200996 0.183269 0.080057
0.227690 0.185458 0.082206
0.254449 0.187647 0.084351
0.281264 0.189835 0.086491
0.308130 0.192023 0.088625
0.335041 0.194211 0.090754
0.361993 0.196397 0.092878
0.388983 0.198581 0.094996
0.416006 0.200765 0.097109
0.443062 0.202948 0.099217
0.470147 0.205129 0.101320
0.497260 0.207309 0.103419
0.524399 0.209488 0.105513
0.551563 0.211665 0.107603
0.578751 0.213842 0.109689
0.605960 0.216018 0.111772
0.633191 0.218193 0.113851
0.660441 0.220367 0.115928
0.687711 0.222541 0.118002
0.714999 0.224715 0.120073
0.742305 0.226888 0.122143
0.769627 0.229061 0.124211
0.796965 0.231234 0.126278
0.806244 0.231971 0.126979
0.806244 0.231971 0.126979
0.068295 0.203480 0.075947
0.068295 0.203480 0.075947
0.076844 0.204185 0.076643
0.102744 0.206317 0.078745
0.128973 0.208471 0.080863
0.155379 0.210634 0.082986
0.181907 0.212802 0.085108
0.208529 0.214973 0.087229
0.235229 0.217146 0.089347
0.261994 0.219320 0.091462
0.288816 0.221494 0.093572
0.315687 0.223668 0.095679
0.342604 0.225842 0.097781
0.369561 0.228015 0.099879
0.396555 0.230188 0.101973
0.423583 0.232360 0.104063
0.450643 0.234531 0.106149
0.477732 0.236702 0.108232
0.504849 0.238873 0.110311
0.531992 0.241042 0.112387
0.559160 0.243212 0.114461
0.586350 0.245381 0.116531
0.613563 0.247549 0.118600
0.640796 0.249718 0.120666
0.668049 0.251887 0.122731
0.695320 0.254055 0.124794
0.722610 0.256224 0.126857
0.749917 0.258393 0.128919
0.777241 0.260563 0.130980
0.804580 0.262733 0.133041
0.813859 0.263470 0.133741
0.813859 0.263470 0.133741
0.075837 0.235306 0.083203
0.075837 0.235306 0.083203
0.084388 0.236005 0.083888
0.110294 0.238120 0.085957
0.136530 0.240258 0.088044
0.162942 0.242406 0.090136
0.189476 0.244559 0.092229
0.216104 0.246716 0.094321
0.242809 0.248875 0.096412
0.269580 0.251036 0.098500
0.296406 0.253198 0.100586
0.323283 0.255360 0.102668
0.350204 0.257522 0.104748
0.377165 0.259685 0.106824
0.404163 0.261848 0.108898
0.431195 0.264010 0.110969
0.458258 0.266173 0.113038
0.485351 0.268336 0.115104
0.512471 0.270498 0.117168
0.539617 0.272661 0.119230
0.566787 0.274824 0.121291
0.593980 0.276988 0.123350
0.621194 0.279151 0.125409
0.648429 0.281315 0.127466
0.675683 0.283480 0.129524
0.702956 0.285646 0.131581
0.730247 0.287812 0.133638
0.757555 0.289980 0.135696
0.784879 0.292148 0.137755
0.812218 0.294318 0.139816
0.821497 0.295054 0.140515
0.821497 0.295054 0.140515
0.083419 0.267152 0.090367
0.083419 0.267152 0.090367
0.091972 0.267846 0.091042
0.117884 0.269947 0.093083
0.144125 0.272071 0.095142
0.170542 0.274206 0.097207
0.197081 0.276346 0.099274
0.223715 0.278491 0.101342
0.250424 0.280639 0.103410
0.277199 0.282788 0.105476
0.304030 0.284939 0.107540
0.330910 0.287092 0.109603
0.357835 0.289245 0.111664
0.384800 0.291399 0.113724
0.411801 0.293554 0.115782
0.438836 0.295709 0.117838
0.465902 0.297865 0.119893
0.492997 0.300021 0.121947
0.520119 0.302179 0.124000
0.547267 0.304337 0.126053
0.574439 0.306495 0.128105
0.601633 0.308655 0.130157
0.628848 0.310816 0.132210
0.656084 0.312978 0.134263
0.683339 0.315141 0.136317
0.710613 0.317306 0.138372
0.737904 0.319472 0.140429
0.765211 0.321639 0.142487
0.792535 0.323809 0.144548
0.819874 0.325980 0.146612
0.829153 0.326717 0.147313
0.829153 0.326717 0.147313
0.091036 0.299015 0.097449
0.091036 0.299015 0.097449
0.099590 0.299706 0.098116
0.125507 0.301795 0.100132
0.151753 0.303907 0.102168
0.178175 0.306030 0.104210
0.204718 0.308160 0.106256
0.231355 0.310294 0.108304
0.258069 0.312432 0.110352
0.284847 0.314573 0.112400
0.311681 0.316716 0.114448
0.338565 0.318860 0.116495
0.365492 0.321006 0.118542
0.392460 0.323154 0.120589
0.419463 0.325303 0.122635
0.446500 0.327453 0.124681
0.473568 0.329604 0.126726
0.500665 0.331756 0.128772
0.527789 0.333910 0.130819
0.554937 0.336066 0.132866
0.582110 0.338222 0.134914
0.609305 0.340381 0.136963
0.636520 0.342541 0.139014
0.663756 0.344702 0.141067
0.691011 0.346866 0.143122
0.718284 0.349032 0.145180
0.745574 0.351200 0.147240
0.772881 0.353370 0.149303
0.800203 0.355542 0.151371
0.827541 0.357718 0.153442
0.836822 0.358458 0.154146
0.836822 0.358458 0.154146
0.098682 0.330896 0.104463
0.098682 0.330896 0.104463
0.107238 0.331582 0.105123
0.133159 0.333661 0.107118
0.159409 0.335763 0.109134
0.185834 0.337877 0.111158
0.212381 0.339998 0.113187
0.239022 0.342125 0.115218
0.265739 0.344255 0.117251
0.292520 0.346389 0.119286
0.319356 0.348526 0.121321
0.346242 0.350664 0.123357
0.373171 0.352806 0.125394
0.400140 0.354949 0.127432
0.427146 0.357094 0.129470
0.454184 0.359241 0.131510
0.481253 0.361389 0.133551
0.508350 0.363540 0.135593
0.535474 0.365693 0.137637
0.562623 0.367847 0.139683
0.589796 0.370004 0.141731
0.616990 0.372163 0.143782
0.644206 0.374325 0.145835
0.671441 0.376488 0.147892
0.698694 0.378655 0.149952
0.725966 0.380824 0.152016
0.753257 0.382997 0.154085
0.780579 0.385186 0.156161
0.807932 0.387392 0.158244
0.835316 0.389613 0.160335
0.844614 0.390371 0.161046
0.844614 0.390371 0.161046
0.106355 0.362793 0.111420
0.106355 0.362793 0.111420
0.114912 0.363477 0.112074
0.140836 0.365547 0.114053
0.167089 0.367642 0.116053
0.193517 0.369749 0.118063
0.220067 0.371863 0.120079
0.246710 0.373984 0.122098
0.273429 0.376109 0.124120
0.300212 0.378238 0.126145
0.327050 0.380370 0.128172
0.353937 0.382506 0.130201
0.380868 0.384644 0.132232
0.407838 0.386785 0.134265
0.434843 0.388928 0.136301
0.461882 0.391074 0.138338
0.488951 0.393222 0.140378
0.516049 0.395373 0.142421
0.543172 0.397527 0.144467
0.570321 0.399683 0.146516
0.597492 0.401842 0.148568
0.624686 0.404004 0.150625
0.651899 0.406169 0.152685
0.679139 0.408342 0.154751
0.706413 0.410531 0.156825
0.733721 0.412737 0.158906
0.761060 0.414960 0.160996
0.788431 0.417199 0.163093
0.815832 0.419453 0.165200
0.843261 0.421724 0.167315
0.852573 0.422497 0.168035
0.852573 0.422497 0.168035
0.114049 0.394710 0.118333
0.114049 0.394710 0.118333
0.122607 0.395392 0.118983
0.148534 0.397456 0.120950
0.174789 0.399545 0.122938
0.201219 0.401647 0.124938
0.227771 0.403757 0.126944
0.254415 0.405873 0.128956
0.281135 0.407995 0.130972
0.307919 0.410122 0.132992
0.334759 0.412252 0.135015
0.361646 0.414386 0.137041
0.388577 0.416523 0.139070
0.415547 0.418664 0.141103
0.442553 0.420808 0.143139
0.469591 0.422955 0.145179
0.496660 0.425105 0.147223
0.523756 0.427258 0.149270
0.550878 0.429415 0.151322
0.578025 0.431575 0.153379
0.605206 0.433748 0.155442
0.632425 0.435938 0.157513
0.659680 0.438144 0.159592
0.686970 0.440367 0.161679
0.714292 0.442606 0.163775
0.741646 0.444861 0.165880
0.769031 0.447132 0.167994
0.796444 0.449418 0.170117
0.823885 0.451719 0.172250
0.851352 0.454035 0.174393
0.860677 0.454824 0.175122
0.860677 0.454824 0.175122
0.121762 0.426650 0.125216
0.121762 0.426650 0.125216
0.130321 0.427330 0.125862
0.156249 0.429390 0.127821
0.182505 0.431476 0.129803
0.208937 0.433574 0.131796
0.235489 0.435682 0.133798
0.262134 0.437797 0.135806
0.288855 0.439917 0.137820
0.315639 0.442043 0.139838
0.342478 0.444173 0.141861
0.369366 0.446308 0.143889
0.396296 0.448447 0.145921
0.423265 0.450589 0.147958
0.450270 0.452736 0.149999
0.477307 0.454886 0.152046
0.504376 0.457042 0.154098
0.531487 0.459214 0.156157
0.558641 0.461404 0.158225
0.585834 0.463610 0.160301
0.613064 0.465833 0.162386
0.640331 0.468072 0.164480
0.667631 0.470327 0.166583
0.694965 0.472597 0.168695
0.722329 0.474884 0.170817
0.749722 0.477185 0.172949
0.777144 0.479501 0.175091
0.804593 0.481831 0.177243
0.832068 0.484176 0.179406
0.859567 0.486535 0.181579
0.868903 0.487339 0.182319
0.868903 0.487339 0.182319
0.129489 0.458616 0.132082
0.129489 0.458616 0.132082
0.138048 0.459295 0.132727
0.163977 0.461353 0.134681
0.190234 0.463437 0.136660
0.216666 0.465535 0.138652
0.243218 0.467642 0.140653
0.269863 0.469757 0.142662
0.296584 0.471879 0.144677
0.323367 0.474006 0.146699
0.350205 0.476139 0.148727
0.377092 0.478276 0.150760
0.404021 0.480419 0.152799
0.430995 0.482571 0.154845
0.458020 0.484741 0.156900
0.485093 0.486929 0.158964
0.512211 0.489134 0.161036
0.539372 0.491355 0.163118
0.566572 0.493594 0.165209
0.593810 0.495848 0.167309
0.621083 0.498118 0.169419
0.648391 0.500404 0.171539
0.675730 0.502705 0.173670
0.703100 0.505021 0.175810
0.730500 0.507351 0.177961
0.757926 0.509696 0.180123
0.785379 0.512054 0.182296
0.812857 0.514427 0.184481
0.840359 0.516813 0.186677
0.867883 0.519212 0.188885
0.877227 0.520029 0.189637
0.877227 0.520029 0.189637
0.137227 0.490612 0.138945
0.137227 0.490612 0.138945
0.145786 0.491291 0.139590
0.171715 0.493350 0.141544
0.197972 0.495434 0.143524
0.224403 0.497533 0.145518
0.250955 0.499642 0.147523
0.277599 0.501760 0.149537
0.304318 0.503885 0.151559
0.331101 0.506016 0.153588
0.357950 0.508164 0.155626
0.384862 0.510330 0.157675
0.411833 0.512515 0.159732
0.438857 0.514717 0.161800
0.465930 0.516936 0.163877
0.493050 0.519172 0.165964
0.520212 0.521425 0.168061
0.547414 0.523694 0.170168
0.574655 0.525978 0.172286
0.601931 0.528278 0.174413
0.629241 0.530593 0.176552
0.656582 0.532923 0.178702
0.683954 0.535267 0.180862
0.711355 0.537625 0.183034
0.738782 0.539997 0.185218
0.766235 0.542383 0.187414
0.793713 0.544782 0.189622
0.821213 0.547193 0.191842
0.848735 0.549618 0.194075
0.876277 0.552055 0.196321
0.885627 0.552884 0.197086
0.885627 0.552884 0.197086
0.144972 0.522644 0.145819
0.144972 0.522644 0.145819
0.153531 0.523324 0.146465
0.179459 0.525384 0.148423
0.205715 0.527471 0.150409
0.232145 0.529574 0.152410
0.258699 0.531690 0.154423
0.285360 0.533828 0.156449
0.312111 0.535987 0.158487
0.338941 0.538165 0.160536
0.365839 0.540362 0.162597
0.392799 0.542577 0.164667
0.419814 0.544810 0.166749
0.446882 0.547059 0.168841
0.473996 0.549326 0.170944
0.501155 0.551608 0.173058
0.528355 0.553906 0.175183
0.555593 0.556219 0.177319
0.582866 0.558547 0.179466
0.610174 0.560889 0.181625
0.637514 0.563246 0.183795
0.664883 0.565617 0.185978
0.692281 0.568002 0.188172
0.719705 0.570400 0.190380
0.747154 0.572811 0.192599
0.774626 0.575235 0.194832
0.802121 0.577671 0.197078
0.829637 0.580119 0.199337
0.857173 0.582579 0.201611
0.884727 0.585051 0.203898
0.894079 0.585892 0.204677
0.894079 0.585892 0.204677
0.152721 0.554717 0.152718
0.152721 0.554717 0.152718
0.161280 0.555398 0.153367
0.187216 0.557471 0.155335
0.213496 0.559584 0.157335
0.239964 0.561726 0.159353
0.266567 0.563891 0.161387
0.293276 0.566078 0.163435
0.320074 0.568285 0.165496
0.346947 0.570511 0.167569
0.373888 0.572755 0.169655
0.400888 0.575016 0.171751
0.427942 0.577294 0.173860
0.455046 0.579588 0.175980
0.482195 0.581898 0.178113
0.509387 0.584224 0.180257
0.536617 0.586564 0.182413
0.563884 0.588919 0.184581
0.591185 0.591288 0.186761
0.618517 0.593671 0.188954
0.645880 0.596067 0.191160
0.673270 0.598477 0.193379
0.700686 0.600899 0.195611
0.728127 0.603334 0.197857
0.755591 0.605781 0.200116
0.783077 0.608240 0.202389
0.810582 0.610711 0.204677
0.838107 0.613193 0.206979
0.865649 0.615687 0.209295
0.893210 0.618186 0.211619
0.902564 0.619035 0.212407
0.902564 0.619035 0.212407
0.160555 0.586905 0.159671
0.160555 0.586905 0.159671
0.169129 0.587603 0.160326
0.195114 0.589724 0.162316
0.221440 0.591885 0.164337
0.247953 0.594074 0.166379
0.274599 0.596286 0.168437
0.301349 0.598519 0.170510
0.328186 0.600772 0.172598
0.355097 0.603042 0.174698
0.382073 0.605331 0.176812
0.409107 0.607635 0.178938
0.436193 0.609956 0.181077
0.463327 0.612292 0.183229
0.490504 0.614644 0.185393
0.517722 0.617010 0.187571
0.544976 0.619390 0.189762
0.572265 0.621784 0.191965
0.599586 0.624191 0.194183
0.626937 0.626611 0.196413
0.654315 0.629044 0.198658
0.681720 0.631490 0.200917
0.709148 0.633947 0.203190
0.736599 0.636417 0.205477
0.764071 0.638897 0.207779
0.791563 0.641389 0.210095
0.819075 0.643885 0.212414
0.846607 0.646385 0.214736
0.874158 0.648888 0.217059
0.901725 0.651394 0.219383
0.911082 0.652245 0.220173
0.911082 0.652245 0.220173
0.168557 0.619289 0.166706
0.168557 0.619289 0.166706
0.177146 0.620001 0.167369
0.203171 0.622168 0.169383
0.229537 0.624374 0.171430
0.256088 0.626608 0.173498
0.282771 0.628864 0.175584
0.309556 0.631141 0.177686
0.336425 0.633437 0.179803
0.363367 0.635750 0.181934
0.390373 0.638079 0.184079
0.417434 0.640425 0.186238
0.444545 0.642786 0.188411
0.471702 0.645162 0.190598
0.498901 0.647552 0.192798
0.526137 0.649955 0.195013
0.553409 0.652373 0.197241
0.580714 0.654803 0.199484
0.608048 0.657246 0.201741
0.635410 0.659701 0.204013
0.662798 0.662168 0.206300
0.690209 0.664646 0.208602
0.717644 0.667134 0.210915
0.745102 0.669626 0.213230
0.772582 0.672122 0.215547
0.800082 0.674621 0.217865
0.827601 0.677123 0.220186
0.855137 0.679627 0.222508
0.882691 0.682133 0.224832
0.910260 0.684640 0.227157
0.919617 0.685491 0.227946
0.919617 0.685491 0.227946
0.176705 0.651857 0.173836
0.176705 0.651857 0.173836
0.185306 0.652584 0.174508
0.211366 0.654793 0.176549
0.237765 0.657042 0.178624
0.264348 0.659318 0.180722
0.291060 0.661616 0.182839
0.317873 0.663934 0.184972
0.344769 0.666270 0.187122
0.371736 0.668622 0.189288
0.398763 0.670991 0.191468
0.425845 0.673375 0.193663
0.452975 0.675773 0.195873
0.480148 0.678185 0.198098
0.507361 0.680611 0.200338
0.534611 0.683050 0.202593
0.561893 0.685502 0.204863
0.589206 0.687966 0.207148
0.616547 0.690441 0.209449
0.643915 0.692924 0.211756
0.671310 0.695411 0.214066
0.698730 0.697902 0.216378
0.726172 0.700396 0.218692
0.753636 0.702893 0.221008
0.781120 0.705392 0.223326
0.808623 0.707894 0.225645
0.836142 0.710396 0.227966
0.863678 0.712899 0.230288
0.891229 0.715403 0.232611
0.918793 0.717906 0.234935
0.928148 0.718755 0.235724
0.928148 0.718755 0.235724
0.184977 0.684599 0.181070
0.184977 0.684599 0.181070
0.193587 0.685339 0.181752
0.219676 0.687589 0.183823
0.246101 0.689878 0.185931
0.272709 0.692194 0.188062
0.299445 0.694531 0.190213
0.326279 0.696887 0.192382
0.353195 0.699260 0.194568
0.380179 0.701650 0.196771
0.407222 0.704054 0.198990
0.434317 0.706474 0.201225
0.461459 0.708907 0.203475
0.488642 0.711353 0.205742
0.515863 0.713812 0.208025
0.543119 0.716283 0.210321
0.570408 0.718759 0.212622
0.597728 0.721240 0.214925
0.625077 0.723725 0.217232
0.652452 0.726213 0.219540
0.679853 0.728705 0.221851
0.707276 0.731199 0.224163
0.734720 0.733695 0.226478
0.762184 0.736192 0.228794
0.789666 0.738690 0.231111
0.817166 0.741188 0.233430
0.844680 0.743686 0.235750
0.872209 0.746184 0.238071
0.899751 0.748680 0.240392
0.927305 0.751174 0.242715
0.936656 0.752020 0.243503
0.936656 0.752020 0.243503
0.193348 0.717506 0.188421
0.193348 0.717506 0.188421
0.201966 0.718258 0.189114
0.228076 0.720546 0.191219
0.254522 0.722872 0.193362
0.281149 0.725225 0.195529
0.307901 0.727598 0.197718
0.334750 0.729990 0.199926
0.361678 0.732398 0.202152
0.388673 0.734822 0.204396
0.415725 0.737260 0.206656
0.442827 0.739712 0.208934
0.469975 0.742174 0.211223
0.497166 0.744642 0.213515
0.524394 0.747116 0.215811
0.551658 0.749593 0.218110
0.578953 0.752075 0.220412
0.606278 0.754560 0.222716
0.633630 0.757047 0.225023
0.661007 0.759537 0.227331
0.688407 0.762028 0.229642
0.715828 0.764520 0.231954
0.743268 0.767013 0.234268
0.770726 0.769505 0.236583
0.798201 0.771996 0.238899
0.825691 0.774487 0.241216
0.853194 0.776976 0.243534
0.880710 0.779463 0.245853
0.908237 0.781946 0.248172
0.935775 0.784427 0.250492
0.945120 0.785268 0.251279
0.945120 0.785268 0.251279
0.201796 0.750566 0.195900
0.201796 0.750566 0.195900
0.210419 0.751331 0.196605
0.236545 0.753653 0.198748
0.263005 0.756014 0.200929
0.289643 0.758401 0.203136
0.316405 0.760808 0.205366
0.343263 0.763233 0.207616
0.370197 0.765673 0.209884
0.397199 0.768123 0.212160
0.424258 0.770579 0.214442
0.451368 0.773043 0.216728
0.478523 0.775511 0.219018
0.505719 0.777984 0.221311
0.532952 0.780460 0.223608
0.560218 0.782940 0.225907
0.587514 0.785422 0.228209
0.614838 0.787906 0.230513
0.642187 0.790391 0.232819
0.669559 0.792876 0.235127
0.696952 0.795362 0.237436
0.724365 0.797847 0.239747
0.751795 0.800331 0.242059
0.779241 0.802814 0.244372
0.806703 0.805294 0.246686
0.834177 0.807772 0.249001
0.861663 0.810247 0.251316
0.889160 0.812718 0.253632
0.916667 0.815184 0.255947
0.944182 0.817646 0.258263
0.953519 0.818480 0.259049
0.953519 0.818480 0.259049
0.210299 0.783771 0.203519
0.210299 0.783771 0.203519
0.218925 0.784546 0.204237
0.245060 0.786901 0.206420
0.271526 0.789295 0.208643
0.298171 0.791711 0.210889
0.324940 0.794140 0.213146
0.351804 0.796580 0.215411
0.378747 0.799028 0.217683
0.405755 0.801484 0.219961
0.432819 0.803945 0.222243
0.459933 0.806410 0.224530
0.487090 0.808880 0.226820
0.514286 0.811353 0.229113
0.541516 0.813828 0.231409
0.568778 0.816305 0.233708
0.596069 0.818782 0.236009
0.623386 0.821260 0.238312
0.650726 0.823738 0.240617
0.678087 0.826215 0.242923
0.705468 0.828690 0.245230
0.732867 0.831163 0.247539
0.760281 0.833634 0.249848
0.787710 0.836102 0.252158
0.815151 0.838566 0.254469
0.842604 0.841026 0.256780
0.870068 0.843481 0.259091
0.897540 0.845931 0.261403
0.925020 0.848376 0.263714
0.952506 0.850814 0.266025
0.961833 0.851640 0.266809
0.961833 0.851640 0.266809
0.218833 0.817106 0.211283
0.218833 0.817106 0.211283
0.227461 0.817889 0.212011
0.253603 0.820262 0.214215
0.280077 0.822668 0.216447
0.306729 0.825090 0.218694
0.333504 0.827524 0.220952
0.360373 0.829968 0.223218
0.387318 0.832418 0.225490
0.414327 0.834874 0.227768
0.441390 0.837335 0.230050
0.468501 0.839799 0.232336
0.495654 0.842265 0.234626
0.522844 0.844732 0.236918
0.550067 0.847201 0.239213
0.577319 0.849670 0.241510
0.604599 0.852138 0.243809
0.631902 0.854605 0.246110
0.659228 0.857070 0.248412
0.686572 0.859533 0.250715
0.713935 0.861993 0.253020
0.741313 0.864450 0.255325
0.768706 0.866902 0.257631
0.796111 0.869350 0.259937
0.823527 0.871793 0.262243
0.850953 0.874230 0.264550
0.878386 0.876661 0.266856
0.905828 0.879086 0.269163
0.933275 0.881503 0.271468
0.960727 0.883912 0.273774
0.970042 0.884728 0.274556
0.970042 0.884728 0.274556
0.227397 0.850507 0.219093
0.227397 0.850507 0.219093
0.236028 0.851292 0.219821
0.262174 0.853669 0.222026
0.288652 0.856077 0.224259
0.315306 0.858501 0.226506
0.342081 0.860936 0.228764
0.368948 0.863378 0.231030
0.395890 0.865826 0.233302
0.422894 0.868278 0.235578
0.449951 0.870732 0.237859
0.477053 0.873189 0.240144
0.504196 0.875647 0.242432
0.531374 0.878104 0.244722
0.558583 0.880561 0.247015
0.585820 0.883017 0.249309
0.613082 0.885471 0.251606
0.640367 0.887922 0.253903
0.667671 0.890370 0.256202
