omv/luts/04_neon_nights.cube
# Original OMV LUT; redistribution permitted with OMV.
TITLE "Neon Nights"
LUT_3D_SIZE 8
DOMAIN_MIN 0.000000 0.000000 0.000000
DOMAIN_MAX 0.903226 0.903226 0.903226
0.000000 0.012000 0.055472
0.097997 0.009112 0.052584
0.250239 0.005030 0.048502
0.402956 0.000936 0.044408
0.555978 0.000000 0.040276
0.709449 0.000000 0.035716
0.863364 0.000000 0.030657
1.000000 0.000000 0.025167
0.000000 0.112905 0.045756
0.088281 0.110017 0.042868
0.240600 0.105922 0.038650
0.393680 0.101763 0.033916
0.547313 0.097551 0.028707
0.701383 0.093292 0.023089
0.855808 0.088996 0.017129
1.000000 0.084668 0.010894
0.000000 0.255354 0.030579
0.075896 0.252373 0.026762
0.229060 0.248129 0.021056
0.382876 0.243841 0.015022
0.537122 0.239520 0.008730
0.691681 0.235175 0.002250
0.846469 0.230814 0.000000
1.000000 0.226445 0.000000
0.000000 0.397800 0.010890
0.065864 0.394751 0.006388
0.219470 0.390429 0.000000
0.373605 0.386084 0.000000
0.528046 0.381729 0.000000
0.682673 0.377372 0.000000
0.837492 0.373010 0.000000
0.992759 0.368608 0.000000
0.000000 0.540287 0.000000
0.056810 0.537222 0.000000
0.210439 0.532896 0.000000
0.364690 0.528541 0.000000
0.519544 0.524142 0.000000
0.674828 0.519716 0.000000
0.830402 0.515277 0.000000
0.986143 0.510842 0.000000
0.000000 0.682912 0.000000
0.048517 0.679806 0.000000
0.202873 0.675403 0.000000
0.357799 0.670985 0.000000
0.513012 0.666569 0.000000
0.668336 0.662174 0.000000
0.823693 0.657802 0.000000
0.979222 0.653424 0.000000
0.000000 0.825492 0.000000
0.042030 0.822391 0.000000
0.196308 0.818036 0.000000
0.350999 0.813685 0.000000
0.506022 0.809320 0.000000
0.661241 0.804951 0.000000
0.816552 0.800587 0.000000
0.971869 0.796236 0.000000
0.000000 0.968354 0.000000
0.034983 0.965281 0.000000
0.189196 0.960942 0.000000
0.343796 0.956602 0.000000
0.498537 0.952274 0.000000
0.653281 0.947967 0.000000
0.807923 0.943690 0.000000
0.962378 0.939452 0.000000
0.000000 0.011019 0.165112
0.097016 0.008131 0.162224
0.249258 0.004050 0.158142
0.401975 0.000000 0.154048
0.555032 0.000000 0.149856
0.708572 0.000000 0.145172
0.862548 0.000000 0.140006
1.000000 0.000000 0.134424
0.000000 0.111924 0.155396
0.087300 0.109036 0.152508
0.239680 0.104930 0.148183
0.392826 0.100760 0.143331
0.546517 0.096537 0.138020
0.700636 0.092270 0.132316
0.855101 0.087966 0.126286
1.000000 0.083634 0.119996
0.000000 0.254344 0.139926
0.075119 0.251356 0.136043
0.228328 0.247104 0.130257
0.382181 0.242809 0.124158
0.536454 0.238484 0.117818
0.691032 0.234136 0.111304
0.845830 0.229773 0.104685
1.000000 0.225404 0.098029
0.000000 0.396766 0.119992
0.065204 0.393713 0.115462
0.218826 0.389388 0.108947
0.372968 0.385043 0.102338
0.527406 0.380688 0.095707
0.682022 0.376333 0.089126
0.836901 0.371964 0.082785
0.992236 0.367555 0.076947
0.000000 0.539246 0.097913
0.056167 0.536181 0.093259
0.209792 0.531856 0.086765
0.364126 0.527492 0.080629
0.519041 0.523087 0.074997
0.674364 0.518657 0.069900
0.829953 0.514219 0.065365
0.985687 0.509787 0.061418
0.000000 0.681858 0.076789
0.048032 0.678749 0.073021
0.202417 0.674344 0.068163
0.357350 0.669927 0.063860
0.512547 0.665517 0.060146
0.667834 0.661129 0.057050
0.823189 0.656759 0.054388
0.978724 0.652380 0.051768
0.000000 0.824437 0.061286
0.041554 0.821341 0.058899
0.195794 0.816995 0.056048
0.350499 0.812641 0.053424
0.505524 0.808276 0.050815
0.660730 0.803909 0.048180
0.816015 0.799548 0.045478
0.971293 0.795202 0.042666
0.000000 0.967310 0.051655
0.034481 0.964237 0.049814
0.188677 0.959901 0.047177
0.343246 0.955565 0.044452
0.497943 0.951243 0.041600
0.652628 0.946943 0.038579
0.807199 0.942676 0.035349
0.961568 0.938449 0.031866
0.000000 0.009633 0.320050
0.095630 0.006745 0.317162
0.247872 0.002663 0.313080
0.400589 0.000000 0.308986
0.553723 0.000000 0.304657
0.707359 0.000000 0.299805
0.861417 0.000000 0.294492
1.000000 0.000000 0.288787
0.000000 0.110538 0.310334
0.085926 0.107648 0.307423
0.238409 0.103524 0.302918
0.391645 0.099338 0.297907
0.545414 0.095101 0.292459
0.699598 0.090823 0.286640
0.854115 0.086510 0.280516
1.000000 0.082170 0.274156
0.000000 0.252912 0.294410
0.074040 0.249916 0.290439
0.227309 0.245653 0.284546
0.381210 0.241350 0.278362
0.535520 0.237018 0.271958
0.690120 0.232666 0.265405
0.844929 0.228301 0.258768
0.999880 0.223932 0.252115
0.000000 0.395302 0.274152
0.064280 0.392246 0.269585
0.217919 0.387918 0.263038
0.372067 0.383571 0.256419
0.526498 0.379218 0.249801
0.681103 0.374865 0.243260
0.836097 0.370483 0.237084
0.991521 0.366063 0.231423
0.000000 0.537775 0.252000
0.055254 0.534712 0.247362
0.208916 0.530383 0.240955
0.363358 0.526006 0.234991
0.518349 0.521593 0.229539
0.673716 0.517161 0.224631
0.829319 0.512725 0.220292
0.985033 0.508299 0.216551
0.000000 0.680367 0.231271
0.047360 0.677254 0.227633
0.201779 0.672848 0.222965
0.356712 0.668434 0.218861
0.511879 0.664032 0.215354
0.667108 0.659657 0.212465
0.822481 0.655285 0.209828
0.978020 0.650905 0.207210
0.000000 0.822950 0.216426
0.040866 0.819861 0.214188
0.195074 0.815522 0.211479
0.349795 0.811166 0.208866
0.504816 0.806801 0.206254
0.659999 0.802437 0.203602
0.815242 0.798082 0.200869
0.970458 0.793744 0.198012
0.000000 0.965835 0.207097
0.033767 0.962763 0.205248
0.187933 0.958431 0.202589
0.342453 0.954102 0.199827
0.497081 0.949788 0.196925
0.651678 0.945500 0.193840
0.806141 0.941247 0.190530
0.960384 0.937036 0.186954
0.000000 0.008243 0.475470
0.094239 0.005355 0.472582
0.246482 0.001273 0.468501
0.399208 0.000000 0.464390
0.552445 0.000000 0.459880
0.706172 0.000000 0.454867
0.860309 0.000000 0.449416
1.000000 0.000000 0.443594
0.000000 0.109147 0.465754
0.084584 0.106249 0.462759
0.237165 0.102107 0.458080
0.390488 0.097906 0.452916
0.544330 0.093657 0.447338
0.698576 0.089367 0.441410
0.853142 0.085046 0.435201
1.000000 0.080699 0.428777
0.000000 0.251472 0.449332
0.072980 0.248467 0.445277
0.226306 0.244194 0.439284
0.380251 0.239884 0.433022
0.534592 0.235546 0.426564
0.689211 0.231191 0.419977
0.844026 0.226825 0.413329
0.998970 0.222457 0.406688
0.000000 0.393831 0.428773
0.063360 0.390772 0.424176
0.217013 0.386442 0.417604
0.371163 0.382095 0.410982
0.525583 0.377743 0.404383
0.680221 0.373388 0.397926
0.835324 0.368993 0.391924
0.990826 0.364566 0.386444
0.000000 0.536300 0.406574
0.054331 0.533239 0.401958
0.208077 0.528901 0.395683
0.362617 0.524513 0.389894
0.517674 0.520094 0.384626
0.673075 0.515660 0.379909
0.828680 0.511227 0.375771
0.984364 0.506810 0.372238
0.000000 0.678869 0.386297
0.046701 0.675753 0.382790
0.201142 0.671348 0.378316
0.356066 0.666939 0.374414
0.511191 0.662547 0.371118
0.666386 0.658179 0.368379
0.821775 0.653805 0.365754
0.977311 0.649426 0.363134
0.000000 0.821461 0.372121
0.040154 0.818381 0.370034
0.194360 0.814043 0.367399
0.349090 0.809686 0.364793
0.504101 0.805323 0.362173
0.659254 0.800963 0.359500
0.814448 0.796614 0.356730
0.969596 0.792285 0.353823
0.000000 0.964356 0.363020
0.033042 0.961286 0.361161
0.187172 0.956959 0.358475
0.341636 0.952637 0.355672
0.496188 0.948333 0.352713
0.650691 0.944057 0.349558
0.805040 0.939819 0.346164
0.959149 0.935626 0.342489
0.000000 0.006850 0.631185
0.092846 0.003962 0.628296
0.245089 0.000000 0.624215
0.397860 0.000000 0.620026
0.551196 0.000000 0.615340
0.705010 0.000000 0.610173
0.859222 0.000000 0.604590
1.000000 0.000000 0.598659
0.000000 0.107753 0.621450
0.083275 0.104841 0.618326
0.235950 0.100683 0.613480
0.389355 0.096467 0.608171
0.543267 0.092206 0.602470
0.697570 0.087906 0.596442
0.852180 0.083577 0.590154
1.000000 0.079225 0.583675
0.000000 0.250025 0.604504
0.071939 0.247012 0.600371
0.225316 0.242730 0.594285
0.379301 0.238412 0.587954
0.533669 0.234070 0.581447
0.688303 0.229712 0.574835
0.843120 0.225346 0.568184
0.998053 0.220980 0.561563
0.000000 0.392357 0.583670
0.062444 0.389295 0.579047
0.216108 0.384963 0.572458
0.370254 0.380616 0.565841
0.524659 0.376268 0.559269
0.679377 0.371903 0.552942
0.834580 0.367496 0.547116
0.990148 0.363063 0.541820
0.000000 0.534823 0.561448
0.053412 0.531763 0.556870
0.207273 0.527411 0.550763
0.361900 0.523014 0.545151
0.517013 0.518590 0.540070
0.672437 0.514157 0.535548
0.828033 0.509729 0.531613
0.983676 0.505321 0.528291
0.000000 0.677367 0.541678
0.046053 0.674249 0.538306
0.200504 0.669846 0.534029
0.355408 0.665444 0.530332
0.510480 0.661063 0.527250
0.665670 0.656698 0.524594
0.821069 0.652323 0.521976
0.976595 0.647945 0.519348
0.000000 0.819973 0.528182
0.039424 0.816901 0.526234
0.193650 0.812561 0.523618
0.348382 0.808204 0.521014
0.503376 0.803843 0.518382
0.658494 0.799487 0.515681
0.813632 0.795146 0.512871
0.968704 0.790827 0.509908
0.000000 0.962875 0.519234
0.032306 0.959808 0.517361
0.186392 0.955486 0.514642
0.340794 0.951172 0.511793
0.495264 0.946879 0.508774
0.649665 0.942616 0.505544
0.803894 0.938394 0.502061
0.957862 0.934219 0.498282
0.000000 0.005455 0.787111
0.091451 0.002567 0.784223
0.243694 0.000000 0.780142
0.396545 0.000000 0.775811
0.549976 0.000000 0.770957
0.703874 0.000000 0.765643
0.858156 0.000000 0.759937
1.000000 0.000000 0.753904
0.000000 0.106350 0.777296
0.081997 0.103425 0.774045
0.234763 0.099251 0.769040
0.388246 0.095022 0.763594
0.542224 0.090749 0.757776
0.696579 0.086440 0.751655
0.851230 0.082103 0.745297
1.000000 0.077747 0.738769
0.000000 0.248572 0.759849
0.070915 0.245552 0.755642
0.224341 0.241261 0.749472
0.378361 0.236937 0.743078
0.532752 0.232591 0.736531
0.687396 0.228231 0.729900
0.842210 0.223866 0.723254
0.997128 0.219502 0.716660
0.000000 0.390879 0.738765
0.061532 0.387815 0.734122
0.215201 0.383482 0.727522
0.369341 0.379137 0.720918
0.523736 0.374790 0.714389
0.678570 0.370411 0.708229
0.833861 0.365996 0.702581
0.989485 0.361558 0.697473
0.000000 0.533345 0.716546
0.052532 0.530280 0.712048
0.206501 0.525916 0.706113
0.361205 0.521511 0.700683
0.516362 0.517085 0.695791
0.671799 0.512653 0.691467
0.827375 0.508232 0.687738
0.982966 0.503835 0.684631
0.000000 0.675861 0.697336
0.045410 0.672743 0.694101
0.199862 0.668344 0.690023
0.354735 0.663950 0.686535
0.509750 0.659582 0.683659
0.664958 0.655214 0.681025
0.820360 0.650838 0.678409
0.975870 0.646462 0.675770
0.000000 0.818487 0.684530
0.038700 0.815419 0.682657
0.192941 0.811077 0.680052
0.347670 0.806720 0.677445
0.502640 0.802362 0.674796
0.657715 0.798012 0.672063
0.812791 0.793678 0.669207
0.967782 0.789370 0.666183
0.000000 0.961393 0.675655
0.031556 0.958328 0.673765
0.185593 0.954013 0.671009
0.339925 0.949708 0.668109
0.494307 0.945427 0.665024
0.648600 0.941179 0.661714
0.802700 0.936972 0.658137
0.956521 0.932817 0.654249
0.000000 0.004058 0.943205
0.090055 0.001170 0.940317
0.242309 0.000000 0.936215
0.395262 0.000000 0.931703
0.548786 0.000000 0.926688
0.702762 0.000000 0.921235
0.857109 0.000000 0.915412
1.000000 0.000000 0.909285
0.000000 0.104939 0.933246
0.080751 0.102002 0.929874
0.233603 0.097813 0.924716
0.387160 0.093571 0.919140
0.541198 0.089287 0.913215
0.695602 0.084969 0.907008
0.850288 0.080627 0.900587
1.000000 0.076266 0.894019
0.000000 0.247113 0.915323
0.069908 0.244086 0.911048
0.223378 0.239788 0.904801
0.377430 0.235459 0.898351
0.531839 0.231109 0.891771
0.686489 0.226748 0.885130
0.841296 0.222384 0.878496
0.996203 0.218023 0.871944
0.000000 0.389398 0.894014
0.060623 0.386333 0.889356
0.214293 0.381999 0.882755
0.368421 0.377656 0.876170
0.522851 0.373306 0.869728
0.677795 0.368915 0.863741
0.833163 0.364491 0.858275
0.988833 0.360050 0.853357
0.000000 0.531866 0.871832
0.051692 0.528791 0.867450
0.205758 0.524416 0.861691
0.360527 0.520005 0.856444
0.515718 0.515577 0.851745
0.671157 0.511149 0.847622
0.826702 0.506736 0.844103
0.982235 0.502352 0.841205
0.000000 0.674354 0.853226
0.044771 0.671237 0.850129
0.199213 0.666842 0.846254
0.354042 0.662459 0.842977
0.509025 0.658098 0.840248
0.664249 0.653728 0.837626
0.819647 0.649353 0.835008
0.975134 0.644980 0.832352
0.000000 0.817004 0.841108
0.037983 0.813934 0.839252
0.192233 0.809590 0.836654
0.346951 0.805235 0.834039
0.501891 0.800881 0.831368
0.656917 0.796537 0.828599
0.811924 0.792213 0.825691
0.966826 0.787916 0.822602
0.000000 0.959910 0.832236
0.030791 0.956850 0.830324
0.184771 0.952542 0.827527
0.339027 0.948247 0.824571
0.493314 0.943978 0.821416
0.647492 0.939745 0.818021
0.801458 0.935556 0.814344
0.955132 0.931420 0.810347
0.000000 0.002661 1.000000
0.088657 0.000000 1.000000
0.240958 0.000000 1.000000
0.394012 0.000000 1.000000
0.547622 0.000000 1.000000
0.701672 0.000000 1.000000
0.856082 0.000000 1.000000
1.000000 0.000000 1.000000
0.000000 0.103521 1.000000
0.079534 0.100573 1.000000
0.232468 0.096369 1.000000
0.386094 0.092115 1.000000
0.540190 0.087820 1.000000
0.694638 0.083495 1.000000
0.849356 0.079147 1.000000
1.000000 0.074783 1.000000
0.000000 0.245650 1.000000
0.068917 0.242617 1.000000
0.222426 0.238312 1.000000
0.376505 0.233978 1.000000
0.530928 0.229625 1.000000
0.685580 0.225264 1.000000
0.840376 0.220902 1.000000
0.995316 0.216538 1.000000
0.000000 0.387915 1.000000
0.059714 0.384849 1.000000
0.213381 0.380516 1.000000
0.367494 0.376175 1.000000
0.522007 0.371816 1.000000
0.677049 0.367414 1.000000
0.832484 0.362984 1.000000
0.988189 0.358542 1.000000
0.000000 0.530380 1.000000
0.050888 0.527296 1.000000
0.205041 0.522912 1.000000
0.359865 0.518496 1.000000
0.515078 0.514069 1.000000
0.670507 0.509646 1.000000
0.826011 0.505243 1.000000
0.981508 0.500867 0.997932
0.000000 0.672845 1.000000
0.044131 0.669730 1.000000
0.198551 0.665343 1.000000
0.353328 0.660971 0.999632
0.508306 0.656611 0.996981
0.663540 0.652241 0.994366
0.818928 0.647866 0.991741
0.974385 0.643497 0.989062
0.000000 0.815519 0.997835
0.037271 0.812447 0.995990
0.191523 0.808103 0.993393
0.346223 0.803750 0.990765
0.501127 0.799401 0.988067
0.656096 0.795064 0.985256
0.811028 0.790750 0.982293
0.965835 0.786466 0.979134
0.000000 0.958428 0.988945
0.030008 0.955372 0.987009
0.183925 0.951072 0.984166
0.338098 0.946788 0.981148
0.492283 0.942532 0.977918
0.646339 0.938315 0.974433
0.800164 0.934145 0.970651
0.953734 0.930022 0.966578
