omv/luts/04_neon_nights.cube
# Original OMV LUT; redistribution permitted with OMV.
TITLE "Neon Nights"
LUT_3D_SIZE 5
DOMAIN_MIN 0.000000 0.000000 0.000000
DOMAIN_MAX 0.903226 0.903226 0.903226
0.000000 0.012000 0.055472
0.212122 0.006052 0.049524
0.479429 0.000000 0.042358
0.747889 0.000000 0.034495
1.000000 0.000000 0.025167
0.000000 0.219735 0.034845
0.193384 0.213625 0.027273
0.462397 0.206158 0.017097
0.732650 0.198587 0.006070
1.000000 0.190956 0.000000
0.000000 0.469029 0.000017
0.176498 0.462716 0.000000
0.446278 0.455114 0.000000
0.717162 0.447456 0.000000
0.989320 0.439701 0.000000
0.000000 0.718551 0.000000
0.162608 0.712133 0.000000
0.433760 0.704420 0.000000
0.705369 0.696764 0.000000
0.977465 0.689103 0.000000
0.000000 0.968354 0.000000
0.150592 0.962027 0.000000
0.421159 0.954436 0.000000
0.691954 0.946895 0.000000
0.962378 0.939452 0.000000
0.000000 0.009980 0.281257
0.210102 0.004032 0.275310
0.477425 0.000000 0.268115
0.746133 0.000000 0.259816
1.000000 0.000000 0.250142
0.000000 0.217670 0.260182
0.191786 0.211530 0.252313
0.460950 0.204037 0.241871
0.731298 0.196449 0.230677
1.000000 0.188811 0.219093
0.000000 0.466886 0.224576
0.175184 0.460572 0.214961
0.444945 0.452974 0.203512
0.716093 0.445286 0.193143
0.988383 0.437521 0.184406
0.000000 0.716372 0.188226
0.161683 0.709953 0.181659
0.432773 0.702259 0.175412
0.704337 0.694616 0.170672
0.976426 0.686956 0.166080
0.000000 0.966204 0.168179
0.149529 0.959883 0.164350
0.419972 0.952307 0.159502
0.690557 0.944794 0.154169
0.960684 0.937389 0.148127
0.000000 0.007546 0.553297
0.207668 0.001599 0.547349
0.475106 0.000000 0.539952
0.744097 0.000000 0.531154
1.000000 0.000000 0.521100
0.000000 0.215168 0.531538
0.189925 0.208996 0.523343
0.459249 0.201474 0.512617
0.729691 0.193870 0.501258
1.000000 0.186227 0.489630
0.000000 0.464303 0.495118
0.173595 0.457989 0.485511
0.443447 0.450382 0.474297
0.714872 0.442665 0.464471
0.987268 0.434895 0.456323
0.000000 0.713745 0.459866
0.160564 0.707332 0.453801
0.431525 0.699669 0.448198
0.703101 0.692026 0.443597
0.975151 0.684371 0.438976
0.000000 0.963616 0.441097
0.148212 0.957303 0.437215
0.418474 0.949752 0.432233
0.688774 0.942275 0.426690
0.958512 0.934922 0.420360
0.000000 0.005106 0.826120
0.205227 0.000000 0.820173
0.472885 0.000000 0.812388
0.742136 0.000000 0.803131
1.000000 0.000000 0.792738
0.000000 0.212645 0.803531
0.188121 0.206443 0.795043
0.457583 0.198896 0.784074
0.728095 0.191280 0.772591
0.999167 0.183637 0.760959
0.000000 0.461711 0.766434
0.171985 0.455402 0.756868
0.442058 0.447770 0.746043
0.713703 0.440031 0.736777
0.986147 0.432266 0.729233
0.000000 0.711111 0.732491
0.159417 0.704711 0.726942
0.430256 0.697075 0.721887
0.701860 0.689428 0.717308
0.973835 0.681783 0.712631
0.000000 0.961022 0.714787
0.146842 0.954723 0.710830
0.416887 0.947200 0.705687
0.686866 0.939765 0.699906
0.956177 0.932467 0.693261
0.000000 0.002661 1.000000
0.202803 0.000000 1.000000
0.470755 0.000000 1.000000
0.740244 0.000000 1.000000
1.000000 0.000000 1.000000
0.000000 0.210103 1.000000
0.186368 0.203876 1.000000
0.455946 0.196309 1.000000
0.726505 0.188684 1.000000
0.997555 0.181045 1.000000
0.000000 0.459116 1.000000
0.170374 0.452811 1.000000
0.440761 0.445143 1.000000
0.712568 0.437392 1.000000
0.985000 0.429639 1.000000
0.000000 0.708476 1.000000
0.158223 0.702096 1.000000
0.429005 0.694474 0.996085
0.700603 0.686828 0.991501
0.972467 0.679198 0.986742
0.000000 0.958428 0.988945
0.145407 0.952146 0.984891
0.415199 0.944656 0.979562
0.684821 0.937268 0.973517
0.953734 0.930022 0.966578
