omv/luts/04_neon_nights.cube
# Original OMV LUT; redistribution permitted with OMV.
TITLE "Neon Nights"
LUT_3D_SIZE 32
DOMAIN_MIN 0.0 0.0 0.0
DOMAIN_MAX 1.0 1.0 1.0
0.000000 0.012000 0.055472
0.000000 0.012000 0.055472
0.022250 0.011142 0.054614
0.060069 0.010129 0.053601
0.097997 0.009112 0.052584
0.135992 0.008093 0.051565
0.174037 0.007073 0.050545
0.212122 0.006052 0.049524
0.250239 0.005030 0.048502
0.288384 0.004008 0.047480
0.326554 0.002984 0.046457
0.364745 0.001961 0.045433
0.402956 0.000936 0.044408
0.441184 0.000000 0.043383
0.479429 0.000000 0.042358
0.517689 0.000000 0.041331
0.555978 0.000000 0.040276
0.594300 0.000000 0.039186
0.632654 0.000000 0.038062
0.671037 0.000000 0.036905
0.709449 0.000000 0.035716
0.747889 0.000000 0.034495
0.786355 0.000000 0.033245
0.824847 0.000000 0.031965
0.863364 0.000000 0.030657
0.901904 0.000000 0.029323
0.940466 0.000000 0.027962
0.979050 0.000000 0.026577
1.000000 0.000000 0.025167
1.000000 0.000000 0.023735
1.000000 0.000000 0.022498
1.000000 0.000000 0.022498
0.000000 0.012000 0.055472
0.000000 0.012000 0.055472
0.022250 0.011142 0.054614
0.060069 0.010129 0.053601
0.097997 0.009112 0.052584
0.135992 0.008093 0.051565
0.174037 0.007073 0.050545
0.212122 0.006052 0.049524
0.250239 0.005030 0.048502
0.288384 0.004008 0.047480
0.326554 0.002984 0.046457
0.364745 0.001961 0.045433
0.402956 0.000936 0.044408
0.441184 0.000000 0.043383
0.479429 0.000000 0.042358
0.517689 0.000000 0.041331
0.555978 0.000000 0.040276
0.594300 0.000000 0.039186
0.632654 0.000000 0.038062
0.671037 0.000000 0.036905
0.709449 0.000000 0.035716
0.747889 0.000000 0.034495
0.786355 0.000000 0.033245
0.824847 0.000000 0.031965
0.863364 0.000000 0.030657
0.901904 0.000000 0.029323
0.940466 0.000000 0.027962
0.979050 0.000000 0.026577
1.000000 0.000000 0.025167
1.000000 0.000000 0.023735
1.000000 0.000000 0.022498
1.000000 0.000000 0.022498
0.000000 0.041959 0.052587
0.000000 0.041959 0.052587
0.019365 0.041101 0.051730
0.057185 0.040087 0.050716
0.095112 0.039071 0.049699
0.133107 0.038052 0.048681
0.171152 0.037032 0.047661
0.209237 0.036011 0.046640
0.247354 0.034989 0.045618
0.285500 0.033967 0.044595
0.323669 0.032943 0.043572
0.361860 0.031919 0.042548
0.400071 0.030895 0.041523
0.438312 0.029868 0.040477
0.476589 0.028837 0.039394
0.514900 0.027802 0.038278
0.553243 0.026764 0.037128
0.591618 0.025722 0.035945
0.630022 0.024676 0.034732
0.668454 0.023628 0.033488
0.706914 0.022576 0.032215
0.745399 0.021521 0.030913
0.783910 0.020463 0.029585
0.822444 0.019402 0.028230
0.861002 0.018339 0.026850
0.899581 0.017273 0.025446
0.938181 0.016204 0.024019
0.976802 0.015133 0.022570
1.000000 0.014060 0.021100
1.000000 0.012984 0.019610
1.000000 0.012067 0.018326
1.000000 0.012067 0.018326
0.000000 0.077381 0.049177
0.000000 0.077381 0.049177
0.015955 0.076524 0.048319
0.053774 0.075510 0.047305
0.091701 0.074493 0.046288
0.129696 0.073474 0.045270
0.167742 0.072455 0.044250
0.205826 0.071434 0.043229
0.243944 0.070412 0.042207
0.282091 0.069389 0.041181
0.320279 0.068362 0.040124
0.358509 0.067331 0.039032
0.396778 0.066297 0.037906
0.435082 0.065259 0.036747
0.473421 0.064217 0.035556
0.511791 0.063171 0.034333
0.550193 0.062123 0.033081
0.588623 0.061071 0.031800
0.627081 0.060016 0.030491
0.665566 0.058958 0.029155
0.704076 0.057897 0.027793
0.742610 0.056834 0.026407
0.781166 0.055768 0.024996
0.819745 0.054699 0.023563
0.858345 0.053628 0.022109
0.896965 0.052555 0.020633
0.935603 0.051479 0.019138
0.974260 0.050402 0.017624
1.000000 0.049323 0.016093
1.000000 0.048241 0.014546
1.000000 0.047319 0.013215
1.000000 0.047319 0.013215
0.000000 0.112905 0.045756
0.000000 0.112905 0.045756
0.012534 0.112047 0.044898
0.050353 0.111033 0.043885
0.088281 0.110017 0.042868
0.126276 0.108998 0.041849
0.164327 0.107977 0.040818
0.202438 0.106951 0.039752
0.240600 0.105922 0.038650
0.278809 0.104888 0.037515
0.317061 0.103850 0.036347
0.355352 0.102808 0.035147
0.393680 0.101763 0.033916
0.432042 0.100715 0.032656
0.470436 0.099663 0.031367
0.508860 0.098609 0.030050
0.547313 0.097551 0.028707
0.585793 0.096490 0.027338
0.624299 0.095427 0.025945
0.662829 0.094361 0.024528
0.701383 0.093292 0.023089
0.739958 0.092221 0.021628
0.778555 0.091148 0.020148
0.817172 0.090073 0.018647
0.855808 0.088996 0.017129
0.894462 0.087916 0.015593
0.933133 0.086835 0.014042
0.971820 0.085753 0.012475
1.000000 0.084668 0.010894
1.000000 0.083582 0.009300
1.000000 0.082656 0.007932
1.000000 0.082656 0.007932
0.000000 0.148492 0.042329
0.000000 0.148492 0.042329
0.009108 0.147634 0.041471
0.046940 0.146618 0.040434
0.084900 0.145596 0.039360
0.122947 0.144568 0.038250
0.161062 0.143536 0.037106
0.199235 0.142499 0.035930
0.237458 0.141459 0.034721
0.275726 0.140414 0.033483
0.314034 0.139366 0.032214
0.352380 0.138315 0.030918
0.390761 0.137261 0.029594
0.429173 0.136204 0.028243
0.467616 0.135143 0.026868
0.506088 0.134080 0.025468
0.544586 0.133014 0.024045
0.583109 0.131946 0.022600
0.621656 0.130876 0.021134
0.660226 0.129803 0.019648
0.698817 0.128728 0.018143
0.737428 0.127650 0.016620
0.776059 0.126571 0.015080
0.814707 0.125490 0.013524
0.853372 0.124408 0.011953
0.892054 0.123324 0.010369
0.930750 0.122238 0.008772
0.969461 0.121151 0.007163
1.000000 0.120063 0.005544
1.000000 0.118974 0.003915
1.000000 0.118045 0.002521
1.000000 0.118045 0.002521
0.000000 0.184113 0.038772
0.000000 0.184113 0.038772
0.005798 0.183247 0.037825
0.043694 0.182220 0.036677
0.081715 0.181186 0.035494
0.119822 0.180148 0.034278
0.157995 0.179105 0.033033
0.196224 0.178059 0.031757
0.234501 0.177009 0.030454
0.272821 0.175955 0.029123
0.311180 0.174899 0.027766
0.349574 0.173839 0.026384
0.388001 0.172776 0.024978
0.426458 0.171711 0.023549
0.464944 0.170643 0.022098
0.503456 0.169573 0.020627
0.541992 0.168501 0.019136
0.580553 0.167426 0.017626
0.619134 0.166349 0.016098
0.657737 0.165270 0.014554
0.696359 0.164190 0.012995
0.734999 0.163108 0.011421
0.773656 0.162024 0.009833
0.812330 0.160938 0.008233
0.851018 0.159852 0.006622
0.889721 0.158764 0.005000
0.928436 0.157675 0.003369
0.967164 0.156585 0.001730
1.000000 0.155494 0.000084
1.000000 0.154402 0.000000
1.000000 0.153472 0.000000
1.000000 0.153472 0.000000
0.000000 0.219735 0.034845
0.000000 0.219735 0.034845
0.002692 0.218860 0.033811
0.040645 0.217822 0.032562
0.078721 0.216779 0.031282
0.116881 0.215732 0.029973
0.155106 0.214680 0.028636
0.193384 0.213625 0.027273
0.231709 0.212566 0.025885
0.270074 0.211505 0.024474
0.308477 0.210441 0.023040
0.346913 0.209373 0.021584
0.385380 0.208304 0.020107
0.423875 0.207232 0.018612
0.462397 0.206158 0.017097
0.500943 0.205081 0.015566
0.539512 0.204003 0.014018
0.578102 0.202923 0.012455
0.616712 0.201841 0.010877
0.655341 0.200758 0.009287
0.693987 0.199673 0.007684
0.732650 0.198587 0.006070
0.771327 0.197499 0.004447
0.810019 0.196411 0.002814
0.848724 0.195321 0.001174
0.887441 0.194231 0.000000
0.926170 0.193140 0.000000
0.964908 0.192048 0.000000
1.000000 0.190956 0.000000
1.000000 0.189863 0.000000
1.000000 0.188931 0.000000
1.000000 0.188931 0.000000
0.000000 0.255354 0.030579
0.000000 0.255354 0.030579
0.000000 0.254471 0.029467
0.037771 0.253424 0.028128
0.075896 0.252373 0.026762
0.114103 0.251317 0.025371
0.152373 0.250257 0.023955
0.190694 0.249195 0.022516
0.229060 0.248129 0.021056
0.267465 0.247060 0.019575
0.305904 0.245989 0.018075
0.344376 0.244916 0.016557
0.382876 0.243841 0.015022
0.421403 0.242763 0.013470
0.459954 0.241684 0.011904
0.498528 0.240603 0.010323
0.537122 0.239520 0.008730
0.575736 0.238436 0.007125
0.614368 0.237350 0.005510
0.653017 0.236263 0.003884
0.691681 0.235175 0.002250
0.730359 0.234086 0.000609
0.769051 0.232996 0.000000
0.807754 0.231906 0.000000
0.846469 0.230814 0.000000
0.885195 0.229722 0.000000
0.923929 0.228630 0.000000
0.962671 0.227538 0.000000
1.000000 0.226445 0.000000
1.000000 0.225352 0.000000
1.000000 0.224421 0.000000
1.000000 0.224421 0.000000
0.000000 0.290969 0.026011
0.000000 0.290969 0.026011
0.000000 0.290079 0.024831
0.035053 0.289025 0.023415
0.073220 0.287966 0.021974
0.111467 0.286903 0.020512
0.149775 0.285836 0.019028
0.188133 0.284767 0.017525
0.226533 0.283695 0.016003
0.264971 0.282621 0.014465
0.303441 0.281545 0.012911
0.341941 0.280466 0.011342
0.380469 0.279386 0.009759
0.419020 0.278304 0.008164
0.457594 0.277221 0.006557
0.496189 0.276136 0.004939
0.534803 0.275050 0.003312
0.573434 0.273962 0.001677
0.612081 0.272874 0.000035
0.650743 0.271785 0.000000
0.689418 0.270695 0.000000
0.728106 0.269604 0.000000
0.766805 0.268513 0.000000
0.805514 0.267422 0.000000
0.844232 0.266330 0.000000
0.882958 0.265238 0.000000
0.921692 0.264146 0.000000
0.960432 0.263053 0.000000
0.999178 0.261961 0.000000
1.000000 0.260870 0.000000
1.000000 0.259940 0.000000
1.000000 0.259940 0.000000
0.000000 0.326580 0.021181
0.000000 0.326580 0.021181
0.000000 0.325685 0.019942
0.032467 0.324624 0.018460
0.070670 0.323559 0.016957
0.108951 0.322490 0.015434
0.147291 0.321418 0.013894
0.185679 0.320343 0.012338
0.224107 0.319267 0.010767
0.262571 0.318188 0.009183
0.301066 0.317107 0.007586
0.339588 0.316025 0.005978
0.378135 0.314941 0.004359
0.416705 0.313856 0.002731
0.455296 0.312769 0.001095
0.493905 0.311682 0.000000
0.532531 0.310594 0.000000
0.571173 0.309505 0.000000
0.609829 0.308415 0.000000
0.648497 0.307324 0.000000
0.687177 0.306234 0.000000
0.725867 0.305142 0.000000
0.764567 0.304051 0.000000
0.803275 0.302960 0.000000
0.841990 0.301869 0.000000
0.880711 0.300777 0.000000
0.919438 0.299686 0.000000
0.958169 0.298596 0.000000
0.996903 0.297506 0.000000
1.000000 0.296415 0.000000
1.000000 0.295484 0.000000
1.000000 0.295484 0.000000
0.000000 0.362190 0.016128
0.000000 0.362190 0.016128
0.000000 0.361290 0.014840
0.029993 0.360224 0.013303
0.068226 0.359153 0.011748
0.106534 0.358079 0.010178
0.144899 0.357003 0.008593
0.183310 0.355924 0.006996
0.221760 0.354844 0.005387
0.260243 0.353761 0.003768
0.298756 0.352678 0.002140
0.337294 0.351593 0.000504
0.375855 0.350506 0.000000
0.414437 0.349419 0.000000
0.453037 0.348331 0.000000
0.491654 0.347242 0.000000
0.530286 0.346153 0.000000
0.568932 0.345063 0.000000
0.607589 0.343973 0.000000
0.646258 0.342882 0.000000
0.684936 0.341792 0.000000
0.723622 0.340702 0.000000
0.762316 0.339611 0.000000
0.801016 0.338521 0.000000
0.839721 0.337432 0.000000
0.878431 0.336343 0.000000
0.917161 0.335252 0.000000
0.955923 0.334158 0.000000
0.994715 0.333061 0.000000
1.000000 0.331962 0.000000
1.000000 0.331024 0.000000
1.000000 0.331024 0.000000
0.000000 0.397800 0.010890
0.000000 0.397800 0.010890
0.000000 0.396896 0.009563
0.027609 0.395825 0.007983
0.065864 0.394751 0.006388
0.104193 0.393673 0.004781
0.142577 0.392594 0.003163
0.181005 0.391512 0.001536
0.219470 0.390429 0.000000
0.257966 0.389344 0.000000
0.296490 0.388258 0.000000
0.335037 0.387172 0.000000
0.373605 0.386084 0.000000
0.412192 0.384996 0.000000
0.450796 0.383907 0.000000
0.489414 0.382818 0.000000
0.528046 0.381729 0.000000
0.566689 0.380640 0.000000
0.605342 0.379550 0.000000
0.644004 0.378461 0.000000
0.682673 0.377372 0.000000
0.721349 0.376284 0.000000
0.760033 0.375195 0.000000
0.798746 0.374104 0.000000
0.837492 0.373010 0.000000
0.876268 0.371913 0.000000
0.915072 0.370814 0.000000
0.953903 0.369712 0.000000
0.992759 0.368608 0.000000
1.000000 0.367502 0.000000
1.000000 0.366559 0.000000
1.000000 0.366559 0.000000
0.000000 0.433412 0.005507
0.000000 0.433412 0.005507
0.000000 0.432505 0.004150
0.025293 0.431431 0.002539
0.063564 0.430354 0.000916
0.101907 0.429274 0.000000
0.140303 0.428192 0.000000
0.178742 0.427108 0.000000
0.217215 0.426024 0.000000
0.255718 0.424938 0.000000
0.294246 0.423852 0.000000
0.332795 0.422764 0.000000
0.371364 0.421677 0.000000
0.409950 0.420589 0.000000
0.448550 0.419501 0.000000
0.487163 0.418413 0.000000
0.525787 0.417325 0.000000
0.564421 0.416237 0.000000
0.603063 0.415150 0.000000
0.641721 0.414062 0.000000
0.680413 0.412970 0.000000
0.719139 0.411876 0.000000
0.757895 0.410779 0.000000
0.796681 0.409680 0.000000
0.835494 0.408578 0.000000
0.874332 0.407474 0.000000
0.913193 0.406368 0.000000
0.952076 0.405261 0.000000
0.990979 0.404152 0.000000
1.000000 0.403043 0.000000
1.000000 0.402097 0.000000
1.000000 0.402097 0.000000
0.000000 0.469029 0.000017
0.000000 0.469029 0.000017
0.000000 0.468119 0.000000
0.023023 0.467044 0.000000
0.061303 0.465965 0.000000
0.099654 0.464883 0.000000
0.138056 0.463800 0.000000
0.176498 0.462716 0.000000
0.214973 0.461631 0.000000
0.253475 0.460546 0.000000
0.292001 0.459460 0.000000
0.330547 0.458373 0.000000
0.369110 0.457287 0.000000
0.407688 0.456200 0.000000
0.446278 0.455114 0.000000
0.484879 0.454028 0.000000
0.523509 0.452940 0.000000
0.562175 0.451848 0.000000
0.600876 0.450754 0.000000
0.639609 0.449657 0.000000
0.678371 0.448558 0.000000
0.717162 0.447456 0.000000
0.755979 0.446353 0.000000
0.794820 0.445247 0.000000
0.833683 0.444140 0.000000
0.872567 0.443032 0.000000
0.911468 0.441922 0.000000
0.950387 0.440812 0.000000
0.989320 0.439701 0.000000
1.000000 0.438590 0.000000
1.000000 0.437643 0.000000
1.000000 0.437643 0.000000
0.000000 0.504653 0.000000
0.000000 0.504653 0.000000
0.000000 0.503743 0.000000
0.020776 0.502666 0.000000
0.059059 0.501586 0.000000
0.097411 0.500505 0.000000
0.135812 0.499422 0.000000
0.174251 0.498338 0.000000
0.212722 0.497254 0.000000
0.251217 0.496170 0.000000
0.289735 0.495085 0.000000
0.328270 0.494001 0.000000
0.366824 0.492916 0.000000
0.405417 0.491828 0.000000
0.444050 0.490737 0.000000
0.482719 0.489643 0.000000
0.521422 0.488546 0.000000
0.560157 0.487447 0.000000
0.598921 0.486346 0.000000
0.637712 0.485242 0.000000
0.676528 0.484137 0.000000
0.715368 0.483031 0.000000
0.754228 0.481923 0.000000
0.793108 0.480814 0.000000
0.832005 0.479704 0.000000
0.870917 0.478594 0.000000
0.909842 0.477483 0.000000
0.948780 0.476373 0.000000
0.987727 0.475262 0.000000
1.000000 0.474152 0.000000
1.000000 0.473206 0.000000
1.000000 0.473206 0.000000
0.000000 0.540287 0.000000
0.000000 0.540287 0.000000
0.000000 0.539377 0.000000
0.018530 0.538301 0.000000
0.056810 0.537222 0.000000
0.095156 0.536141 0.000000
0.133550 0.535060 0.000000
0.171980 0.533978 0.000000
0.210439 0.532896 0.000000
0.248933 0.531812 0.000000
0.287476 0.530725 0.000000
0.326063 0.529634 0.000000
0.364690 0.528541 0.000000
0.403355 0.527445 0.000000
0.442054 0.526346 0.000000
0.480784 0.525245 0.000000
0.519544 0.524142 0.000000
0.558331 0.523038 0.000000
0.597142 0.521932 0.000000
0.635975 0.520824 0.000000
0.674828 0.519716 0.000000
0.713700 0.518607 0.000000
0.752587 0.517497 0.000000
0.791489 0.516387 0.000000
0.830402 0.515277 0.000000
0.869327 0.514168 0.000000
0.908259 0.513058 0.000000
0.947199 0.511949 0.000000
0.986143 0.510842 0.000000
1.000000 0.509735 0.000000
1.000000 0.508793 0.000000
1.000000 0.508793 0.000000
0.000000 0.575935 0.000000
0.000000 0.575935 0.000000
0.000000 0.575026 0.000000
0.016264 0.573951 0.000000
0.054534 0.572874 0.000000
0.092869 0.571795 0.000000
0.131271 0.570713 0.000000
0.169737 0.569627 0.000000
0.208257 0.568538 0.000000
0.246826 0.567446 0.000000
0.285438 0.566350 0.000000
0.324089 0.565252 0.000000
0.362777 0.564152 0.000000
0.401496 0.563050 0.000000
0.440245 0.561947 0.000000
0.479021 0.560841 0.000000
0.517821 0.559735 0.000000
0.556642 0.558627 0.000000
0.595483 0.557519 0.000000
0.634342 0.556410 0.000000
0.673215 0.555301 0.000000
0.712102 0.554192 0.000000
0.751000 0.553083 0.000000
0.789906 0.551975 0.000000
0.828820 0.550867 0.000000
0.867740 0.549761 0.000000
0.906663 0.548655 0.000000
0.945588 0.547551 0.000000
0.984512 0.546448 0.000000
1.000000 0.545347 0.000000
1.000000 0.544411 0.000000
1.000000 0.544411 0.000000
0.000000 0.611599 0.000000
0.000000 0.611599 0.000000
0.000000 0.610691 0.000000
0.013996 0.609614 0.000000
0.052311 0.608532 0.000000
0.090715 0.607445 0.000000
0.129190 0.606355 0.000000
0.167723 0.605261 0.000000
0.206306 0.604165 0.000000
0.244933 0.603066 0.000000
0.283598 0.601965 0.000000
0.322297 0.600863 0.000000
0.361028 0.599758 0.000000
0.399785 0.598653 0.000000
0.438568 0.597546 0.000000
0.477372 0.596439 0.000000
0.516195 0.595332 0.000000
0.555035 0.594224 0.000000
0.593889 0.593116 0.000000
0.632756 0.592008 0.000000
0.671633 0.590901 0.000000
0.710518 0.589794 0.000000
0.749409 0.588689 0.000000
0.788305 0.587584 0.000000
0.827202 0.586481 0.000000
0.866100 0.585380 0.000000
0.904997 0.584281 0.000000
0.943890 0.583183 0.000000
0.982778 0.582088 0.000000
1.000000 0.580995 0.000000
1.000000 0.580063 0.000000
1.000000 0.580063 0.000000
0.000000 0.647264 0.000000
0.000000 0.647264 0.000000
0.000000 0.646348 0.000000
0.011941 0.645264 0.000000
0.050321 0.644174 0.000000
0.088787 0.643080 0.000000
0.127317 0.641984 0.000000
0.165901 0.640885 0.000000
0.204530 0.639784 0.000000
0.243198 0.638681 0.000000
0.281900 0.637577 0.000000
0.320630 0.636472 0.000000
0.359387 0.635366 0.000000
0.398166 0.634260 0.000000
0.436965 0.633153 0.000000
0.475781 0.632047 0.000000
0.514611 0.630940 0.000000
0.553452 0.629835 0.000000
0.592303 0.628729 0.000000
0.631162 0.627625 0.000000
0.670026 0.626522 0.000000
0.708892 0.625421 0.000000
0.747760 0.624321 0.000000
0.786627 0.623223 0.000000
0.825492 0.622127 0.000000
0.864351 0.621034 0.000000
0.903216 0.619941 0.000000
0.942093 0.618848 0.000000
0.980982 0.617754 0.000000
1.000000 0.616659 0.000000
1.000000 0.615725 0.000000
1.000000 0.615725 0.000000
0.000000 0.682912 0.000000
0.000000 0.682912 0.000000
0.000000 0.681991 0.000000
0.010088 0.680900 0.000000
0.048517 0.679806 0.000000
0.087027 0.678708 0.000000
0.125597 0.677608 0.000000
0.164215 0.676506 0.000000
0.202873 0.675403 0.000000
0.241566 0.674299 0.000000
0.280287 0.673194 0.000000
0.319032 0.672089 0.000000
0.357799 0.670985 0.000000
0.396583 0.669880 0.000000
0.435381 0.668775 0.000000
0.474192 0.667672 0.000000
0.513012 0.666569 0.000000
0.551838 0.665468 0.000000
0.590669 0.664368 0.000000
0.629503 0.663270 0.000000
0.668336 0.662174 0.000000
0.707168 0.661080 0.000000
0.745998 0.659988 0.000000
0.784838 0.658895 0.000000
0.823693 0.657802 0.000000
0.862560 0.656709 0.000000
0.901437 0.655614 0.000000
0.940325 0.654519 0.000000
0.979222 0.653424 0.000000
1.000000 0.652328 0.000000
1.000000 0.651395 0.000000
1.000000 0.651395 0.000000
0.000000 0.718551 0.000000
0.000000 0.718551 0.000000
0.000000 0.717626 0.000000
0.008381 0.716533 0.000000
0.046843 0.715435 0.000000
0.085380 0.714336 0.000000
0.123972 0.713235 0.000000
0.162608 0.712133 0.000000
0.201279 0.711030 0.000000
0.239979 0.709927 0.000000
0.278703 0.708824 0.000000
0.317447 0.707722 0.000000
0.356206 0.706620 0.000000
0.394978 0.705519 0.000000
0.433760 0.704420 0.000000
0.472549 0.703322 0.000000
0.511341 0.702226 0.000000
0.550136 0.701131 0.000000
0.588930 0.700039 0.000000
0.627728 0.698948 0.000000
0.666541 0.697857 0.000000
0.705369 0.696764 0.000000
0.744210 0.695671 0.000000
0.783064 0.694577 0.000000
0.821928 0.693483 0.000000
0.860801 0.692388 0.000000
0.899682 0.691293 0.000000
0.938571 0.690198 0.000000
0.977465 0.689103 0.000000
1.000000 0.688009 0.000000
1.000000 0.687076 0.000000
1.000000 0.687076 0.000000
0.000000 0.754188 0.000000
0.000000 0.754188 0.000000
0.000000 0.753263 0.000000
0.006764 0.752168 0.000000
0.045241 0.751071 0.000000
0.083789 0.749972 0.000000
0.122387 0.748872 0.000000
0.161024 0.747772 0.000000
0.199691 0.746672 0.000000
0.238383 0.745573 0.000000
0.277093 0.744475 0.000000
0.315818 0.743377 0.000000
0.354553 0.742281 0.000000
0.393297 0.741187 0.000000
0.432045 0.740095 0.000000
0.470795 0.739005 0.000000
0.509557 0.737915 0.000000
0.548337 0.736824 0.000000
0.587134 0.735733 0.000000
0.625945 0.734640 0.000000
0.664770 0.733547 0.000000
0.703606 0.732453 0.000000
0.742453 0.731359 0.000000
0.781309 0.730265 0.000000
0.820172 0.729171 0.000000
0.859042 0.728077 0.000000
0.897916 0.726983 0.000000
0.936795 0.725889 0.000000
0.975676 0.724796 0.000000
1.000000 0.723703 0.000000
1.000000 0.722773 0.000000
1.000000 0.722773 0.000000
0.000000 0.789833 0.000000
0.000000 0.789833 0.000000
0.000000 0.788908 0.000000
0.005179 0.787815 0.000000
0.043656 0.786720 0.000000
0.082198 0.785624 0.000000
0.120785 0.784528 0.000000
0.159406 0.783433 0.000000
0.198053 0.782339 0.000000
0.236719 0.781245 0.000000
0.275399 0.780154 0.000000
0.314088 0.779064 0.000000
0.352786 0.777976 0.000000
0.391505 0.776887 0.000000
0.430244 0.775797 0.000000
0.469003 0.774706 0.000000
0.507778 0.773615 0.000000
0.546569 0.772523 0.000000
0.585373 0.771430 0.000000
0.624189 0.770337 0.000000
0.663014 0.769244 0.000000
0.701849 0.768150 0.000000
0.740691 0.767057 0.000000
0.779539 0.765964 0.000000
0.818391 0.764871 0.000000
0.857247 0.763779 0.000000
0.896105 0.762687 0.000000
0.934964 0.761596 0.000000
0.973822 0.760505 0.000000
1.000000 0.759416 0.000000
1.000000 0.758489 0.000000
1.000000 0.758489 0.000000
0.000000 0.825492 0.000000
0.000000 0.825492 0.000000
0.000000 0.824570 0.000000
0.003571 0.823481 0.000000
0.042030 0.822391 0.000000
0.080550 0.821301 0.000000
0.119110 0.820211 0.000000
0.157699 0.819123 0.000000
0.196308 0.818036 0.000000
0.234940 0.816950 0.000000
0.273601 0.815863 0.000000
0.312288 0.814774 0.000000
0.350999 0.813685 0.000000
0.389730 0.812594 0.000000
0.428479 0.811503 0.000000
0.467243 0.810412 0.000000
0.506022 0.809320 0.000000
0.544813 0.808227 0.000000
0.583614 0.807135 0.000000
0.622424 0.806043 0.000000
0.661241 0.804951 0.000000
0.700064 0.803859 0.000000
0.738891 0.802768 0.000000
0.777721 0.801677 0.000000
0.816552 0.800587 0.000000
0.855384 0.799497 0.000000
0.894215 0.798409 0.000000
0.933044 0.797322 0.000000
0.971869 0.796236 0.000000
1.000000 0.795151 0.000000
1.000000 0.794228 0.000000
1.000000 0.794228 0.000000
0.000000 0.861174 0.000000
0.000000 0.861174 0.000000
0.000000 0.860257 0.000000
0.001884 0.859175 0.000000
0.040308 0.858092 0.000000
0.078789 0.857010 0.000000
0.117321 0.855926 0.000000
0.155898 0.854841 0.000000
0.194512 0.853754 0.000000
0.233157 0.852666 0.000000
0.271830 0.851578 0.000000
0.310525 0.850488 0.000000
0.349241 0.849398 0.000000
0.387974 0.848307 0.000000
0.426721 0.847216 0.000000
0.465482 0.846125 0.000000
0.504254 0.845034 0.000000
0.543035 0.843943 0.000000
0.581823 0.842852 0.000000
0.620617 0.841762 0.000000
0.659415 0.840673 0.000000
0.698215 0.839584 0.000000
0.737018 0.838496 0.000000
0.775819 0.837409 0.000000
0.814620 0.836323 0.000000
0.853418 0.835238 0.000000
0.892212 0.834154 0.000000
0.931000 0.833072 0.000000
0.969782 0.831992 0.000000
1.000000 0.830913 0.000000
1.000000 0.829996 0.000000
1.000000 0.829996 0.000000
0.000000 0.896886 0.000000
0.000000 0.896886 0.000000
0.000000 0.895976 0.000000
0.000088 0.894899 0.000000
0.038507 0.893818 0.000000
0.076998 0.892734 0.000000
0.115543 0.891649 0.000000
0.154130 0.890563 0.000000
0.192751 0.889475 0.000000
0.231400 0.888387 0.000000
0.270073 0.887298 0.000000
0.308766 0.886208 0.000000
0.347477 0.885119 0.000000
0.386202 0.884029 0.000000
0.424939 0.882940 0.000000
0.463685 0.881850 0.000000
0.502440 0.880762 0.000000
0.541201 0.879673 0.000000
0.579966 0.878586 0.000000
0.618733 0.877499 0.000000
0.657502 0.876413 0.000000
0.696271 0.875328 0.000000
0.735038 0.874245 0.000000
0.773801 0.873163 0.000000
0.812561 0.872082 0.000000
0.851314 0.871003 0.000000
0.890061 0.869926 0.000000
0.928799 0.868850 0.000000
0.967528 0.867777 0.000000
1.000000 0.866706 0.000000
1.000000 0.865795 0.000000
1.000000 0.865795 0.000000
0.000000 0.932619 0.000000
0.000000 0.932619 0.000000
0.000000 0.931707 0.000000
0.000000 0.930628 0.000000
0.036741 0.929546 0.000000
0.075238 0.928462 0.000000
0.113786 0.927377 0.000000
0.152372 0.926290 0.000000
0.190990 0.925203 0.000000
0.229633 0.924115 0.000000
0.268297 0.923028 0.000000
0.306978 0.921940 0.000000
0.345673 0.920852 0.000000
0.384380 0.919765 0.000000
0.423096 0.918678 0.000000
0.461818 0.917592 0.000000
0.500546 0.916507 0.000000
0.539276 0.915423 0.000000
0.578008 0.914339 0.000000
