omv/luts/05_high_desert_clarity.cube
# Original OMV LUT; redistribution permitted with OMV.
TITLE "High Desert Clarity"
LUT_3D_SIZE 5
DOMAIN_MIN 0.000000 0.000000 0.000000
DOMAIN_MAX 0.903226 0.903226 0.903226
0.004000 0.007984 0.009976
0.229449 0.004377 0.006369
0.484557 0.000295 0.002287
0.737602 0.000000 0.000000
0.989481 0.000000 0.000000
0.000000 0.224849 0.000000
0.217682 0.221114 0.000000
0.473214 0.216820 0.000000
0.726684 0.212514 0.000000
0.978855 0.208204 0.000000
0.000000 0.469569 0.000000
0.205689 0.465703 0.000000
0.461372 0.461334 0.000000
0.715021 0.457148 0.000000
0.967511 0.453227 0.000000
0.000000 0.712288 0.000000
0.194580 0.708858 0.000000
0.450661 0.705173 0.000000
0.704513 0.701687 0.000000
0.957019 0.698263 0.000000
0.000000 0.955779 0.000000
0.184121 0.952708 0.000000
0.440079 0.949194 0.000000
0.693738 0.945618 0.000000
0.945834 0.941921 0.000000
0.002775 0.006759 0.237807
0.228224 0.003152 0.234200
0.483338 0.000000 0.230105
0.736443 0.000000 0.225712
0.988370 0.000000 0.220956
0.000000 0.223588 0.225256
0.216571 0.219832 0.220980
0.472137 0.215521 0.215867
0.725628 0.211204 0.210607
0.977806 0.206891 0.205287
0.000000 0.468257 0.207975
0.204639 0.464390 0.203200
0.460330 0.460039 0.197836
0.714051 0.455930 0.192497
0.966576 0.452077 0.187257
0.000000 0.711104 0.190033
0.193649 0.707731 0.185402
0.449716 0.704104 0.180429
0.703562 0.700645 0.175775
0.956065 0.697219 0.171149
0.000000 0.954738 0.173698
0.183161 0.951660 0.169561
0.439086 0.948123 0.164934
0.692688 0.944510 0.160453
0.944706 0.940761 0.156151
0.001389 0.005373 0.495610
0.226838 0.001766 0.492003
0.481982 0.000000 0.487839
0.735152 0.000000 0.483302
0.987128 0.000000 0.478436
0.000000 0.222152 0.482834
0.215328 0.218374 0.478461
0.470928 0.214046 0.473271
0.724438 0.209720 0.467969
0.976620 0.205405 0.462641
0.000000 0.466771 0.465330
0.203450 0.462906 0.460562
0.459182 0.458604 0.455198
0.712971 0.454579 0.449867
0.965523 0.450800 0.444685
0.000000 0.709788 0.447424
0.192595 0.706478 0.442863
0.448634 0.702913 0.438019
0.702488 0.699467 0.433370
0.954979 0.696033 0.428752
0.000000 0.953558 0.431294
0.182066 0.950468 0.427170
0.437944 0.946900 0.422574
0.691475 0.943239 0.418141
0.943396 0.939425 0.413903
0.000014 0.003998 0.751235
0.225463 0.000391 0.747628
0.480661 0.000000 0.743344
0.733889 0.000000 0.738675
0.985909 0.000000 0.733712
0.000000 0.220719 0.738196
0.214109 0.216922 0.733737
0.469738 0.212580 0.728482
0.723261 0.208247 0.723151
0.975440 0.203933 0.717827
0.000000 0.465298 0.720509
0.202266 0.461436 0.715758
0.458071 0.457210 0.710383
0.711913 0.453265 0.705076
0.964478 0.449556 0.699969
0.000000 0.708508 0.702662
0.191545 0.705258 0.698187
0.447562 0.701740 0.693442
0.701421 0.698297 0.688790
0.953893 0.694851 0.684184
0.000000 0.952385 0.686718
0.180967 0.949277 0.682611
0.436791 0.945673 0.678052
0.690242 0.941959 0.673672
0.942058 0.938075 0.669503
0.000000 0.002631 1.000000
0.224103 0.000000 1.000000
0.479368 0.000000 0.997437
0.732650 0.000000 0.992648
0.984707 0.000000 0.987600
0.000000 0.219285 0.992159
0.212908 0.215472 0.987625
0.468560 0.211118 0.982318
0.722091 0.206781 0.976968
0.974263 0.202471 0.971660
0.000000 0.463833 0.974330
0.201102 0.459991 0.969593
0.456989 0.455851 0.964208
0.710870 0.451982 0.958943
0.963434 0.448341 0.953928
0.000000 0.707258 0.956566
0.190491 0.704064 0.952192
0.446500 0.700576 0.947499
0.700357 0.697132 0.942849
0.952801 0.693667 0.938263
0.000000 0.951213 0.940783
0.179859 0.948083 0.936700
0.435619 0.944436 0.932182
0.688983 0.940664 0.927861
0.940694 0.936710 0.923762
