omv/luts/05_high_desert_clarity.cube
# Original OMV LUT; redistribution permitted with OMV.
TITLE "High Desert Clarity"
LUT_3D_SIZE 8
DOMAIN_MIN 0.000000 0.000000 0.000000
DOMAIN_MAX 0.903226 0.903226 0.903226
0.004000 0.007984 0.009976
0.118903 0.006146 0.008138
0.266087 0.003791 0.005783
0.411947 0.001457 0.003449
0.557004 0.000000 0.001116
0.701534 0.000000 0.000000
0.845669 0.000000 0.000000
0.989481 0.000000 0.000000
0.000000 0.118541 0.003791
0.112718 0.116702 0.001953
0.259941 0.114328 0.000000
0.405907 0.111941 0.000000
0.551122 0.109539 0.000000
0.695802 0.107122 0.000000
0.840064 0.104692 0.000000
0.983981 0.102252 0.000000
0.000000 0.260039 0.000000
0.105182 0.258126 0.000000
0.252600 0.255654 0.000000
0.398729 0.253186 0.000000
0.544079 0.250716 0.000000
0.688863 0.248246 0.000000
0.833202 0.245778 0.000000
0.977167 0.243314 0.000000
0.000000 0.399972 0.000000
0.098245 0.398012 0.000000
0.245758 0.395493 0.000000
0.391952 0.392991 0.000000
0.537338 0.390504 0.000000
0.682131 0.388030 0.000000
0.826491 0.385600 0.000000
0.970556 0.383259 0.000000
0.000000 0.538992 0.000000
0.091548 0.537022 0.000000
0.239061 0.534506 0.000000
0.385308 0.532076 0.000000
0.530821 0.529743 0.000000
0.675803 0.527497 0.000000
0.820358 0.525330 0.000000
0.964544 0.523235 0.000000
0.000000 0.677590 0.000000
0.085115 0.675769 0.000000
0.232836 0.673507 0.000000
0.379253 0.671337 0.000000
0.524860 0.669245 0.000000
0.669859 0.667221 0.000000
0.814375 0.665250 0.000000
0.958523 0.663295 0.000000
0.000000 0.816540 0.000000
0.079187 0.814904 0.000000
0.226900 0.812861 0.000000
0.373275 0.810871 0.000000
0.518848 0.808897 0.000000
0.663831 0.806929 0.000000
0.808336 0.804954 0.000000
0.952431 0.802964 0.000000
0.000000 0.955779 0.000000
0.073183 0.954216 0.000000
0.220887 0.952207 0.000000
0.367238 0.950201 0.000000
0.512741 0.948181 0.000000
0.657606 0.946135 0.000000
0.801948 0.944051 0.000000
0.945834 0.941921 0.000000
0.003376 0.007360 0.126093
0.118279 0.005521 0.124255
0.265463 0.003166 0.121900
0.411323 0.000832 0.119566
0.556390 0.000000 0.117211
0.700938 0.000000 0.114720
0.845088 0.000000 0.112101
0.988914 0.000000 0.109372
0.000000 0.117917 0.119909
0.112097 0.116077 0.118063
0.259339 0.113693 0.115578
0.405321 0.111298 0.112969
0.550551 0.108888 0.110249
0.695242 0.106465 0.107434
0.839514 0.104030 0.104543
0.983438 0.101587 0.101591
0.000000 0.259391 0.111348
0.104616 0.257473 0.109149
0.252044 0.254996 0.106244
0.398182 0.252523 0.103284
0.543538 0.250050 0.100280
0.688327 0.247578 0.097246
0.832667 0.245109 0.094200
0.976632 0.242645 0.091157
0.000000 0.399307 0.101576
0.097707 0.397345 0.099179
0.245222 0.394824 0.096078
0.391418 0.392322 0.092988
0.536802 0.389835 0.089920
0.681592 0.387364 0.086885
0.825976 0.384956 0.083853
0.970060 0.382636 0.080819
0.000000 0.538323 0.091294
0.091011 0.536354 0.088869
0.238531 0.533847 0.085781
0.384801 0.531440 0.082703
0.530332 0.529129 0.079643
0.675324 0.526903 0.076623
0.819883 0.524754 0.073668
0.964068 0.522677 0.070804
0.000000 0.676966 0.081055
0.084630 0.675162 0.078637
0.232360 0.672919 0.075576
0.378779 0.670768 0.072611
0.524382 0.668692 0.069757
0.669372 0.666684 0.067037
0.813889 0.664718 0.064395
0.958039 0.662764 0.061753
0.000000 0.815980 0.071092
0.078707 0.814356 0.068869
0.226412 0.812328 0.066138
0.372790 0.810339 0.063458
0.518364 0.808366 0.060790
0.663343 0.806396 0.058138
0.807840 0.804416 0.055508
0.951924 0.802418 0.052910
0.000000 0.955248 0.062074
0.072698 0.953684 0.059961
0.220397 0.951673 0.057263
0.366739 0.949661 0.054607
0.512230 0.947632 0.051994
0.657079 0.945575 0.049428
0.801400 0.943478 0.046916
0.945263 0.941332 0.044466
0.002576 0.006560 0.274833
0.117479 0.004721 0.272994
0.264663 0.002366 0.270639
0.410523 0.000033 0.268305
0.555610 0.000000 0.265904
0.700180 0.000000 0.263364
0.844349 0.000000 0.260702
0.988191 0.000000 0.257937
0.000000 0.117117 0.268648
0.111309 0.115271 0.266776
0.258574 0.112875 0.264238
0.404577 0.110470 0.261584
0.549823 0.108052 0.258825
0.694529 0.105622 0.255979
0.838812 0.103181 0.253061
0.982745 0.100734 0.250091
0.000000 0.258559 0.259939
0.103894 0.256634 0.257712
0.251336 0.254150 0.254777
0.397485 0.251672 0.251793
0.542848 0.249196 0.248773
0.687641 0.246721 0.245729
0.831983 0.244251 0.242679
0.975946 0.241789 0.239640
0.000000 0.398454 0.250076
0.097018 0.396489 0.247668
0.244537 0.393967 0.244559
0.390733 0.391465 0.241468
0.536115 0.388979 0.238405
0.680912 0.386518 0.235374
0.825325 0.384140 0.232336
0.969431 0.381848 0.229305
0.000000 0.537466 0.239776
0.090323 0.535498 0.237358
0.237862 0.533013 0.234267
0.384159 0.530635 0.231186
0.529709 0.528350 0.228132
0.674713 0.526149 0.225128
0.819276 0.524024 0.222199
0.963456 0.521968 0.219371
0.000000 0.676175 0.229540
0.084012 0.674392 0.227131
0.231751 0.672174 0.224090
0.378171 0.670045 0.221154
0.523767 0.667991 0.218339
0.668746 0.666001 0.215660
0.813269 0.664038 0.213015
0.957419 0.662084 0.210372
0.000000 0.815269 0.219655
0.078088 0.813662 0.217467
0.225788 0.811645 0.214760
0.372170 0.809660 0.212078
0.517742 0.807686 0.209410
0.662715 0.805711 0.206762
0.807202 0.803724 0.204140
0.951270 0.801715 0.201552
0.000000 0.954568 0.210693
0.072075 0.953003 0.208582
0.219766 0.950986 0.205889
0.366096 0.948965 0.203242
0.511569 0.946925 0.200640
0.656396 0.944853 0.198090
0.800690 0.942738 0.195596
0.944521 0.940571 0.193167
0.001783 0.005767 0.422234
0.116687 0.003929 0.420395
0.263871 0.001574 0.418040
0.409734 0.000000 0.415697
0.554846 0.000000 0.413243
0.699436 0.000000 0.410656
0.843623 0.000000 0.407954
0.987480 0.000000 0.405155
0.000000 0.116324 0.416046
0.110536 0.114468 0.414132
0.257824 0.112062 0.411545
0.403845 0.109647 0.408848
0.549108 0.107221 0.406053
0.693827 0.104784 0.403177
0.838120 0.102339 0.400236
0.982060 0.099887 0.397249
0.000000 0.257731 0.407180
0.103184 0.255800 0.404927
0.250639 0.253310 0.401964
0.396796 0.250827 0.398961
0.542165 0.248348 0.395926
0.686962 0.245872 0.392875
0.831304 0.243402 0.389823
0.975266 0.240940 0.386789
0.000000 0.397608 0.397234
0.096337 0.395641 0.394817
0.243859 0.393117 0.391703
0.390054 0.390615 0.388614
0.535433 0.388131 0.385558
0.680249 0.385690 0.382525
0.824689 0.383340 0.379483
0.968814 0.381075 0.376458
0.000000 0.536617 0.386925
0.089640 0.534653 0.384514
0.237210 0.532196 0.381415
0.383531 0.529846 0.378334
0.529097 0.527587 0.375290
0.674110 0.525411 0.372306
0.818673 0.523308 0.369406
0.962847 0.521273 0.366616
0.000000 0.675401 0.376692
0.083403 0.673637 0.374294
0.231148 0.671444 0.371276
0.377567 0.669337 0.368373
0.523154 0.667303 0.365601
0.668128 0.665324 0.362945
0.812654 0.663364 0.360297
0.956804 0.661409 0.357655
0.000000 0.814572 0.366895
0.077470 0.812980 0.364744
0.225172 0.810970 0.362043
0.371556 0.808986 0.359360
0.517125 0.807010 0.356694
0.662090 0.805030 0.354051
0.806564 0.803035 0.351438
0.950615 0.801015 0.348862
0.000000 0.953894 0.357976
0.071456 0.952326 0.355867
0.219138 0.950303 0.353181
0.365453 0.948272 0.350543
0.510907 0.946219 0.347954
0.655710 0.944131 0.345419
0.799976 0.941998 0.342945
0.943773 0.939808 0.340538
0.000995 0.004979 0.568818
0.115898 0.003141 0.566980
0.263082 0.000786 0.564625
0.408959 0.000000 0.562254
0.554093 0.000000 0.559748
0.698703 0.000000 0.557117
0.842907 0.000000 0.554377
0.986777 0.000000 0.551547
0.000000 0.115531 0.562611
0.109776 0.113667 0.560655
0.257084 0.111249 0.558021
0.403123 0.108826 0.555283
0.548401 0.106392 0.552454
0.693132 0.103949 0.549551
0.837434 0.101499 0.546590
0.981381 0.099045 0.543588
0.000000 0.256905 0.553594
0.102483 0.254969 0.551317
0.249948 0.252473 0.548329
0.396114 0.249986 0.545307
0.541488 0.247504 0.542260
0.686287 0.245027 0.539204
0.830629 0.242557 0.536154
0.974588 0.240097 0.533126
0.000000 0.396765 0.543573
0.095661 0.394796 0.541149
0.243184 0.392272 0.538032
0.389378 0.389771 0.534946
0.534754 0.387290 0.531900
0.679599 0.384877 0.528858
0.824063 0.382555 0.525816
0.968204 0.380316 0.522800
0.000000 0.535774 0.533262
0.088971 0.533820 0.530853
0.236570 0.531393 0.527747
0.382912 0.529070 0.524670
0.528492 0.526837 0.521639
0.673511 0.524684 0.518677
0.818073 0.522604 0.515809
0.962237 0.520588 0.513060
0.000000 0.674639 0.523033
0.082801 0.672895 0.520649
0.230550 0.670725 0.517658
0.376964 0.668640 0.514790
0.522539 0.666625 0.512063
0.667515 0.664653 0.509412
0.812043 0.662694 0.506763
0.956190 0.660737 0.504124
0.000000 0.813885 0.513335
0.076853 0.812306 0.511214
0.224560 0.810300 0.508510
0.370945 0.808316 0.505827
0.516509 0.806337 0.503164
0.661465 0.804350 0.500527
0.805925 0.802346 0.497923
0.949957 0.800313 0.495360
0.000000 0.953223 0.504444
0.070838 0.951651 0.502339
0.218508 0.949620 0.499659
0.364808 0.947580 0.497032
0.510241 0.945513 0.494458
0.655019 0.943408 0.491939
0.799255 0.941254 0.489485
0.943017 0.939042 0.487101
0.000210 0.004194 0.714813
0.115113 0.002356 0.712974
0.262297 0.000001 0.710619
0.408194 0.000000 0.708202
0.553350 0.000000 0.705649
0.697978 0.000000 0.702975
0.842198 0.000000 0.700200
0.986082 0.000000 0.697340
0.000000 0.114738 0.708567
0.109025 0.112864 0.706572
0.256354 0.110437 0.703892
0.402410 0.108005 0.701117
0.547701 0.105565 0.698256
0.692443 0.103116 0.695328
0.836754 0.100662 0.692348
0.980706 0.098204 0.689334
0.000000 0.256079 0.699408
0.101788 0.254139 0.697109
0.249263 0.251638 0.694098
0.395436 0.249148 0.691060
0.540815 0.246663 0.688003
0.685616 0.244185 0.684943
0.829956 0.241716 0.681896
0.973911 0.239258 0.678878
0.000000 0.395925 0.689319
0.094989 0.393955 0.686890
0.242512 0.391431 0.683772
0.388704 0.388931 0.680692
0.534087 0.386461 0.677649
0.678961 0.384077 0.674601
0.823446 0.381782 0.671562
0.967601 0.379567 0.668559
0.000000 0.534935 0.679014
0.088314 0.533001 0.676599
0.235940 0.530603 0.673490
0.382302 0.528307 0.670419
0.527892 0.526099 0.667404
0.672915 0.523968 0.664468
0.817472 0.521908 0.661635
0.961625 0.519912 0.658931
0.000000 0.673889 0.668790
0.082204 0.672164 0.666422
0.229953 0.670017 0.663460
0.376360 0.667952 0.660632
0.521924 0.665954 0.657944
0.666906 0.663985 0.655290
0.811435 0.662026 0.652640
0.955577 0.660067 0.650003
0.000000 0.813207 0.659201
0.076241 0.811636 0.657093
0.223952 0.809632 0.654387
0.370335 0.807647 0.651704
0.515893 0.805664 0.649046
0.660838 0.803671 0.646416
0.805282 0.801656 0.643823
0.949294 0.799610 0.641273
0.000000 0.952553 0.650323
0.070219 0.950976 0.648222
0.217876 0.948937 0.645552
0.364159 0.946885 0.642936
0.509569 0.944804 0.640376
0.654320 0.942681 0.637876
0.798525 0.940506 0.635442
0.942252 0.938269 0.633083
0.000000 0.003412 0.860345
0.114331 0.001573 0.858506
0.261519 0.000000 0.856141
0.407440 0.000000 0.853672
0.552615 0.000000 0.851072
0.697262 0.000000 0.848359
0.841496 0.000000 0.845550
0.985392 0.000000 0.842664
0.000000 0.113943 0.854044
0.108284 0.112061 0.852011
0.255631 0.109624 0.849289
0.401704 0.107185 0.846477
0.547008 0.104737 0.843588
0.691760 0.102284 0.840637
0.836078 0.099826 0.837640
0.980035 0.097366 0.834616
0.000000 0.255255 0.844750
0.101099 0.253309 0.842430
0.248584 0.250804 0.839399
0.394763 0.248311 0.836347
0.540145 0.245825 0.833283
0.684946 0.243347 0.830222
0.829284 0.240878 0.827180
0.973244 0.238430 0.824167
0.000000 0.395087 0.834601
0.094319 0.393116 0.832169
0.241842 0.390592 0.829052
0.388030 0.388094 0.825980
0.533432 0.385645 0.822933
0.678333 0.383289 0.819882
0.822837 0.381020 0.816850
0.967003 0.378830 0.813862
0.000000 0.534105 0.824303
0.087670 0.532195 0.821881
0.235320 0.529824 0.818772
0.381697 0.527554 0.815711
0.527297 0.525370 0.812716
0.672320 0.523262 0.809809
0.816871 0.521222 0.807014
0.961013 0.519243 0.804350
0.000000 0.673149 0.814092
0.081609 0.671443 0.811742
0.229356 0.669318 0.808813
0.375754 0.667273 0.806027
0.521314 0.665287 0.803361
0.666300 0.663320 0.800704
0.810827 0.661360 0.798056
0.954963 0.659397 0.795423
0.000000 0.812537 0.804618
0.075632 0.810970 0.802509
0.223345 0.808967 0.799801
0.369725 0.806980 0.797121
0.515276 0.804992 0.794468
0.660208 0.802990 0.791846
0.804635 0.800964 0.789264
0.948626 0.798903 0.786729
0.000000 0.951883 0.795742
0.069598 0.950302 0.793647
0.217242 0.948253 0.790985
0.363505 0.946188 0.788383
0.508892 0.944091 0.785838
0.653614 0.941949 0.783357
0.797786 0.939753 0.780945
0.941475 0.937491 0.778611
0.000000 0.002631 1.000000
0.113550 0.000793 1.000000
0.260751 0.000000 1.000000
0.406694 0.000000 0.998745
0.551889 0.000000 0.996101
0.696552 0.000000 0.993351
0.840801 0.000000 0.990511
0.984707 0.000000 0.987600
0.000000 0.113146 0.999124
0.107552 0.111257 0.997055
0.254917 0.108811 0.994292
0.401004 0.106364 0.991447
0.546320 0.103911 0.988531
0.691082 0.101452 0.985559
0.835406 0.098991 0.982549
0.979366 0.096530 0.979517
0.000000 0.254430 0.989703
0.100415 0.252480 0.987365
0.247908 0.249971 0.984315
0.394092 0.247475 0.981251
0.539477 0.244988 0.978182
0.684277 0.242510 0.975122
0.828612 0.240044 0.972087
0.972589 0.237614 0.969072
0.000000 0.394250 0.979502
0.093651 0.392280 0.977067
0.241173 0.389756 0.973954
0.387358 0.387261 0.970890
0.532790 0.384840 0.967836
0.677714 0.382511 0.964785
0.822234 0.380268 0.961762
0.966409 0.378102 0.958793
0.000000 0.533288 0.969208
0.087036 0.531400 0.966782
0.234707 0.529056 0.963677
0.381099 0.526812 0.960630
0.526704 0.524651 0.957657
0.671725 0.522565 0.954782
0.816267 0.520545 0.952028
0.960404 0.518577 0.949387
0.000000 0.672420 0.959021
0.081016 0.670732 0.956693
0.228759 0.668627 0.953799
0.375145 0.666602 0.951059
0.520708 0.664622 0.948397
0.665695 0.662657 0.945739
0.810219 0.660695 0.943093
0.954347 0.658726 0.940465
0.000000 0.811871 0.949656
0.075027 0.810306 0.947544
0.222740 0.808303 0.944836
0.369115 0.806313 0.942159
0.514656 0.804319 0.939512
0.659575 0.802307 0.936900
0.803983 0.800269 0.934331
0.947950 0.798192 0.931811
0.000000 0.951213 0.940783
0.068975 0.949626 0.938694
0.216602 0.947567 0.936043
0.362845 0.945488 0.933454
0.508207 0.943374 0.930926
0.652900 0.941213 0.928465
0.797037 0.938993 0.926076
0.940694 0.936710 0.923762
