omv/luts/05_high_desert_clarity.cube
# Original OMV LUT; redistribution permitted with OMV.
TITLE "High Desert Clarity"
LUT_3D_SIZE 32
DOMAIN_MIN 0.0 0.0 0.0
DOMAIN_MAX 1.0 1.0 1.0
0.004000 0.007984 0.009976
0.006158 0.007949 0.009941
0.044293 0.007339 0.009331
0.081740 0.006740 0.008732
0.118903 0.006146 0.008138
0.155880 0.005554 0.007546
0.192720 0.004964 0.006956
0.229449 0.004377 0.006369
0.266087 0.003791 0.005783
0.302647 0.003206 0.005198
0.339139 0.002622 0.004614
0.375570 0.002039 0.004031
0.411947 0.001457 0.003449
0.448274 0.000876 0.002868
0.484557 0.000295 0.002287
0.520798 0.000000 0.001706
0.557004 0.000000 0.001116
0.593179 0.000000 0.000517
0.629325 0.000000 0.000000
0.665442 0.000000 0.000000
0.701534 0.000000 0.000000
0.737602 0.000000 0.000000
0.773646 0.000000 0.000000
0.809668 0.000000 0.000000
0.845669 0.000000 0.000000
0.881650 0.000000 0.000000
0.917612 0.000000 0.000000
0.953555 0.000000 0.000000
0.989481 0.000000 0.000000
1.000000 0.000000 0.000000
1.000000 0.000000 0.000000
1.000000 0.000000 0.000000
0.003884 0.010060 0.009860
0.006042 0.010026 0.009825
0.044177 0.009416 0.009215
0.081624 0.008817 0.008616
0.118787 0.008222 0.008021
0.155764 0.007630 0.007430
0.192604 0.007041 0.006840
0.229333 0.006453 0.006253
0.265971 0.005867 0.005666
0.302531 0.005282 0.005081
0.339023 0.004698 0.004498
0.375454 0.004115 0.003915
0.411831 0.003533 0.003333
0.448158 0.002952 0.002751
0.484440 0.002371 0.002171
0.520682 0.001791 0.001588
0.556890 0.001209 0.000996
0.593065 0.000625 0.000395
0.629212 0.000040 0.000000
0.665330 0.000000 0.000000
0.701423 0.000000 0.000000
0.737491 0.000000 0.000000
0.773536 0.000000 0.000000
0.809559 0.000000 0.000000
0.845561 0.000000 0.000000
0.881542 0.000000 0.000000
0.917505 0.000000 0.000000
0.953449 0.000000 0.000000
0.989375 0.000000 0.000000
1.000000 0.000000 0.000000
1.000000 0.000000 0.000000
1.000000 0.000000 0.000000
0.001831 0.046753 0.007807
0.003989 0.046719 0.007773
0.042124 0.046108 0.007163
0.079572 0.045509 0.006563
0.116734 0.044915 0.005969
0.153712 0.044323 0.005377
0.190551 0.043734 0.004788
0.227280 0.043146 0.004200
0.263918 0.042560 0.003614
0.300478 0.041975 0.003029
0.336970 0.041391 0.002445
0.373401 0.040808 0.001862
0.409782 0.040224 0.001272
0.446117 0.039639 0.000672
0.482412 0.039052 0.000064
0.518669 0.038464 0.000000
0.554892 0.037874 0.000000
0.591082 0.037283 0.000000
0.627243 0.036691 0.000000
0.663375 0.036097 0.000000
0.699481 0.035502 0.000000
0.735562 0.034906 0.000000
0.771619 0.034308 0.000000
0.807654 0.033710 0.000000
0.843667 0.033110 0.000000
0.879660 0.032509 0.000000
0.915633 0.031907 0.000000
0.951587 0.031305 0.000000
0.987523 0.030701 0.000000
1.000000 0.030096 0.000000
1.000000 0.029491 0.000000
1.000000 0.029458 0.000000
0.000000 0.082784 0.005792
0.001974 0.082749 0.005757
0.040109 0.082139 0.005147
0.077556 0.081540 0.004548
0.114719 0.080945 0.003953
0.151696 0.080354 0.003361
0.188535 0.079764 0.002772
0.225265 0.079177 0.002184
0.261904 0.078590 0.001596
0.298469 0.078002 0.000998
0.334971 0.077413 0.000391
0.371417 0.076823 0.000000
0.407813 0.076232 0.000000
0.444163 0.075639 0.000000
0.480472 0.075045 0.000000
0.516743 0.074450 0.000000
0.552979 0.073854 0.000000
0.589182 0.073256 0.000000
0.625355 0.072658 0.000000
0.661499 0.072058 0.000000
0.697616 0.071457 0.000000
0.733708 0.070856 0.000000
0.769776 0.070253 0.000000
0.805821 0.069649 0.000000
0.841844 0.069045 0.000000
0.877845 0.068439 0.000000
0.913827 0.067833 0.000000
0.949790 0.067226 0.000000
0.985733 0.066619 0.000000
1.000000 0.066011 0.000000
1.000000 0.065402 0.000000
1.000000 0.065369 0.000000
0.000000 0.118541 0.003791
0.000000 0.118506 0.003757
0.038108 0.117896 0.003147
0.075556 0.117297 0.002547
0.112718 0.116702 0.001953
0.149699 0.116109 0.001355
0.186545 0.115516 0.000748
0.223287 0.114922 0.000133
0.259941 0.114328 0.000000
0.296522 0.113733 0.000000
0.333038 0.113137 0.000000
0.369498 0.112540 0.000000
0.405907 0.111941 0.000000
0.442270 0.111342 0.000000
0.478592 0.110742 0.000000
0.514875 0.110141 0.000000
0.551122 0.109539 0.000000
0.587337 0.108936 0.000000
0.623520 0.108332 0.000000
0.659675 0.107727 0.000000
0.695802 0.107122 0.000000
0.731903 0.106515 0.000000
0.767980 0.105908 0.000000
0.804033 0.105300 0.000000
0.840064 0.104692 0.000000
0.876073 0.104082 0.000000
0.912062 0.103473 0.000000
0.948031 0.102862 0.000000
0.983981 0.102252 0.000000
1.000000 0.101641 0.000000
1.000000 0.101029 0.000000
1.000000 0.100996 0.000000
0.000000 0.154119 0.001800
0.000000 0.154085 0.001766
0.036123 0.153472 0.001145
0.073580 0.152868 0.000525
0.110756 0.152267 0.000000
0.147752 0.151666 0.000000
0.184613 0.151066 0.000000
0.221369 0.150465 0.000000
0.258037 0.149863 0.000000
0.294631 0.149262 0.000000
0.331160 0.148659 0.000000
0.367633 0.148056 0.000000
0.404054 0.147452 0.000000
0.440428 0.146847 0.000000
0.476761 0.146241 0.000000
0.513054 0.145635 0.000000
0.549312 0.145028 0.000000
0.585536 0.144420 0.000000
0.621728 0.143811 0.000000
0.657892 0.143202 0.000000
0.694027 0.142592 0.000000
0.730136 0.141982 0.000000
0.766220 0.141371 0.000000
0.802280 0.140760 0.000000
0.838317 0.140148 0.000000
0.874332 0.139536 0.000000
0.910327 0.138924 0.000000
0.946301 0.138311 0.000000
0.982256 0.137698 0.000000
1.000000 0.137085 0.000000
1.000000 0.136472 0.000000
1.000000 0.136438 0.000000
0.000000 0.189549 0.000000
0.000000 0.189514 0.000000
0.034189 0.188894 0.000000
0.071660 0.188283 0.000000
0.108851 0.187674 0.000000
0.145860 0.187066 0.000000
0.182735 0.186459 0.000000
0.219503 0.185852 0.000000
0.256184 0.185245 0.000000
0.292789 0.184637 0.000000
0.329330 0.184029 0.000000
0.365813 0.183420 0.000000
0.402244 0.182811 0.000000
0.438628 0.182201 0.000000
0.474970 0.181591 0.000000
0.511273 0.180980 0.000000
0.547539 0.180368 0.000000
0.583771 0.179757 0.000000
0.619971 0.179144 0.000000
0.656141 0.178532 0.000000
0.692283 0.177919 0.000000
0.728398 0.177305 0.000000
0.764488 0.176692 0.000000
0.800554 0.176078 0.000000
0.836596 0.175463 0.000000
0.872615 0.174849 0.000000
0.908614 0.174235 0.000000
0.944591 0.173620 0.000000
0.980549 0.173006 0.000000
1.000000 0.172391 0.000000
1.000000 0.171777 0.000000
1.000000 0.171744 0.000000
0.000000 0.224849 0.000000
0.000000 0.224814 0.000000
0.032307 0.224186 0.000000
0.069792 0.223569 0.000000
0.106995 0.222954 0.000000
0.144016 0.222340 0.000000
0.180903 0.221727 0.000000
0.217682 0.221114 0.000000
0.254373 0.220501 0.000000
0.290989 0.219889 0.000000
0.327539 0.219276 0.000000
0.364031 0.218662 0.000000
0.400471 0.218049 0.000000
0.436864 0.217435 0.000000
0.473214 0.216820 0.000000
0.509523 0.216206 0.000000
0.545796 0.215591 0.000000
0.582035 0.214976 0.000000
0.618241 0.214361 0.000000
0.654417 0.213745 0.000000
0.690564 0.213130 0.000000
0.726684 0.212514 0.000000
0.762778 0.211898 0.000000
0.798847 0.211282 0.000000
0.834893 0.210667 0.000000
0.870915 0.210051 0.000000
0.906916 0.209435 0.000000
0.942896 0.208820 0.000000
0.978855 0.208204 0.000000
1.000000 0.207589 0.000000
1.000000 0.206974 0.000000
1.000000 0.206941 0.000000
0.000000 0.260039 0.000000
0.000000 0.260004 0.000000
0.030472 0.259370 0.000000
0.067968 0.258747 0.000000
0.105182 0.258126 0.000000
0.142214 0.257507 0.000000
0.179111 0.256889 0.000000
0.215900 0.256272 0.000000
0.252600 0.255654 0.000000
0.289224 0.255037 0.000000
0.325782 0.254420 0.000000
0.362282 0.253803 0.000000
0.398729 0.253186 0.000000
0.435129 0.252569 0.000000
0.471485 0.251951 0.000000
0.507800 0.251334 0.000000
0.544079 0.250716 0.000000
0.580322 0.250099 0.000000
0.616533 0.249481 0.000000
0.652713 0.248864 0.000000
0.688863 0.248246 0.000000
0.724986 0.247629 0.000000
0.761083 0.247012 0.000000
0.797154 0.246395 0.000000
0.833202 0.245778 0.000000
0.869226 0.245162 0.000000
0.905227 0.244546 0.000000
0.941208 0.243930 0.000000
0.977167 0.243314 0.000000
1.000000 0.242700 0.000000
1.000000 0.242085 0.000000
1.000000 0.242052 0.000000
0.000000 0.295136 0.000000
0.000000 0.295100 0.000000
0.028676 0.294461 0.000000
0.066183 0.293832 0.000000
0.103407 0.293207 0.000000
0.140448 0.292584 0.000000
0.177352 0.291961 0.000000
0.214150 0.291340 0.000000
0.250857 0.290719 0.000000
0.287489 0.290098 0.000000
0.324053 0.289478 0.000000
0.360559 0.288858 0.000000
0.397012 0.288238 0.000000
0.433417 0.287618 0.000000
0.469777 0.286998 0.000000
0.506097 0.286378 0.000000
0.542379 0.285759 0.000000
0.578626 0.285140 0.000000
0.614840 0.284521 0.000000
0.651022 0.283902 0.000000
0.687175 0.283284 0.000000
0.723300 0.282665 0.000000
0.759398 0.282048 0.000000
0.795470 0.281430 0.000000
0.831517 0.280813 0.000000
0.867541 0.280197 0.000000
0.903543 0.279581 0.000000
0.939522 0.278966 0.000000
0.975480 0.278351 0.000000
1.000000 0.277737 0.000000
1.000000 0.277124 0.000000
1.000000 0.277091 0.000000
0.000000 0.330150 0.000000
0.000000 0.330114 0.000000
0.026916 0.329471 0.000000
0.064430 0.328838 0.000000
0.101662 0.328209 0.000000
0.138711 0.327581 0.000000
0.175622 0.326956 0.000000
0.212426 0.326331 0.000000
0.249140 0.325707 0.000000
0.285776 0.325084 0.000000
0.322346 0.324461 0.000000
0.358857 0.323838 0.000000
0.395314 0.323216 0.000000
0.431722 0.322594 0.000000
0.468086 0.321973 0.000000
0.504409 0.321352 0.000000
0.540693 0.320731 0.000000
0.576942 0.320111 0.000000
0.613157 0.319492 0.000000
0.649341 0.318872 0.000000
0.685494 0.318254 0.000000
0.721619 0.317635 0.000000
0.757716 0.317018 0.000000
0.793788 0.316401 0.000000
0.829834 0.315784 0.000000
0.865856 0.315169 0.000000
0.901856 0.314554 0.000000
0.937832 0.313940 0.000000
0.973788 0.313328 0.000000
1.000000 0.312721 0.000000
1.000000 0.312119 0.000000
1.000000 0.312087 0.000000
0.000000 0.365093 0.000000
0.000000 0.365056 0.000000
0.025184 0.364409 0.000000
0.062705 0.363773 0.000000
0.099944 0.363141 0.000000
0.136998 0.362511 0.000000
0.173915 0.361882 0.000000
0.210723 0.361255 0.000000
0.247442 0.360629 0.000000
0.284082 0.360003 0.000000
0.320656 0.359379 0.000000
0.357169 0.358755 0.000000
0.393629 0.358131 0.000000
0.430040 0.357508 0.000000
0.466405 0.356886 0.000000
0.502729 0.356265 0.000000
0.539015 0.355644 0.000000
0.575264 0.355023 0.000000
0.611479 0.354403 0.000000
0.647662 0.353784 0.000000
0.683814 0.353166 0.000000
0.719938 0.352549 0.000000
0.756033 0.351932 0.000000
0.792103 0.351316 0.000000
0.828146 0.350701 0.000000
0.864169 0.350089 0.000000
0.900176 0.349484 0.000000
0.936166 0.348884 0.000000
0.972142 0.348289 0.000000
1.000000 0.347700 0.000000
1.000000 0.347117 0.000000
1.000000 0.347085 0.000000
0.000000 0.399972 0.000000
0.000000 0.399936 0.000000
0.023475 0.399286 0.000000
0.061002 0.398647 0.000000
0.098245 0.398012 0.000000
0.135304 0.397380 0.000000
0.172225 0.396749 0.000000
0.209037 0.396120 0.000000
0.245758 0.395493 0.000000
0.282401 0.394866 0.000000
0.318976 0.394240 0.000000
0.355491 0.393615 0.000000
0.391952 0.392991 0.000000
0.428364 0.392368 0.000000
0.464729 0.391746 0.000000
0.501053 0.391124 0.000000
0.537338 0.390504 0.000000
0.573586 0.389884 0.000000
0.609799 0.389265 0.000000
0.645980 0.388647 0.000000
0.682131 0.388030 0.000000
0.718252 0.387414 0.000000
0.754351 0.386804 0.000000
0.790430 0.386199 0.000000
0.826491 0.385600 0.000000
0.862533 0.385006 0.000000
0.898557 0.384418 0.000000
0.934565 0.383836 0.000000
0.970556 0.383259 0.000000
1.000000 0.382687 0.000000
1.000000 0.382120 0.000000
1.000000 0.382089 0.000000
0.000000 0.434796 0.000000
0.000000 0.434759 0.000000
0.021785 0.434107 0.000000
0.059315 0.433466 0.000000
0.096562 0.432829 0.000000
0.133623 0.432196 0.000000
0.170546 0.431564 0.000000
0.207360 0.430934 0.000000
0.244083 0.430306 0.000000
0.280727 0.429679 0.000000
0.317303 0.429053 0.000000
0.353818 0.428428 0.000000
0.390278 0.427804 0.000000
0.426689 0.427181 0.000000
0.463053 0.426560 0.000000
0.499375 0.425939 0.000000
0.535658 0.425319 0.000000
0.571904 0.424701 0.000000
0.608116 0.424085 0.000000
0.644303 0.423475 0.000000
0.680466 0.422871 0.000000
0.716606 0.422273 0.000000
0.752724 0.421680 0.000000
0.788821 0.421093 0.000000
0.824898 0.420511 0.000000
0.860955 0.419935 0.000000
0.896994 0.419364 0.000000
0.933014 0.418798 0.000000
0.969017 0.418238 0.000000
1.000000 0.417682 0.000000
1.000000 0.417131 0.000000
1.000000 0.417101 0.000000
0.000000 0.469569 0.000000
0.000000 0.469532 0.000000
0.020107 0.468879 0.000000
0.057640 0.468237 0.000000
0.094888 0.467600 0.000000
0.131950 0.466965 0.000000
0.168875 0.466333 0.000000
0.205689 0.465703 0.000000
0.242411 0.465075 0.000000
0.279055 0.464448 0.000000
0.315630 0.463823 0.000000
0.352143 0.463199 0.000000
0.388602 0.462576 0.000000
0.425010 0.461954 0.000000
0.461372 0.461334 0.000000
0.497696 0.460718 0.000000
0.533987 0.460108 0.000000
0.570248 0.459505 0.000000
0.606480 0.458907 0.000000
0.642685 0.458315 0.000000
0.678865 0.457729 0.000000
0.715021 0.457148 0.000000
0.751154 0.456572 0.000000
0.787264 0.456002 0.000000
0.823354 0.455437 0.000000
0.859422 0.454877 0.000000
0.895471 0.454322 0.000000
0.931500 0.453772 0.000000
0.967511 0.453227 0.000000
1.000000 0.452686 0.000000
1.000000 0.452150 0.000000
1.000000 0.452121 0.000000
0.000000 0.504300 0.000000
0.000000 0.504263 0.000000
0.018436 0.503608 0.000000
0.055970 0.502966 0.000000
0.093218 0.502329 0.000000
0.130280 0.501695 0.000000
0.167204 0.501063 0.000000
0.204017 0.500433 0.000000
0.240738 0.499806 0.000000
0.277380 0.499180 0.000000
0.313952 0.498556 0.000000
0.350464 0.497934 0.000000
0.386927 0.497318 0.000000
0.423346 0.496708 0.000000
0.459725 0.496104 0.000000
0.496068 0.495507 0.000000
0.532378 0.494915 0.000000
0.568655 0.494329 0.000000
0.604903 0.493749 0.000000
0.641123 0.493174 0.000000
0.677316 0.492604 0.000000
0.713483 0.492040 0.000000
0.749627 0.491480 0.000000
0.785747 0.490926 0.000000
0.821845 0.490377 0.000000
0.857921 0.489832 0.000000
0.893976 0.489292 0.000000
0.930010 0.488757 0.000000
0.966024 0.488226 0.000000
1.000000 0.487700 0.000000
1.000000 0.487177 0.000000
1.000000 0.487149 0.000000
0.000000 0.538992 0.000000
0.000000 0.538955 0.000000
0.016768 0.538301 0.000000
0.054301 0.537659 0.000000
0.091548 0.537022 0.000000
0.128609 0.536389 0.000000
0.165530 0.535758 0.000000
0.202340 0.535130 0.000000
0.239061 0.534506 0.000000
0.275709 0.533889 0.000000
0.312295 0.533278 0.000000
0.348826 0.532674 0.000000
0.385308 0.532076 0.000000
0.421744 0.531484 0.000000
0.458140 0.530898 0.000000
0.494498 0.530317 0.000000
0.530821 0.529743 0.000000
0.567112 0.529173 0.000000
0.603371 0.528609 0.000000
0.639601 0.528050 0.000000
0.675803 0.527497 0.000000
0.711979 0.526948 0.000000
0.748130 0.526404 0.000000
0.784256 0.525865 0.000000
0.820358 0.525330 0.000000
0.856437 0.524800 0.000000
0.892494 0.524274 0.000000
0.928529 0.523752 0.000000
0.964544 0.523235 0.000000
1.000000 0.522722 0.000000
1.000000 0.522213 0.000000
1.000000 0.522185 0.000000
0.000000 0.573651 0.000000
0.000000 0.573614 0.000000
0.015097 0.572961 0.000000
0.052628 0.572320 0.000000
0.089872 0.571684 0.000000
0.126934 0.571056 0.000000
0.163865 0.570436 0.000000
0.200691 0.569823 0.000000
0.237431 0.569217 0.000000
0.274098 0.568618 0.000000
0.310701 0.568025 0.000000
0.347248 0.567439 0.000000
0.383744 0.566858 0.000000
0.420194 0.566283 0.000000
0.456603 0.565713 0.000000
0.492972 0.565149 0.000000
0.529305 0.564591 0.000000
0.565604 0.564037 0.000000
0.601871 0.563488 0.000000
0.638108 0.562945 0.000000
0.674315 0.562406 0.000000
0.710495 0.561872 0.000000
0.746648 0.561342 0.000000
0.782776 0.560817 0.000000
0.818879 0.560296 0.000000
0.854957 0.559779 0.000000
0.891012 0.559267 0.000000
0.927045 0.558758 0.000000
0.963055 0.558253 0.000000
0.999043 0.557752 0.000000
1.000000 0.557255 0.000000
1.000000 0.557229 0.000000
0.000000 0.608281 0.000000
0.000000 0.608244 0.000000
0.013426 0.607598 0.000000
0.050968 0.606969 0.000000
0.088230 0.606351 0.000000
0.125312 0.605741 0.000000
0.162261 0.605139 0.000000
0.199103 0.604544 0.000000
0.235859 0.603955 0.000000
0.272540 0.603373 0.000000
0.309157 0.602798 0.000000
0.345716 0.602227 0.000000
0.382223 0.601663 0.000000
0.418683 0.601104 0.000000
0.455099 0.600550 0.000000
0.491476 0.600002 0.000000
0.527815 0.599458 0.000000
0.564119 0.598919 0.000000
0.600389 0.598385 0.000000
0.636628 0.597856 0.000000
0.672837 0.597331 0.000000
0.709017 0.596810 0.000000
0.745170 0.596294 0.000000
0.781295 0.595782 0.000000
0.817394 0.595273 0.000000
0.853468 0.594769 0.000000
0.889518 0.594269 0.000000
0.925544 0.593772 0.000000
0.961546 0.593279 0.000000
0.997527 0.592789 0.000000
1.000000 0.592299 0.000000
1.000000 0.592273 0.000000
0.000000 0.642920 0.000000
0.000000 0.642884 0.000000
0.011810 0.642257 0.000000
0.049370 0.641647 0.000000
0.086649 0.641046 0.000000
0.123746 0.640454 0.000000
0.160709 0.639869 0.000000
0.197565 0.639291 0.000000
0.234332 0.638719 0.000000
0.271024 0.638153 0.000000
0.307650 0.637593 0.000000
0.344216 0.637039 0.000000
0.380730 0.636490 0.000000
0.417196 0.635946 0.000000
0.453617 0.635407 0.000000
0.489997 0.634873 0.000000
0.526338 0.634343 0.000000
0.562642 0.633818 0.000000
0.598913 0.633298 0.000000
0.635150 0.632782 0.000000
0.671356 0.632270 0.000000
0.707533 0.631762 0.000000
0.743680 0.631258 0.000000
0.779799 0.630758 0.000000
0.815891 0.630262 0.000000
0.851957 0.629769 0.000000
0.888002 0.629278 0.000000
0.924026 0.628788 0.000000
0.960030 0.628299 0.000000
0.996015 0.627811 0.000000
1.000000 0.627323 0.000000
1.000000 0.627296 0.000000
0.000000 0.677590 0.000000
0.000000 0.677555 0.000000
0.010250 0.676946 0.000000
0.047823 0.676353 0.000000
0.085115 0.675769 0.000000
0.122224 0.675193 0.000000
0.159197 0.674625 0.000000
0.196061 0.674063 0.000000
0.232836 0.673507 0.000000
0.269535 0.672956 0.000000
0.306165 0.672411 0.000000
0.342736 0.671871 0.000000
0.379253 0.671337 0.000000
0.415720 0.670807 0.000000
0.452142 0.670282 0.000000
0.488521 0.669761 0.000000
0.524860 0.669245 0.000000
0.561162 0.668733 0.000000
0.597428 0.668225 0.000000
0.633660 0.667721 0.000000
0.669859 0.667221 0.000000
0.706028 0.666725 0.000000
0.742168 0.666232 0.000000
0.778283 0.665740 0.000000
0.814375 0.665250 0.000000
0.850444 0.664760 0.000000
0.886491 0.664271 0.000000
0.922518 0.663783 0.000000
0.958523 0.663295 0.000000
0.994509 0.662807 0.000000
1.000000 0.662319 0.000000
1.000000 0.662293 0.000000
0.000000 0.712288 0.000000
0.000000 0.712255 0.000000
0.008731 0.711662 0.000000
0.046315 0.711086 0.000000
0.083615 0.710518 0.000000
0.120731 0.709958 0.000000
0.157710 0.709405 0.000000
0.194580 0.708858 0.000000
0.231359 0.708316 0.000000
0.268059 0.707780 0.000000
0.304691 0.707249 0.000000
0.341262 0.706723 0.000000
0.377778 0.706202 0.000000
0.414243 0.705685 0.000000
0.450661 0.705173 0.000000
0.487035 0.704665 0.000000
0.523368 0.704161 0.000000
0.559663 0.703661 0.000000
0.595921 0.703165 0.000000
0.632147 0.702671 0.000000
0.668344 0.702179 0.000000
0.704513 0.701687 0.000000
0.740657 0.701197 0.000000
0.776775 0.700707 0.000000
0.812869 0.700218 0.000000
0.848939 0.699729 0.000000
0.884987 0.699240 0.000000
0.921014 0.698752 0.000000
0.957019 0.698263 0.000000
0.993003 0.697775 0.000000
1.000000 0.697286 0.000000
1.000000 0.697259 0.000000
0.000000 0.747014 0.000000
0.000000 0.746982 0.000000
0.007242 0.746405 0.000000
0.044831 0.745844 0.000000
0.082136 0.745292 0.000000
0.119255 0.744746 0.000000
0.156236 0.744208 0.000000
0.193107 0.743674 0.000000
0.229885 0.743147 0.000000
0.266584 0.742624 0.000000
0.303214 0.742106 0.000000
0.339781 0.741593 0.000000
0.376291 0.741084 0.000000
0.412750 0.740580 0.000000
0.449161 0.740080 0.000000
0.485527 0.739583 0.000000
0.521855 0.739088 0.000000
0.558149 0.738594 0.000000
0.594409 0.738102 0.000000
0.630638 0.737610 0.000000
0.666838 0.737119 0.000000
0.703009 0.736629 0.000000
0.739154 0.736140 0.000000
0.775272 0.735650 0.000000
0.811366 0.735160 0.000000
0.847435 0.734671 0.000000
0.883482 0.734181 0.000000
0.919505 0.733691 0.000000
0.955507 0.733201 0.000000
0.991488 0.732709 0.000000
1.000000 0.732217 0.000000
1.000000 0.732191 0.000000
0.000000 0.781765 0.000000
0.000000 0.781734 0.000000
0.005768 0.781172 0.000000
0.043359 0.780626 0.000000
0.080664 0.780087 0.000000
0.117783 0.779556 0.000000
0.154762 0.779031 0.000000
0.191629 0.778511 0.000000
0.228404 0.777996 0.000000
0.265097 0.777486 0.000000
0.301720 0.776980 0.000000
0.338279 0.776479 0.000000
0.374782 0.775981 0.000000
0.411237 0.775485 0.000000
0.447648 0.774990 0.000000
0.484017 0.774496 0.000000
0.520349 0.774003 0.000000
0.556644 0.773511 0.000000
0.592906 0.773019 0.000000
0.629136 0.772528 0.000000
0.665336 0.772038 0.000000
0.701507 0.771547 0.000000
0.737650 0.771056 0.000000
0.773767 0.770566 0.000000
0.809857 0.770074 0.000000
0.845923 0.769582 0.000000
0.881966 0.769090 0.000000
0.917984 0.768597 0.000000
0.953981 0.768102 0.000000
0.989955 0.767607 0.000000
1.000000 0.767110 0.000000
1.000000 0.767083 0.000000
0.000000 0.816540 0.000000
0.000000 0.816509 0.000000
0.004296 0.815962 0.000000
0.041885 0.815429 0.000000
0.079187 0.814904 0.000000
0.116301 0.814385 0.000000
0.153274 0.813872 0.000000
0.190134 0.813364 0.000000
0.226900 0.812861 0.000000
0.263587 0.812361 0.000000
0.300208 0.811863 0.000000
0.336768 0.811366 0.000000
0.373275 0.810871 0.000000
0.409732 0.810376 0.000000
0.446145 0.809883 0.000000
0.482516 0.809390 0.000000
0.518848 0.808897 0.000000
0.555144 0.808405 0.000000
0.591405 0.807913 0.000000
0.627633 0.807421 0.000000
0.663831 0.806929 0.000000
0.699998 0.806436 0.000000
0.736138 0.805943 0.000000
0.772250 0.805449 0.000000
0.808336 0.804954 0.000000
0.844396 0.804459 0.000000
0.880431 0.803962 0.000000
0.916443 0.803463 0.000000
0.952431 0.802964 0.000000
0.988396 0.802462 0.000000
1.000000 0.801959 0.000000
1.000000 0.801932 0.000000
0.000000 0.851335 0.000000
0.000000 0.851305 0.000000
0.002813 0.850771 0.000000
0.040396 0.850251 0.000000
0.077690 0.849738 0.000000
0.114796 0.849231 0.000000
0.151764 0.848727 0.000000
0.188623 0.848226 0.000000
0.225391 0.847727 0.000000
0.262082 0.847229 0.000000
0.298704 0.846732 0.000000
0.335267 0.846237 0.000000
0.371775 0.845742 0.000000
0.408233 0.845248 0.000000
0.444645 0.844754 0.000000
0.481015 0.844260 0.000000
0.517345 0.843767 0.000000
0.553638 0.843273 0.000000
0.589896 0.842779 0.000000
0.626120 0.842284 0.000000
0.662313 0.841789 0.000000
0.698475 0.841292 0.000000
0.734609 0.840795 0.000000
0.770714 0.840297 0.000000
0.806792 0.839797 0.000000
0.842844 0.839295 0.000000
0.878870 0.838792 0.000000
0.914872 0.838288 0.000000
0.950849 0.837781 0.000000
0.986803 0.837272 0.000000
1.000000 0.836761 0.000000
1.000000 0.836733 0.000000
0.000000 0.886150 0.000000
0.000000 0.886120 0.000000
0.001307 0.885598 0.000000
0.038886 0.885086 0.000000
0.076180 0.884579 0.000000
0.113289 0.884075 0.000000
0.150260 0.883574 0.000000
0.187121 0.883074 0.000000
0.223891 0.882576 0.000000
0.260583 0.882079 0.000000
0.297206 0.881582 0.000000
0.333767 0.881086 0.000000
0.370274 0.880591 0.000000
0.406730 0.880095 0.000000
0.443139 0.879599 0.000000
0.479506 0.879103 0.000000
0.515832 0.878607 0.000000
0.552120 0.878110 0.000000
0.588372 0.877612 0.000000
0.624590 0.877113 0.000000
0.660775 0.876613 0.000000
0.696930 0.876111 0.000000
0.733054 0.875608 0.000000
0.769150 0.875103 0.000000
0.805218 0.874597 0.000000
0.841259 0.874088 0.000000
0.877274 0.873577 0.000000
0.913263 0.873065 0.000000
0.949228 0.872549 0.000000
0.985168 0.872031 0.000000
1.000000 0.871510 0.000000
1.000000 0.871482 0.000000
0.000000 0.920971 0.000000
0.000000 0.920942 0.000000
0.000000 0.920422 0.000000
0.037384 0.919913 0.000000
0.074680 0.919407 0.000000
0.111790 0.918904 0.000000
0.148762 0.918403 0.000000
0.185623 0.917903 0.000000
0.222393 0.917404 0.000000
0.259083 0.916906 0.000000
0.295703 0.916408 0.000000
0.332262 0.915910 0.000000
0.368764 0.915412 0.000000
0.405216 0.914913 0.000000
0.441620 0.914414 0.000000
0.477980 0.913914 0.000000
0.514300 0.913413 0.000000
0.550580 0.912911 0.000000
0.586824 0.912408 0.000000
