omv/luts/06_atomic_amber.cube
# Original OMV LUT; redistribution permitted with OMV.
TITLE "Atomic Amber"
LUT_3D_SIZE 5
DOMAIN_MIN 0.000000 0.000000 0.000000
DOMAIN_MAX 0.903226 0.903226 0.903226
0.042670 0.022870 0.000000
0.239127 0.025044 0.000000
0.476208 0.027667 0.000000
0.709623 0.030178 0.000000
0.940533 0.032522 0.000000
0.049795 0.224396 0.000000
0.245788 0.226396 0.000000
0.482023 0.228702 0.000000
0.714589 0.230894 0.000000
0.944924 0.233022 0.000000
0.055620 0.466554 0.000000
0.251078 0.468353 0.000934
0.486979 0.470534 0.005329
0.720379 0.473127 0.008619
0.953112 0.476372 0.010269
0.062395 0.705744 0.009653
0.260384 0.708717 0.010511
0.500382 0.712782 0.010285
0.737694 0.717146 0.009043
0.973009 0.721544 0.007625
0.081009 0.948197 0.008354
0.280678 0.951912 0.007187
0.521313 0.956242 0.006114
0.757761 0.960187 0.005752
0.991069 0.963622 0.006422
0.043408 0.023608 0.171361
0.239865 0.025782 0.173535
0.476934 0.028401 0.176177
0.710229 0.030867 0.179240
0.941046 0.033176 0.182810
0.050404 0.225085 0.179150
0.246317 0.227055 0.182141
0.482480 0.229334 0.186141
0.715002 0.231510 0.190364
0.945322 0.233633 0.194680
0.056021 0.467165 0.192788
0.251477 0.468964 0.196463
0.487492 0.471197 0.200730
0.721338 0.473998 0.203533
0.954444 0.477415 0.204759
0.063554 0.706708 0.204342
0.261835 0.709813 0.204861
0.502120 0.714004 0.204283
0.739537 0.718415 0.202915
0.974826 0.722800 0.201525
0.082851 0.949465 0.202227
0.282465 0.953154 0.201117
0.522944 0.957409 0.200207
0.759139 0.961233 0.200108
0.992102 0.964502 0.201137
0.044299 0.024499 0.406710
0.240756 0.026673 0.408884
0.477762 0.029268 0.411620
0.710922 0.031683 0.414886
0.941637 0.033955 0.418609
0.051100 0.225903 0.414792
0.246923 0.227839 0.417916
0.483011 0.230090 0.422030
0.715491 0.232250 0.426315
0.945803 0.234370 0.430644
0.056502 0.467903 0.428753
0.251964 0.469704 0.432418
0.488289 0.472081 0.436344
0.722646 0.475121 0.438582
0.956178 0.478731 0.439318
0.065091 0.707935 0.439131
0.263702 0.711187 0.439261
0.504295 0.715512 0.438298
0.741763 0.719947 0.436875
0.976984 0.724300 0.435555
0.085059 0.950988 0.436206
0.284576 0.954631 0.435197
0.524828 0.958776 0.434523
0.760682 0.962437 0.434779
0.993191 0.965488 0.436279
0.045177 0.025377 0.638617
0.241634 0.027551 0.640791
0.478528 0.030105 0.643694
0.711566 0.032473 0.647144
0.942193 0.034712 0.650999
0.051747 0.226694 0.647045
0.247492 0.228602 0.650286
0.483516 0.230828 0.654496
0.715967 0.232977 0.658825
0.946281 0.235098 0.663150
0.056975 0.468629 0.661266
0.252453 0.470436 0.664908
0.489256 0.473038 0.668314
0.724090 0.476297 0.670019
0.958012 0.480083 0.670297
0.066745 0.709206 0.670324
0.265657 0.712593 0.670091
0.506471 0.717013 0.668855
0.743946 0.721451 0.667424
0.979062 0.725753 0.666214
0.087205 0.952475 0.666794
0.286594 0.956056 0.665919
0.526582 0.960075 0.665519
0.762061 0.963555 0.666164
0.994101 0.966381 0.668153
0.046047 0.026247 0.868414
0.242491 0.028416 0.870607
0.479243 0.030916 0.873724
0.712171 0.033244 0.877339
0.942720 0.035453 0.881311
0.052354 0.227466 0.877237
0.248031 0.229347 0.880580
0.484003 0.231555 0.884868
0.716436 0.233697 0.889225
0.946763 0.235823 0.893529
0.057448 0.469350 0.891660
0.253046 0.471212 0.895166
0.490383 0.474064 0.897988
0.725661 0.477527 0.899189
0.959943 0.481472 0.899036
0.068511 0.710523 0.899264
0.267699 0.714030 0.898691
0.508642 0.718507 0.897299
0.746087 0.722931 0.895900
0.981059 0.727165 0.894839
0.089291 0.953928 0.895327
0.288519 0.957433 0.894619
0.528207 0.961307 0.894531
0.763275 0.964590 0.895604
0.994971 0.967251 0.897951
