omv/luts/06_atomic_amber.cube
# Original OMV LUT; redistribution permitted with OMV.
TITLE "Atomic Amber"
LUT_3D_SIZE 8
DOMAIN_MIN 0.000000 0.000000 0.000000
DOMAIN_MAX 0.903226 0.903226 0.903226
0.042670 0.022870 0.000000
0.135478 0.023897 0.000000
0.273315 0.025422 0.000000
0.408923 0.026923 0.000000
0.543213 0.028404 0.000000
0.676453 0.029831 0.000000
0.808842 0.031200 0.000000
0.940533 0.032522 0.000000
0.046125 0.118106 0.000000
0.138933 0.119133 0.000000
0.276730 0.120644 0.000000
0.412159 0.122077 0.000000
0.546155 0.123448 0.000000
0.679116 0.124770 0.000000
0.811270 0.126051 0.000000
0.942766 0.127300 0.000000
0.050826 0.259387 0.000000
0.143379 0.260318 0.000000
0.280747 0.261668 0.000000
0.415811 0.262964 0.000000
0.549509 0.264224 0.000000
0.682238 0.265458 0.000000
0.814221 0.266676 0.000000
0.945610 0.267884 0.001301
0.054208 0.397918 0.000000
0.146581 0.398782 0.000000
0.283739 0.400053 0.000000
0.418659 0.401295 0.000000
0.552277 0.402525 0.002386
0.684987 0.403752 0.004856
0.817219 0.405085 0.007047
0.949377 0.406652 0.008672
0.056969 0.534894 0.001476
0.149308 0.535745 0.003206
0.286489 0.537027 0.005723
0.421871 0.538484 0.007745
0.556465 0.540168 0.009182
0.690590 0.542055 0.010093
0.824402 0.544120 0.010527
0.957985 0.546339 0.010529
0.060704 0.671387 0.008691
0.153867 0.672622 0.009515
0.292625 0.674638 0.010293
0.429558 0.676811 0.010576
0.565533 0.679124 0.010424
0.700877 0.681555 0.009887
0.835680 0.684055 0.009118
0.969931 0.686567 0.008304
0.069199 0.809354 0.010535
0.163264 0.810996 0.010307
0.303220 0.813544 0.009647
0.441051 0.816111 0.008837
0.577579 0.818666 0.008008
0.713124 0.821184 0.007225
0.847834 0.823641 0.006551
0.981785 0.826008 0.006048
0.081009 0.948197 0.008354
0.175350 0.949960 0.007787
0.315407 0.952551 0.007003
0.453074 0.955039 0.006362
0.589226 0.957414 0.005924
0.724187 0.959652 0.005748
0.858109 0.961730 0.005894
0.991069 0.963622 0.006422
0.043019 0.023219 0.068470
0.135827 0.024246 0.069497
0.273663 0.025771 0.071022
0.409272 0.027272 0.072523
0.543543 0.028746 0.074055
0.676750 0.030160 0.075779
0.809112 0.031519 0.077682
0.940778 0.032832 0.079737
0.046474 0.118455 0.071925
0.139282 0.119482 0.072952
0.277050 0.120982 0.074580
0.412447 0.122403 0.076398
0.546415 0.123764 0.078384
0.679354 0.125077 0.080511
0.811489 0.126351 0.082753
0.942972 0.127595 0.085084
0.051094 0.259705 0.077822
0.143629 0.260630 0.079259
0.280976 0.261972 0.081518
0.416023 0.263262 0.083861
0.549709 0.264517 0.086271
0.682429 0.265748 0.088725
0.814409 0.266964 0.091200
0.945799 0.268173 0.093671
0.054411 0.398213 0.085466
0.146778 0.399074 0.087157
0.283928 0.400342 0.089710
0.418846 0.401584 0.092246
0.552467 0.402814 0.094754
0.685189 0.404047 0.097209
0.817546 0.405438 0.099265
0.949819 0.407059 0.100763
0.057157 0.535183 0.093846
0.149500 0.536035 0.095572
0.286736 0.537342 0.098028
0.422244 0.538858 0.099912
0.556952 0.540596 0.101224
0.691179 0.542530 0.102019
0.825083 0.544635 0.102347
0.958746 0.546890 0.102252
0.061148 0.671795 0.100780
0.154387 0.673065 0.101520
0.293247 0.675127 0.102181
0.430269 0.677340 0.102359
0.566322 0.679687 0.102112
0.701730 0.682145 0.101494
0.836549 0.684654 0.100707
0.970801 0.687166 0.099891
0.069958 0.809905 0.102260
0.164073 0.811568 0.101969
0.304080 0.814138 0.101246
0.441923 0.816711 0.100424
0.578447 0.819264 0.099598
0.713973 0.821773 0.098834
0.848651 0.824214 0.098195
0.982554 0.826559 0.097742
0.081880 0.948796 0.099941
0.176214 0.950556 0.099381
0.316248 0.953136 0.098621
0.453876 0.955606 0.098021
0.589975 0.957955 0.097638
0.724868 0.960160 0.097533
0.858708 0.962198 0.097765
0.991571 0.964044 0.098393
0.043537 0.023737 0.205299
0.136345 0.024764 0.206326
0.274181 0.026289 0.207851
0.409790 0.027790 0.209352
0.544019 0.029248 0.210948
0.677179 0.030645 0.212741
0.809501 0.031989 0.214704
0.941133 0.033289 0.216810
0.046992 0.118973 0.208754
0.139794 0.119998 0.209789
0.277510 0.121478 0.211495
0.412862 0.122882 0.213382
0.546792 0.124229 0.215425
0.679698 0.125530 0.217600
0.811808 0.126795 0.219880
0.943272 0.128032 0.222240
0.051480 0.260174 0.214848
0.143992 0.261090 0.216321
0.281308 0.262420 0.218625
0.416333 0.263702 0.221003
0.550002 0.264951 0.223437
0.682712 0.266178 0.225907
0.814688 0.267393 0.228387
0.946080 0.268602 0.230855
0.054709 0.398648 0.222626
0.147066 0.399506 0.224330
0.284209 0.400771 0.226895
0.419126 0.402012 0.229433
0.552751 0.403245 0.231934
0.685542 0.404509 0.234311
0.818083 0.405987 0.236168
0.950524 0.407686 0.237480
0.057439 0.535612 0.231029
0.149788 0.536467 0.232746
0.287158 0.537837 0.235055
0.422849 0.539439 0.236741
0.557721 0.541252 0.237870
0.692095 0.543253 0.238497
0.826130 0.545418 0.238670
0.959907 0.547722 0.238435
0.061856 0.672423 0.237495
0.155202 0.673743 0.238113
0.294209 0.675872 0.238605
0.431360 0.678142 0.238629
0.567523 0.680537 0.238245
0.703006 0.683027 0.237535
0.837843 0.685544 0.236729
0.972091 0.688055 0.235917
0.071116 0.810736 0.238447
0.165303 0.812430 0.238066
0.305364 0.815023 0.237279
0.443218 0.817602 0.236445
0.579730 0.820149 0.235631
0.715223 0.822642 0.234903
0.849845 0.825056 0.234321
0.983671 0.827364 0.233948
0.083170 0.949685 0.235966
0.177491 0.951438 0.235421
0.317482 0.953998 0.234705
0.455047 0.956437 0.234171
0.591060 0.958745 0.233877
0.725845 0.960899 0.233884
0.859556 0.962875 0.234250
0.992270 0.964649 0.235034
0.044046 0.024246 0.339917
0.136855 0.025273 0.340944
0.274691 0.026799 0.342469
0.410291 0.028296 0.343982
0.544470 0.029736 0.345653
0.677587 0.031116 0.347512
0.809871 0.032446 0.349531
0.941472 0.033735 0.351684
0.047501 0.119483 0.343372
0.140281 0.120499 0.344442
0.277947 0.121960 0.346222
0.413256 0.123349 0.348172
0.547151 0.124682 0.350269
0.680028 0.125972 0.352488
0.812115 0.127228 0.354802
0.943562 0.128459 0.357187
0.051848 0.260631 0.349679
0.144337 0.261538 0.351185
0.281627 0.262858 0.353530
0.416630 0.264132 0.355938
0.550286 0.265376 0.358394
0.682988 0.266600 0.360875
0.814963 0.267814 0.363358
0.946359 0.269026 0.365818
0.054997 0.399074 0.357577
0.147346 0.399929 0.359291
0.284484 0.401193 0.361865
0.419402 0.402434 0.364402
0.553035 0.403669 0.366891
0.685955 0.404994 0.369127
0.818672 0.406554 0.370793
0.951273 0.408327 0.371927
0.057719 0.536036 0.365992
0.150082 0.536896 0.367690
0.287637 0.538354 0.369800
0.423502 0.540036 0.371295
0.558530 0.541922 0.372248
0.693044 0.543986 0.372714
0.827201 0.546205 0.372741
0.961087 0.548557 0.372373
0.062606 0.673066 0.371939
0.156056 0.674433 0.372440
0.295202 0.676625 0.372770
0.432473 0.678948 0.372650
0.568740 0.681387 0.372135
0.704269 0.683898 0.371368
0.839117 0.686421 0.370552
0.973354 0.688926 0.369752
0.072293 0.811569 0.372388
0.166544 0.813291 0.371924
0.306633 0.815898 0.371106
0.444490 0.818477 0.370269
0.580984 0.821016 0.369475
0.716435 0.823489 0.368789
0.850995 0.825873 0.368272
0.984738 0.828141 0.367986
0.084434 0.950557 0.369799
0.178735 0.952300 0.369275
0.318678 0.954836 0.368609
0.456172 0.957242 0.368148
0.592093 0.959505 0.367951
0.726765 0.961605 0.368075
0.860342 0.963517 0.368580
0.992900 0.965217 0.369526
0.044551 0.024751 0.473237
0.137359 0.025778 0.474264
0.275196 0.027303 0.475789
0.410770 0.028791 0.477341
0.544901 0.030213 0.479083
0.677977 0.031578 0.481004
0.810226 0.032895 0.483075
0.941799 0.034173 0.485271
0.048001 0.119985 0.476700
0.140745 0.120988 0.477822
0.278364 0.122432 0.479673
0.413634 0.123806 0.481683
0.547495 0.125127 0.483829
0.680346 0.126407 0.486088
0.812412 0.127655 0.488434
0.943844 0.128880 0.490840
0.052201 0.261078 0.483226
0.144670 0.261978 0.484763
0.281934 0.263289 0.487146
0.416920 0.264556 0.489581
0.550564 0.265795 0.492054
0.683261 0.267018 0.494544
0.815236 0.268232 0.497026
0.946639 0.269446 0.499477
0.055277 0.399495 0.491232
0.147621 0.400348 0.492956
0.284755 0.401610 0.495534
0.419677 0.402853 0.498067
0.553327 0.404095 0.500533
0.686426 0.405504 0.502577
0.819311 0.407143 0.504057
0.952065 0.408986 0.505020
0.057999 0.536456 0.499649
0.150430 0.537349 0.501272
0.288171 0.538893 0.503181
0.424202 0.540653 0.504491
0.559380 0.542607 0.505275
0.694027 0.544732 0.505586
0.828301 0.547003 0.505472
0.962288 0.549398 0.504977
0.063400 0.673726 0.505030
0.156948 0.675137 0.505418
0.296227 0.677389 0.505592
0.433612 0.679762 0.505333
0.569972 0.682241 0.504700
0.705527 0.684764 0.503906
0.840377 0.687288 0.503086
0.974596 0.689784 0.502305
0.073491 0.812409 0.504995
0.167787 0.814150 0.504477
0.307894 0.816765 0.503640
0.445746 0.819343 0.502808
0.582213 0.821868 0.502042
0.717617 0.824319 0.501405
0.852108 0.826670 0.500960
0.985762 0.828895 0.500767
0.085678 0.951416 0.502351
0.179954 0.953147 0.501852
0.319841 0.955657 0.501245
0.457258 0.958026 0.500865
0.593080 0.960242 0.500770
0.727632 0.962284 0.501018
0.861069 0.964129 0.501670
0.993467 0.965751 0.502782
0.045052 0.025252 0.605635
0.137861 0.026279 0.606662
0.275697 0.027805 0.608187
0.411229 0.029277 0.609802
0.545315 0.030682 0.611612
0.678352 0.032032 0.613591
0.810569 0.033337 0.615711
0.942115 0.034604 0.617947
0.048480 0.120478 0.609131
0.141191 0.121469 0.610304
0.278765 0.122896 0.612222
0.413997 0.124255 0.614287
0.547828 0.125565 0.616480
0.680654 0.126836 0.618776
0.812702 0.128077 0.621149
0.944122 0.129298 0.623574
0.052542 0.261519 0.615865
0.144991 0.262412 0.617431
0.282233 0.263714 0.619847
0.417203 0.264975 0.622306
0.550837 0.266211 0.624794
0.683531 0.267432 0.627289
0.815508 0.268647 0.629767
0.946922 0.269866 0.632203
0.055553 0.399912 0.623968
0.147893 0.400763 0.625699
0.285026 0.402024 0.628279
0.419952 0.403269 0.630803
0.553675 0.404546 0.633189
0.686952 0.406038 0.635039
0.820000 0.407753 0.636340
0.952901 0.409663 0.637137
0.058287 0.536878 0.632369
0.150839 0.537827 0.633863
0.288759 0.539456 0.635575
0.424950 0.541290 0.636707
0.560271 0.543309 0.637327
0.695045 0.545491 0.637489
0.829430 0.547810 0.637240
0.963509 0.550245 0.636626
0.064238 0.674404 0.637144
0.157880 0.675858 0.637423
0.297284 0.678165 0.637448
0.434777 0.680585 0.637054
0.571207 0.683095 0.636334
0.706779 0.685626 0.635523
0.841625 0.688147 0.634708
0.975818 0.690631 0.633954
0.074711 0.813255 0.636647
0.169029 0.815007 0.636104
0.309147 0.817627 0.635257
0.446987 0.820199 0.634436
0.583421 0.822709 0.633705
0.718770 0.825133 0.633126
0.853185 0.827448 0.632759
0.986742 0.829626 0.632666
0.086902 0.952264 0.633997
0.181148 0.953981 0.633529
0.320972 0.956461 0.632987
0.458305 0.958789 0.632695
0.594022 0.960954 0.632709
0.728448 0.962936 0.633089
0.861739 0.964711 0.633892
0.993976 0.966256 0.635172
0.045551 0.025751 0.737317
0.138359 0.026778 0.738344
0.276187 0.028300 0.739882
0.411670 0.029753 0.741571
0.545713 0.031142 0.743445
0.678714 0.032479 0.745479
0.810900 0.033772 0.747645
0.942422 0.035031 0.749916
0.048939 0.120962 0.740871
0.141618 0.121941 0.742092
0.279151 0.123352 0.744073
0.414348 0.124698 0.746192
0.548150 0.125997 0.748428
0.680953 0.127259 0.750757
0.812985 0.128495 0.753154
0.944395 0.129711 0.755595
0.052871 0.261954 0.747802
0.145303 0.262840 0.749393
0.282525 0.264135 0.751840
0.417480 0.265391 0.754320
0.551107 0.266624 0.756819
0.683799 0.267844 0.759315
0.815782 0.269061 0.761786
0.947250 0.270305 0.764161
0.055825 0.400325 0.755990
0.148162 0.401175 0.757725
0.285296 0.402437 0.760304
0.420229 0.403685 0.762817
0.554083 0.405023 0.765061
0.687533 0.406596 0.766723
0.820737 0.408383 0.767849
0.953778 0.410358 0.768485
0.058628 0.537323 0.764313
0.151306 0.538332 0.765671
0.289399 0.540041 0.767194
0.425744 0.541946 0.768152
0.561202 0.544028 0.768614
0.696096 0.546263 0.768632
0.830587 0.548628 0.768252
0.964737 0.551093 0.767550
0.065118 0.675099 0.768491
0.158849 0.676593 0.768665
0.298373 0.678954 0.768545
0.435968 0.681418 0.768022
0.572444 0.683947 0.767248
0.708025 0.686483 0.766427
0.842859 0.688999 0.765625
0.977020 0.691468 0.764904
0.075938 0.814103 0.767572
0.170270 0.815862 0.767014
0.310391 0.818484 0.766163
0.448213 0.821047 0.765362
0.584606 0.823537 0.764673
0.719893 0.825931 0.764158
0.854226 0.828206 0.763877
0.987680 0.830336 0.763891
0.088107 0.953102 0.764945
0.182318 0.954802 0.764513
0.322072 0.957248 0.764043
0.459314 0.959532 0.763846
0.594919 0.961644 0.763977
0.729213 0.963562 0.764494
0.862350 0.965263 0.765457
0.994475 0.966755 0.766854
0.046047 0.026247 0.868414
0.138855 0.027274 0.869441
0.276658 0.028787 0.871017
0.412094 0.030222 0.872777
0.546096 0.031596 0.874713
0.679062 0.032920 0.876798
0.811220 0.034203 0.879006
0.942720 0.035453 0.881311
0.049381 0.121438 0.872050
0.142030 0.122405 0.873317
0.279522 0.123802 0.875358
0.414686 0.125135 0.877525
0.548462 0.126424 0.879801
0.681245 0.127679 0.882161
0.813263 0.128909 0.884579
0.944664 0.130123 0.887032
0.053190 0.262384 0.879165
0.145606 0.263264 0.880780
0.282809 0.264552 0.883255
0.417753 0.265803 0.885752
0.551375 0.267034 0.888259
0.684068 0.268255 0.890754
0.816057 0.269475 0.893215
0.947638 0.270771 0.895466
0.056094 0.400736 0.887429
0.148429 0.401586 0.889166
0.285566 0.402849 0.891740
0.420518 0.404104 0.894230
0.554549 0.405525 0.896283
0.688165 0.407177 0.897762
0.821520 0.409033 0.898718
0.954696 0.411069 0.899199
0.059029 0.537796 0.895605
0.151828 0.538861 0.896831
0.290088 0.540648 0.898169
0.426581 0.542621 0.898960
0.562170 0.544762 0.899268
0.697180 0.547048 0.899147
0.831770 0.549456 0.898642
0.965967 0.551942 0.897884
0.066037 0.675811 0.899202
0.159855 0.677344 0.899275
0.299493 0.679754 0.899015
0.437180 0.682258 0.898376
0.573680 0.684799 0.897576
0.709264 0.687336 0.896752
0.844079 0.689843 0.895969
0.978201 0.692292 0.895290
0.077167 0.814952 0.897907
0.171510 0.816715 0.897338
0.311627 0.819335 0.896491
0.449422 0.821885 0.895718
0.585767 0.824352 0.895079
0.720986 0.826714 0.894635
0.855229 0.828946 0.894447
0.988574 0.831023 0.894575
0.089291 0.953928 0.895327
0.183463 0.955610 0.894936
0.323140 0.958018 0.894547
0.460283 0.960256 0.894451
0.595769 0.962310 0.894705
0.729924 0.964162 0.895368
0.862902 0.965787 0.896496
0.994971 0.967251 0.897951
