omv/luts/06_atomic_amber.cube
# Original OMV LUT; redistribution permitted with OMV.
TITLE "Atomic Amber"
LUT_3D_SIZE 32
DOMAIN_MIN 0.0 0.0 0.0
DOMAIN_MAX 1.0 1.0 1.0
0.042670 0.022870 0.000000
0.042670 0.022870 0.000000
0.064634 0.023113 0.000000
0.100357 0.023508 0.000000
0.135478 0.023897 0.000000
0.170254 0.024282 0.000000
0.204785 0.024664 0.000000
0.239127 0.025044 0.000000
0.273315 0.025422 0.000000
0.307372 0.025799 0.000000
0.341318 0.026175 0.000000
0.375165 0.026549 0.000000
0.408923 0.026923 0.000000
0.442602 0.027296 0.000000
0.476208 0.027667 0.000000
0.509746 0.028038 0.000000
0.543213 0.028404 0.000000
0.576613 0.028767 0.000000
0.609951 0.029125 0.000000
0.643230 0.029480 0.000000
0.676453 0.029831 0.000000
0.709623 0.030178 0.000000
0.742743 0.030522 0.000000
0.775816 0.030863 0.000000
0.808842 0.031200 0.000000
0.841826 0.031535 0.000000
0.874767 0.031867 0.000000
0.907669 0.032196 0.000000
0.940533 0.032522 0.000000
0.973360 0.032846 0.000000
0.992740 0.033036 0.000000
0.992740 0.033036 0.000000
0.042670 0.022870 0.000000
0.042670 0.022870 0.000000
0.064634 0.023113 0.000000
0.100357 0.023508 0.000000
0.135478 0.023897 0.000000
0.170254 0.024282 0.000000
0.204785 0.024664 0.000000
0.239127 0.025044 0.000000
0.273315 0.025422 0.000000
0.307372 0.025799 0.000000
0.341318 0.026175 0.000000
0.375165 0.026549 0.000000
0.408923 0.026923 0.000000
0.442602 0.027296 0.000000
0.476208 0.027667 0.000000
0.509746 0.028038 0.000000
0.543213 0.028404 0.000000
0.576613 0.028767 0.000000
0.609951 0.029125 0.000000
0.643230 0.029480 0.000000
0.676453 0.029831 0.000000
0.709623 0.030178 0.000000
0.742743 0.030522 0.000000
0.775816 0.030863 0.000000
0.808842 0.031200 0.000000
0.841826 0.031535 0.000000
0.874767 0.031867 0.000000
0.907669 0.032196 0.000000
0.940533 0.032522 0.000000
0.973360 0.032846 0.000000
0.992740 0.033036 0.000000
0.992740 0.033036 0.000000
0.043488 0.045408 0.000000
0.043488 0.045408 0.000000
0.065451 0.045651 0.000000
0.101174 0.046047 0.000000
0.136296 0.046435 0.000000
0.171071 0.046820 0.000000
0.205602 0.047202 0.000000
0.239944 0.047582 0.000000
0.274132 0.047960 0.000000
0.308190 0.048337 0.000000
0.342136 0.048713 0.000000
0.375982 0.049087 0.000000
0.409741 0.049461 0.000000
0.443417 0.049833 0.000000
0.477010 0.050200 0.000000
0.510527 0.050563 0.000000
0.543974 0.050922 0.000000
0.577355 0.051276 0.000000
0.610674 0.051628 0.000000
0.643934 0.051975 0.000000
0.677140 0.052320 0.000000
0.710293 0.052661 0.000000
0.743396 0.052998 0.000000
0.776453 0.053333 0.000000
0.809464 0.053665 0.000000
0.842433 0.053994 0.000000
0.875361 0.054321 0.000000
0.908249 0.054645 0.000000
0.941100 0.054966 0.000000
0.973915 0.055286 0.000000
0.993289 0.055473 0.000000
0.993289 0.055473 0.000000
0.044817 0.082066 0.000000
0.044817 0.082066 0.000000
0.066781 0.082309 0.000000
0.102504 0.082704 0.000000
0.137626 0.083093 0.000000
0.172401 0.083478 0.000000
0.206932 0.083860 0.000000
0.241274 0.084240 0.000000
0.275462 0.084618 0.000000
0.309519 0.084995 0.000000
0.343457 0.085367 0.000000
0.377285 0.085735 0.000000
0.411016 0.086098 0.000000
0.444659 0.086457 0.000000
0.478220 0.086812 0.000000
0.511706 0.087164 0.000000
0.545123 0.087511 0.000000
0.578475 0.087855 0.000000
0.611765 0.088196 0.000000
0.644999 0.088534 0.000000
0.678178 0.088868 0.000000
0.711306 0.089200 0.000000
0.744386 0.089528 0.000000
0.777420 0.089855 0.000000
0.810410 0.090178 0.000000
0.843358 0.090500 0.000000
0.876265 0.090819 0.000000
0.909135 0.091136 0.000000
0.941968 0.091451 0.000000
0.974766 0.091764 0.000000
0.994131 0.091948 0.000000
0.994131 0.091948 0.000000
0.046125 0.118106 0.000000
0.046125 0.118106 0.000000
0.068088 0.118349 0.000000
0.103812 0.118745 0.000000
0.138933 0.119133 0.000000
0.173709 0.119518 0.000000
0.208237 0.119899 0.000000
0.242565 0.120274 0.000000
0.276730 0.120644 0.000000
0.310756 0.121009 0.000000
0.344661 0.121369 0.000000
0.378458 0.121725 0.000000
0.412159 0.122077 0.000000
0.445772 0.122425 0.000000
0.479305 0.122770 0.000000
0.512764 0.123111 0.000000
0.546155 0.123448 0.000000
0.579481 0.123783 0.000000
0.612748 0.124115 0.000000
0.645959 0.124444 0.000000
0.679116 0.124770 0.000000
0.712223 0.125094 0.000000
0.745283 0.125415 0.000000
0.778298 0.125734 0.000000
0.811270 0.126051 0.000000
0.844201 0.126366 0.000000
0.877093 0.126679 0.000000
0.909947 0.126991 0.000000
0.942766 0.127300 0.000000
0.975551 0.127609 0.000000
0.994909 0.127790 0.000000
0.994909 0.127790 0.000000
0.047419 0.153791 0.000000
0.047419 0.153791 0.000000
0.069383 0.154034 0.000000
0.105099 0.154427 0.000000
0.140204 0.154809 0.000000
0.174952 0.155184 0.000000
0.209447 0.155553 0.000000
0.243744 0.155916 0.000000
0.277878 0.156274 0.000000
0.311874 0.156628 0.000000
0.345750 0.156977 0.000000
0.379519 0.157323 0.000000
0.413194 0.157665 0.000000
0.446781 0.158003 0.000000
0.480290 0.158339 0.000000
0.513726 0.158671 0.000000
0.547094 0.159000 0.000000
0.580399 0.159327 0.000000
0.613645 0.159651 0.000000
0.646837 0.159973 0.000000
0.679976 0.160292 0.000000
0.713066 0.160609 0.000000
0.746109 0.160925 0.000000
0.779109 0.161238 0.000000
0.812066 0.161550 0.000000
0.844984 0.161860 0.000000
0.877863 0.162168 0.000000
0.910707 0.162475 0.000000
0.943515 0.162781 0.000000
0.976291 0.163086 0.000000
0.995643 0.163265 0.000000
0.995643 0.163265 0.000000
0.048664 0.189210 0.000000
0.048664 0.189210 0.000000
0.070607 0.189446 0.000000
0.106290 0.189826 0.000000
0.141362 0.190196 0.000000
0.176080 0.190559 0.000000
0.210545 0.190917 0.000000
0.244813 0.191269 0.000000
0.278920 0.191617 0.000000
0.312890 0.191961 0.000000
0.346740 0.192301 0.000000
0.380486 0.192637 0.000000
0.414137 0.192971 0.000000
0.447703 0.193301 0.000000
0.481191 0.193629 0.000000
0.514607 0.193954 0.000000
0.547956 0.194276 0.000000
0.581244 0.194596 0.000000
0.614474 0.194914 0.000000
0.647649 0.195230 0.000000
0.680773 0.195543 0.000000
0.713850 0.195856 0.000000
0.746880 0.196166 0.000000
0.779868 0.196475 0.000000
0.812815 0.196782 0.000000
0.845722 0.197089 0.000000
0.878593 0.197394 0.000000
0.911428 0.197698 0.000000
0.944230 0.198001 0.000000
0.977000 0.198304 0.000000
0.996349 0.198482 0.000000
0.996349 0.198482 0.000000
0.049795 0.224396 0.000000
0.049795 0.224396 0.000000
0.071720 0.224624 0.000000
0.107372 0.224993 0.000000
0.142416 0.225352 0.000000
0.177106 0.225705 0.000000
0.211545 0.226053 0.000000
0.245788 0.226396 0.000000
0.279872 0.226735 0.000000
0.313819 0.227070 0.000000
0.347648 0.227402 0.000000
0.381373 0.227731 0.000000
0.415005 0.228057 0.000000
0.448553 0.228381 0.000000
0.482023 0.228702 0.000000
0.515423 0.229020 0.000000
0.548757 0.229337 0.000000
0.582030 0.229652 0.000000
0.615247 0.229965 0.000000
0.648410 0.230276 0.000000
0.681523 0.230585 0.000000
0.714589 0.230894 0.000000
0.747610 0.231201 0.000000
0.780589 0.231506 0.000000
0.813529 0.231811 0.000000
0.846430 0.232115 0.000000
0.879295 0.232418 0.000000
0.912126 0.232721 0.000000
0.944924 0.233022 0.000000
0.977691 0.233324 0.000000
0.997039 0.233502 0.000129
0.997039 0.233502 0.000129
0.050826 0.259387 0.000000
0.050826 0.259387 0.000000
0.072734 0.259609 0.000000
0.108360 0.259968 0.000000
0.143379 0.260318 0.000000
0.178045 0.260662 0.000000
0.212462 0.261001 0.000000
0.246684 0.261337 0.000000
0.280747 0.261668 0.000000
0.314676 0.261996 0.000000
0.348487 0.262322 0.000000
0.382195 0.262644 0.000000
0.415811 0.262964 0.000000
0.449344 0.263282 0.000000
0.482800 0.263598 0.000000
0.516187 0.263912 0.000000
0.549509 0.264224 0.000000
0.582772 0.264535 0.000000
0.615978 0.264844 0.000000
0.649132 0.265152 0.000000
0.682238 0.265458 0.000000
0.715297 0.265764 0.000000
0.748312 0.266069 0.000000
0.781286 0.266373 0.000000
0.814221 0.266676 0.000000
0.847120 0.266979 0.000000
0.879983 0.267281 0.000066
0.912812 0.267583 0.000684
0.945610 0.267884 0.001301
0.978377 0.268186 0.001916
0.997726 0.268364 0.002279
0.997726 0.268364 0.002279
0.051771 0.294215 0.000000
0.051771 0.294215 0.000000
0.073664 0.294431 0.000000
0.109267 0.294782 0.000000
0.144265 0.295124 0.000000
0.178911 0.295460 0.000000
0.213309 0.295792 0.000000
0.247513 0.296121 0.000000
0.281560 0.296446 0.000000
0.315472 0.296768 0.000000
0.349269 0.297088 0.000000
0.382964 0.297406 0.000000
0.416567 0.297721 0.000000
0.450089 0.298035 0.000000
0.483535 0.298347 0.000000
0.516912 0.298657 0.000000
0.550226 0.298966 0.000000
0.583481 0.299274 0.000000
0.616680 0.299581 0.000000
0.649829 0.299886 0.000000
0.682930 0.300191 0.000000
0.715985 0.300495 0.000000
0.748998 0.300799 0.000000
0.781970 0.301102 0.000354
0.814904 0.301405 0.000974
0.847803 0.301708 0.001592
0.880667 0.302011 0.002209
0.913499 0.302314 0.002824
0.946299 0.302616 0.003436
0.979071 0.302920 0.004046
0.998423 0.303099 0.004405
0.998423 0.303099 0.004405
0.052641 0.328901 0.000000
0.052641 0.328901 0.000000
0.074522 0.329113 0.000000
0.110106 0.329456 0.000000
0.145086 0.329791 0.000000
0.179716 0.330122 0.000000
0.214098 0.330448 0.000000
0.248288 0.330771 0.000000
0.282321 0.331091 0.000000
0.316222 0.331409 0.000000
0.350007 0.331725 0.000000
0.383692 0.332039 0.000000
0.417286 0.332351 0.000000
0.450799 0.332661 0.000000
0.484238 0.332970 0.000000
0.517609 0.333278 0.000000
0.550918 0.333586 0.000000
0.584169 0.333892 0.000000
0.617365 0.334197 0.000000
0.650512 0.334502 0.000005
0.683611 0.334806 0.000628
0.716666 0.335111 0.001250
0.749679 0.335415 0.001870
0.782653 0.335718 0.002489
0.815590 0.336022 0.003105
0.848492 0.336326 0.003718
0.881360 0.336631 0.004328
0.914197 0.336935 0.004935
0.947013 0.337245 0.005529
0.979831 0.337570 0.006087
0.999225 0.337769 0.006399
0.999225 0.337769 0.006399
0.053450 0.363464 0.000000
0.053450 0.363464 0.000000
0.075320 0.363672 0.000000
0.110888 0.364009 0.000000
0.145854 0.364339 0.000000
0.180471 0.364664 0.000000
0.214841 0.364986 0.000000
0.249020 0.365305 0.000000
0.283043 0.365622 0.000000
0.316935 0.365936 0.000000
0.350713 0.366249 0.000000
0.384391 0.366560 0.000000
0.417980 0.366870 0.000000
0.451488 0.367179 0.000000
0.484923 0.367487 0.000000
0.518291 0.367794 0.000000
0.551598 0.368100 0.000263
0.584848 0.368406 0.000889
0.618044 0.368711 0.001513
0.651192 0.369017 0.002135
0.684293 0.369322 0.002755
0.717351 0.369627 0.003373
0.750368 0.369932 0.003987
0.783347 0.370238 0.004598
0.816290 0.370544 0.005205
0.849221 0.370862 0.005785
0.882150 0.371194 0.006328
0.915079 0.371542 0.006836
0.948008 0.371905 0.007307
0.980938 0.372283 0.007744
1.000000 0.372512 0.007986
1.000000 0.372512 0.007986
0.054208 0.397918 0.000000
0.054208 0.397918 0.000000
0.076071 0.398124 0.000000
0.111627 0.398456 0.000000
0.146581 0.398782 0.000000
0.181188 0.399104 0.000000
0.215550 0.399423 0.000000
0.249722 0.399739 0.000000
0.283739 0.400053 0.000000
0.317625 0.400365 0.000000
0.351398 0.400676 0.000000
0.385072 0.400986 0.000000
0.418659 0.401295 0.000000
0.452165 0.401603 0.000505
0.485600 0.401911 0.001134
0.518969 0.402218 0.001761
0.552277 0.402525 0.002386
0.585529 0.402832 0.003008
0.618729 0.403138 0.003628
0.651881 0.403445 0.004243
0.684987 0.403752 0.004856
0.718057 0.404063 0.005457
0.751117 0.404388 0.006024
0.784171 0.404729 0.006554
0.817219 0.405085 0.007047
0.850263 0.405455 0.007505
0.883304 0.405840 0.007928
0.916341 0.406239 0.008317
0.949377 0.406652 0.008672
0.982410 0.407077 0.008995
1.000000 0.407335 0.009171
1.000000 0.407335 0.009171
0.054928 0.432278 0.000000
0.054928 0.432278 0.000000
0.076784 0.432481 0.000000
0.112332 0.432810 0.000000
0.147279 0.433133 0.000000
0.181880 0.433453 0.000000
0.216237 0.433770 0.000000
0.250404 0.434084 0.000000
0.284418 0.434397 0.000000
0.318302 0.434709 0.000095
0.352074 0.435019 0.000730
0.385748 0.435329 0.001364
0.419335 0.435638 0.001994
0.452844 0.435947 0.002622
0.486281 0.436256 0.003247
0.519653 0.436565 0.003869
0.552966 0.436873 0.004487
0.586224 0.437182 0.005100
0.619447 0.437499 0.005692
0.652655 0.437832 0.006246
0.685850 0.438181 0.006763
0.719033 0.438544 0.007243
0.752205 0.438923 0.007688
0.785369 0.439315 0.008098
0.818525 0.439721 0.008474
0.851674 0.440141 0.008816
0.884817 0.440574 0.009126
0.917955 0.441019 0.009404
0.951088 0.441477 0.009651
0.984216 0.441946 0.009867
1.000000 0.442229 0.009980
1.000000 0.442229 0.009980
0.055620 0.466554 0.000000
0.055620 0.466554 0.000000
0.077473 0.466755 0.000000
0.113016 0.467083 0.000000
0.147959 0.467404 0.000000
0.182557 0.467723 0.000000
0.216912 0.468039 0.000291
0.251078 0.468353 0.000934
0.285092 0.468666 0.001573
0.318977 0.468978 0.002209
0.352751 0.469290 0.002841
0.386429 0.469601 0.003470
0.420020 0.469911 0.004095
0.453533 0.470222 0.004715
0.486979 0.470534 0.005329
0.520388 0.470859 0.005909
0.553770 0.471200 0.006451
0.587128 0.471557 0.006956
0.620466 0.471928 0.007425
0.653786 0.472313 0.007857
0.687090 0.472713 0.008255
0.720379 0.473127 0.008619
0.753656 0.473553 0.008949
0.786921 0.473993 0.009247
0.820176 0.474445 0.009512
0.853422 0.474910 0.009747
0.886660 0.475386 0.009950
0.919889 0.475874 0.010124
0.953112 0.476372 0.010269
0.986328 0.476882 0.010386
1.000000 0.477187 0.010441
1.000000 0.477187 0.010441
0.056297 0.500756 0.000000
0.056297 0.500756 0.000000
0.078148 0.500957 0.000000
0.113689 0.501284 0.000448
0.148632 0.501605 0.001105
0.183230 0.501924 0.001755
0.217586 0.502240 0.002400
0.251755 0.502555 0.003039
0.285772 0.502870 0.003673
0.319662 0.503184 0.004303
0.353442 0.503497 0.004927
0.387135 0.503815 0.005537
0.420774 0.504148 0.006108
0.454369 0.504497 0.006640
0.487925 0.504861 0.007134
0.521447 0.505240 0.007592
0.554941 0.505633 0.008014
0.588407 0.506040 0.008400
0.621851 0.506461 0.008752
0.655275 0.506895 0.009071
0.688679 0.507341 0.009357
0.722067 0.507800 0.009611
0.755440 0.508271 0.009834
0.788799 0.508754 0.010026
0.822145 0.509248 0.010188
0.855480 0.509753 0.010322
0.888803 0.510269 0.010426
0.922117 0.510794 0.010504
0.955421 0.511329 0.010554
0.988715 0.511874 0.010577
1.000000 0.512201 0.010579
1.000000 0.512201 0.010579
0.056969 0.534894 0.001476
0.056969 0.534894 0.001476
0.078821 0.535095 0.001886
0.114363 0.535423 0.002553
0.149308 0.535745 0.003206
0.183911 0.536065 0.003850
0.218271 0.536383 0.004488
0.252446 0.536701 0.005118
0.286489 0.537027 0.005723
0.320438 0.537368 0.006287
0.354311 0.537725 0.006811
0.388118 0.538097 0.007296
0.421871 0.538484 0.007745
0.455577 0.538885 0.008156
0.489241 0.539299 0.008533
0.522869 0.539727 0.008874
0.556465 0.540168 0.009182
0.590032 0.540622 0.009457
0.623574 0.541088 0.009700
0.657093 0.541566 0.009912
0.690590 0.542055 0.010093
0.724068 0.542556 0.010245
0.757529 0.543067 0.010367
0.790973 0.543588 0.010461
0.824402 0.544120 0.010527
0.857817 0.544661 0.010567
0.891219 0.545211 0.010580
0.924608 0.545771 0.010567
0.957985 0.546339 0.010529
0.991351 0.546915 0.010467
1.000000 0.547259 0.010419
1.000000 0.547259 0.010419
0.057646 0.568976 0.003570
0.057646 0.568976 0.003570
0.079501 0.569178 0.003976
0.115048 0.569508 0.004635
0.150001 0.569833 0.005277
0.184639 0.570169 0.005882
0.219070 0.570520 0.006443
0.253348 0.570886 0.006962
0.287507 0.571267 0.007441
0.321570 0.571662 0.007881
0.355553 0.572071 0.008285
0.389469 0.572493 0.008652
0.423327 0.572929 0.008985
0.457135 0.573377 0.009283
0.490899 0.573838 0.009548
0.524624 0.574311 0.009781
0.558315 0.574796 0.009983
0.591974 0.575292 0.010154
0.625606 0.575799 0.010295
0.659211 0.576317 0.010407
0.692793 0.576844 0.010490
0.726354 0.577382 0.010546
0.759894 0.577929 0.010575
0.793416 0.578485 0.010578
0.826919 0.579050 0.010555
0.860407 0.579623 0.010507
0.893878 0.580204 0.010435
0.927335 0.580793 0.010339
0.960777 0.581389 0.010221
0.994206 0.581993 0.010080
1.000000 0.582352 0.009987
1.000000 0.582352 0.009987
0.058353 0.603016 0.005620
0.058353 0.603016 0.005620
0.080239 0.603233 0.005993
0.115866 0.603600 0.006564
0.150931 0.603978 0.007086
0.185687 0.604370 0.007563
0.220232 0.604774 0.008000
0.254621 0.605192 0.008398
0.288888 0.605624 0.008758
0.323056 0.606067 0.009083
0.357141 0.606524 0.009373
0.391157 0.606993 0.009630
0.425112 0.607473 0.009854
0.459014 0.607965 0.010046
0.492870 0.608468 0.010207
0.526684 0.608981 0.010338
0.560461 0.609505 0.010440
0.594205 0.610039 0.010514
0.627918 0.610583 0.010560
0.661602 0.611136 0.010579
0.695261 0.611698 0.010572
0.728895 0.612268 0.010539
0.762507 0.612847 0.010482
0.796098 0.613434 0.010400
0.829668 0.614028 0.010295
0.863220 0.614629 0.010167
0.896754 0.615237 0.010017
0.930270 0.615851 0.009845
0.963764 0.616469 0.009660
0.997233 0.617090 0.009470
1.000000 0.617457 0.009355
1.000000 0.617457 0.009355
0.059348 0.637141 0.007355
0.059348 0.637141 0.007355
0.081307 0.637392 0.007648
0.117051 0.637814 0.008092
0.152229 0.638245 0.008490
0.187094 0.638687 0.008848
0.221745 0.639141 0.009168
0.256237 0.639607 0.009451
0.290603 0.640085 0.009701
0.324868 0.640573 0.009917
0.359048 0.641073 0.010101
0.393154 0.641583 0.010253
0.427198 0.642104 0.010376
0.461187 0.642635 0.010469
0.495126 0.643176 0.010533
0.529021 0.643726 0.010570
0.562877 0.644285 0.010579
0.596696 0.644853 0.010563
0.630482 0.645429 0.010521
0.664238 0.646013 0.010454
0.697965 0.646605 0.010363
0.731665 0.647204 0.010248
0.765341 0.647811 0.010111
0.798993 0.648423 0.009952
0.832621 0.649042 0.009773
0.866220 0.649663 0.009585
0.899789 0.650287 0.009392
0.933327 0.650911 0.009195
0.966837 0.651537 0.008995
1.000000 0.652163 0.008793
1.000000 0.652533 0.008673
1.000000 0.652533 0.008673
0.060704 0.671387 0.008691
0.060704 0.671387 0.008691
0.082731 0.671670 0.008909
0.118585 0.672143 0.009232
0.153867 0.672622 0.009515
0.188832 0.673111 0.009760
0.223581 0.673610 0.009971
0.258167 0.674119 0.010148
0.292625 0.674638 0.010293
0.326979 0.675167 0.010407
0.361244 0.675706 0.010492
0.395434 0.676254 0.010548
0.429558 0.676811 0.010576
0.463625 0.677377 0.010577
0.497639 0.677951 0.010551
0.531607 0.678533 0.010500
0.565533 0.679124 0.010424
0.599420 0.679721 0.010324
0.633272 0.680326 0.010201
0.667090 0.680937 0.010055
0.700877 0.681555 0.009887
0.734633 0.682177 0.009703
0.768351 0.682802 0.009512
0.802034 0.683428 0.009317
0.835680 0.684055 0.009118
0.869293 0.684683 0.008916
0.902872 0.685311 0.008712
0.936418 0.685939 0.008508
0.969931 0.686567 0.008304
1.000000 0.687193 0.008101
1.000000 0.687562 0.007982
1.000000 0.687562 0.007982
0.062395 0.705744 0.009653
0.062395 0.705744 0.009653
0.084485 0.706056 0.009800
0.120439 0.706575 0.010011
0.155817 0.707098 0.010185
0.190874 0.707629 0.010325
0.225712 0.708169 0.010433
0.260384 0.708717 0.010511
0.294926 0.709273 0.010559
0.329359 0.709838 0.010579
0.363703 0.710412 0.010571
0.397968 0.710993 0.010538
0.432164 0.711582 0.010478
0.466300 0.712179 0.010394
0.500382 0.712782 0.010285
0.534415 0.713393 0.010153
0.568403 0.714010 0.009999
0.602350 0.714632 0.009823
0.636253 0.715259 0.009635
0.670109 0.715887 0.009441
0.703923 0.716516 0.009244
0.737694 0.717146 0.009043
0.771424 0.717777 0.008839
0.805116 0.718407 0.008635
0.838768 0.719037 0.008429
0.872384 0.719666 0.008225
0.905962 0.720294 0.008022
0.939503 0.720920 0.007822
0.973009 0.721544 0.007625
1.000000 0.722166 0.007433
1.000000 0.722531 0.007322
1.000000 0.722531 0.007322
0.064393 0.740199 0.010265
0.064393 0.740199 0.010265
0.086541 0.740537 0.010346
0.122586 0.741097 0.010452
0.158051 0.741660 0.010525
0.193193 0.742229 0.010567
0.228111 0.742805 0.010580
0.262861 0.743388 0.010565
0.297477 0.743978 0.010523
0.331983 0.744575 0.010455
0.366396 0.745178 0.010363
0.400728 0.745789 0.010246
0.434989 0.746406 0.010106
0.469187 0.747029 0.009943
0.503327 0.747657 0.009760
0.537407 0.748288 0.009569
0.571429 0.748919 0.009373
0.605397 0.749552 0.009173
0.639314 0.750185 0.008970
0.673182 0.750819 0.008766
0.707003 0.751452 0.008560
0.740779 0.752084 0.008354
0.774511 0.752715 0.008149
0.808200 0.753345 0.007946
0.841848 0.753973 0.007747
0.875454 0.754598 0.007551
0.909021 0.755220 0.007360
0.942548 0.755839 0.007176
0.976035 0.756454 0.006998
1.000000 0.757065 0.006828
1.000000 0.757424 0.006732
1.000000 0.757424 0.006732
0.066670 0.774740 0.010551
0.066670 0.774740 0.010551
0.088870 0.775101 0.010571
0.124998 0.775699 0.010579
0.160543 0.776297 0.010557
0.195759 0.776899 0.010509
0.230750 0.777507 0.010433
0.265570 0.778120 0.010333
0.300253 0.778739 0.010208
0.334823 0.779364 0.010060
0.369298 0.779994 0.009889
0.403685 0.780628 0.009702
0.437989 0.781264 0.009507
0.472218 0.781900 0.009309
0.506376 0.782537 0.009107
0.540469 0.783174 0.008902
0.574501 0.783811 0.008695
0.608476 0.784447 0.008488
0.642396 0.785082 0.008282
0.676265 0.785715 0.008077
0.710082 0.786347 0.007874
0.743852 0.786976 0.007675
0.777574 0.787602 0.007480
0.811250 0.788226 0.007291
0.844882 0.788845 0.007108
0.878469 0.789461 0.006932
0.912013 0.790073 0.006765
0.945514 0.790679 0.006607
0.978973 0.791281 0.006460
1.000000 0.791876 0.006323
1.000000 0.792225 0.006248
1.000000 0.792225 0.006248
0.069199 0.809354 0.010535
0.069199 0.809354 0.010535
0.091446 0.809737 0.010498
0.127649 0.810367 0.010415
0.163264 0.810996 0.010307
0.198548 0.811628 0.010174
0.233603 0.812263 0.010018
0.268484 0.812902 0.009839
0.303220 0.813544 0.009647
0.337830 0.814186 0.009450
0.372331 0.814828 0.009249
0.406735 0.815470 0.009044
0.441051 0.816111 0.008837
0.475289 0.816752 0.008629
0.509452 0.817391 0.008421
0.543548 0.818030 0.008213
0.577579 0.818666 0.008008
0.611550 0.819300 0.007805
0.645463 0.819931 0.007607
0.679320 0.820559 0.007413
0.713124 0.821184 0.007225
0.746876 0.821805 0.007044
0.780578 0.822422 0.006870
0.814230 0.823034 0.006706
0.847834 0.823641 0.006551
0.881392 0.824242 0.006407
0.914902 0.824837 0.006275
0.948367 0.825426 0.006155
0.981785 0.826008 0.006048
1.000000 0.826583 0.005956
1.000000 0.826920 0.005909
1.000000 0.826920 0.005909
0.071954 0.844031 0.010240
0.071954 0.844031 0.010240
0.094243 0.844431 0.010151
0.130511 0.845090 0.009985
0.166188 0.845745 0.009797
0.201523 0.846399 0.009601
0.236615 0.847050 0.009399
0.271519 0.847700 0.009194
0.306271 0.848349 0.008986
0.340892 0.848996 0.008777
0.375401 0.849642 0.008567
0.409809 0.850286 0.008357
0.444127 0.850928 0.008149
0.478362 0.851568 0.007943
0.512521 0.852205 0.007740
0.546608 0.852839 0.007542
0.580627 0.853470 0.007349
0.614582 0.854096 0.007163
0.648477 0.854719 0.006983
0.682312 0.855337 0.006812
0.716091 0.855949 0.006650
0.749815 0.856557 0.006498
0.783485 0.857158 0.006358
0.817103 0.857754 0.006229
0.850669 0.858342 0.006114
0.884186 0.858924 0.006012
0.917652 0.859498 0.005926
0.951069 0.860064 0.005855
0.984437 0.860622 0.005802
1.000000 0.861171 0.005766
1.000000 0.861492 0.005753
1.000000 0.861492 0.005753
0.074903 0.878755 0.009695
0.074903 0.878755 0.009695
0.097221 0.879168 0.009569
0.133526 0.879843 0.009359
0.169224 0.880508 0.009149
0.204573 0.881168 0.008937
0.239676 0.881825 0.008724
0.274587 0.882478 0.008512
0.309342 0.883129 0.008300
0.343964 0.883776 0.008090
0.378470 0.884421 0.007883
0.412872 0.885062 0.007680
0.447180 0.885699 0.007482
0.481402 0.886333 0.007290
0.515544 0.886962 0.007104
0.549612 0.887587 0.006927
0.583608 0.888206 0.006757
0.617537 0.888820 0.006598
0.651402 0.889428 0.006449
0.685205 0.890031 0.006312
0.718948 0.890626 0.006187
0.752632 0.891215 0.006076
0.786260 0.891796 0.005980
0.819833 0.892370 0.005899
0.853351 0.892935 0.005834
0.886815 0.893492 0.005786
0.920226 0.894039 0.005757
0.953585 0.894578 0.005747
0.986892 0.895106 0.005757
1.000000 0.895624 0.005788
1.000000 0.895926 0.005817
1.000000 0.895926 0.005817
0.077943 0.913486 0.009038
0.077943 0.913486 0.009038
0.100270 0.913903 0.008904
0.136585 0.914583 0.008684
0.172290 0.915251 0.008466
0.207642 0.915913 0.008251
0.242744 0.916569 0.008039
0.277652 0.917221 0.007830
0.312400 0.917868 0.007626
0.347011 0.918511 0.007428
0.381503 0.919148 0.007236
0.415887 0.919781 0.007051
0.450175 0.920408 0.006874
0.484373 0.921030 0.006707
0.518487 0.921646 0.006550
0.552524 0.922256 0.006404
0.586486 0.922859 0.006270
0.620379 0.923456 0.006149
0.654203 0.924045 0.006042
