omv/luts/07_frontier_cinema.cube
# Original OMV LUT; redistribution permitted with OMV.
TITLE "Frontier Cinema"
LUT_3D_SIZE 5
DOMAIN_MIN 0.000000 0.000000 0.000000
DOMAIN_MAX 0.903226 0.903226 0.903226
0.004140 0.022874 0.029776
0.179766 0.026927 0.033829
0.411940 0.032285 0.039187
0.643153 0.037410 0.043961
0.874428 0.042106 0.047591
0.018049 0.207960 0.043075
0.194515 0.211639 0.046101
0.428492 0.216196 0.049255
0.661606 0.220476 0.051706
0.894171 0.224599 0.053759
0.042695 0.449857 0.053006
0.220411 0.452981 0.054505
0.455321 0.457123 0.056518
0.689286 0.461604 0.058318
0.923315 0.466776 0.059720
0.071037 0.690057 0.059170
0.249999 0.694260 0.060240
0.486620 0.700415 0.062022
0.721477 0.707086 0.064464
0.955498 0.713817 0.066920
0.103187 0.935635 0.065898
0.281908 0.940760 0.067809
0.517794 0.947402 0.070596
0.751460 0.953733 0.073911
0.983092 0.959637 0.078020
0.005516 0.024250 0.202726
0.181143 0.028303 0.206779
0.413333 0.033654 0.212116
0.644806 0.038663 0.216573
0.876281 0.043270 0.219958
0.019652 0.209235 0.215748
0.196288 0.212840 0.218567
0.430432 0.217322 0.221516
0.663652 0.221555 0.223838
0.896260 0.225658 0.225837
0.044775 0.450920 0.225096
0.222501 0.454040 0.226583
0.457402 0.458212 0.228624
0.691668 0.462879 0.230270
0.925839 0.468230 0.231662
0.073523 0.691440 0.231098
0.252535 0.695777 0.232213
0.489076 0.702103 0.234183
0.723925 0.708834 0.236673
0.957915 0.715554 0.239149
0.105629 0.937381 0.238110
0.284292 0.942485 0.240061
0.520011 0.949070 0.242964
0.753412 0.955309 0.246463
0.984680 0.961086 0.250824
0.007336 0.026070 0.431361
0.182962 0.030123 0.435414
0.415283 0.035415 0.440592
0.647080 0.040281 0.444653
0.878796 0.044781 0.447743
0.021865 0.210880 0.443902
0.198705 0.214394 0.446471
0.433048 0.218788 0.449178
0.666382 0.222970 0.451360
0.899024 0.227058 0.453319
0.047536 0.452322 0.452581
0.225256 0.455444 0.454074
0.460292 0.459725 0.456065
0.694895 0.464637 0.457563
0.929189 0.470221 0.458997
0.076850 0.693339 0.458394
0.255877 0.697851 0.459611
0.492272 0.704390 0.461858
0.727162 0.711144 0.464326
0.961074 0.717837 0.466857
0.108836 0.939681 0.465785
0.287391 0.944747 0.467810
0.522851 0.951243 0.470893
0.755861 0.957346 0.474662
0.986607 0.962943 0.479384
0.009144 0.027878 0.658607
0.184771 0.031931 0.662660
0.417340 0.037114 0.667534
0.649430 0.041849 0.671237
0.881359 0.046254 0.674067
0.024162 0.212472 0.670551
0.201184 0.215904 0.672898
0.435695 0.220223 0.675399
0.669116 0.224367 0.677474
0.901764 0.228453 0.679426
0.050283 0.453713 0.678679
0.227977 0.456847 0.680205
0.463302 0.461314 0.682052
0.698168 0.466464 0.683468
0.932513 0.472278 0.685008
0.080178 0.695304 0.684340
0.259167 0.699989 0.685708
0.495470 0.706679 0.688142
0.730368 0.713436 0.690604
0.964157 0.720086 0.693220
0.111986 0.941953 0.692102
0.290400 0.946971 0.694225
0.525556 0.953362 0.697517
0.758133 0.959315 0.701587
0.988416 0.964752 0.706630
0.010946 0.029680 0.885007
0.186593 0.033724 0.889035
0.419497 0.038757 0.893500
0.651853 0.043374 0.896877
0.883966 0.047698 0.899482
0.026536 0.214019 0.896251
0.203719 0.217380 0.898401
0.438371 0.221637 0.900730
0.671851 0.225754 0.902734
0.904477 0.229850 0.904712
0.053014 0.455102 0.903944
0.230698 0.458270 0.905501
0.466414 0.462978 0.907149
0.701469 0.468364 0.908547
0.935793 0.474402 0.910258
0.083493 0.697340 0.909498
0.262388 0.702193 0.911066
0.498674 0.708966 0.913571
0.733535 0.715710 0.916059
0.967156 0.722303 0.918791
0.115070 0.944199 0.917614
0.293310 0.949157 0.919857
0.528120 0.955427 0.923390
0.760220 0.961215 0.927790
0.990218 0.966554 0.933030
