omv/luts/07_frontier_cinema.cube
# Original OMV LUT; redistribution permitted with OMV.
TITLE "Frontier Cinema"
LUT_3D_SIZE 8
DOMAIN_MIN 0.000000 0.000000 0.000000
DOMAIN_MAX 0.903226 0.903226 0.903226
0.004140 0.022874 0.029776
0.079411 0.024611 0.031513
0.213065 0.027695 0.034597
0.345790 0.030758 0.037660
0.478004 0.033799 0.040683
0.610121 0.036706 0.043356
0.742260 0.039468 0.045640
0.874428 0.042106 0.047591
0.009984 0.102252 0.035620
0.085255 0.103989 0.037357
0.218922 0.107068 0.040425
0.351921 0.110008 0.043152
0.484707 0.112795 0.045476
0.617389 0.115451 0.047459
0.750006 0.118001 0.049157
0.882567 0.120464 0.050629
0.021111 0.242863 0.045077
0.096819 0.244406 0.046281
0.231449 0.247057 0.048172
0.365357 0.249593 0.049788
0.498896 0.252045 0.051191
0.632177 0.254436 0.052442
0.765241 0.256786 0.053595
0.898097 0.259118 0.054706
0.035069 0.381205 0.050915
0.111151 0.382581 0.051660
0.246326 0.384990 0.052886
0.380622 0.387354 0.054028
0.514395 0.389702 0.055145
0.647759 0.392055 0.056295
0.780893 0.394484 0.057435
0.914175 0.397135 0.058366
0.050469 0.518325 0.054898
0.126635 0.519664 0.055541
0.261839 0.522060 0.056732
0.396330 0.524591 0.057804
0.530659 0.527349 0.058683
0.664863 0.530329 0.059476
0.798909 0.533527 0.060289
0.932737 0.536937 0.061224
0.066532 0.655467 0.058492
0.143112 0.657111 0.058957
0.279250 0.660212 0.059757
0.414543 0.663520 0.060610
0.549274 0.667033 0.061624
0.683485 0.670750 0.062903
0.817324 0.674586 0.064335
0.950969 0.678433 0.065732
0.085048 0.794668 0.061363
0.161733 0.796736 0.062015
0.297759 0.800569 0.063408
0.432846 0.804449 0.064836
0.567412 0.808322 0.066242
0.701546 0.812166 0.067679
0.835261 0.815960 0.069197
0.968542 0.819680 0.070845
0.103187 0.935635 0.065898
0.179802 0.937837 0.066705
0.315773 0.941724 0.068185
0.450649 0.945532 0.069758
0.584763 0.949248 0.071478
0.718203 0.952852 0.073395
0.850984 0.956323 0.075560
0.983092 0.959637 0.078020
0.004730 0.023464 0.103900
0.080001 0.025201 0.105637
0.213655 0.028285 0.108722
0.346380 0.031348 0.111785
0.478626 0.034374 0.114768
0.610808 0.037253 0.117362
0.743002 0.039991 0.119578
0.875217 0.042607 0.121472
0.010573 0.102842 0.109744
0.085845 0.104579 0.111481
0.219537 0.107646 0.114518
0.352602 0.110558 0.117165
0.485445 0.113319 0.119419
0.618175 0.115954 0.121343
0.750831 0.118486 0.122994
0.883423 0.120935 0.124428
0.021839 0.243392 0.119032
0.097576 0.244922 0.120200
0.232251 0.247552 0.122036
0.366196 0.250073 0.123608
0.499762 0.252512 0.124978
0.633062 0.254895 0.126206
0.766135 0.257241 0.127347
0.898992 0.259572 0.128456
0.035930 0.381674 0.124708
0.112025 0.383045 0.125438
0.247215 0.385447 0.126645
0.381518 0.387808 0.127778
0.515289 0.390156 0.128898
0.648642 0.392515 0.130061
0.781843 0.394982 0.131165
0.915192 0.397678 0.132064
0.051364 0.518779 0.128649
0.127526 0.520120 0.129297
0.262734 0.522529 0.130492
0.397308 0.525106 0.131520
0.531696 0.527909 0.132375
0.665936 0.530933 0.133164
0.799996 0.534174 0.133992
0.933815 0.537627 0.134964
0.067557 0.656017 0.132188
0.144164 0.657686 0.132645
0.280331 0.660832 0.133448
0.415629 0.664182 0.134324
0.550342 0.667738 0.135382
0.684518 0.671493 0.136721
0.818372 0.675335 0.138143
0.952018 0.679181 0.139538
0.086123 0.795362 0.135109
0.162791 0.797454 0.135793
0.298799 0.801314 0.137221
0.433895 0.805198 0.138642
0.568458 0.809069 0.140051
0.702574 0.812908 0.141500
0.836257 0.816690 0.143040
0.969492 0.820395 0.144721
0.104235 0.936384 0.139705
0.180843 0.938584 0.140517
0.316791 0.942462 0.142013
0.451630 0.946257 0.143612
0.585693 0.949955 0.145367
0.719068 0.953537 0.147329
0.851770 0.956980 0.149548
0.983786 0.960263 0.152073
0.005777 0.024511 0.235517
0.081049 0.026248 0.237254
0.214703 0.029333 0.240339
0.347427 0.032396 0.243401
0.479762 0.035382 0.246276
0.612054 0.038212 0.248736
0.744343 0.040907 0.250835
0.876638 0.043489 0.252632
0.011621 0.103889 0.241361
0.086892 0.105626 0.243098
0.220663 0.108659 0.246039
0.353841 0.111520 0.248548
0.486780 0.114239 0.250685
0.619591 0.116838 0.252510
0.752313 0.119341 0.254081
0.884954 0.121768 0.255453
0.023157 0.244319 0.250318
0.098944 0.245827 0.251425
0.233695 0.248424 0.253169
0.367700 0.250917 0.254667
0.501310 0.253337 0.255983
0.634639 0.255707 0.257176
0.767725 0.258047 0.258301
0.900581 0.260380 0.259412
0.037470 0.382503 0.255723
0.113585 0.383864 0.256428
0.248799 0.386256 0.257606
0.383109 0.388614 0.258730
0.516873 0.390966 0.259860
0.650219 0.393340 0.261039
0.783565 0.395888 0.262063
0.917023 0.398664 0.262916
0.052950 0.519587 0.259607
0.129103 0.520932 0.260267
0.264367 0.523383 0.261439
0.399076 0.526042 0.262397
0.533558 0.528924 0.263218
0.667851 0.532027 0.264009
0.801925 0.535343 0.264876
0.935718 0.538870 0.265921
0.069401 0.657014 0.263035
0.146049 0.658728 0.263485
0.282256 0.661953 0.264303
0.417553 0.665379 0.265231
0.552225 0.669008 0.266377
0.686361 0.672816 0.267787
0.820235 0.676665 0.269195
0.953876 0.680510 0.270594
0.088019 0.796615 0.266079
0.164651 0.798748 0.266824
0.300652 0.802640 0.268280
0.435760 0.806528 0.269693
0.570309 0.810395 0.271112
0.704385 0.814220 0.272588
0.838005 0.817980 0.274172
0.971152 0.821654 0.275913
0.106091 0.937711 0.270762
0.182683 0.939906 0.271585
0.318584 0.943768 0.273114
0.453351 0.947537 0.274763
0.587316 0.951202 0.276585
0.720568 0.954741 0.278632
0.853124 0.958134 0.280953
0.984968 0.961357 0.283596
0.006818 0.025552 0.366219
0.082089 0.027289 0.367956
0.215743 0.030373 0.371040
0.348477 0.033431 0.374091
0.480930 0.036366 0.376822
0.613326 0.039150 0.379154
0.745705 0.041805 0.381145
0.878073 0.044354 0.382852
0.012661 0.104930 0.372063
0.087936 0.106665 0.373796
0.221821 0.109647 0.376597
0.355105 0.112461 0.378976
0.488135 0.115139 0.381002
0.621021 0.117705 0.382735
0.753803 0.120181 0.384233
0.886489 0.122588 0.385551
0.024497 0.245226 0.380654
0.100330 0.246713 0.381704
0.235151 0.249279 0.383362
0.369210 0.251749 0.384794
0.502859 0.254152 0.386063
0.636211 0.256511 0.387227
0.769306 0.258848 0.388342
0.902154 0.261183 0.389462
0.039012 0.383320 0.385811
0.115144 0.384674 0.386495
0.250376 0.387057 0.387652
0.384688 0.389414 0.388773
0.518439 0.391772 0.389919
0.651837 0.394187 0.391077
0.785317 0.396815 0.392031
0.918869 0.399670 0.392849
0.054521 0.520391 0.389661
0.130662 0.521742 0.390335
0.266038 0.524259 0.391447
0.400867 0.526999 0.392348
0.535429 0.529960 0.393148
0.669762 0.533139 0.393954
0.803836 0.536530 0.394871
0.937589 0.540129 0.396002
0.071258 0.658032 0.392967
0.147938 0.659790 0.393416
0.284172 0.663091 0.394261
0.419454 0.666592 0.395253
0.554071 0.670294 0.396498
0.688201 0.674133 0.397934
0.822087 0.677985 0.399335
0.955714 0.681826 0.400743
0.089882 0.797884 0.396174
0.166475 0.800055 0.396980
0.302499 0.803960 0.398423
0.437609 0.807849 0.399834
0.572136 0.811707 0.401268
0.706166 0.815516 0.402777
0.839714 0.819252 0.404411
0.972765 0.822893 0.406219
0.107926 0.939026 0.400914
0.184498 0.941214 0.401751
0.320342 0.945056 0.403318
0.455028 0.948798 0.405023
0.588888 0.952426 0.406919
0.722011 0.955921 0.409055
0.854413 0.959260 0.411483
0.986079 0.962421 0.414249
0.007854 0.026588 0.496396
0.083125 0.028325 0.498133
0.216779 0.031409 0.501217
0.349563 0.034445 0.504207
0.482130 0.037329 0.506799
0.614625 0.040069 0.509010
0.747087 0.042687 0.510898
0.879524 0.045205 0.512522
0.013697 0.105966 0.502240
0.089009 0.107684 0.503927
0.223012 0.110614 0.506585
0.356396 0.113383 0.508841
0.489511 0.116024 0.510763
0.622467 0.118558 0.512411
0.755304 0.121010 0.513842
0.888029 0.123400 0.515112
0.025859 0.246117 0.510433
0.101736 0.247585 0.511430
0.236621 0.250122 0.513009
0.370729 0.252570 0.514381
0.504411 0.254958 0.515610
0.637781 0.257309 0.516752
0.770879 0.259645 0.517863
0.903715 0.261985 0.518998
0.040558 0.384129 0.515364
0.116705 0.385477 0.516031
0.251949 0.387855 0.517172
0.386259 0.390213 0.518297
0.519991 0.392579 0.519465
0.653498 0.395057 0.520566
0.787099 0.397766 0.521462
0.920731 0.400698 0.522258
0.056078 0.521196 0.519201
0.132225 0.522560 0.519879
0.267748 0.525159 0.520910
0.402684 0.527979 0.521766
0.537311 0.531017 0.522557
0.671670 0.534272 0.523390
0.805730 0.537737 0.524369
0.939430 0.541408 0.525597
0.073128 0.659072 0.522375
0.149834 0.660874 0.522830
0.286079 0.664251 0.523715
0.421333 0.667825 0.524783
0.555888 0.671596 0.526132
0.690041 0.675447 0.527555
0.823929 0.679301 0.528954
0.957535 0.683134 0.530377
0.091713 0.799172 0.525785
0.168299 0.801364 0.526611
0.304342 0.805275 0.528041
0.439446 0.809162 0.529457
0.573942 0.813010 0.530912
0.707917 0.816800 0.532459
0.841386 0.820508 0.534148
0.974333 0.824113 0.536027
0.109742 0.940333 0.530551
0.186289 0.942511 0.531405
0.322069 0.946332 0.533017
0.456666 0.950043 0.534783
0.590413 0.953632 0.536757
0.723398 0.957079 0.538989
0.855638 0.960362 0.541529
0.987125 0.963461 0.544419
0.008887 0.027621 0.626202
0.084158 0.029358 0.627939
0.217812 0.032442 0.631024
0.350686 0.035438 0.633903
0.483362 0.038273 0.636362
0.615951 0.040972 0.638458
0.748491 0.043555 0.640252
0.880990 0.046046 0.641798
0.014741 0.106994 0.632033
0.090121 0.108683 0.633637
0.224235 0.111563 0.636159
0.357714 0.114290 0.638299
0.490909 0.116894 0.640123
0.623930 0.119401 0.641692
0.756815 0.121831 0.643063
0.889575 0.124205 0.644291
0.027243 0.246994 0.639809
0.103160 0.248444 0.640757
0.238105 0.250955 0.642264
0.372256 0.253383 0.643583
0.505967 0.255759 0.644777
0.639349 0.258104 0.645904
0.772445 0.260441 0.647017
0.905264 0.262789 0.648174
0.042109 0.384932 0.644537
0.118267 0.386275 0.645191
0.253518 0.388649 0.646323
0.387820 0.391011 0.647458
0.521549 0.393394 0.648641
0.655200 0.395953 0.649661
0.788907 0.398740 0.650512
0.922606 0.401750 0.651298
0.057623 0.522002 0.648382
0.133837 0.523404 0.649023
0.269493 0.526084 0.649986
0.404521 0.528982 0.650809
0.539201 0.532098 0.651603
0.673573 0.535427 0.652475
0.807605 0.538965 0.653528
0.941242 0.542705 0.654860
0.075010 0.660134 0.651417
0.151732 0.661980 0.651885
0.287976 0.665432 0.652822
0.423189 0.669080 0.653977
0.557707 0.672901 0.655394
0.691878 0.676759 0.656805
0.825761 0.680610 0.658207
0.959337 0.684433 0.659651
0.093524 0.800474 0.655052
0.170127 0.802672 0.655867
0.306181 0.806587 0.657290
0.441271 0.810469 0.658715
0.575728 0.814304 0.660197
0.709639 0.818071 0.661788
0.843020 0.821749 0.663537
0.975855 0.825315 0.665495
0.111539 0.941630 0.659828
0.188057 0.943799 0.660702
0.323764 0.947594 0.662365
0.458264 0.951271 0.664198
0.591890 0.954818 0.666256
0.724729 0.958215 0.668589
0.856800 0.961439 0.671246
0.988158 0.964494 0.674225
0.009917 0.028651 0.755722
0.085189 0.030388 0.757459
0.218854 0.033468 0.760530
0.351845 0.036412 0.763266
0.484625 0.039201 0.765598
0.617302 0.041860 0.767587
0.749914 0.044412 0.769291
0.882471 0.046876 0.770767
0.015822 0.108002 0.761490
0.091269 0.109661 0.763013
0.225489 0.112494 0.765406
0.359059 0.115181 0.767435
0.492328 0.117753 0.769169
0.625407 0.120233 0.770665
0.758337 0.122643 0.771982
0.891125 0.125005 0.773175
0.028649 0.247858 0.768870
0.104604 0.249292 0.769773
0.239602 0.251778 0.771213
0.373792 0.254190 0.772486
0.507525 0.256555 0.773652
0.640915 0.258897 0.774769
0.774004 0.261237 0.775892
0.906812 0.263600 0.777066
0.043664 0.385730 0.773416
0.119830 0.387069 0.774060
0.255083 0.389443 0.775190
0.389372 0.391810 0.776341
0.523155 0.394235 0.777500
0.656939 0.396874 0.778452
0.790738 0.399739 0.779270
0.924490 0.402825 0.780058
0.059195 0.522824 0.777261
0.135494 0.524273 0.777855
0.271270 0.527033 0.778761
0.406377 0.530010 0.779563
0.541096 0.533201 0.780373
0.675466 0.536605 0.781295
0.809458 0.540215 0.782434
0.943056 0.544007 0.783838
0.076899 0.661221 0.780180
0.153631 0.663108 0.780668
0.289860 0.666636 0.781669
0.425017 0.670355 0.782924
0.559531 0.674206 0.784364
0.693713 0.678068 0.785767
0.827582 0.681915 0.787179
0.961120 0.685724 0.788649
0.095342 0.801777 0.784026
0.171957 0.803979 0.784833
0.308013 0.807895 0.786254
0.443081 0.811769 0.787695
0.577491 0.815588 0.789210
0.711331 0.819331 0.790850
0.844616 0.822976 0.792666
0.977331 0.826500 0.794706
0.113316 0.942919 0.788831
0.189799 0.945076 0.789729
0.325426 0.948843 0.791448
0.459821 0.952484 0.793354
0.593317 0.955986 0.795502
0.726003 0.959329 0.797941
0.857895 0.962492 0.800721
0.989189 0.965525 0.803745
0.010946 0.029680 0.885007
0.086218 0.031417 0.886744
0.219933 0.034474 0.889752
0.353039 0.037368 0.892349
0.485917 0.040113 0.894561
0.618676 0.042736 0.896449
0.751356 0.045257 0.898071
0.883966 0.047698 0.899482
0.016942 0.108991 0.890664
0.092452 0.110622 0.892110
0.226772 0.113410 0.894379
0.360427 0.116059 0.896305
0.493765 0.118600 0.897954
0.626899 0.121056 0.899385
0.759867 0.123449 0.900655
0.892679 0.125801 0.901818
0.030075 0.248710 0.897670
0.106064 0.250129 0.898531
0.241111 0.252594 0.899911
0.375334 0.254991 0.901144
0.509085 0.257348 0.902288
0.642478 0.259689 0.903402
0.775553 0.262034 0.904540
0.908407 0.264434 0.905698
0.045221 0.386524 0.902055
0.121392 0.387861 0.902693
0.256642 0.390236 0.903826
0.390913 0.392612 0.905000
0.524808 0.395101 0.906100
0.658710 0.397819 0.906995
0.792589 0.400762 0.907792
0.926380 0.403923 0.908594
0.060816 0.523673 0.905878
0.137192 0.525167 0.906431
0.273075 0.528007 0.907292
0.408247 0.531061 0.908086
0.542991 0.534328 0.908923
0.677347 0.537805 0.909908
0.811285 0.541486 0.911144
0.944876 0.545309 0.912575
0.078792 0.662330 0.908721
0.155525 0.664260 0.909236
0.291726 0.667861 0.910312
0.426821 0.671649 0.911670
0.561358 0.675511 0.913097
0.695542 0.679374 0.914498
0.829389 0.683213 0.915925
0.962881 0.687006 0.917427
0.097165 0.803081 0.912762
0.173787 0.805286 0.913563
0.309838 0.809200 0.914988
0.444874 0.813063 0.916451
0.579229 0.816862 0.918004
0.712989 0.820577 0.919699
0.846171 0.824186 0.921587
0.978758 0.827667 0.923715
0.115070 0.944199 0.917614
0.191514 0.946342 0.918539
0.327052 0.950078 0.920319
0.461333 0.953680 0.922304
0.594692 0.957135 0.924547
0.727216 0.960422 0.927098
0.858932 0.963524 0.930000
0.990218 0.966554 0.933030
