omv/luts/07_frontier_cinema.cube
# Original OMV LUT; redistribution permitted with OMV.
TITLE "Frontier Cinema"
LUT_3D_SIZE 32
DOMAIN_MIN 0.0 0.0 0.0
DOMAIN_MAX 1.0 1.0 1.0
0.004140 0.022874 0.029776
0.004140 0.022874 0.029776
0.011675 0.023048 0.029950
0.045705 0.023833 0.030735
0.079411 0.024611 0.031513
0.112960 0.025385 0.032287
0.146403 0.026157 0.033059
0.179766 0.026927 0.033829
0.213065 0.027695 0.034597
0.246310 0.028463 0.035365
0.279509 0.029229 0.036131
0.312667 0.029994 0.036896
0.345790 0.030758 0.037660
0.378880 0.031522 0.038424
0.411940 0.032285 0.039187
0.444975 0.033046 0.039947
0.478004 0.033799 0.040683
0.511033 0.034540 0.041391
0.544062 0.035272 0.042071
0.577091 0.035994 0.042726
0.610121 0.036706 0.043356
0.643153 0.037410 0.043961
0.676187 0.038104 0.044543
0.709222 0.038790 0.045102
0.742260 0.039468 0.045640
0.775299 0.040139 0.046156
0.808340 0.040801 0.046653
0.841383 0.041457 0.047131
0.874428 0.042106 0.047591
0.907474 0.042748 0.048034
0.914638 0.042887 0.048128
0.914638 0.042887 0.048128
0.004140 0.022874 0.029776
0.004140 0.022874 0.029776
0.011675 0.023048 0.029950
0.045705 0.023833 0.030735
0.079411 0.024611 0.031513
0.112960 0.025385 0.032287
0.146403 0.026157 0.033059
0.179766 0.026927 0.033829
0.213065 0.027695 0.034597
0.246310 0.028463 0.035365
0.279509 0.029229 0.036131
0.312667 0.029994 0.036896
0.345790 0.030758 0.037660
0.378880 0.031522 0.038424
0.411940 0.032285 0.039187
0.444975 0.033046 0.039947
0.478004 0.033799 0.040683
0.511033 0.034540 0.041391
0.544062 0.035272 0.042071
0.577091 0.035994 0.042726
0.610121 0.036706 0.043356
0.643153 0.037410 0.043961
0.676187 0.038104 0.044543
0.709222 0.038790 0.045102
0.742260 0.039468 0.045640
0.775299 0.040139 0.046156
0.808340 0.040801 0.046653
0.841383 0.041457 0.047131
0.874428 0.042106 0.047591
0.907474 0.042748 0.048034
0.914638 0.042887 0.048128
0.914638 0.042887 0.048128
0.004725 0.030820 0.030361
0.004725 0.030820 0.030361
0.012260 0.030994 0.030535
0.046290 0.031779 0.031320
0.079996 0.032557 0.032098
0.113545 0.033331 0.032872
0.146988 0.034103 0.033644
0.180351 0.034873 0.034414
0.213650 0.035641 0.035182
0.246895 0.036409 0.035950
0.280094 0.037175 0.036716
0.313252 0.037940 0.037481
0.346375 0.038704 0.038245
0.379465 0.039468 0.039009
0.412525 0.040231 0.039771
0.445574 0.040986 0.040514
0.478621 0.041731 0.041229
0.511666 0.042465 0.041917
0.544711 0.043190 0.042578
0.577756 0.043904 0.043213
0.610802 0.044610 0.043824
0.643848 0.045307 0.044411
0.676896 0.045995 0.044976
0.709945 0.046675 0.045518
0.742996 0.047347 0.046040
0.776047 0.048012 0.046542
0.809100 0.048670 0.047024
0.842155 0.049320 0.047488
0.875210 0.049964 0.047935
0.908266 0.050602 0.048365
0.915433 0.050740 0.048456
0.915433 0.050740 0.048456
0.007367 0.066707 0.033003
0.007367 0.066707 0.033003
0.014902 0.066881 0.033177
0.048932 0.067666 0.033962
0.082638 0.068444 0.034740
0.116187 0.069218 0.035514
0.149630 0.069990 0.036286
0.182993 0.070760 0.037056
0.216292 0.071528 0.037824
0.249537 0.072295 0.038591
0.282736 0.073062 0.039358
0.315899 0.073825 0.040117
0.349048 0.074577 0.040849
0.382186 0.075319 0.041553
0.415317 0.076051 0.042230
0.448442 0.076772 0.042880
0.481562 0.077485 0.043505
0.514678 0.078187 0.044106
0.547791 0.078881 0.044684
0.580902 0.079567 0.045239
0.614011 0.080245 0.045772
0.647119 0.080914 0.046285
0.680225 0.081577 0.046778
0.713330 0.082232 0.047252
0.746434 0.082880 0.047708
0.779537 0.083522 0.048147
0.812639 0.084158 0.048570
0.845740 0.084788 0.048977
0.878839 0.085412 0.049370
0.911937 0.086032 0.049749
0.919113 0.086165 0.049829
0.919113 0.086165 0.049829
0.009984 0.102252 0.035620
0.009984 0.102252 0.035620
0.017519 0.102426 0.035793
0.051549 0.103211 0.036579
0.085255 0.103989 0.037357
0.118804 0.104763 0.038131
0.152247 0.105535 0.038903
0.185610 0.106305 0.039672
0.218922 0.107068 0.040425
0.252203 0.107819 0.041148
0.285460 0.108559 0.041843
0.318698 0.109289 0.042511
0.351921 0.110008 0.043152
0.385131 0.110718 0.043768
0.418331 0.111419 0.044361
0.451523 0.112111 0.044929
0.484707 0.112795 0.045476
0.517885 0.113470 0.046001
0.551058 0.114138 0.046506
0.584226 0.114798 0.046992
0.617389 0.115451 0.047459
0.650549 0.116098 0.047908
0.683705 0.116738 0.048340
0.716857 0.117372 0.048756
0.750006 0.118001 0.049157
0.783152 0.118624 0.049544
0.816294 0.119242 0.049918
0.849432 0.119855 0.050279
0.882567 0.120464 0.050629
0.915698 0.121068 0.050967
0.922881 0.121199 0.051040
0.922881 0.121199 0.051040
0.012588 0.137631 0.038224
0.012588 0.137631 0.038224
0.020123 0.137805 0.038398
0.054153 0.138590 0.039183
0.087862 0.139367 0.039958
0.121433 0.140132 0.040706
0.154921 0.140883 0.041423
0.188351 0.141624 0.042110
0.221738 0.142353 0.042770
0.255092 0.143071 0.043404
0.288420 0.143780 0.044013
0.321726 0.144480 0.044597
0.355015 0.145170 0.045159
0.388288 0.145852 0.045698
0.421549 0.146526 0.046216
0.454799 0.147192 0.046714
0.488039 0.147851 0.047192
0.521270 0.148503 0.047652
0.554494 0.149148 0.048095
0.587710 0.149786 0.048521
0.620920 0.150419 0.048931
0.654123 0.151046 0.049327
0.687320 0.151668 0.049708
0.720512 0.152285 0.050077
0.753697 0.152897 0.050434
0.786877 0.153505 0.050779
0.820051 0.154109 0.051114
0.853219 0.154709 0.051439
0.886381 0.155305 0.051755
0.919536 0.155899 0.052064
0.926724 0.156028 0.052130
0.926724 0.156028 0.052130
0.015212 0.172886 0.040786
0.015212 0.172886 0.040786
0.022756 0.173056 0.040949
0.056840 0.173818 0.041669
0.090622 0.174562 0.042354
0.124268 0.175293 0.043010
0.157828 0.176013 0.043638
0.191329 0.176722 0.044241
0.224783 0.177421 0.044819
0.258202 0.178111 0.045373
0.291592 0.178792 0.045906
0.324958 0.179465 0.046417
0.358303 0.180130 0.046909
0.391632 0.180788 0.047381
0.424945 0.181438 0.047835
0.458244 0.182082 0.048272
0.491532 0.182720 0.048692
0.524808 0.183352 0.049097
0.558074 0.183978 0.049488
0.591331 0.184598 0.049865
0.624579 0.185214 0.050229
0.657818 0.185826 0.050581
0.691048 0.186433 0.050922
0.724270 0.187036 0.051253
0.757484 0.187635 0.051575
0.790690 0.188232 0.051889
0.823887 0.188825 0.052194
0.857076 0.189416 0.052494
0.890257 0.190004 0.052787
0.923429 0.190590 0.053075
0.930620 0.190717 0.053137
0.930620 0.190717 0.053137
0.018049 0.207960 0.043075
0.018049 0.207960 0.043075
0.025609 0.208123 0.043218
0.059766 0.208852 0.043849
0.093617 0.209565 0.044449
0.127330 0.210267 0.045024
0.160954 0.210958 0.045574
0.194515 0.211639 0.046101
0.228029 0.212313 0.046607
0.261504 0.212977 0.047093
0.294948 0.213635 0.047560
0.328365 0.214285 0.048008
0.361760 0.214928 0.048440
0.395135 0.215565 0.048855
0.428492 0.216196 0.049255
0.461833 0.216822 0.049641
0.495160 0.217442 0.050014
0.528473 0.218057 0.050374
0.561774 0.218668 0.050722
0.595063 0.219274 0.051059
0.628340 0.219877 0.051387
0.661606 0.220476 0.051706
0.694862 0.221072 0.052017
0.728106 0.221665 0.052320
0.761341 0.222256 0.052617
0.794564 0.222844 0.052909
0.827777 0.223430 0.053196
0.860980 0.224015 0.053479
0.894171 0.224599 0.053759
0.927351 0.225181 0.054037
0.934544 0.225308 0.054097
0.934544 0.225308 0.054097
0.021111 0.242863 0.045077
0.021111 0.242863 0.045077
0.028686 0.243020 0.045202
0.062906 0.243720 0.045755
0.096819 0.244406 0.046281
0.130590 0.245082 0.046783
0.164270 0.245748 0.047265
0.197885 0.246406 0.047728
0.231449 0.247057 0.048172
0.264972 0.247700 0.048599
0.298461 0.248337 0.049010
0.331922 0.248968 0.049406
0.365357 0.249593 0.049788
0.398770 0.250213 0.050156
0.432164 0.250828 0.050512
0.465539 0.251439 0.050857
0.498896 0.252045 0.051191
0.532238 0.252648 0.051516
0.565566 0.253247 0.051832
0.598878 0.253843 0.052140
0.632177 0.254436 0.052442
0.665463 0.255026 0.052737
0.698735 0.255615 0.053027
0.731994 0.256201 0.053313
0.765241 0.256786 0.053595
0.798474 0.257370 0.053874
0.831695 0.257954 0.054152
0.864902 0.258536 0.054429
0.898097 0.259118 0.054706
0.931278 0.259701 0.054983
0.938470 0.259827 0.055044
0.938470 0.259827 0.055044
0.024371 0.277620 0.046828
0.024371 0.277620 0.046828
0.031958 0.277771 0.046938
0.066235 0.278447 0.047422
0.100200 0.279109 0.047883
0.134021 0.279763 0.048325
0.167749 0.280408 0.048749
0.201409 0.281046 0.049156
0.235015 0.281678 0.049548
0.268578 0.282303 0.049927
0.302105 0.282924 0.050292
0.335601 0.283539 0.050645
0.369069 0.284150 0.050986
0.402512 0.284756 0.051318
0.435934 0.285359 0.051640
0.469334 0.285958 0.051953
0.502715 0.286554 0.052260
0.536078 0.287147 0.052559
0.569423 0.287738 0.052853
0.602752 0.288327 0.053141
0.636064 0.288914 0.053426
0.669361 0.289499 0.053708
0.702642 0.290084 0.053987
0.735908 0.290668 0.054265
0.769159 0.291251 0.054542
0.802394 0.291834 0.054819
0.835614 0.292417 0.055097
0.868819 0.293001 0.055378
0.902008 0.293586 0.055661
0.935181 0.294172 0.055947
0.942372 0.294299 0.056010
0.942372 0.294299 0.056010
0.027802 0.312251 0.048362
0.027802 0.312251 0.048362
0.035400 0.312396 0.048458
0.069724 0.313051 0.048884
0.103734 0.313694 0.049291
0.137597 0.314329 0.049682
0.171364 0.314957 0.050057
0.205060 0.315578 0.050420
0.238701 0.316195 0.050770
0.272296 0.316806 0.051110
0.305853 0.317414 0.051439
0.339375 0.318017 0.051759
0.372868 0.318617 0.052070
0.406334 0.319213 0.052374
0.439775 0.319807 0.052672
0.473193 0.320398 0.052965
0.506589 0.320988 0.053252
0.539964 0.321575 0.053536
0.573320 0.322162 0.053817
0.606657 0.322747 0.054096
0.639975 0.323331 0.054374
0.673275 0.323916 0.054652
0.706557 0.324500 0.054930
0.739821 0.325084 0.055209
0.773068 0.325669 0.055491
0.806297 0.326255 0.055776
0.839509 0.326842 0.056065
0.872702 0.327431 0.056358
0.905878 0.328021 0.056657
0.939055 0.328620 0.056950
0.946250 0.328752 0.057011
0.946250 0.328752 0.057011
0.031377 0.346773 0.049713
0.031377 0.346773 0.049713
0.038984 0.346915 0.049798
0.073347 0.347552 0.050177
0.107394 0.348179 0.050539
0.141290 0.348799 0.050888
0.175088 0.349413 0.051226
0.208813 0.350022 0.051554
0.242480 0.350627 0.051872
0.276099 0.351228 0.052182
0.309677 0.351825 0.052485
0.343219 0.352420 0.052782
0.376728 0.353012 0.053073
0.410208 0.353603 0.053360
0.443661 0.354191 0.053643
0.477088 0.354779 0.053924
0.510491 0.355365 0.054203
0.543871 0.355950 0.054482
0.577229 0.356536 0.054760
0.610566 0.357121 0.055039
0.643882 0.357706 0.055320
0.677177 0.358293 0.055603
0.710452 0.358880 0.055889
0.743707 0.359468 0.056180
0.776942 0.360059 0.056476
0.810160 0.360652 0.056776
0.843388 0.361257 0.057063
0.876630 0.361878 0.057332
0.909886 0.362512 0.057587
0.943154 0.363161 0.057829
0.950368 0.363304 0.057880
0.950368 0.363304 0.057880
0.035069 0.381205 0.050915
0.035069 0.381205 0.050915
0.042683 0.381343 0.050992
0.077077 0.381967 0.051332
0.111151 0.382581 0.051660
0.145074 0.383189 0.051978
0.178895 0.383793 0.052288
0.212641 0.384393 0.052590
0.246326 0.384990 0.052886
0.279960 0.385584 0.053177
0.313552 0.386175 0.053464
0.347104 0.386765 0.053747
0.380622 0.387354 0.054028
0.414108 0.387942 0.054307
0.447565 0.388528 0.054586
0.480993 0.389115 0.054865
0.514395 0.389702 0.055145
0.547772 0.390289 0.055428
0.581125 0.390876 0.055713
0.614453 0.391465 0.056001
0.647759 0.392055 0.056295
0.681042 0.392647 0.056593
0.714313 0.393245 0.056890
0.747597 0.393857 0.057171
0.780893 0.394484 0.057435
0.814200 0.395125 0.057685
0.847517 0.395781 0.057922
0.880843 0.396451 0.058149
0.914175 0.397135 0.058366
0.947514 0.397834 0.058575
0.954742 0.397987 0.058620
0.954742 0.397987 0.058620
0.038850 0.415561 0.052002
0.038850 0.415561 0.052002
0.046470 0.415697 0.052072
0.080887 0.416310 0.052385
0.114981 0.416916 0.052688
0.148921 0.417516 0.052985
0.182757 0.418113 0.053276
0.216515 0.418708 0.053563
0.250211 0.419300 0.053847
0.283853 0.419890 0.054128
0.317450 0.420480 0.054408
0.351005 0.421068 0.054688
0.384524 0.421657 0.054968
0.418008 0.422245 0.055250
0.451460 0.422834 0.055533
0.484882 0.423423 0.055820
0.518275 0.424014 0.056111
0.551641 0.424606 0.056407
0.584981 0.425200 0.056709
0.618318 0.425804 0.057000
0.651665 0.426423 0.057274
0.685021 0.427057 0.057533
0.718385 0.427705 0.057778
0.751756 0.428367 0.058012
0.785132 0.429043 0.058235
0.818514 0.429734 0.058449
0.851899 0.430439 0.058656
0.885286 0.431157 0.058858
0.918675 0.431890 0.059056
0.952063 0.432636 0.059251
0.959302 0.432800 0.059294
0.959302 0.432800 0.059294
0.042695 0.449857 0.053006
0.042695 0.449857 0.053006
0.050318 0.449991 0.053072
0.084750 0.450598 0.053367
0.118856 0.451198 0.053656
0.152805 0.451795 0.053941
0.186648 0.452389 0.054223
0.220411 0.452981 0.054505
0.254109 0.453572 0.054786
0.287751 0.454163 0.055068
0.321345 0.454753 0.055351
0.354895 0.455344 0.055637
0.388406 0.455936 0.055926
0.421881 0.456528 0.056220
0.455321 0.457123 0.056518
0.488734 0.457720 0.056819
0.522149 0.458332 0.057104
0.555568 0.458957 0.057373
0.588992 0.459597 0.057627
0.622420 0.460252 0.057868
0.655852 0.460921 0.058098
0.689286 0.461604 0.058318
0.722722 0.462301 0.058529
0.756158 0.463012 0.058735
0.789595 0.463737 0.058935
0.823030 0.464477 0.059132
0.856463 0.465229 0.059328
0.889891 0.465996 0.059523
0.923315 0.466776 0.059720
0.956733 0.467570 0.059921
0.963977 0.467744 0.059965
0.963977 0.467744 0.059965
0.046577 0.484107 0.053960
0.046577 0.484107 0.053960
0.054202 0.484240 0.054024
0.088640 0.484845 0.054311
0.122750 0.485443 0.054596
0.156700 0.486039 0.054879
0.190542 0.486633 0.055163
0.224301 0.487227 0.055449
0.257993 0.487821 0.055737
0.291627 0.488415 0.056029
0.325210 0.489010 0.056325
0.358748 0.489607 0.056627
0.392259 0.490211 0.056924
0.425766 0.490829 0.057204
0.459272 0.491461 0.057468
0.492776 0.492108 0.057718
0.526279 0.492770 0.057955
0.559781 0.493445 0.058181
0.593281 0.494135 0.058398
0.626779 0.494839 0.058608
0.660274 0.495557 0.058811
0.693766 0.496288 0.059010
0.727253 0.497034 0.059207
0.760735 0.497793 0.059403
0.794210 0.498566 0.059599
0.827679 0.499352 0.059797
0.861138 0.500152 0.060000
0.894588 0.500966 0.060207
0.928026 0.501792 0.060422
0.961452 0.502632 0.060646
0.968698 0.502816 0.060695
0.968698 0.502816 0.060695
0.050469 0.518325 0.054898
0.050469 0.518325 0.054898
0.058094 0.518459 0.054962
0.092530 0.519064 0.055251
0.126635 0.519664 0.055541
0.160579 0.520263 0.055832
0.194412 0.520861 0.056128
0.228160 0.521460 0.056427
0.261839 0.522060 0.056732
0.295484 0.522671 0.057024
0.329113 0.523297 0.057299
0.362727 0.523937 0.057559
0.396330 0.524591 0.057804
0.429925 0.525259 0.058038
0.463510 0.525941 0.058261
0.497088 0.526638 0.058476
0.530659 0.527349 0.058683
0.564222 0.528073 0.058885
0.597778 0.528811 0.059084
0.631325 0.529563 0.059280
0.664863 0.530329 0.059476
0.698391 0.531108 0.059673
0.731909 0.531901 0.059873
0.765415 0.532707 0.060078
0.798909 0.533527 0.060289
0.832390 0.534360 0.060507
0.865855 0.535206 0.060734
0.899305 0.536065 0.060973
0.932737 0.536937 0.061224
0.966151 0.537823 0.061489
0.973393 0.538016 0.061548
0.973393 0.538016 0.061548
0.054345 0.552525 0.055851
0.054345 0.552525 0.055851
0.061968 0.552660 0.055917
0.096394 0.553269 0.056219
0.130487 0.553875 0.056524
0.164422 0.554482 0.056829
0.198278 0.555102 0.057117
0.232082 0.555736 0.057388
0.265848 0.556383 0.057644
0.299584 0.557045 0.057887
0.333297 0.557721 0.058117
0.366989 0.558410 0.058338
0.400665 0.559114 0.058550
0.434324 0.559831 0.058756
0.467969 0.560562 0.058958
0.501601 0.561307 0.059156
0.535218 0.562066 0.059352
0.568822 0.562838 0.059549
0.602412 0.563624 0.059747
0.635987 0.564424 0.059949
0.669547 0.565236 0.060156
0.703092 0.566062 0.060370
0.736620 0.566902 0.060592
0.770130 0.567754 0.060823
0.803622 0.568619 0.061067
0.837094 0.569498 0.061323
0.870545 0.570389 0.061594
0.903974 0.571293 0.061882
0.937380 0.572210 0.062188
0.970761 0.573140 0.062512
0.977995 0.573343 0.062586
0.977995 0.573343 0.062586
0.058186 0.586723 0.056847
0.058186 0.586723 0.056847
0.065811 0.586861 0.056914
0.100271 0.587497 0.057202
0.134431 0.588142 0.057471
0.168459 0.588799 0.057724
0.202404 0.589469 0.057964
0.236290 0.590153 0.058192
0.270133 0.590851 0.058411
0.303939 0.591562 0.058622
0.337715 0.592287 0.058827
0.371465 0.593025 0.059027
0.405191 0.593778 0.059225
0.438895 0.594543 0.059422
0.472579 0.595322 0.059620
0.506243 0.596115 0.059820
0.539886 0.596921 0.060024
0.573510 0.597740 0.060233
0.607114 0.598573 0.060450
0.640697 0.599418 0.060676
0.674259 0.600277 0.060912
0.707799 0.601149 0.061161
0.741316 0.602033 0.061423
0.774810 0.602931 0.061701
0.808278 0.603841 0.061995
0.841721 0.604764 0.062308
0.875137 0.605700 0.062642
0.908525 0.606648 0.062997
0.941898 0.607602 0.063358
0.975263 0.608559 0.063716
0.982496 0.608766 0.063793
0.982496 0.608766 0.063793
0.062225 0.621021 0.057739
0.062225 0.621021 0.057739
0.069872 0.621171 0.057794
0.104420 0.621858 0.058034
0.138662 0.622554 0.058262
0.172764 0.623261 0.058480
0.206777 0.623982 0.058690
0.240726 0.624715 0.058894
0.274623 0.625461 0.059095
0.308479 0.626221 0.059293
0.342297 0.626994 0.059491
0.376084 0.627781 0.059689
0.409840 0.628580 0.059891
0.443569 0.629393 0.060098
0.477270 0.630219 0.060310
0.510946 0.631058 0.060531
0.544595 0.631911 0.060760
0.578218 0.632776 0.061002
0.611815 0.633654 0.061255
0.645385 0.634545 0.061524
0.678928 0.635449 0.061808
0.712443 0.636365 0.062109
0.745928 0.637294 0.062430
0.779385 0.638236 0.062772
0.812812 0.639189 0.063133
0.846228 0.640146 0.063494
0.879636 0.641104 0.063850
0.913033 0.642063 0.064204
0.946422 0.643023 0.064554
0.979799 0.643984 0.064903
0.987035 0.644192 0.064979
0.987035 0.644192 0.064979
0.066532 0.655467 0.058492
0.066532 0.655467 0.058492
0.074194 0.655628 0.058540
0.108810 0.656365 0.058752
0.143112 0.657111 0.058957
0.177269 0.657867 0.059158
0.211329 0.658636 0.059357
0.245319 0.659418 0.059556
0.279250 0.660212 0.059757
0.313134 0.661020 0.059961
0.346975 0.661840 0.060170
0.380777 0.662673 0.060386
0.414543 0.663520 0.060610
0.448275 0.664379 0.060844
0.481973 0.665251 0.061090
0.515640 0.666136 0.061350
0.549274 0.667033 0.061624
0.582876 0.667944 0.061915
0.616445 0.668866 0.062224
0.649982 0.669802 0.062553
0.683485 0.670750 0.062903
0.716962 0.671707 0.063267
0.750427 0.672665 0.063627
0.783882 0.673625 0.063982
0.817324 0.674586 0.064335
0.850755 0.675548 0.064686
0.884173 0.676510 0.065035
0.917578 0.677471 0.065383
0.950969 0.678433 0.065732
0.984346 0.679393 0.066081
0.991581 0.679601 0.066157
0.991581 0.679601 0.066157
0.071037 0.690057 0.059170
0.071037 0.690057 0.059170
0.078711 0.690229 0.059214
0.113372 0.691015 0.059417
0.147714 0.691810 0.059618
0.181903 0.692615 0.059821
0.215990 0.693431 0.060028
0.249999 0.694260 0.060240
0.283945 0.695102 0.060460
0.317836 0.695956 0.060688
0.351678 0.696823 0.060927
0.385475 0.697702 0.061178
0.419230 0.698594 0.061444
0.452944 0.699498 0.061724
0.486620 0.700415 0.062022
0.520256 0.701345 0.062339
0.553854 0.702287 0.062676
0.587415 0.703241 0.063035
0.620952 0.704200 0.063398
0.654475 0.705161 0.063757
0.687983 0.706124 0.064112
0.721477 0.707086 0.064464
0.754956 0.708050 0.064815
0.788419 0.709013 0.065164
0.821868 0.709976 0.065513
0.855300 0.710938 0.065862
0.888716 0.711899 0.066212
0.922116 0.712859 0.066565
0.955498 0.713817 0.066920
0.988862 0.714773 0.067278
0.996093 0.714980 0.067356
0.996093 0.714980 0.067356
0.075671 0.724788 0.059833
0.075671 0.724788 0.059833
0.083351 0.724971 0.059879
0.118037 0.725807 0.060091
0.152397 0.726648 0.060307
0.186598 0.727501 0.060531
0.220691 0.728364 0.060764
0.254699 0.729240 0.061008
0.288638 0.730127 0.061265
0.322515 0.731027 0.061536
0.356338 0.731939 0.061824
0.390109 0.732863 0.062129
0.423832 0.733800 0.062454
0.457509 0.734749 0.062799
0.491143 0.735708 0.063163
0.524754 0.736671 0.063526
0.558345 0.737634 0.063884
0.591917 0.738599 0.064239
0.625470 0.739563 0.064591
0.659005 0.740529 0.064941
0.692521 0.741493 0.065291
0.726019 0.742458 0.065641
0.759499 0.743421 0.065991
0.792959 0.744383 0.066342
0.826400 0.745344 0.066696
0.859822 0.746302 0.067053
0.893223 0.747258 0.067413
0.926604 0.748212 0.067778
0.959964 0.749162 0.068148
0.993302 0.750109 0.068525
1.000000 0.750314 0.068607
1.000000 0.750314 0.068607
0.080364 0.759660 0.060543
0.080364 0.759660 0.060543
0.088045 0.759853 0.060595
0.122736 0.760736 0.060835
0.157093 0.761625 0.061086
0.191285 0.762523 0.061349
0.225362 0.763433 0.061627
0.259349 0.764354 0.061922
0.293260 0.765286 0.062234
0.327103 0.766231 0.062567
0.360886 0.767187 0.062921
0.394620 0.768151 0.063288
0.428323 0.769117 0.063650
0.461999 0.770084 0.064008
0.495649 0.771051 0.064362
0.529274 0.772018 0.064715
0.562876 0.772985 0.065066
0.596455 0.773952 0.065416
0.630011 0.774918 0.065766
0.663545 0.775882 0.066117
0.697056 0.776846 0.066470
0.730546 0.777807 0.066825
0.764013 0.778766 0.067184
0.797457 0.779723 0.067547
0.830879 0.780676 0.067914
0.864277 0.781627 0.068287
0.897651 0.782574 0.068666
0.931001 0.783516 0.069053
0.964326 0.784454 0.069447
0.997626 0.785388 0.069850
1.000000 0.785590 0.069939
1.000000 0.785590 0.069939
0.085048 0.794668 0.061363
0.085048 0.794668 0.061363
0.092726 0.794872 0.061424
0.127399 0.795801 0.061712
0.161733 0.796736 0.062015
0.195895 0.797680 0.062336
0.229936 0.798634 0.062678
0.263880 0.799599 0.063041
0.297759 0.800569 0.063408
0.331590 0.801538 0.063770
0.365378 0.802509 0.064128
0.399129 0.803479 0.064483
0.432846 0.804449 0.064836
0.466531 0.805419 0.065187
0.500186 0.806388 0.065538
0.533813 0.807355 0.065889
0.567412 0.808322 0.066242
0.600985 0.809286 0.066596
0.634531 0.810249 0.066953
0.668052 0.811209 0.067314
0.701546 0.812166 0.067679
0.735014 0.813120 0.068049
0.768456 0.814071 0.068424
0.801872 0.815017 0.068807
0.835261 0.815960 0.069197
0.868623 0.816898 0.069595
0.901958 0.817831 0.070002
0.935264 0.818758 0.070418
0.968542 0.819680 0.070845
1.000000 0.820596 0.071284
1.000000 0.820794 0.071380
1.000000 0.820794 0.071380
0.089654 0.829811 0.062353
0.089654 0.829811 0.062353
0.097325 0.830025 0.062428
0.131959 0.831000 0.062782
0.166251 0.831978 0.063153
0.200386 0.832955 0.063521
0.234420 0.833931 0.063884
0.268377 0.834907 0.064243
0.302271 0.835882 0.064599
0.336114 0.836856 0.064952
0.369910 0.837829 0.065305
0.403665 0.838800 0.065657
0.437382 0.839770 0.066010
0.471063 0.840739 0.066364
0.504712 0.841705 0.066720
0.538327 0.842669 0.067079
0.571912 0.843630 0.067442
0.605466 0.844589 0.067809
0.638990 0.845543 0.068182
0.672484 0.846494 0.068560
0.705948 0.847441 0.068946
0.739382 0.848383 0.069339
0.772787 0.849321 0.069741
0.806161 0.850254 0.070152
0.839505 0.851180 0.070573
0.872819 0.852101 0.071005
0.906100 0.853016 0.071448
0.939350 0.853924 0.071904
0.972568 0.854825 0.072373
1.000000 0.855719 0.072855
1.000000 0.855912 0.072962
1.000000 0.855912 0.072962
0.094143 0.865073 0.063539
0.094143 0.865073 0.063539
0.101811 0.865293 0.063621
0.136443 0.866286 0.063989
0.170750 0.867272 0.064351
0.204901 0.868255 0.064709
0.238945 0.869234 0.065064
0.272908 0.870212 0.065419
0.306806 0.871188 0.065772
0.340647 0.872162 0.066127
0.374439 0.873133 0.066483
0.408185 0.874102 0.066841
0.441889 0.875067 0.067202
0.475555 0.876030 0.067567
0.509183 0.876990 0.067937
0.542775 0.877945 0.068313
0.576331 0.878897 0.068695
0.609854 0.879844 0.069084
0.643343 0.880787 0.069481
0.676798 0.881724 0.069887
0.710219 0.882656 0.070302
0.743607 0.883583 0.070727
0.776962 0.884503 0.071164
0.810282 0.885417 0.071612
0.843569 0.886324 0.072073
0.876820 0.887223 0.072547
0.910037 0.888115 0.073036
0.943218 0.889000 0.073539
0.976364 0.889876 0.074058
1.000000 0.890743 0.074593
1.000000 0.890930 0.074712
1.000000 0.890930 0.074712
0.098656 0.900358 0.064725
0.098656 0.900358 0.064725
0.106326 0.900578 0.064806
0.140969 0.901576 0.065167
0.175281 0.902563 0.065525
0.209433 0.903546 0.065882
0.243475 0.904526 0.066239
0.277433 0.905501 0.066597
0.311320 0.906474 0.066958
0.345148 0.907442 0.067322
0.378922 0.908407 0.067690
0.412647 0.909369 0.068063
0.446326 0.910326 0.068442
0.479962 0.911279 0.068827
0.513557 0.912227 0.069220
0.547113 0.913170 0.069621
0.580629 0.914108 0.070030
0.614108 0.915040 0.070450
0.647549 0.915965 0.070880
