omv/luts/08_old_world_film.cube
# Original OMV LUT; redistribution permitted with OMV.
TITLE "Old World Film"
LUT_3D_SIZE 32
DOMAIN_MIN 0.0 0.0 0.0
DOMAIN_MAX 1.0 1.0 1.0
0.057195 0.050440 0.034035
0.060194 0.050610 0.034205
0.085888 0.052063 0.035658
0.112143 0.053548 0.037143
0.138656 0.055048 0.038643
0.165342 0.056558 0.040153
0.192160 0.058075 0.041670
0.219083 0.059598 0.043193
0.246094 0.061126 0.044721
0.273182 0.062659 0.046254
0.300337 0.064195 0.047790
0.327551 0.065735 0.049330
0.354819 0.067277 0.050872
0.382137 0.068823 0.052418
0.409499 0.070370 0.053965
0.436903 0.071921 0.055516
0.464340 0.073467 0.057064
0.491803 0.075007 0.058610
0.519290 0.076540 0.060152
0.546800 0.078066 0.061690
0.574331 0.079586 0.063225
0.601882 0.081100 0.064756
0.629452 0.082607 0.066285
0.657039 0.084108 0.067810
0.684644 0.085604 0.069332
0.712264 0.087094 0.070851
0.739901 0.088578 0.072367
0.767551 0.090058 0.073880
0.795216 0.091532 0.075391
0.822895 0.093002 0.076899
0.850587 0.094466 0.078405
0.853985 0.094646 0.078589
0.057766 0.053840 0.034606
0.060765 0.054010 0.034775
0.086459 0.055463 0.036229
0.112714 0.056948 0.037714
0.139227 0.058448 0.039214
0.165913 0.059958 0.040724
0.192730 0.061475 0.042241
0.219653 0.062998 0.043764
0.246665 0.064526 0.045292
0.273753 0.066059 0.046824
0.300907 0.067595 0.048361
0.328122 0.069134 0.049900
0.355390 0.070677 0.051443
0.382707 0.072222 0.052988
0.410070 0.073770 0.054536
0.437473 0.075319 0.056086
0.464906 0.076863 0.057632
0.492365 0.078399 0.059176
0.519849 0.079929 0.060716
0.547355 0.081452 0.062252
0.574883 0.082969 0.063785
0.602431 0.084480 0.065315
0.629997 0.085985 0.066842
0.657582 0.087483 0.068365
0.685184 0.088976 0.069885
0.712802 0.090464 0.071403
0.740435 0.091946 0.072918
0.768083 0.093423 0.074430
0.795746 0.094895 0.075939
0.823422 0.096363 0.077446
0.851112 0.097826 0.078950
0.854509 0.098005 0.079134
0.062656 0.082971 0.039496
0.065654 0.083141 0.039665
0.091349 0.084594 0.041119
0.117603 0.086079 0.042604
0.144116 0.087579 0.044104
0.170803 0.089089 0.045614
0.197620 0.090606 0.047131
0.224543 0.092129 0.048654
0.251555 0.093657 0.050182
0.278643 0.095190 0.051714
0.305797 0.096726 0.053251
0.333012 0.098265 0.054790
0.360277 0.099806 0.056331
0.387583 0.101341 0.057870
0.414924 0.102869 0.059406
0.442297 0.104392 0.060939
0.469700 0.105908 0.062469
0.497130 0.107419 0.063996
0.524585 0.108924 0.065520
0.552064 0.110422 0.067041
0.579565 0.111916 0.068560
0.607088 0.113404 0.070075
0.634630 0.114886 0.071588
0.662190 0.116364 0.073098
0.689769 0.117837 0.074606
0.717365 0.119304 0.076111
0.744977 0.120768 0.077614
0.772605 0.122227 0.079115
0.800249 0.123682 0.080614
0.827907 0.125133 0.082110
0.855579 0.126580 0.083605
0.858974 0.126758 0.083788
0.067652 0.112737 0.044492
0.070651 0.112906 0.044662
0.096346 0.114360 0.046115
0.122600 0.115845 0.047601
0.149113 0.117345 0.049101
0.175799 0.118855 0.050610
0.202617 0.120372 0.052127
0.229540 0.121895 0.053650
0.256551 0.123423 0.055179
0.283635 0.124951 0.056709
0.310775 0.126475 0.058237
0.337966 0.127993 0.059763
0.365201 0.129506 0.061287
0.392476 0.131014 0.062809
0.419787 0.132516 0.064329
0.447131 0.134014 0.065846
0.474506 0.135505 0.067360
0.501910 0.136992 0.068872
0.529339 0.138474 0.070382
0.556793 0.139950 0.071889
0.584270 0.141422 0.073394
0.611769 0.142889 0.074897
0.639289 0.144352 0.076397
0.666828 0.145811 0.077896
0.694386 0.147265 0.079392
0.721963 0.148716 0.080886
0.749556 0.150163 0.082379
0.777167 0.151606 0.083870
0.804793 0.153046 0.085359
0.832436 0.154483 0.086847
0.860094 0.155918 0.088334
0.863487 0.156093 0.088516
0.072698 0.142795 0.049538
0.075697 0.142965 0.049708
0.101391 0.144419 0.051161
0.127646 0.145904 0.052646
0.154159 0.147404 0.054146
0.180845 0.148913 0.055656
0.207655 0.150424 0.057169
0.234561 0.151932 0.058683
0.261546 0.153436 0.060196
0.288598 0.154937 0.061709
0.315708 0.156434 0.063220
0.342869 0.157926 0.064730
0.370076 0.159414 0.066238
0.397323 0.160897 0.067745
0.424608 0.162375 0.069249
0.451926 0.163849 0.070752
0.479276 0.165319 0.072253
0.506655 0.166784 0.073751
0.534062 0.168245 0.075248
0.561493 0.169702 0.076743
0.588949 0.171155 0.078236
0.616428 0.172604 0.079728
0.643928 0.174050 0.081217
0.671449 0.175492 0.082705
0.698990 0.176931 0.084192
0.726549 0.178366 0.085677
0.754127 0.179799 0.087161
0.781723 0.181230 0.088644
0.809336 0.182658 0.090125
0.836965 0.184083 0.091606
0.864611 0.185507 0.093086
0.868003 0.185681 0.093267
0.077777 0.173051 0.054617
0.080775 0.173220 0.054786
0.106468 0.174672 0.056239
0.132712 0.176148 0.057718
0.159205 0.177630 0.059207
0.185862 0.179114 0.060700
0.212641 0.180597 0.062196
0.239517 0.182078 0.063693
0.266473 0.183557 0.065191
0.293497 0.185033 0.066688
0.320580 0.186505 0.068184
0.347714 0.187974 0.069679
0.374895 0.189439 0.071173
0.402118 0.190900 0.072666
0.429379 0.192357 0.074157
0.456674 0.193811 0.075647
0.484002 0.195261 0.077135
0.511360 0.196707 0.078622
0.538746 0.198150 0.080108
0.566158 0.199590 0.081592
0.593596 0.201026 0.083075
0.621057 0.202460 0.084557
0.648541 0.203891 0.086037
0.676046 0.205319 0.087517
0.703572 0.206745 0.088995
0.731118 0.208169 0.090473
0.758684 0.209590 0.091950
0.786268 0.211010 0.093426
0.813870 0.212429 0.094901
0.841490 0.213846 0.096377
0.869127 0.215262 0.097852
0.872517 0.215435 0.098033
0.082839 0.203418 0.059697
0.085835 0.203585 0.059865
0.111498 0.205010 0.061301
0.137711 0.206459 0.062764
0.164175 0.207916 0.064236
0.190804 0.209374 0.065714
0.217555 0.210832 0.067195
0.244404 0.212290 0.068677
0.271334 0.213745 0.070159
0.298333 0.215198 0.071642
0.325391 0.216649 0.073125
0.352502 0.218096 0.074607
0.379660 0.219541 0.076088
0.406861 0.220983 0.077569
0.434100 0.222422 0.079048
0.461376 0.223857 0.080527
0.488685 0.225290 0.082005
0.516025 0.226721 0.083482
0.543393 0.228149 0.084958
0.570790 0.229574 0.086433
0.598212 0.230997 0.087908
0.625659 0.232418 0.089381
0.653129 0.233837 0.090854
0.680622 0.235254 0.092327
0.708136 0.236670 0.093799
0.735672 0.238084 0.095271
0.763228 0.239497 0.096742
0.790803 0.240909 0.098214
0.818398 0.242321 0.099685
0.846011 0.243732 0.101157
0.873642 0.245143 0.102629
0.877032 0.245316 0.102809
0.087819 0.233814 0.064741
0.090812 0.233978 0.064907
0.116447 0.235379 0.066328
0.142634 0.236804 0.067776
0.169071 0.238237 0.069234
0.195674 0.239673 0.070697
0.222401 0.241109 0.072164
0.249226 0.242545 0.073633
0.276133 0.243980 0.075102
0.303109 0.245413 0.076573
0.330146 0.246844 0.078043
0.357236 0.248274 0.079514
0.384374 0.249701 0.080985
0.411556 0.251126 0.082455
0.438778 0.252549 0.083925
0.466037 0.253970 0.085394
0.493330 0.255389 0.086863
0.520655 0.256806 0.088332
0.548009 0.258221 0.089800
0.575392 0.259634 0.091268
0.602802 0.261047 0.092735
0.630238 0.262458 0.094203
0.657698 0.263867 0.095670
0.685182 0.265276 0.097137
0.712688 0.266685 0.098605
0.740216 0.268092 0.100072
0.767765 0.269500 0.101540
0.795335 0.270907 0.103009
0.822925 0.272315 0.104478
0.850535 0.273723 0.105947
0.878164 0.275131 0.107418
0.881554 0.275304 0.107598
0.092723 0.264227 0.069750
0.095712 0.264389 0.069915
0.121323 0.265768 0.071322
0.147486 0.267172 0.072756
0.173900 0.268584 0.074201
0.200480 0.269999 0.075652
0.227185 0.271416 0.077106
0.253989 0.272833 0.078563
0.280876 0.274250 0.080022
0.307833 0.275667 0.081482
0.334851 0.277082 0.082942
0.361924 0.278495 0.084403
0.389046 0.279908 0.085864
0.416212 0.281319 0.087326
0.443419 0.282729 0.088788
0.470664 0.284137 0.090249
0.497944 0.285545 0.091711
0.525257 0.286951 0.093173
0.552601 0.288357 0.094635
0.579974 0.289761 0.096097
0.607375 0.291165 0.097560
0.634802 0.292569 0.099023
0.662255 0.293973 0.100486
0.689732 0.295376 0.101950
0.717234 0.296780 0.103415
0.744757 0.298184 0.104880
0.772304 0.299588 0.106346
0.799871 0.300994 0.107814
0.827460 0.302400 0.109282
0.855069 0.303808 0.110751
0.882699 0.305217 0.112222
0.886089 0.305390 0.112403
0.097557 0.294652 0.074727
0.100544 0.294811 0.074890
0.126133 0.296172 0.076285
0.152275 0.297557 0.077708
0.178669 0.298951 0.079141
0.205229 0.300349 0.080581
0.231915 0.301749 0.082025
0.258701 0.303150 0.083472
0.285571 0.304552 0.084922
0.312511 0.305954 0.086372
0.339514 0.307355 0.087824
0.366573 0.308756 0.089277
0.393681 0.310157 0.090731
0.420835 0.311557 0.092186
0.448031 0.312956 0.093641
0.475265 0.314355 0.095097
0.502535 0.315754 0.096553
0.529840 0.317153 0.098010
0.557176 0.318551 0.099468
0.584542 0.319950 0.100926
0.611937 0.321349 0.102386
0.639359 0.322748 0.103846
0.666808 0.324148 0.105307
0.694283 0.325549 0.106769
0.721782 0.326951 0.108233
0.749305 0.328354 0.109698
0.776851 0.329759 0.111164
0.804420 0.331165 0.112632
0.832010 0.332573 0.114101
0.859623 0.333983 0.115572
0.887256 0.335396 0.117045
0.890647 0.335569 0.117226
0.102330 0.325088 0.079675
0.105314 0.325245 0.079837
0.130886 0.326589 0.081222
0.157009 0.327958 0.082635
0.183385 0.329336 0.084059
0.209930 0.330719 0.085489
0.236600 0.332106 0.086925
0.263371 0.333494 0.088364
0.290226 0.334883 0.089805
0.317154 0.336273 0.091248
0.344145 0.337664 0.092694
0.371192 0.339055 0.094140
0.398290 0.340446 0.095588
0.425435 0.341838 0.097038
0.452622 0.343230 0.098488
0.479849 0.344622 0.099940
0.507113 0.346015 0.101393
0.534411 0.347409 0.102847
0.561743 0.348804 0.104302
0.589105 0.350199 0.105758
0.616498 0.351596 0.107216
0.643919 0.352993 0.108676
0.671367 0.354393 0.110136
0.698842 0.355794 0.111599
0.726342 0.357197 0.113063
0.753867 0.358602 0.114529
0.781416 0.360009 0.115997
0.808989 0.361419 0.117467
0.836585 0.362832 0.118939
0.864205 0.364249 0.120413
0.891863 0.365680 0.121882
0.895259 0.365857 0.122062
0.107050 0.355534 0.084600
0.110033 0.355690 0.084761
0.135589 0.357020 0.086137
0.161698 0.358375 0.087541
0.188060 0.359741 0.088957
0.214590 0.361112 0.090381
0.241248 0.362487 0.091809
0.268007 0.363865 0.093241
0.294852 0.365245 0.094677
0.321770 0.366626 0.096115
0.348752 0.368009 0.097555
0.375791 0.369393 0.098997
0.402882 0.370778 0.100441
0.430020 0.372164 0.101887
0.457202 0.373551 0.103335
0.484425 0.374940 0.104784
0.511685 0.376330 0.106235
0.538981 0.377722 0.107688
0.566311 0.379115 0.109142
0.593674 0.380510 0.110598
0.621067 0.381907 0.112057
0.648489 0.383306 0.113517
0.675940 0.384708 0.114979
0.703418 0.386112 0.116443
0.730923 0.387519 0.117910
0.758454 0.388929 0.119379
0.786013 0.390345 0.120849
0.813618 0.391778 0.122312
0.841269 0.393230 0.123768
0.868965 0.394699 0.125218
0.896704 0.396186 0.126662
0.900109 0.396369 0.126839
0.111729 0.385995 0.089505
0.114710 0.386149 0.089665
0.140253 0.387468 0.091035
0.166350 0.388813 0.092432
0.192701 0.390169 0.093842
0.219221 0.391531 0.095260
0.245869 0.392897 0.096683
0.272620 0.394268 0.098110
0.299457 0.395641 0.099541
0.326368 0.397016 0.100976
0.353344 0.398393 0.102413
0.380379 0.399773 0.103852
0.407466 0.401155 0.105294
0.434601 0.402538 0.106738
0.461781 0.403924 0.108185
0.489002 0.405311 0.109634
0.516263 0.406701 0.111084
0.543560 0.408094 0.112538
0.570892 0.409489 0.113993
0.598257 0.410886 0.115451
0.625654 0.412287 0.116911
0.653081 0.413690 0.118374
0.680538 0.415097 0.119840
0.708032 0.416514 0.121304
0.735576 0.417948 0.122761
0.763168 0.419401 0.124211
0.790807 0.420872 0.125655
0.818492 0.422361 0.127094
0.846222 0.423868 0.128527
0.873995 0.425391 0.129955
0.901811 0.426932 0.131378
0.905225 0.427123 0.131553
0.116374 0.416474 0.094397
0.119354 0.416627 0.094556
0.144888 0.417937 0.095920
0.170975 0.419274 0.097313
0.197318 0.420623 0.098718
0.223831 0.421979 0.100132
0.250473 0.423340 0.101551
0.277219 0.424705 0.102976
0.304051 0.426074 0.104404
0.330959 0.427446 0.105837
0.357932 0.428821 0.107272
0.384965 0.430200 0.108711
0.412051 0.431580 0.110152
0.439187 0.432964 0.111597
0.466368 0.434351 0.113044
0.493592 0.435741 0.114494
0.520855 0.437133 0.115947
0.548157 0.438530 0.117402
0.575494 0.439929 0.118860
0.602866 0.441332 0.120321
0.630286 0.442750 0.121778
0.657760 0.444186 0.123229
0.685285 0.445641 0.124673
0.712860 0.447113 0.126111
0.740483 0.448604 0.127544
0.768154 0.450112 0.128971
0.795870 0.451637 0.130394
0.823631 0.453179 0.131813
0.851435 0.454739 0.133228
0.879282 0.456316 0.134639
0.907170 0.457909 0.136048
0.910594 0.458105 0.136220
0.120996 0.446976 0.099279
0.123976 0.447128 0.099438
0.149503 0.448433 0.100798
0.175585 0.449765 0.102188
0.201922 0.451109 0.103590
0.228432 0.452461 0.105002
0.255070 0.453819 0.106420
0.281814 0.455183 0.107843
0.308645 0.456551 0.109271
0.335552 0.457922 0.110703
0.362526 0.459298 0.112139
0.389561 0.460678 0.113578
0.416650 0.462061 0.115021
0.443789 0.463448 0.116468
0.470974 0.464838 0.117917
0.498203 0.466233 0.119370
0.525477 0.467634 0.120825
0.552810 0.469053 0.122274
0.580201 0.470490 0.123717
0.607647 0.471945 0.125154
0.635148 0.473419 0.126585
0.662701 0.474910 0.128012
0.690304 0.476419 0.129434
0.717955 0.477946 0.130851
0.745654 0.479490 0.132265
0.773399 0.481051 0.133675
0.801189 0.482629 0.135082
0.829022 0.484223 0.136486
0.856897 0.485834 0.137888
0.884814 0.487461 0.139287
0.912770 0.489105 0.140686
0.916202 0.489307 0.140857
0.125606 0.477507 0.104158
0.128585 0.477659 0.104316
0.154108 0.478960 0.105675
0.180188 0.480290 0.107063
0.206524 0.481632 0.108465
0.233032 0.482984 0.109875
0.259671 0.484342 0.111293
0.286415 0.485706 0.112717
0.313248 0.487076 0.114146
0.340159 0.488450 0.115580
0.367137 0.489830 0.117018
0.394176 0.491213 0.118460
0.421270 0.492602 0.119906
0.448426 0.494001 0.121352
0.475651 0.495420 0.122792
0.502942 0.496857 0.124226
0.530294 0.498313 0.125656
0.557707 0.499787 0.127080
0.585176 0.501279 0.128500
0.612700 0.502789 0.129915
0.640277 0.504317 0.131326
0.667904 0.505861 0.132734
0.695581 0.507423 0.134139
0.723306 0.509002 0.135541
0.751076 0.510597 0.136940
0.778892 0.512209 0.138338
0.806750 0.513838 0.139734
0.834651 0.515482 0.141128
0.862594 0.517143 0.142522
0.890576 0.518819 0.143915
0.918597 0.520510 0.145309
0.922036 0.520719 0.145480
0.130213 0.508073 0.109039
0.133192 0.508225 0.109197
0.158715 0.509526 0.110556
0.184795 0.510856 0.111944
0.211133 0.512200 0.113346
0.237643 0.513554 0.114758
0.264285 0.514915 0.116178
0.291034 0.516283 0.117604
0.317872 0.517657 0.119036
0.344790 0.519038 0.120473
0.371793 0.520436 0.121907
0.398880 0.521853 0.123336
0.426044 0.523289 0.124760
0.453279 0.524744 0.126180
0.480583 0.526218 0.127596
0.507952 0.527710 0.129008
0.535381 0.529220 0.130416
0.562869 0.530747 0.131821
0.590413 0.532292 0.133223
0.618010 0.533855 0.134621
0.645659 0.535434 0.136018
0.673358 0.537030 0.137412
0.701104 0.538643 0.138805
0.728898 0.540272 0.140196
0.756736 0.541917 0.141586
0.784618 0.543578 0.142976
0.812541 0.545255 0.144366
0.840506 0.546948 0.145757
0.868511 0.548655 0.147147
0.896555 0.550378 0.148540
0.924636 0.552116 0.149933
0.928083 0.552330 0.150105
0.134829 0.538682 0.113927
0.137808 0.538834 0.114086
0.163334 0.540138 0.115446
0.189417 0.541471 0.116836
0.215760 0.542819 0.118241
0.242276 0.544177 0.119656
0.268931 0.545549 0.121077
0.295714 0.546941 0.122495
0.322608 0.548355 0.123911
0.349601 0.549788 0.125323
0.376684 0.551241 0.126732
0.403848 0.552713 0.128138
0.431089 0.554203 0.129540
0.458401 0.555712 0.130940
0.485780 0.557239 0.132337
0.513222 0.558783 0.133731
0.540724 0.560345 0.135123
0.568284 0.561924 0.136513
0.595898 0.563520 0.137902
0.623565 0.565133 0.139289
0.651282 0.566763 0.140676
0.679047 0.568408 0.142062
0.706860 0.570070 0.143447
0.734718 0.571747 0.144833
0.762619 0.573440 0.146220
0.790564 0.575148 0.147608
0.818549 0.576872 0.148997
0.846574 0.578610 0.150388
0.874637 0.580364 0.151781
0.902738 0.582131 0.153177
0.930876 0.583914 0.154576
0.934329 0.584133 0.154748
0.139464 0.569341 0.118829
0.142444 0.569493 0.118988
0.167976 0.570803 0.120351
0.194082 0.572153 0.121738
0.220467 0.573531 0.123132
0.247048 0.574935 0.124527
0.273781 0.576360 0.125922
0.300642 0.577807 0.127317
0.327614 0.579275 0.128709
0.354683 0.580762 0.130100
0.381841 0.582267 0.131490
0.409080 0.583792 0.132877
0.436394 0.585335 0.134263
0.463778 0.586895 0.135647
0.491228 0.588473 0.137030
0.518740 0.590069 0.138412
0.546310 0.591681 0.139793
0.573937 0.593310 0.141174
0.601618 0.594955 0.142555
0.629350 0.596616 0.143936
0.657131 0.598293 0.145317
0.684960 0.599986 0.146700
0.712834 0.601695 0.148084
0.740753 0.603418 0.149469
0.768714 0.605157 0.150857
0.796716 0.606911 0.152248
0.824758 0.608679 0.153641
0.852839 0.610461 0.155038
0.880957 0.612258 0.156439
0.909112 0.614069 0.157844
0.937298 0.615890 0.159253
0.940757 0.616114 0.159425
0.144202 0.600106 0.123718
0.147189 0.600264 0.123875
0.172792 0.601623 0.125215
0.198975 0.603026 0.126578
0.225437 0.604458 0.127948
0.252093 0.605914 0.129322
0.278902 0.607393 0.130697
0.305837 0.608893 0.132072
0.332882 0.610412 0.133447
0.360023 0.611951 0.134822
0.387252 0.613508 0.136197
0.414561 0.615083 0.137571
0.441944 0.616676 0.138945
0.469396 0.618286 0.140319
0.496913 0.619914 0.141693
0.524491 0.621558 0.143068
0.552126 0.623218 0.144443
0.579817 0.624894 0.145820
0.607560 0.626587 0.147198
0.635353 0.628295 0.148577
0.663194 0.630018 0.149959
0.691082 0.631757 0.151344
0.719014 0.633510 0.152731
0.746989 0.635278 0.154122
0.775005 0.637060 0.155516
0.803062 0.638857 0.156915
0.831157 0.640668 0.158318
0.859282 0.642486 0.159722
0.887433 0.644309 0.161126
0.915608 0.646135 0.162529
0.943805 0.647963 0.163933
0.947265 0.648188 0.164105
0.149209 0.631089 0.128531
0.152204 0.631253 0.128685
0.177881 0.632663 0.130005
0.204136 0.634118 0.131349
0.230671 0.635601 0.132701
0.257399 0.637109 0.134058
0.284279 0.638639 0.135417
0.311284 0.640189 0.136779
0.338398 0.641758 0.138141
0.365608 0.643347 0.139505
0.392904 0.644953 0.140870
0.420279 0.646577 0.142236
0.447727 0.648219 0.143603
0.475243 0.649877 0.144972
0.502823 0.651551 0.146343
0.530462 0.653242 0.147715
0.558158 0.654949 0.149090
0.585908 0.656671 0.150467
0.613710 0.658408 0.151847
0.641560 0.660161 0.153231
0.669457 0.661928 0.154619
0.697400 0.663710 0.156010
0.725385 0.665506 0.157406
0.753411 0.667316 0.158806
0.781468 0.669131 0.160206
0.809553 0.670950 0.161606
0.837664 0.672772 0.163006
0.865800 0.674597 0.164406
0.893959 0.676425 0.165806
0.922139 0.678254 0.167207
0.950340 0.680085 0.168609
0.953800 0.680310 0.168781
0.154479 0.662287 0.133281
0.157483 0.662457 0.133434
0.183227 0.663916 0.134738
0.209552 0.665420 0.136067
0.236155 0.666953 0.137406
0.262952 0.668510 0.138751
0.289898 0.670089 0.140101
0.316970 0.671688 0.141453
0.344149 0.673306 0.142808
0.371423 0.674942 0.144166
0.398782 0.676596 0.145526
0.426220 0.678267 0.146889
0.453729 0.679954 0.148255
0.481305 0.681658 0.149624
0.508943 0.683378 0.150996
0.536640 0.685114 0.152371
0.564393 0.686865 0.153750
0.592198 0.688631 0.155134
0.620054 0.690411 0.156522
0.647957 0.692207 0.157915
0.675902 0.694013 0.159310
0.703881 0.695823 0.160706
0.731891 0.697638 0.162102
0.759930 0.699456 0.163498
0.787996 0.701277 0.164894
0.816088 0.703101 0.166291
0.844203 0.704926 0.167688
0.872342 0.706753 0.169087
0.900500 0.708581 0.170487
0.928679 0.710409 0.171889
0.956875 0.712237 0.173293
0.960334 0.712461 0.173465
0.159998 0.693692 0.137986
0.163010 0.693867 0.138137
0.188819 0.695373 0.139431
0.215209 0.696925 0.140751
0.241877 0.698506 0.142082
0.268737 0.700111 0.143420
0.295747 0.701737 0.144764
0.322881 0.703382 0.146113
0.350121 0.705046 0.147465
0.377455 0.706728 0.148822
0.404874 0.708428 0.150183
0.432369 0.710143 0.151548
0.459935 0.711875 0.152917
0.487567 0.713623 0.154291
0.515260 0.715387 0.155670
0.543011 0.717165 0.157053
0.570815 0.718958 0.158442
0.598664 0.720759 0.159833
0.626552 0.722564 0.161223
0.654474 0.724374 0.162614
0.682431 0.726187 0.164005
0.710418 0.728003 0.165397
0.738433 0.729822 0.166790
0.766476 0.731643 0.168184
0.794544 0.733465 0.169579
0.822636 0.735288 0.170976
0.850749 0.737112 0.172375
0.878882 0.738935 0.173776
0.907033 0.740758 0.175180
0.935202 0.742580 0.176586
0.963386 0.744400 0.177995
0.966844 0.744623 0.178168
0.165753 0.725295 0.142663
0.168772 0.725476 0.142813
0.194643 0.727027 0.144101
0.221094 0.728625 0.145417
0.247823 0.730252 0.146745
0.274743 0.731902 0.148081
0.301812 0.733573 0.149425
0.329003 0.735264 0.150774
0.356301 0.736972 0.152130
0.383691 0.738698 0.153491
0.411165 0.740441 0.154857
0.438714 0.742199 0.156230
0.466333 0.743974 0.157608
0.494014 0.745762 0.158991
0.521746 0.747556 0.160374
0.549524 0.749355 0.161759
0.577344 0.751159 0.163144
0.605202 0.752966 0.164530
0.633097 0.754777 0.165917
0.661025 0.756590 0.167306
0.688984 0.758405 0.168695
0.716972 0.760222 0.170087
0.744987 0.762040 0.171481
0.773026 0.763858 0.172876
0.801088 0.765676 0.174274
0.829171 0.767494 0.175675
0.857274 0.769311 0.177078
0.885394 0.771126 0.178485
0.913531 0.772939 0.179895
0.941683 0.774749 0.181309
0.969848 0.776556 0.182727
0.973303 0.776778 0.182901
0.171730 0.757090 0.147329
0.174755 0.757275 0.147479
0.200684 0.758871 0.148766
0.227192 0.760513 0.150082
0.253978 0.762183 0.151412
0.280954 0.763877 0.152752
0.308078 0.765591 0.154100
0.335324 0.767324 0.155456
0.362674 0.769075 0.156819
0.390116 0.770843 0.158190
0.417635 0.772622 0.159564
0.445218 0.774408 0.160939
0.472859 0.776198 0.162316
0.500552 0.777994 0.163695
0.528293 0.779794 0.165075
0.556077 0.781598 0.166456
0.583902 0.783405 0.167839
0.611763 0.785213 0.169224
0.639657 0.787024 0.170612
0.667583 0.788836 0.172001
0.695538 0.790648 0.173393
0.723519 0.792460 0.174787
0.751525 0.794272 0.176185
0.779553 0.796083 0.177585
0.807602 0.797893 0.178989
0.835669 0.799700 0.180397
0.863754 0.801504 0.181809
0.891854 0.803306 0.183224
0.919968 0.805104 0.184644
0.948095 0.806898 0.186069
0.976233 0.808687 0.187499
0.979684 0.808906 0.187675
0.177915 0.789068 0.152001
0.180947 0.789258 0.152152
0.206928 0.790895 0.153443
0.233490 0.792579 0.154764
0.260328 0.794292 0.156101
0.287356 0.796027 0.157449
0.314530 0.797782 0.158807
0.341816 0.799547 0.160168
0.369195 0.801320 0.161533
0.396654 0.803100 0.162901
0.424183 0.804885 0.164270
0.451774 0.806676 0.165643
0.479421 0.808471 0.167017
0.507117 0.810269 0.168394
0.534859 0.812070 0.169773
0.562643 0.813873 0.171155
0.590464 0.815678 0.172539
0.618320 0.817483 0.173927
0.646207 0.819289 0.175317
0.674123 0.821094 0.176711
0.702066 0.822898 0.178108
0.730033 0.824701 0.179509
0.758022 0.826502 0.180914
0.786032 0.828300 0.182323
0.814059 0.830096 0.183736
0.842103 0.831887 0.185154
0.870162 0.833675 0.186577
0.898235 0.835458 0.188005
0.926319 0.837236 0.189439
0.954413 0.839008 0.190878
0.982516 0.840774 0.192323
0.985963 0.840990 0.192501
0.184295 0.821222 0.156698
0.187332 0.821417 0.156849
0.213363 0.823093 0.158149
0.239969 0.824813 0.159478
0.266841 0.826553 0.160818
0.293892 0.828305 0.162166
0.321078 0.830068 0.163519
0.348373 0.831839 0.164877
0.375759 0.833617 0.166239
0.403223 0.835400 0.167604
0.430754 0.837187 0.168973
0.458346 0.838978 0.170345
0.485991 0.840772 0.171720
0.513683 0.842568 0.173099
0.541419 0.844364 0.174481
0.569194 0.846162 0.175866
0.597005 0.847959 0.177255
0.624848 0.849756 0.178649
0.652720 0.851552 0.180046
0.680619 0.853345 0.181447
0.708542 0.855137 0.182853
0.736488 0.856925 0.184263
0.764452 0.858710 0.185679
0.792435 0.860491 0.187100
0.820434 0.862267 0.188526
0.848448 0.864038 0.189957
0.876473 0.865803 0.191395
0.904510 0.867563 0.192839
0.932556 0.869315 0.194289
0.960610 0.871061 0.195746
0.988671 0.872798 0.197211
0.992113 0.873011 0.197391
0.190824 0.853517 0.161420
0.193864 0.853714 0.161571
0.219911 0.855402 0.162868
0.246527 0.857129 0.164193
0.273407 0.858873 0.165529
0.300464 0.860630 0.166875
0.327653 0.862395 0.168226
0.354950 0.864167 0.169583
0.382335 0.865944 0.170945
0.409796 0.867726 0.172312
0.437323 0.869510 0.173682
0.464908 0.871296 0.175058
0.492543 0.873084 0.176437
0.520225 0.874872 0.177821
0.547947 0.876660 0.179209
0.575706 0.878446 0.180601
0.603499 0.880232 0.181999
0.631321 0.882015 0.183401
0.659171 0.883795 0.184808
