omv/luts/08_old_world_film.cube
# Original OMV LUT; redistribution permitted with OMV.
TITLE "Old World Film"
LUT_3D_SIZE 8
DOMAIN_MIN 0.000000 0.000000 0.000000
DOMAIN_MAX 0.903226 0.903226 0.903226
0.057195 0.050440 0.034035
0.138656 0.055048 0.038643
0.246094 0.061126 0.044721
0.354819 0.067277 0.050872
0.464340 0.073467 0.057064
0.574331 0.079586 0.063225
0.684644 0.085604 0.069332
0.795216 0.091532 0.075391
0.072698 0.142795 0.049538
0.154159 0.147404 0.054146
0.261546 0.153436 0.060196
0.370076 0.159414 0.066238
0.479276 0.165319 0.072253
0.588949 0.171155 0.078236
0.698990 0.176931 0.084192
0.809336 0.182658 0.090125
0.092723 0.264227 0.069750
0.173900 0.268584 0.074201
0.280876 0.274250 0.080022
0.389046 0.279908 0.085864
0.497944 0.285545 0.091711
0.607375 0.291165 0.097560
0.717234 0.296780 0.103415
0.827460 0.302400 0.109282
0.111729 0.385995 0.089505
0.192701 0.390169 0.093842
0.299457 0.395641 0.099541
0.407466 0.401155 0.105294
0.516263 0.406701 0.111084
0.625654 0.412287 0.116911
0.735576 0.417948 0.122761
0.846222 0.423868 0.128527
0.130213 0.508073 0.109039
0.211133 0.512200 0.113346
0.317872 0.517657 0.119036
0.426044 0.523289 0.124760
0.535381 0.529220 0.130416
0.645659 0.535434 0.136018
0.756736 0.541917 0.141586
0.868511 0.548655 0.147147
0.149209 0.631089 0.128531
0.230671 0.635601 0.132701
0.338398 0.641758 0.138141
0.447727 0.648219 0.143603
0.558158 0.654949 0.149090
0.669457 0.661928 0.154619
0.781468 0.669131 0.160206
0.893959 0.676425 0.165806
0.171730 0.757090 0.147329
0.253978 0.762183 0.151412
0.362674 0.769075 0.156819
0.472859 0.776198 0.162316
0.583902 0.783405 0.167839
0.695538 0.790648 0.173393
0.807602 0.797893 0.178989
0.919968 0.805104 0.184644
0.197398 0.885864 0.166133
0.279989 0.891226 0.170239
0.388898 0.898285 0.175663
0.499053 0.905388 0.181179
0.609919 0.912477 0.186780
0.721235 0.919507 0.192476
0.832834 0.926441 0.198279
0.944589 0.933245 0.204206
0.058760 0.052005 0.112452
0.140221 0.056613 0.117061
0.247659 0.062691 0.123139
0.356384 0.068842 0.129290
0.465888 0.075017 0.135473
0.575842 0.081103 0.141612
0.686122 0.087092 0.147701
0.796666 0.092995 0.153745
0.074263 0.144360 0.127955
0.155723 0.148968 0.132564
0.263075 0.154969 0.138593
0.371570 0.160916 0.144616
0.480740 0.166794 0.150614
0.590387 0.172607 0.156583
0.700407 0.178364 0.162527
0.810736 0.184077 0.168452
0.094198 0.265713 0.148118
0.175355 0.270051 0.152557
0.282307 0.275697 0.158365
0.390458 0.281337 0.164197
0.499341 0.286961 0.170035
0.608762 0.292572 0.175879
0.718615 0.298182 0.181730
0.828841 0.303801 0.187597
0.113131 0.387415 0.167832
0.194093 0.391581 0.172164
0.300842 0.397045 0.177859
0.408846 0.402556 0.183609
0.517644 0.408103 0.189400
0.627040 0.413693 0.195230
0.737025 0.419399 0.201061
0.847765 0.425384 0.206801
0.131594 0.509474 0.187354
0.212515 0.513603 0.191663
0.319264 0.519067 0.197356
0.427526 0.524763 0.203051
0.536954 0.530758 0.208683
0.647318 0.537034 0.214267
0.758474 0.543576 0.219827
0.870324 0.550370 0.225386
0.150753 0.632606 0.206805
0.232280 0.637164 0.210960
0.340088 0.643381 0.216386
0.449493 0.649898 0.221842
0.559996 0.656683 0.227329
0.671360 0.663714 0.232865
0.783410 0.670947 0.238456
0.895908 0.678246 0.244053
0.173546 0.758806 0.225567
0.255843 0.763939 0.229653
0.364601 0.770881 0.235071
0.474805 0.778017 0.240565
0.585851 0.785226 0.246086
0.697480 0.792464 0.251643
0.809526 0.799697 0.257247
0.921864 0.806889 0.262915
0.199347 0.887685 0.244380
0.281936 0.893046 0.248487
0.390834 0.900097 0.253916
0.500967 0.907186 0.259441
0.611801 0.914253 0.265057
0.723074 0.921255 0.270771
0.834619 0.928153 0.276598
0.946310 0.934914 0.282554
0.060824 0.054069 0.215877
0.142285 0.058678 0.220485
0.249723 0.064756 0.226563
0.358448 0.070906 0.232714
0.467915 0.077048 0.238876
0.577821 0.083092 0.244990
0.688060 0.089044 0.251055
0.798569 0.094915 0.257079
0.076327 0.146424 0.231380
0.157775 0.151021 0.235981
0.265077 0.156978 0.241983
0.373528 0.162886 0.247982
0.482660 0.168730 0.253958
0.592276 0.174515 0.259910
0.702269 0.180249 0.265839
0.812579 0.185944 0.271753
0.096134 0.267663 0.251471
0.177264 0.271977 0.255896
0.284187 0.277597 0.261687
0.392314 0.283216 0.267506
0.501179 0.288824 0.273334
0.610588 0.294425 0.279171
0.720436 0.300030 0.285020
0.830662 0.305650 0.290887
0.114975 0.389284 0.271135
0.195927 0.393440 0.275460
0.302666 0.398896 0.281150
0.410667 0.404403 0.286898
0.519467 0.409953 0.292691
0.628873 0.415552 0.298525
0.738974 0.421338 0.304321
0.849836 0.427409 0.310027
0.133415 0.511323 0.290643
0.214341 0.515456 0.294955
0.321131 0.520950 0.300641
0.429517 0.526732 0.306298
0.539063 0.532810 0.311901
0.649537 0.539166 0.317466
0.760797 0.545785 0.323016
0.872742 0.552653 0.328575
0.152823 0.634631 0.310031
0.234434 0.639250 0.314169
0.342347 0.645543 0.319580
0.451851 0.652134 0.325030
0.562445 0.658990 0.330520
0.673894 0.666089 0.336070
0.785975 0.673345 0.341658
0.898478 0.680647 0.347252
0.175966 0.761091 0.328756
0.258329 0.766275 0.332849
0.367156 0.773272 0.338278
0.477373 0.780418 0.343765
0.588420 0.787626 0.349286
0.700036 0.794856 0.354849
0.812054 0.802070 0.360465
0.924350 0.809235 0.366152
0.201917 0.890087 0.347579
0.284501 0.895444 0.351688
0.393381 0.902483 0.357126
0.503481 0.909550 0.362666
0.614268 0.916586 0.368302
0.725481 0.923547 0.374044
0.836951 0.930396 0.379904
0.948551 0.937097 0.385899
0.062913 0.056158 0.320540
0.144374 0.060766 0.325148
0.251812 0.066844 0.331226
0.360533 0.072992 0.337375
0.469949 0.079089 0.343509
0.579810 0.085091 0.349597
0.690008 0.091008 0.355641
0.800484 0.096850 0.361646
0.078416 0.148513 0.336043
0.159833 0.153083 0.340627
0.267087 0.158997 0.346603
0.375496 0.164867 0.352578
0.484592 0.170679 0.358534
0.594177 0.176437 0.364469
0.704146 0.182149 0.370385
0.814438 0.187828 0.376288
0.098080 0.269625 0.356055
0.179185 0.273917 0.360466
0.286080 0.279512 0.366242
0.394185 0.285112 0.372048
0.503035 0.290705 0.377868
0.612434 0.296298 0.383699
0.722278 0.301899 0.389546
0.832508 0.307522 0.395414
0.116836 0.391170 0.375671
0.197778 0.395317 0.379991
0.304510 0.400767 0.385677
0.412509 0.406273 0.391425
0.521315 0.411828 0.397220
0.630759 0.417454 0.403048
0.740987 0.423329 0.408804
0.851969 0.429486 0.414482
0.135260 0.513195 0.395171
0.216193 0.517333 0.399486
0.323063 0.522885 0.405148
0.431573 0.528753 0.410770
0.541235 0.534915 0.416347
0.651818 0.541350 0.421896
0.763179 0.548046 0.427439
0.875219 0.554986 0.433001
0.154957 0.636708 0.414486
0.236652 0.641387 0.418608
0.344668 0.647757 0.424007
0.454269 0.654422 0.429453
0.564953 0.661348 0.434950
0.676477 0.668507 0.440513
0.788574 0.675774 0.446095
0.901078 0.683077 0.451688
0.178446 0.763427 0.433183
0.260872 0.768662 0.437285
0.369747 0.775696 0.442717
0.479975 0.782848 0.448200
0.591017 0.790054 0.453723
0.702615 0.797272 0.459294
0.814600 0.804464 0.464925
0.926849 0.811597 0.470632
0.204517 0.892516 0.452015
0.287092 0.897867 0.456128
0.395948 0.904890 0.461576
0.506010 0.911933 0.467133
0.616746 0.918934 0.472792
0.727892 0.925851 0.478563
0.839281 0.932646 0.484460
0.950787 0.939283 0.490497
0.065017 0.058262 0.425976
0.146478 0.062871 0.430584
0.253916 0.068949 0.436662
0.362617 0.075077 0.442799
0.471982 0.081130 0.448905
0.581798 0.087093 0.454968
0.691959 0.092976 0.460991
0.802403 0.098789 0.466979
0.080511 0.150609 0.441473
0.161889 0.155144 0.446036
0.269097 0.161017 0.451986
0.377466 0.166851 0.457939
0.486527 0.172633 0.463876
0.596083 0.178366 0.469795
0.706030 0.184058 0.475698
0.816307 0.189723 0.481593
0.100028 0.271590 0.461404
0.181110 0.275862 0.465802
0.287979 0.281434 0.471563
0.396064 0.287016 0.477359
0.504900 0.292597 0.483171
0.614292 0.298183 0.488998
0.724135 0.303783 0.494844
0.834369 0.309411 0.500715
0.118706 0.393066 0.480976
0.199640 0.397206 0.485292
0.306366 0.402651 0.490975
0.414367 0.408158 0.496723
0.523179 0.413718 0.502522
0.632702 0.419400 0.508329
0.743057 0.425364 0.514048
0.854158 0.431606 0.519699
0.137121 0.515083 0.500472
0.218064 0.519230 0.504789
0.325054 0.524864 0.510414
0.433685 0.530818 0.516004
0.543461 0.537062 0.521558
0.654151 0.543577 0.527094
0.765612 0.550348 0.532634
0.877744 0.557360 0.538202
0.157145 0.638828 0.519703
0.238922 0.643567 0.523812
0.347040 0.650013 0.529202
0.456736 0.656750 0.534649
0.567508 0.663746 0.540156
0.679087 0.670948 0.545724
0.791194 0.678222 0.551301
0.903695 0.685523 0.556896
0.180974 0.765803 0.538385
0.263462 0.771088 0.542498
0.372363 0.778141 0.547926
0.482595 0.785297 0.553407
0.593628 0.792497 0.558934
0.705203 0.799699 0.564515
0.817151 0.806866 0.570163
0.929348 0.813964 0.575893
0.207133 0.894962 0.557223
0.289695 0.900304 0.561342
0.398523 0.907308 0.566803
0.508543 0.914322 0.572378
0.619221 0.921286 0.578063
0.730296 0.928155 0.583866
0.841599 0.934892 0.589800
0.953004 0.941463 0.595883
0.067133 0.060378 0.531977
0.148594 0.064986 0.536586
0.256032 0.071064 0.542664
0.364693 0.077158 0.548779
0.474011 0.083168 0.554858
0.583784 0.089093 0.560898
0.693909 0.094944 0.566901
0.804323 0.100731 0.572872
0.082599 0.152700 0.547460
0.163939 0.157202 0.552001
0.271103 0.163036 0.557927
0.379433 0.168835 0.563858
0.488462 0.174588 0.569777
0.597992 0.180297 0.575681
0.707919 0.185972 0.581574
0.818181 0.191624 0.587461
0.101976 0.273557 0.567312
0.183036 0.277809 0.571698
0.289881 0.283359 0.577446
0.397948 0.288925 0.583231
0.506772 0.294496 0.589037
0.616158 0.300077 0.594861
0.726002 0.305678 0.600707
0.836243 0.311312 0.606583
0.120581 0.394968 0.586845
0.201509 0.399102 0.591157
0.308232 0.404545 0.596837
0.416235 0.410054 0.602587
0.525058 0.415623 0.608391
0.634700 0.421388 0.614161
0.745179 0.427440 0.619847
0.856396 0.433766 0.625475
0.138995 0.516984 0.606339
0.219982 0.521162 0.610646
0.327097 0.526884 0.616233
0.435848 0.532923 0.621794
0.545737 0.539249 0.627328
0.656532 0.545842 0.632854
0.768090 0.552687 0.638394
0.880312 0.559771 0.643973
0.159384 0.640988 0.625479
0.241241 0.645786 0.629577
0.349458 0.652306 0.634961
0.459248 0.659116 0.640412
0.570105 0.666180 0.645932
0.681716 0.673406 0.651497
0.793829 0.680684 0.657072
0.906321 0.687979 0.662671
0.183545 0.768216 0.644155
0.266081 0.773539 0.648275
0.374996 0.780601 0.653697
0.485228 0.787757 0.659178
0.596248 0.794948 0.664711
0.707794 0.802131 0.670305
0.819699 0.809270 0.675972
0.931839 0.816330 0.681728
0.209758 0.897417 0.662999
0.292304 0.902749 0.667125
0.401098 0.909730 0.672600
0.511070 0.916713 0.678197
0.621687 0.923635 0.683909
0.732685 0.930453 0.689746
0.843897 0.937129 0.695721
0.955195 0.943629 0.701851
0.069257 0.062502 0.638426
0.150718 0.067111 0.643035
0.258152 0.073184 0.649110
0.366761 0.079233 0.655197
0.476032 0.085201 0.661250
0.585766 0.091091 0.667268
0.695857 0.096911 0.673251
0.806243 0.102674 0.679207
0.084678 0.154784 0.653884
0.165982 0.159253 0.658405
0.273104 0.165050 0.664307
0.381397 0.170817 0.670218
0.490395 0.176543 0.676120
0.599901 0.182230 0.682011
0.709809 0.187889 0.687893
0.820060 0.193531 0.693774
0.103921 0.275522 0.673662
0.184960 0.279756 0.678036
0.291784 0.285287 0.683772
0.399835 0.290839 0.689549
0.508649 0.296401 0.695349
0.618032 0.301979 0.701171
0.727879 0.307582 0.707019
0.838132 0.313226 0.712899
0.122462 0.396875 0.693158
0.203384 0.401005 0.697468
0.310106 0.406446 0.703148
0.418115 0.411960 0.708900
0.526978 0.417559 0.714697
0.636749 0.423414 0.720427
0.747350 0.429553 0.726084
0.858682 0.435962 0.731691
0.140882 0.518896 0.712655
0.221953 0.523133 0.716936
0.329192 0.528942 0.722488
0.438059 0.535065 0.728022
0.548059 0.541471 0.733540
0.658956 0.548142 0.739060
0.770610 0.555061 0.744603
0.882919 0.562214 0.750195
0.161670 0.643184 0.731695
0.243606 0.648041 0.735785
0.351920 0.654635 0.741167
0.461800 0.661515 0.746624
0.572734 0.668640 0.752157
0.684359 0.675877 0.757716
0.796473 0.683155 0.763290
0.908952 0.690441 0.768895
0.186155 0.770662 0.750379
0.268718 0.776005 0.754497
0.377641 0.783073 0.759915
0.487869 0.790226 0.765398
0.598870 0.797404 0.770939
0.710383 0.804565 0.776547
0.822241 0.811673 0.782236
0.934318 0.818691 0.788019
0.212388 0.899878 0.769223
0.294914 0.905197 0.773358
0.403670 0.912153 0.778851
0.513589 0.919100 0.784470
0.624138 0.925977 0.790213
0.735055 0.932741 0.796086
0.846170 0.939353 0.802104
0.957357 0.945778 0.808283
0.071389 0.064634 0.745246
0.152850 0.069243 0.749855
0.260260 0.075296 0.755917
0.368820 0.081300 0.761976
0.478047 0.087228 0.768005
0.587742 0.093084 0.774001
0.697801 0.098876 0.779967
0.808162 0.104616 0.785909
0.086747 0.156860 0.760669
0.168016 0.161299 0.765171
0.275098 0.167059 0.771050
0.383357 0.172796 0.776942
0.492326 0.178496 0.782828
0.601809 0.184163 0.788707
0.711702 0.189808 0.794580
0.821944 0.195442 0.800456
0.105864 0.277485 0.780376
0.186883 0.281702 0.784740
0.293687 0.287216 0.790465
0.401724 0.292755 0.796234
0.510531 0.298310 0.802030
0.619912 0.303887 0.807851
0.729764 0.309495 0.813702
0.840062 0.315172 0.819574
0.124346 0.398787 0.799841
0.205265 0.402914 0.804148
0.311988 0.408356 0.809829
0.420003 0.413876 0.815585
0.528949 0.419533 0.821359
0.638848 0.425478 0.827052
0.749569 0.431702 0.832682
0.861013 0.438193 0.838273
0.142807 0.520838 0.819332
0.223975 0.525143 0.823582
0.331335 0.531037 0.829102
0.440317 0.537243 0.834614
0.550425 0.543729 0.840119
0.661423 0.550476 0.845635
0.773170 0.557467 0.851185
0.885556 0.564683 0.856791
0.164000 0.645415 0.838277
0.246014 0.650330 0.842361
0.354423 0.656997 0.847744
0.464391 0.663947 0.853212
0.575378 0.671114 0.858750
0.687014 0.678357 0.864303
0.799124 0.685633 0.869879
0.911584 0.692906 0.875493
0.188793 0.773131 0.856974
0.271368 0.778483 0.861087
0.380296 0.785554 0.866502
0.490515 0.792700 0.871989
0.601492 0.799863 0.877542
0.712967 0.806998 0.883167
0.824771 0.814070 0.888878
0.936780 0.821043 0.894692
0.215018 0.902342 0.875822
0.297521 0.907645 0.879967
0.406233 0.914573 0.885479
0.516095 0.921481 0.891124
0.626572 0.928310 0.896899
0.737401 0.935016 0.902811
0.848414 0.941560 0.908874
0.959492 0.947912 0.915102
