omv/luts/08_old_world_film.cube
# Original OMV LUT; redistribution permitted with OMV.
TITLE "Old World Film"
LUT_3D_SIZE 5
DOMAIN_MIN 0.000000 0.000000 0.000000
DOMAIN_MAX 0.903226 0.903226 0.903226
0.057195 0.050440 0.034035
0.219083 0.059598 0.043193
0.409499 0.070370 0.053965
0.601882 0.081100 0.064756
0.795216 0.091532 0.075391
0.087819 0.233814 0.064741
0.249226 0.242545 0.073633
0.438778 0.252549 0.083925
0.630238 0.262458 0.094203
0.822925 0.272315 0.104478
0.120996 0.446976 0.099279
0.281814 0.455183 0.107843
0.470974 0.464838 0.117917
0.662701 0.474910 0.128012
0.856897 0.485834 0.137888
0.154479 0.662287 0.133281
0.316970 0.671688 0.141453
0.508943 0.683378 0.150996
0.703881 0.695823 0.160706
0.900500 0.708581 0.170487
0.197398 0.885864 0.166133
0.361521 0.896513 0.174298
0.554416 0.908937 0.183968
0.749114 0.921251 0.193916
0.944589 0.933245 0.204206
0.060305 0.053550 0.189875
0.222193 0.062708 0.199033
0.412602 0.073475 0.209801
0.604859 0.084091 0.220522
0.798091 0.094433 0.231100
0.090796 0.236806 0.220507
0.252116 0.245460 0.229350
0.441592 0.255395 0.239599
0.633002 0.265260 0.249850
0.825669 0.275099 0.260114
0.123747 0.449766 0.254919
0.284557 0.457967 0.263479
0.473739 0.467641 0.273561
0.665774 0.477929 0.283565
0.860268 0.489067 0.293383
0.157715 0.665422 0.288798
0.320440 0.674995 0.296939
0.512657 0.686873 0.306486
0.707744 0.699435 0.316211
0.904368 0.712195 0.325990
0.201271 0.889483 0.321633
0.365372 0.900117 0.329808
0.558183 0.912485 0.339516
0.752731 0.924699 0.349530
0.947991 0.936550 0.359915
0.063963 0.057208 0.373177
0.225851 0.066367 0.382335
0.416206 0.077084 0.393073
0.608320 0.087574 0.403715
0.801443 0.097819 0.414232
0.094258 0.240289 0.403700
0.255484 0.248859 0.412491
0.444879 0.258724 0.422696
0.636243 0.268547 0.432921
0.828896 0.278374 0.443177
0.126976 0.453043 0.437983
0.287787 0.461244 0.446543
0.477090 0.471006 0.456603
0.669501 0.481559 0.466504
0.864332 0.492944 0.476272
0.161626 0.669186 0.471704
0.324616 0.678957 0.479823
0.517107 0.691049 0.489391
0.712297 0.703690 0.499116
0.908902 0.716438 0.508904
0.205824 0.893737 0.504539
0.369878 0.904340 0.512734
0.562567 0.916627 0.522496
0.756916 0.928708 0.532599
0.951898 0.940374 0.543107
0.067663 0.060908 0.558551
0.229551 0.070066 0.567709
0.419798 0.080688 0.578387
0.611779 0.091060 0.588955
0.804803 0.101217 0.599418
0.097717 0.243775 0.588941
0.258858 0.252270 0.597684
0.448184 0.262073 0.607851
0.639512 0.271864 0.618055
0.832163 0.281689 0.628310
0.130240 0.456355 0.623115
0.291061 0.464565 0.631680
0.480612 0.474502 0.641672
0.673390 0.485316 0.651487
0.868546 0.496943 0.661222
0.165693 0.673074 0.656663
0.328939 0.683040 0.664774
0.521679 0.695329 0.674374
0.716905 0.707995 0.684087
0.913464 0.720712 0.693894
0.210415 0.898032 0.689516
0.374402 0.908589 0.697741
0.566940 0.920776 0.707571
0.761063 0.932706 0.717774
0.955739 0.944168 0.728419
0.071389 0.064634 0.745246
0.233267 0.073784 0.754399
0.423366 0.084273 0.764995
0.615225 0.094538 0.775495
0.808162 0.104616 0.785909
0.101163 0.247253 0.775481
0.262228 0.255680 0.784182
0.451497 0.265431 0.794316
0.642799 0.275200 0.804507
0.835460 0.285033 0.814767
0.133527 0.459692 0.809567
0.294375 0.467924 0.818140
0.484290 0.478115 0.828024
0.677422 0.489185 0.837771
0.872892 0.501049 0.847492
0.169897 0.677071 0.842932
0.333388 0.687226 0.851051
0.526306 0.699656 0.860668
0.721538 0.712326 0.870379
0.918025 0.724995 0.880218
0.215018 0.902342 0.875822
0.378914 0.912839 0.884087
0.571276 0.924909 0.893995
0.765143 0.936668 0.904312
0.959492 0.947912 0.915102
