omv/luts/09_vault_fluorescent.cube
# Original OMV LUT; redistribution permitted with OMV.
TITLE "Vault Fluorescent"
LUT_3D_SIZE 8
DOMAIN_MIN 0.000000 0.000000 0.000000
DOMAIN_MAX 0.903226 0.903226 0.903226
0.000000 0.041640 0.046580
0.062514 0.044387 0.049327
0.185128 0.048489 0.053429
0.308526 0.052617 0.057557
0.432414 0.056744 0.061677
0.556929 0.060625 0.065453
0.682049 0.064212 0.068815
0.807683 0.067543 0.071819
0.000000 0.130265 0.055822
0.071756 0.133012 0.058570
0.194428 0.137062 0.062600
0.318208 0.140846 0.066249
0.442785 0.144353 0.069509
0.567984 0.147619 0.072429
0.693688 0.150680 0.075062
0.819805 0.153577 0.077462
0.004313 0.261776 0.068510
0.087011 0.264013 0.070547
0.210684 0.267162 0.073326
0.335362 0.270137 0.075853
0.460689 0.272969 0.078175
0.586490 0.275693 0.080343
0.712644 0.278350 0.082413
0.839058 0.280977 0.084440
0.022114 0.391409 0.077503
0.105260 0.393242 0.078980
0.229478 0.395900 0.081078
0.354554 0.398517 0.083107
0.480129 0.401126 0.085119
0.606026 0.403764 0.087167
0.732108 0.406503 0.089333
0.858206 0.409531 0.091792
0.041572 0.520108 0.084545
0.124828 0.521842 0.085884
0.249086 0.524465 0.087932
0.374009 0.527265 0.090166
0.499185 0.530383 0.092725
0.624446 0.533835 0.095645
0.749682 0.537636 0.098964
0.874811 0.541803 0.102720
0.060816 0.649548 0.091986
0.143719 0.651733 0.093809
0.267263 0.655266 0.096834
0.391295 0.659163 0.100277
0.515466 0.663435 0.104171
0.639609 0.668094 0.108553
0.763688 0.673091 0.113367
0.887943 0.678151 0.118250
0.077417 0.782567 0.103080
0.159612 0.785537 0.105836
0.282008 0.790285 0.110354
0.404972 0.795279 0.115174
0.528399 0.800309 0.120027
0.652170 0.805345 0.124887
0.776224 0.810358 0.129730
0.900528 0.815319 0.134534
0.090536 0.919516 0.118753
0.172373 0.922851 0.121970
0.294558 0.927812 0.126759
0.417544 0.932762 0.131545
0.541036 0.937662 0.136294
0.664915 0.942480 0.140979
0.789122 0.947189 0.145579
0.913622 0.951758 0.150068
0.000000 0.042573 0.126896
0.063447 0.045320 0.129643
0.186061 0.049422 0.133745
0.309459 0.053550 0.137872
0.433384 0.057644 0.141947
0.557978 0.061454 0.145623
0.683167 0.064979 0.148899
0.808860 0.068256 0.151829
0.000000 0.131198 0.136138
0.072689 0.133945 0.138885
0.195417 0.137945 0.142845
0.319273 0.141660 0.146399
0.443917 0.145107 0.149576
0.569173 0.148322 0.152425
0.694923 0.151341 0.155000
0.821076 0.154205 0.157355
0.005425 0.262548 0.148601
0.088164 0.264748 0.150588
0.211889 0.267850 0.153301
0.336609 0.270787 0.155775
0.461969 0.273589 0.158056
0.587793 0.276294 0.160196
0.713959 0.278939 0.162251
0.840375 0.281565 0.164276
0.023386 0.392037 0.157395
0.106550 0.393854 0.158850
0.230786 0.396496 0.160924
0.355871 0.399105 0.162943
0.481445 0.401715 0.164956
0.607329 0.404364 0.167019
0.733374 0.407153 0.169238
0.859419 0.410251 0.171771
0.042888 0.520696 0.164381
0.126140 0.522434 0.165726
0.250381 0.525072 0.167794
0.375257 0.527940 0.170096
0.500378 0.531129 0.172731
0.625575 0.534656 0.175736
0.750740 0.538536 0.179148
0.875791 0.542786 0.183006
0.062024 0.650274 0.171970
0.144888 0.652508 0.173847
0.268367 0.656117 0.176958
0.392327 0.660093 0.180497
0.516417 0.664448 0.184495
0.640472 0.669194 0.188989
0.764522 0.674222 0.193841
0.888776 0.679284 0.198725
0.078390 0.783557 0.183375
0.160529 0.786584 0.186203
0.282844 0.791411 0.190824
0.405806 0.796411 0.195649
0.529232 0.801441 0.200502
0.653006 0.806472 0.205358
0.777066 0.811474 0.210192
0.901378 0.816418 0.214982
0.091370 0.920649 0.199229
0.173207 0.923982 0.202444
0.295395 0.928935 0.207227
0.418388 0.933872 0.212002
0.541890 0.938753 0.216736
0.665781 0.943547 0.221402
0.790004 0.948224 0.225976
0.914522 0.952757 0.230437
0.000000 0.043966 0.246801
0.064840 0.046713 0.249549
0.187454 0.050815 0.253650
0.310852 0.054943 0.257778
0.434866 0.058956 0.261741
0.559575 0.062664 0.265275
0.684863 0.066099 0.268427
0.810639 0.069301 0.271252
0.000000 0.132591 0.256044
0.074085 0.135336 0.258788
0.196927 0.139232 0.262604
0.320894 0.142848 0.266021
0.445632 0.146210 0.269079
0.570968 0.149352 0.271828
0.696784 0.152314 0.274321
0.822986 0.155133 0.276614
0.007112 0.263677 0.268140
0.089908 0.265824 0.270054
0.213708 0.268860 0.272675
0.338487 0.271743 0.275075
0.463892 0.274506 0.277300
0.589744 0.277184 0.279404
0.715925 0.279816 0.281441
0.842340 0.282444 0.283468
0.025297 0.392964 0.276653
0.108485 0.394759 0.278078
0.232745 0.397380 0.280123
0.357838 0.399981 0.282131
0.483405 0.402597 0.284153
0.609267 0.405267 0.286245
0.735243 0.408152 0.288559
0.861205 0.411358 0.291206
0.044852 0.521575 0.283573
0.128094 0.523322 0.284931
0.252297 0.526006 0.287050
0.377098 0.528976 0.289457
0.502133 0.532274 0.292209
0.627233 0.535915 0.295344
0.752290 0.539914 0.298899
0.877221 0.544288 0.302911
0.063804 0.651389 0.291415
0.146607 0.653696 0.293373
0.269986 0.657419 0.296618
0.393834 0.661516 0.300302
0.517802 0.665996 0.304458
0.641727 0.670869 0.309117
0.765767 0.675911 0.313984
0.890020 0.680975 0.318869
0.079808 0.785071 0.303295
0.161862 0.788183 0.306232
0.284092 0.793095 0.310963
0.407050 0.798102 0.315793
0.530477 0.803131 0.320645
0.654255 0.808151 0.325492
0.778325 0.813133 0.330311
0.902652 0.818050 0.335079
0.092614 0.922340 0.319372
0.174453 0.925668 0.322585
0.296649 0.930608 0.327357
0.419653 0.935522 0.332114
0.543169 0.940372 0.336823
0.667081 0.945127 0.341457
0.791327 0.949756 0.345993
0.915874 0.954232 0.350408
0.000000 0.045368 0.367473
0.066242 0.048115 0.370220
0.188856 0.052217 0.374322
0.312262 0.056337 0.378439
0.436398 0.060241 0.382250
0.561216 0.063850 0.385646
0.686599 0.067200 0.388680
0.812455 0.070331 0.391406
0.000000 0.133993 0.376715
0.075524 0.136704 0.379412
0.198487 0.140493 0.383079
0.322558 0.144013 0.386364
0.447387 0.147294 0.389308
0.572799 0.150368 0.391963
0.698674 0.153275 0.394381
0.824921 0.156054 0.396618
0.008840 0.264785 0.388404
0.091691 0.266883 0.390250
0.215560 0.269856 0.392783
0.340394 0.272690 0.395115
0.465838 0.275417 0.397291
0.591715 0.278074 0.399364
0.717904 0.280698 0.401390
0.844312 0.283332 0.403426
0.027233 0.393885 0.396657
0.110442 0.395661 0.398055
0.234720 0.398265 0.400077
0.359816 0.400864 0.402081
0.485372 0.403491 0.404118
0.611197 0.406204 0.406259
0.737097 0.409193 0.408680
0.862973 0.412509 0.411445
0.046824 0.522464 0.403532
0.130052 0.524223 0.404906
0.254201 0.526981 0.407102
0.378923 0.530056 0.409618
0.503867 0.533464 0.412492
0.628866 0.537221 0.415762
0.753810 0.541342 0.419464
0.878617 0.545843 0.423637
0.065565 0.652548 0.411663
0.148304 0.654931 0.413707
0.271578 0.658770 0.417090
0.395310 0.662989 0.420924
0.519150 0.667597 0.425244
0.642983 0.672563 0.430022
0.767019 0.677613 0.434895
0.891273 0.682675 0.439779
0.081192 0.786638 0.424036
0.163157 0.789837 0.427086
0.285345 0.794794 0.431871
0.408301 0.799804 0.436705
0.531731 0.804828 0.441553
0.655516 0.809835 0.446389
0.779597 0.814795 0.451191
0.903939 0.819682 0.455934
0.093867 0.924039 0.440282
0.175709 0.927361 0.443489
0.297913 0.932285 0.448248
0.420930 0.937174 0.452985
0.544463 0.941990 0.457667
0.668396 0.946702 0.462267
0.792668 0.951280 0.466762
0.917246 0.955695 0.471128
0.000000 0.046775 0.488606
0.067649 0.049522 0.491353
0.190263 0.053624 0.495455
0.313719 0.057699 0.499510
0.437975 0.061495 0.503171
0.562898 0.065010 0.506436
0.688371 0.068279 0.509358
0.814301 0.071343 0.511991
0.000000 0.135397 0.497844
0.077012 0.138039 0.500445
0.200089 0.141724 0.503968
0.324262 0.145154 0.507127
0.449177 0.148357 0.509964
0.574659 0.151368 0.512531
0.700589 0.154226 0.514880
0.826876 0.156969 0.517068
0.010604 0.265871 0.509092
0.093506 0.267923 0.510873
0.217439 0.270838 0.513326
0.342323 0.273628 0.515596
0.467802 0.276324 0.517729
0.593698 0.278963 0.519778
0.719891 0.281584 0.521800
0.846287 0.284228 0.523850
0.029188 0.394799 0.517105
0.112414 0.396559 0.518482
0.236706 0.399152 0.520487
0.361801 0.401752 0.522494
0.487339 0.404394 0.524552
0.613110 0.407180 0.526768
0.738931 0.410275 0.529299
0.864715 0.413702 0.532188
0.048797 0.523362 0.523957
0.132007 0.525138 0.525355
0.256086 0.527994 0.527649
0.380725 0.531177 0.530279
0.505575 0.534698 0.533281
0.630468 0.538573 0.536690
0.755295 0.542818 0.540544
0.879973 0.547448 0.544882
0.067300 0.653750 0.532415
0.149972 0.656209 0.534548
0.273138 0.660168 0.538073
0.396750 0.664512 0.542063
0.520458 0.669250 0.546551
0.644241 0.674268 0.551394
0.768275 0.679321 0.556269
0.892531 0.684380 0.561150
0.082537 0.788255 0.545297
0.164421 0.791532 0.548449
0.286602 0.796501 0.553244
0.409558 0.801512 0.558079
0.532991 0.806528 0.562921
0.656785 0.811519 0.567744
0.780878 0.816454 0.572525
0.905237 0.821307 0.577241
0.095126 0.925743 0.561652
0.176973 0.929056 0.564853
0.299186 0.933960 0.569596
0.422217 0.938821 0.574310
0.545769 0.943600 0.578962
0.669725 0.948266 0.583526
0.794024 0.952789 0.587978
0.918633 0.957141 0.592293
0.000000 0.048186 0.610073
0.069060 0.050933 0.612821
0.191675 0.055035 0.616922
0.315223 0.059027 0.620862
0.439594 0.062720 0.624379
0.564617 0.066144 0.627519
0.690174 0.069338 0.630335
0.816173 0.072339 0.632882
0.000000 0.136772 0.619262
0.078545 0.139340 0.621760
0.201733 0.142926 0.625145
0.326001 0.146270 0.628184
0.450997 0.149400 0.630920
0.576544 0.152352 0.633405
0.702525 0.155165 0.635692
0.828846 0.157877 0.637836
0.012399 0.266936 0.630078
0.095350 0.268945 0.631799
0.219343 0.271806 0.634178
0.344272 0.274556 0.636392
0.469779 0.277225 0.638488
0.595689 0.279852 0.640520
0.721880 0.282475 0.642544
0.848259 0.285134 0.644616
0.031158 0.395706 0.637873
0.114399 0.397455 0.639233
0.238698 0.400039 0.641228
0.363786 0.402646 0.643243
0.489301 0.405310 0.645330
0.615003 0.408193 0.647644
0.740739 0.411397 0.650291
0.866429 0.414938 0.653308
0.050768 0.524269 0.644725
0.133946 0.526087 0.646167
0.257950 0.529046 0.648566
0.382502 0.532338 0.651315
0.507253 0.535975 0.654448
0.632037 0.539971 0.658001
0.756742 0.544341 0.662013
0.881288 0.549103 0.666520
0.069006 0.654994 0.653545
0.151609 0.657532 0.655769
0.274663 0.661611 0.659441
0.398150 0.666082 0.663591
0.521729 0.670947 0.668245
0.645502 0.675979 0.673101
0.769535 0.681034 0.677978
0.893795 0.686085 0.682853
0.083839 0.789922 0.666950
0.165685 0.793239 0.670153
0.287862 0.798214 0.674953
0.410819 0.803223 0.679786
0.534258 0.808229 0.684620
0.658061 0.813200 0.689428
0.782168 0.818107 0.694186
0.906546 0.822923 0.698873
0.096390 0.927447 0.683354
0.178242 0.930750 0.686546
0.300467 0.935631 0.691271
0.423513 0.940461 0.695961
0.547085 0.945200 0.700581
0.671066 0.949817 0.705105
0.795394 0.954283 0.709511
0.920036 0.958568 0.713773
0.000000 0.049600 0.731802
0.070474 0.052348 0.734550
0.193099 0.056439 0.738638
0.316770 0.060321 0.742424
0.441252 0.063914 0.745803
0.566370 0.067253 0.748824
0.692006 0.070375 0.751541
0.818069 0.073319 0.754008
0.000000 0.138112 0.740887
0.080121 0.140608 0.743286
0.203414 0.144099 0.746539
0.327773 0.147361 0.749465
0.452845 0.150424 0.752107
0.578452 0.153322 0.754516
0.704478 0.156094 0.756747
0.830828 0.158780 0.758855
0.014225 0.267980 0.751293
0.097221 0.269948 0.752958
0.221268 0.272761 0.755269
0.346236 0.275475 0.757433
0.471768 0.278122 0.759499
0.597686 0.280741 0.761521
0.723870 0.283371 0.763553
0.850225 0.286052 0.765655
0.033141 0.396609 0.758892
0.116392 0.398348 0.760238
0.240694 0.400930 0.762229
0.365770 0.403547 0.764260
0.491247 0.406257 0.766398
0.616872 0.409245 0.768820
0.742521 0.412560 0.771586
0.868111 0.416216 0.774735
0.052732 0.525190 0.765767
0.135864 0.527073 0.767274
0.259789 0.530138 0.769783
0.384250 0.533541 0.772655
0.508899 0.537295 0.775924
0.633568 0.541413 0.779626
0.758148 0.545912 0.783799
0.882563 0.550803 0.788474
0.070681 0.656281 0.774982
0.153212 0.658898 0.777301
0.276149 0.663101 0.781124
0.399508 0.667700 0.785439
0.522996 0.672657 0.790210
0.646765 0.677696 0.795072
0.770799 0.682749 0.799948
0.895064 0.687790 0.804814
0.085108 0.791626 0.788911
0.166949 0.794952 0.792121
0.289125 0.799931 0.796925
0.412084 0.804935 0.801754
0.535530 0.809928 0.806576
0.659344 0.814876 0.811366
0.783467 0.819752 0.816100
0.907865 0.824527 0.820754
0.097660 0.929150 0.805314
0.179518 0.932441 0.808496
0.301756 0.937297 0.813201
0.424819 0.942092 0.817863
0.548413 0.946788 0.822449
0.672419 0.951353 0.826932
0.796777 0.955758 0.831288
0.921450 0.959982 0.835502
0.000000 0.051017 0.853747
0.071891 0.053764 0.856494
0.194569 0.057808 0.860516
0.318360 0.061582 0.864151
0.442947 0.065080 0.867399
0.568155 0.068338 0.870309
0.693866 0.071394 0.872933
0.819987 0.074285 0.875326
0.000000 0.139416 0.862676
0.081738 0.141845 0.864980
0.205132 0.145245 0.868108
0.329576 0.148430 0.870927
0.454718 0.151429 0.873481
0.580381 0.154278 0.875821
0.706446 0.157014 0.878003
0.832820 0.159679 0.880081
0.016078 0.269004 0.872692
0.099115 0.270935 0.874305
0.223211 0.273703 0.876555
0.348213 0.276387 0.878677
0.473764 0.279017 0.880719
0.599685 0.281633 0.882736
0.725857 0.284273 0.884784
0.852174 0.287002 0.886938
0.035133 0.397507 0.880117
0.118391 0.399240 0.881454
0.242692 0.401824 0.883448
0.367749 0.404457 0.885501
0.493171 0.407241 0.887716
0.618716 0.410336 0.890249
0.744273 0.413763 0.893139
0.869761 0.417538 0.896425
0.054677 0.526144 0.887055
0.137760 0.528097 0.888632
0.261601 0.531269 0.891256
0.385967 0.534786 0.894256
0.510510 0.538658 0.897665
0.635061 0.542901 0.901520
0.759512 0.547530 0.905859
0.883831 0.552515 0.910655
0.072322 0.657611 0.896683
0.154779 0.660309 0.899100
0.277595 0.664637 0.903079
0.400822 0.669367 0.907563
0.524263 0.674373 0.912394
0.648030 0.679416 0.917260
0.772066 0.684465 0.922132
0.896338 0.689492 0.926987
0.086377 0.793340 0.911093
0.168215 0.796671 0.914308
0.290390 0.801650 0.919112
0.413353 0.806647 0.923934
0.536807 0.811623 0.928744
0.660634 0.816546 0.933513
0.784774 0.821388 0.938219
0.909193 0.826120 0.942839
0.098935 0.930850 0.927485
0.180800 0.934126 0.930656
0.303052 0.938954 0.935339
0.426134 0.943712 0.939971
0.549751 0.948362 0.944519
0.673784 0.952872 0.948958
0.798175 0.957213 0.953264
0.922867 0.961399 0.957447
