omv/luts/09_vault_fluorescent.cube
# Original OMV LUT; redistribution permitted with OMV.
TITLE "Vault Fluorescent"
LUT_3D_SIZE 5
DOMAIN_MIN 0.000000 0.000000 0.000000
DOMAIN_MAX 0.903226 0.903226 0.903226
0.000000 0.041640 0.046580
0.154381 0.047460 0.052400
0.370412 0.054687 0.059627
0.588156 0.061548 0.066330
0.807683 0.067543 0.071819
0.000323 0.229074 0.065712
0.175330 0.233985 0.070269
0.393335 0.239435 0.075029
0.613188 0.244399 0.079096
0.834174 0.249080 0.082760
0.031744 0.455790 0.081135
0.208117 0.459471 0.083985
0.427088 0.464052 0.087537
0.646987 0.469095 0.091585
0.866930 0.475128 0.096684
0.065280 0.682413 0.094336
0.240433 0.687614 0.098844
0.457002 0.695047 0.105619
0.673765 0.703603 0.113806
0.891068 0.712455 0.122347
0.090536 0.919516 0.118753
0.263916 0.926571 0.125561
0.479236 0.935220 0.133925
0.695938 0.943669 0.142138
0.913622 0.951758 0.150068
0.000000 0.043617 0.216733
0.156357 0.049437 0.222553
0.372405 0.056649 0.229760
0.590436 0.063252 0.236104
0.810191 0.069041 0.241308
0.002576 0.230802 0.235520
0.177776 0.235539 0.239836
0.395961 0.240827 0.244370
0.615929 0.245688 0.248294
0.836964 0.250325 0.251897
0.034520 0.457047 0.250289
0.210908 0.460715 0.253120
0.429835 0.465338 0.256728
0.649550 0.470629 0.261032
0.869257 0.476943 0.266448
0.067716 0.684103 0.263956
0.242662 0.689536 0.268737
0.458931 0.697278 0.275899
0.675532 0.706000 0.284295
0.892837 0.714849 0.292834
0.092302 0.921916 0.289245
0.265690 0.928954 0.296039
0.481037 0.937548 0.304360
0.697785 0.945905 0.312499
0.915534 0.953864 0.320325
0.000000 0.046071 0.427992
0.158812 0.051891 0.433812
0.374990 0.058985 0.440855
0.593361 0.065282 0.446774
0.813374 0.070839 0.451655
0.005471 0.232860 0.446228
0.180890 0.237400 0.450270
0.399274 0.242509 0.454556
0.619359 0.247264 0.458333
0.840429 0.251870 0.461893
0.037979 0.458597 0.460291
0.214365 0.462267 0.463125
0.433186 0.467018 0.466875
0.652650 0.472636 0.471526
0.872045 0.479307 0.477357
0.070646 0.686310 0.474676
0.245321 0.692038 0.479814
0.461201 0.700172 0.487475
0.677723 0.708979 0.495974
0.895037 0.717810 0.504498
0.094496 0.924891 0.500920
0.267900 0.931896 0.507688
0.483288 0.940409 0.515943
0.700100 0.948637 0.523980
0.917937 0.956420 0.531665
0.000000 0.048539 0.640483
0.161280 0.054360 0.646304
0.377715 0.061223 0.653025
0.596401 0.067237 0.658552
0.816645 0.072586 0.663143
0.008482 0.234840 0.658041
0.184100 0.239201 0.661835
0.402655 0.244156 0.665906
0.622830 0.248830 0.669571
0.843907 0.253430 0.673122
0.041464 0.460150 0.671512
0.217826 0.463842 0.674376
0.436478 0.468816 0.678360
0.655669 0.474774 0.683381
0.874730 0.481813 0.689652
0.073483 0.688653 0.686773
0.247869 0.694686 0.692286
0.463412 0.703155 0.700378
0.679928 0.711975 0.708888
0.897259 0.720772 0.717384
0.096707 0.927873 0.713822
0.270134 0.934833 0.720554
0.485571 0.943248 0.728731
0.702456 0.951331 0.736652
0.920389 0.958922 0.744183
0.000000 0.051017 0.853747
0.163779 0.056818 0.859541
0.380567 0.063363 0.865821
0.599539 0.069120 0.870989
0.819987 0.074285 0.875326
0.011595 0.236745 0.870510
0.187389 0.240948 0.874084
0.406089 0.245773 0.877975
0.626326 0.250391 0.881562
0.847380 0.255010 0.885141
0.044959 0.461713 0.883505
0.221270 0.465453 0.886433
0.439696 0.470733 0.890733
0.658592 0.477041 0.896149
0.877297 0.484460 0.902883
0.076212 0.691132 0.899795
0.250292 0.697479 0.905703
0.465626 0.706159 0.914063
0.682144 0.714976 0.922570
0.899500 0.723722 0.931026
0.098935 0.930850 0.927485
0.272391 0.937752 0.934171
0.487885 0.946053 0.942257
0.704850 0.953974 0.950048
0.922867 0.961399 0.957447
