omv/luts/09_vault_fluorescent.cube
# Original OMV LUT; redistribution permitted with OMV.
TITLE "Vault Fluorescent"
LUT_3D_SIZE 32
DOMAIN_MIN 0.0 0.0 0.0
DOMAIN_MAX 1.0 1.0 1.0
0.000000 0.041640 0.046580
0.000000 0.041640 0.046580
0.001841 0.042358 0.047298
0.032084 0.043369 0.048309
0.062514 0.044387 0.049327
0.093059 0.045409 0.050349
0.123687 0.046434 0.051374
0.154381 0.047460 0.052400
0.185128 0.048489 0.053429
0.215922 0.049519 0.054459
0.246756 0.050551 0.055491
0.277625 0.051583 0.056523
0.308526 0.052617 0.057557
0.339456 0.053652 0.058592
0.370412 0.054687 0.059627
0.401393 0.055723 0.060662
0.432414 0.056744 0.061677
0.463481 0.057744 0.062662
0.494590 0.058724 0.063620
0.525740 0.059684 0.064549
0.556929 0.060625 0.065453
0.588156 0.061548 0.066330
0.619420 0.062453 0.067182
0.650718 0.063341 0.068010
0.682049 0.064212 0.068815
0.713413 0.065068 0.069598
0.744807 0.065907 0.070358
0.776231 0.066732 0.071099
0.807683 0.067543 0.071819
0.839162 0.068340 0.072520
0.861849 0.068906 0.073014
0.861849 0.068906 0.073014
0.000000 0.041640 0.046580
0.000000 0.041640 0.046580
0.001841 0.042358 0.047298
0.032084 0.043369 0.048309
0.062514 0.044387 0.049327
0.093059 0.045409 0.050349
0.123687 0.046434 0.051374
0.154381 0.047460 0.052400
0.185128 0.048489 0.053429
0.215922 0.049519 0.054459
0.246756 0.050551 0.055491
0.277625 0.051583 0.056523
0.308526 0.052617 0.057557
0.339456 0.053652 0.058592
0.370412 0.054687 0.059627
0.401393 0.055723 0.060662
0.432414 0.056744 0.061677
0.463481 0.057744 0.062662
0.494590 0.058724 0.063620
0.525740 0.059684 0.064549
0.556929 0.060625 0.065453
0.588156 0.061548 0.066330
0.619420 0.062453 0.067182
0.650718 0.063341 0.068010
0.682049 0.064212 0.068815
0.713413 0.065068 0.069598
0.744807 0.065907 0.070358
0.776231 0.066732 0.071099
0.807683 0.067543 0.071819
0.839162 0.068340 0.072520
0.861849 0.068906 0.073014
0.861849 0.068906 0.073014
0.000000 0.064794 0.048995
0.000000 0.064794 0.048995
0.004256 0.065512 0.049712
0.034498 0.066524 0.050724
0.064929 0.067542 0.051742
0.095474 0.068563 0.052764
0.126102 0.069588 0.053788
0.156795 0.070615 0.054815
0.187543 0.071643 0.055844
0.218337 0.072673 0.056874
0.249170 0.073705 0.057905
0.280039 0.074737 0.058938
0.310940 0.075771 0.059972
0.341874 0.076802 0.061001
0.372856 0.077814 0.062004
0.403886 0.078806 0.062979
0.434962 0.079778 0.063925
0.466081 0.080731 0.064845
0.497241 0.081665 0.065739
0.528440 0.082581 0.066607
0.559677 0.083479 0.067450
0.590951 0.084361 0.068270
0.622259 0.085226 0.069067
0.653599 0.086075 0.069841
0.684972 0.086909 0.070595
0.716375 0.087729 0.071328
0.747807 0.088535 0.072041
0.779267 0.089327 0.072736
0.810754 0.090107 0.073413
0.842266 0.090874 0.074074
0.864975 0.091420 0.074539
0.864975 0.091420 0.074539
0.000000 0.097428 0.052398
0.000000 0.097428 0.052398
0.007659 0.098146 0.053116
0.037902 0.099158 0.054127
0.068332 0.100176 0.055145
0.098877 0.101197 0.056167
0.129505 0.102222 0.057192
0.160199 0.103249 0.058218
0.190946 0.104277 0.059247
0.221740 0.105307 0.060277
0.252583 0.106330 0.061297
0.283485 0.107334 0.062289
0.314441 0.108317 0.063253
0.345450 0.109281 0.064189
0.376506 0.110226 0.065099
0.407609 0.111153 0.065983
0.438754 0.112062 0.066843
0.469941 0.112954 0.067678
0.501166 0.113829 0.068490
0.532428 0.114689 0.069279
0.563726 0.115532 0.070047
0.595058 0.116361 0.070793
0.626422 0.117176 0.071520
0.657816 0.117977 0.072227
0.689240 0.118765 0.072917
0.720692 0.119540 0.073588
0.752171 0.120304 0.074243
0.783676 0.121056 0.074883
0.815204 0.121798 0.075507
0.846756 0.122530 0.076118
0.869493 0.123051 0.076549
0.869493 0.123051 0.076549
0.000000 0.130265 0.055822
0.000000 0.130265 0.055822
0.011084 0.130983 0.056540
0.041326 0.131994 0.057552
0.071756 0.133012 0.058570
0.102301 0.134034 0.059591
0.132930 0.135058 0.060615
0.163640 0.136070 0.061621
0.194428 0.137062 0.062600
0.225285 0.138036 0.063551
0.256203 0.138991 0.064476
0.287179 0.139927 0.065375
0.318208 0.140846 0.066249
0.349286 0.141747 0.067099
0.380409 0.142632 0.067925
0.411577 0.143501 0.068728
0.442785 0.144353 0.069509
0.474031 0.145191 0.070269
0.505315 0.146014 0.071009
0.536633 0.146823 0.071728
0.567984 0.147619 0.072429
0.599367 0.148402 0.073112
0.630779 0.149173 0.073778
0.662220 0.149932 0.074428
0.693688 0.150680 0.075062
0.725182 0.151418 0.075681
0.756700 0.152147 0.076287
0.788241 0.152866 0.076881
0.819805 0.153577 0.077462
0.851389 0.154279 0.078032
0.874147 0.154781 0.078437
0.874147 0.154781 0.078437
0.000000 0.163225 0.059260
0.000000 0.163225 0.059260
0.014521 0.163943 0.059977
0.044767 0.164951 0.060984
0.075222 0.165947 0.061971
0.105815 0.166926 0.062933
0.136514 0.167887 0.063870
0.167299 0.168831 0.064782
0.198160 0.169757 0.065668
0.229088 0.170667 0.066531
0.260075 0.171560 0.067370
0.291118 0.172437 0.068186
0.322211 0.173298 0.068980
0.353350 0.174143 0.069752
0.384534 0.174974 0.070504
0.415758 0.175791 0.071235
0.447021 0.176594 0.071947
0.478321 0.177385 0.072641
0.509655 0.178162 0.073318
0.541021 0.178928 0.073977
0.572418 0.179683 0.074621
0.603844 0.180427 0.075250
0.635297 0.181161 0.075864
0.666777 0.181885 0.076465
0.698281 0.182601 0.077054
0.729809 0.183308 0.077632
0.761359 0.184008 0.078198
0.792929 0.184701 0.078755
0.824519 0.185387 0.079303
0.856128 0.186068 0.079842
0.878902 0.186555 0.080227
0.878902 0.186555 0.080227
0.000000 0.196223 0.062633
0.000000 0.196223 0.062633
0.018069 0.196903 0.063298
0.048389 0.197844 0.064213
0.078918 0.198773 0.065107
0.109583 0.199687 0.065978
0.140351 0.200585 0.066828
0.171205 0.201468 0.067655
0.202132 0.202336 0.068459
0.233123 0.203188 0.069243
0.264171 0.204026 0.070005
0.295273 0.204850 0.070748
0.326422 0.205660 0.071471
0.357616 0.206457 0.072175
0.388851 0.207241 0.072862
0.420126 0.208013 0.073531
0.451436 0.208773 0.074184
0.482781 0.209523 0.074822
0.514157 0.210262 0.075445
0.545564 0.210992 0.076054
0.576999 0.211712 0.076650
0.608460 0.212424 0.077234
0.639947 0.213128 0.077807
0.671458 0.213825 0.078370
0.702990 0.214515 0.078923
0.734544 0.215199 0.079468
0.766118 0.215877 0.080004
0.797710 0.216551 0.080534
0.829319 0.217220 0.081058
0.860944 0.217886 0.081577
0.883729 0.218364 0.081948
0.883729 0.218364 0.081948
0.000323 0.229074 0.065712
0.000323 0.229074 0.065712
0.021872 0.229709 0.066315
0.052260 0.230589 0.067144
0.082856 0.231458 0.067955
0.113586 0.232314 0.068747
0.144417 0.233156 0.069518
0.175330 0.233985 0.070269
0.206315 0.234800 0.071002
0.237362 0.235603 0.071716
0.268464 0.236392 0.072411
0.299616 0.237170 0.073090
0.330815 0.237936 0.073752
0.362055 0.238691 0.074398
0.393335 0.239435 0.075029
0.424651 0.240170 0.075646
0.456001 0.240895 0.076250
0.487383 0.241611 0.076841
0.518794 0.242319 0.077420
0.550233 0.243019 0.077989
0.581698 0.243712 0.078547
0.613188 0.244399 0.079096
0.644700 0.245080 0.079638
0.676234 0.245756 0.080171
0.707787 0.246427 0.080699
0.739359 0.247095 0.081220
0.770949 0.247759 0.081737
0.802554 0.248420 0.082250
0.834174 0.249080 0.082760
0.865808 0.249738 0.083268
0.888598 0.250211 0.083633
0.888598 0.250211 0.083633
0.004313 0.261776 0.068510
0.004313 0.261776 0.068510
0.025907 0.262371 0.069057
0.056356 0.263197 0.069810
0.087011 0.264013 0.070547
0.117797 0.264817 0.071268
0.148683 0.265610 0.071970
0.179649 0.266392 0.072656
0.210684 0.267162 0.073326
0.241778 0.267921 0.073980
0.272926 0.268669 0.074618
0.304122 0.269408 0.075243
0.335362 0.270137 0.075853
0.366641 0.270857 0.076451
0.397957 0.271569 0.077037
0.429307 0.272272 0.077611
0.460689 0.272969 0.078175
0.492100 0.273659 0.078729
0.523539 0.274342 0.079275
0.555002 0.275020 0.079812
0.586490 0.275693 0.080343
0.617999 0.276362 0.080868
0.649529 0.277028 0.081387
0.681078 0.277690 0.081902
0.712644 0.278350 0.082413
0.744227 0.279008 0.082922
0.775824 0.279664 0.083428
0.807435 0.280321 0.083934
0.839058 0.280977 0.084440
0.870693 0.281635 0.084947
0.893482 0.282109 0.085314
0.893482 0.282109 0.085314
0.008514 0.294343 0.071055
0.008514 0.294343 0.071055
0.030147 0.294903 0.071554
0.060649 0.295680 0.072241
0.091355 0.296450 0.072914
0.122191 0.297211 0.073573
0.153123 0.297961 0.074217
0.184134 0.298703 0.074847
0.215211 0.299434 0.075464
0.246346 0.300157 0.076067
0.277532 0.300872 0.076658
0.308763 0.301579 0.077238
0.340036 0.302278 0.077807
0.371346 0.302970 0.078366
0.402691 0.303656 0.078916
0.434067 0.304336 0.079458
0.465473 0.305011 0.079992
0.496906 0.305681 0.080519
0.528363 0.306348 0.081041
0.559844 0.307011 0.081558
0.591345 0.307671 0.082070
0.622867 0.308329 0.082580
0.654406 0.308986 0.083087
0.685962 0.309641 0.083593
0.717533 0.310297 0.084098
0.749119 0.310952 0.084604
0.780716 0.311609 0.085110
0.812325 0.312268 0.085619
0.843943 0.312929 0.086131
0.875571 0.313592 0.086647
0.898353 0.314073 0.087022
0.898353 0.314073 0.087022
0.012899 0.326791 0.073381
0.012899 0.326791 0.073381
0.034566 0.327321 0.073838
0.065113 0.328058 0.074468
0.095863 0.328788 0.075086
0.126740 0.329511 0.075694
0.157711 0.330227 0.076289
0.188759 0.330935 0.076873
0.219871 0.331636 0.077446
0.251038 0.332330 0.078009
0.282254 0.333017 0.078563
0.313513 0.333699 0.079108
0.344811 0.334375 0.079646
0.376144 0.335047 0.080176
0.407510 0.335714 0.080700
0.438904 0.336378 0.081219
0.470326 0.337038 0.081733
0.501772 0.337696 0.082243
0.533241 0.338353 0.082751
0.564730 0.339008 0.083257
0.596238 0.339662 0.083761
0.627764 0.340317 0.084266
0.659305 0.340972 0.084771
0.690860 0.341628 0.085278
0.722428 0.342286 0.085787
0.754008 0.342947 0.086299
0.785597 0.343611 0.086816
0.817195 0.344279 0.087338
0.848801 0.344951 0.087866
0.880413 0.345631 0.088402
0.903179 0.346130 0.088799
0.903179 0.346130 0.088799
0.017441 0.359140 0.075520
0.017441 0.359140 0.075520
0.039136 0.359644 0.075941
0.069722 0.360347 0.076523
0.100507 0.361045 0.077098
0.131417 0.361738 0.077663
0.162420 0.362426 0.078219
0.193497 0.363108 0.078767
0.224635 0.363784 0.079307
0.255827 0.364456 0.079839
0.287065 0.365124 0.080365
0.318344 0.365788 0.080886
0.349659 0.366448 0.081401
0.381008 0.367106 0.081913
0.412386 0.367762 0.082421
0.443791 0.368416 0.082927
0.475220 0.369070 0.083431
0.506672 0.369723 0.083934
0.538144 0.370376 0.084438
0.569634 0.371031 0.084943
0.601141 0.371686 0.085449
0.632662 0.372344 0.085959
0.664197 0.373005 0.086472
0.695744 0.373670 0.086989
0.727301 0.374338 0.087512
0.758866 0.375011 0.088042
0.790438 0.375694 0.088582
0.822009 0.376396 0.089141
0.853579 0.377118 0.089720
0.885146 0.377859 0.090318
0.907879 0.378405 0.090761
0.907879 0.378405 0.090761
0.022114 0.391409 0.077503
0.022114 0.391409 0.077503
0.043832 0.391892 0.077895
0.074447 0.392568 0.078441
0.105260 0.393242 0.078980
0.136196 0.393912 0.079513
0.167222 0.394578 0.080040
0.198320 0.395241 0.080561
0.229478 0.395900 0.081078
0.260686 0.396557 0.081589
0.291938 0.397212 0.082098
0.323229 0.397865 0.082603
0.354554 0.398517 0.083107
0.385909 0.399169 0.083610
0.417292 0.399820 0.084112
0.448700 0.400473 0.084615
0.480129 0.401126 0.085119
0.511579 0.401781 0.085625
0.543046 0.402439 0.086135
0.574529 0.403100 0.086648
0.606026 0.403764 0.087167
0.637536 0.404433 0.087691
0.669056 0.405107 0.088222
0.700581 0.405795 0.088768
0.732108 0.406503 0.089333
0.763635 0.407230 0.089917
0.795161 0.407977 0.090521
0.826685 0.408743 0.091146
0.858206 0.409531 0.091792
0.889724 0.410338 0.092460
0.912419 0.410932 0.092955
0.912419 0.410932 0.092955
0.026891 0.423618 0.079363
0.026891 0.423618 0.079363
0.048625 0.424086 0.079735
0.079263 0.424742 0.080252
0.110096 0.425398 0.080766
0.141050 0.426052 0.081277
0.172092 0.426704 0.081785
0.203203 0.427355 0.082289
0.234371 0.428005 0.082792
0.265588 0.428654 0.083293
0.296847 0.429303 0.083794
0.328141 0.429953 0.084295
0.359468 0.430603 0.084796
0.390822 0.431256 0.085300
0.422202 0.431910 0.085806
0.453604 0.432567 0.086316
0.485025 0.433228 0.086830
0.516465 0.433892 0.087349
0.547919 0.434562 0.087875
0.579386 0.435238 0.088409
0.610859 0.435932 0.088960
0.642335 0.436645 0.089531
0.673814 0.437377 0.090121
0.705293 0.438130 0.090731
0.736772 0.438902 0.091362
0.768250 0.439695 0.092015
0.799725 0.440509 0.092689
0.831197 0.441343 0.093386
0.862664 0.442198 0.094106
0.894125 0.443075 0.094850
0.916778 0.443720 0.095401
0.916778 0.443720 0.095401
0.031744 0.455790 0.081135
0.031744 0.455790 0.081135
0.053490 0.456248 0.081492
0.084142 0.456891 0.081991
0.114987 0.457535 0.082490
0.145951 0.458180 0.082989
0.177001 0.458825 0.083487
0.208117 0.459471 0.083985
0.239289 0.460118 0.084483
0.270506 0.460767 0.084984
0.301763 0.461418 0.085487
0.333053 0.462071 0.085992
0.364373 0.462728 0.086502
0.395719 0.463388 0.087017
0.427088 0.464052 0.087537
0.458476 0.464722 0.088064
0.489879 0.465402 0.088602
0.521291 0.466101 0.089159
0.552709 0.466820 0.089735
0.584132 0.467558 0.090331
0.615558 0.468316 0.090948
0.646987 0.469095 0.091585
0.678416 0.469893 0.092244
0.709844 0.470713 0.092925
0.741269 0.471553 0.093629
0.772692 0.472414 0.094356
0.804111 0.473297 0.095108
0.835523 0.474201 0.095883
0.866930 0.475128 0.096684
0.898329 0.476076 0.097511
0.920937 0.476773 0.098123
0.920937 0.476773 0.098123
0.036647 0.487946 0.082851
0.036647 0.487946 0.082851
0.058399 0.488398 0.083200
0.089057 0.489035 0.083691
0.119907 0.489676 0.084185
0.150873 0.490319 0.084681
0.181922 0.490964 0.085179
0.213036 0.491613 0.085680
0.244203 0.492264 0.086185
0.275413 0.492920 0.086695
0.306660 0.493579 0.087210
0.337938 0.494243 0.087731
0.369243 0.494913 0.088259
0.400568 0.495598 0.088803
0.431905 0.496303 0.089365
0.463254 0.497027 0.089947
0.494612 0.497771 0.090549
0.525977 0.498534 0.091171
0.557347 0.499318 0.091815
0.588720 0.500123 0.092481
0.620094 0.500948 0.093169
0.651469 0.501794 0.093879
0.682842 0.502662 0.094614
0.714213 0.503551 0.095372
0.745579 0.504461 0.096156
0.776941 0.505394 0.096964
0.808297 0.506349 0.097799
0.839645 0.507327 0.098660
0.870986 0.508327 0.099548
0.902317 0.509350 0.100464
0.924875 0.510101 0.101142
0.924875 0.510101 0.101142
0.041572 0.520108 0.084545
0.041572 0.520108 0.084545
0.063324 0.520560 0.084893
0.093982 0.521198 0.085386
0.124828 0.521842 0.085884
0.155788 0.522490 0.086387
0.186829 0.523143 0.086896
0.217932 0.523801 0.087410
0.249086 0.524465 0.087932
0.280279 0.525136 0.088462
0.311501 0.525826 0.089011
0.342746 0.526536 0.089579
0.374009 0.527265 0.090166
0.405288 0.528014 0.090774
0.436578 0.528783 0.091403
0.467878 0.529573 0.092053
0.499185 0.530383 0.092725
0.530497 0.531214 0.093420
0.561812 0.532066 0.094138
0.593129 0.532940 0.094879
0.624446 0.533835 0.095645
0.655760 0.534752 0.096436
0.687072 0.535691 0.097253
0.718380 0.536652 0.098095
0.749682 0.537636 0.098964
0.780977 0.538643 0.099861
0.812264 0.539673 0.100785
0.843542 0.540726 0.101738
0.874811 0.541803 0.102720
0.906068 0.542904 0.103732
0.928572 0.543711 0.104479
0.928572 0.543711 0.104479
0.046492 0.552300 0.086250
0.046492 0.552300 0.086250
0.068239 0.552757 0.086605
0.098888 0.553403 0.087109
0.129722 0.554057 0.087621
0.160668 0.554718 0.088142
0.191690 0.555392 0.088676
0.222765 0.556086 0.089229
0.253882 0.556800 0.089802
0.285031 0.557534 0.090395
0.316207 0.558288 0.091009
0.347404 0.559063 0.091644
0.378617 0.559858 0.092300
0.409844 0.560673 0.092978
0.441082 0.561510 0.093680
0.472327 0.562368 0.094405
0.503577 0.563248 0.095154
0.534831 0.564149 0.095927
0.566086 0.565072 0.096725
0.597340 0.566017 0.097549
0.628593 0.566985 0.098400
0.659842 0.567975 0.099277
0.691087 0.568988 0.100182
0.722325 0.570025 0.101115
0.753556 0.571085 0.102077
0.784779 0.572169 0.103068
0.815992 0.573276 0.104089
0.847194 0.574408 0.105140
0.878384 0.575564 0.106222
0.909562 0.576745 0.107336
0.932007 0.577611 0.108159
0.932007 0.577611 0.108159
0.051379 0.584544 0.088001
0.051379 0.584544 0.088001
0.073115 0.585012 0.088370
0.103741 0.585686 0.088905
0.134544 0.586381 0.089461
0.165450 0.587098 0.090038
0.196427 0.587836 0.090636
0.227455 0.588594 0.091254
0.258523 0.589373 0.091895
0.289623 0.590173 0.092557
0.320746 0.590994 0.093242
0.351889 0.591836 0.093950
0.383048 0.592699 0.094681
0.414217 0.593584 0.095437
0.445396 0.594491 0.096218
0.476580 0.595420 0.097024
0.507768 0.596372 0.097856
0.538957 0.597346 0.098714
0.570146 0.598343 0.099600
0.601333 0.599362 0.100513
0.632516 0.600406 0.101455
0.663694 0.601472 0.102425
0.694865 0.602563 0.103425
0.726029 0.603677 0.104455
0.757183 0.604816 0.105516
0.788327 0.605979 0.106608
0.819460 0.607167 0.107731
0.850580 0.608380 0.108888
0.881687 0.609619 0.110077
0.912785 0.610877 0.111292
0.935188 0.611786 0.112169
0.935188 0.611786 0.112169
0.056175 0.616928 0.089882
0.056175 0.616928 0.089882
0.077881 0.617439 0.090295
0.108461 0.618176 0.090893
0.139217 0.618935 0.091515
0.170075 0.619717 0.092159
0.201001 0.620520 0.092827
0.231977 0.621346 0.093517
0.262991 0.622192 0.094231
0.294034 0.623061 0.094969
0.325100 0.623951 0.095732
0.356183 0.624864 0.096520
0.387280 0.625798 0.097333
0.418387 0.626756 0.098173
0.449501 0.627736 0.099039
0.480618 0.628739 0.099933
0.511738 0.629765 0.100854
0.542857 0.630814 0.101804
0.573974 0.631888 0.102784
0.605087 0.632985 0.103792
0.636194 0.634106 0.104832
0.667295 0.635252 0.105902
0.698388 0.636422 0.107003
0.729470 0.637617 0.108137
0.760542 0.638838 0.109303
0.791602 0.640083 0.110502
0.822663 0.641342 0.111718
0.853735 0.642603 0.112935
0.884819 0.643867 0.114155
0.915913 0.645133 0.115376
0.938313 0.646045 0.116257
0.938313 0.646045 0.116257
0.060816 0.649548 0.091986
0.060816 0.649548 0.091986
0.082486 0.650105 0.092447
0.113016 0.650907 0.093115
0.143719 0.651733 0.093809
0.174522 0.652582 0.094528
0.205392 0.653454 0.095271
0.236309 0.654349 0.096040
0.267263 0.655266 0.096834
0.298245 0.656206 0.097654
0.329247 0.657169 0.098501
0.360266 0.658155 0.099375
0.391295 0.659163 0.100277
0.422333 0.660196 0.101207
0.453376 0.661251 0.102165
0.484421 0.662331 0.103153
0.515466 0.663435 0.104171
0.546510 0.664563 0.105219
0.577549 0.665715 0.106299
0.608582 0.666892 0.107410
0.639609 0.668094 0.108553
0.670626 0.669322 0.109729
0.701636 0.670573 0.110936
0.732655 0.671831 0.112150
0.763688 0.673091 0.113367
0.794733 0.674354 0.114586
0.825791 0.675618 0.115806
0.856861 0.676884 0.117027
0.887943 0.678151 0.118250
0.919036 0.679419 0.119472
0.941436 0.680332 0.120353
0.941436 0.680332 0.120353
0.065280 0.682413 0.094336
0.065280 0.682413 0.094336
0.086911 0.683018 0.094850
0.117385 0.683888 0.095594
0.148030 0.684783 0.096366
0.178772 0.685703 0.097165
0.209580 0.686647 0.097991
0.240433 0.687614 0.098844
0.271322 0.688604 0.099725
0.302236 0.689618 0.100635
0.333169 0.690656 0.101572
0.364116 0.691717 0.102539
0.395072 0.692803 0.103535
0.426035 0.693913 0.104562
0.457002 0.695047 0.105619
0.487969 0.696206 0.106708
0.518934 0.697390 0.107828
0.549895 0.698599 0.108981
0.580851 0.699834 0.110167
0.611807 0.701087 0.111377
0.642778 0.702343 0.112591
0.673765 0.703603 0.113806
0.704768 0.704864 0.115024
0.735784 0.706127 0.116242
0.766815 0.707392 0.117462
0.797859 0.708658 0.118683
0.828916 0.709924 0.119905
0.859986 0.711190 0.121126
0.891068 0.712455 0.122347
0.922163 0.713720 0.123568
0.944564 0.714630 0.124446
0.944564 0.714630 0.124446
0.069548 0.715532 0.096953
0.069548 0.715532 0.096953
0.091137 0.716187 0.097525
0.121548 0.717127 0.098351
0.152129 0.718095 0.099208
0.182805 0.719088 0.100094
0.213544 0.720105 0.101009
0.244329 0.721147 0.101954
0.275145 0.722214 0.102928
0.305986 0.723305 0.103932
0.336843 0.724420 0.104967
0.367713 0.725560 0.106033
0.398592 0.726726 0.107131
0.429474 0.727916 0.108260
0.460358 0.729132 0.109423
0.491241 0.730373 0.110618
0.522137 0.731625 0.111828
0.553052 0.732880 0.113039
0.583987 0.734138 0.114253
0.614939 0.735398 0.115469
0.645908 0.736659 0.116686
0.676893 0.737922 0.117905
0.707895 0.739186 0.119124
0.738911 0.740450 0.120343
0.769941 0.741714 0.121563
0.800986 0.742978 0.122782
0.832045 0.744241 0.124001
0.863117 0.745502 0.125219
0.894203 0.746762 0.126435
0.925301 0.748020 0.127650
0.947706 0.748924 0.128524
0.947706 0.748924 0.128524
0.073601 0.748913 0.099861
0.073601 0.748913 0.099861
0.095142 0.749620 0.100494
0.125485 0.750634 0.101409
0.155996 0.751677 0.102357
0.186600 0.752745 0.103337
0.217266 0.753840 0.104347
0.247975 0.754960 0.105389
0.278714 0.756105 0.106463
0.309475 0.757275 0.107569
0.340252 0.758471 0.108708
0.371039 0.759693 0.109879
0.401836 0.760937 0.111080
0.432658 0.762187 0.112287
0.463506 0.763440 0.113497
0.494377 0.764696 0.114709
0.525269 0.765954 0.115922
0.556183 0.767214 0.117138
0.587116 0.768475 0.118354
0.618067 0.769736 0.119571
0.649036 0.770998 0.120789
0.680022 0.772260 0.122007
0.711024 0.773522 0.123224
0.742042 0.774782 0.124441
0.773075 0.776042 0.125656
0.804123 0.777299 0.126871
0.835186 0.778554 0.128083
0.866263 0.779806 0.129294
0.897353 0.781055 0.130502
0.928458 0.782301 0.131707
0.950867 0.783196 0.132573
0.950867 0.783196 0.132573
0.077417 0.782567 0.103080
0.077417 0.782567 0.103080
0.098907 0.783327 0.103780
0.129176 0.784417 0.104791
0.159612 0.785537 0.105836
0.190138 0.786685 0.106915
0.220725 0.787858 0.108028
0.251352 0.789059 0.109174
0.282008 0.790285 0.110354
0.312695 0.791528 0.111555
0.343421 0.792775 0.112758
0.374181 0.794026 0.113965
0.404972 0.795279 0.115174
0.435792 0.796534 0.116386
0.466637 0.797791 0.117598
0.497507 0.799050 0.118812
0.528399 0.800309 0.120027
0.559312 0.801568 0.121242
0.590246 0.802828 0.122458
0.621199 0.804087 0.123673
0.652170 0.805345 0.124887
0.683158 0.806601 0.126100
0.714164 0.807856 0.127312
0.745186 0.809108 0.128522
0.776224 0.810358 0.129730
0.807278 0.811604 0.130935
0.838346 0.812847 0.132138
0.869430 0.814085 0.133338
0.900528 0.815319 0.134534
0.931641 0.816549 0.135726
0.954056 0.817431 0.136582
0.954056 0.817431 0.136582
0.080976 0.816500 0.106635
0.080976 0.816500 0.106635
0.102411 0.817316 0.107405
0.132602 0.818486 0.108517
0.162955 0.819686 0.109667
0.193400 0.820913 0.110850
0.223922 0.822150 0.112045
0.254508 0.823392 0.113244
0.285147 0.824638 0.114447
0.315831 0.825888 0.115652
0.346554 0.827139 0.116860
0.377313 0.828393 0.118069
0.408103 0.829648 0.119280
0.438922 0.830904 0.120492
0.469768 0.832161 0.121704
0.500639 0.833417 0.122917
0.531532 0.834673 0.124129
0.562448 0.835928 0.125341
0.593385 0.837182 0.126551
0.624341 0.838433 0.127760
0.655317 0.839682 0.128967
0.686310 0.840929 0.130173
0.717322 0.842172 0.131375
0.748350 0.843411 0.132575
0.779395 0.844647 0.133772
0.810457 0.845877 0.134965
0.841534 0.847103 0.136154
0.872627 0.848323 0.137339
0.903735 0.849538 0.138519
0.934858 0.850746 0.139694
0.957282 0.851612 0.140537
0.957282 0.851612 0.140537
0.084260 0.850723 0.110546
0.084260 0.850723 0.110546
0.105643 0.851590 0.111382
0.135780 0.852812 0.112563
0.166103 0.854045 0.113752
0.196540 0.855283 0.114947
0.227059 0.856526 0.116146
0.257642 0.857772 0.117349
0.288280 0.859021 0.118554
0.318963 0.860272 0.119760
0.349687 0.861524 0.120968
0.380446 0.862777 0.122177
0.411237 0.864029 0.123386
0.442058 0.865282 0.124594
0.472906 0.866533 0.125803
0.503780 0.867783 0.127010
0.534678 0.869031 0.128216
0.565598 0.870277 0.129420
0.596540 0.871519 0.130622
0.627503 0.872759 0.131821
0.658485 0.873995 0.133018
0.689486 0.875226 0.134211
0.720505 0.876454 0.135401
0.751542 0.877676 0.136587
0.782597 0.878892 0.137769
0.813669 0.880103 0.138945
0.844756 0.881307 0.140117
0.875861 0.882504 0.141284
0.906981 0.883694 0.142445
0.938117 0.884877 0.143599
0.960550 0.885723 0.144427
0.960550 0.885723 0.144427
0.087401 0.885106 0.114643
0.087401 0.885106 0.114643
0.108782 0.885976 0.115483
0.138916 0.887204 0.116667
0.169238 0.888440 0.117859
0.199673 0.889681 0.119056
0.230192 0.890925 0.120256
0.260776 0.892170 0.121459
0.291414 0.893418 0.122662
0.322099 0.894665 0.123866
0.352825 0.895913 0.125071
0.383586 0.897160 0.126275
0.414381 0.898406 0.127478
0.445207 0.899650 0.128680
0.476060 0.900891 0.129881
0.506939 0.902130 0.131079
0.537843 0.903366 0.132275
0.568770 0.904598 0.133468
0.599720 0.905825 0.134658
