omv/luts/10_sierra_sunset.cube
# Original OMV LUT; redistribution permitted with OMV.
TITLE "Sierra Sunset"
LUT_3D_SIZE 32
DOMAIN_MIN 0.0 0.0 0.0
DOMAIN_MAX 1.0 1.0 1.0
0.019900 0.003070 0.033760
0.019900 0.003070 0.033760
0.048157 0.002726 0.033416
0.086227 0.002262 0.032952
0.123828 0.001804 0.032494
0.161147 0.001350 0.032040
0.198264 0.000897 0.031587
0.235222 0.000447 0.031137
0.272051 0.000000 0.030689
0.308769 0.000000 0.030241
0.345393 0.000000 0.029795
0.381932 0.000000 0.029350
0.418397 0.000000 0.028906
0.454793 0.000000 0.028463
0.491127 0.000000 0.028020
0.527405 0.000000 0.027575
0.563639 0.000000 0.027111
0.599833 0.000000 0.026627
0.635990 0.000000 0.026124
0.672112 0.000000 0.025602
0.708202 0.000000 0.025061
0.744262 0.000000 0.024503
0.780292 0.000000 0.023928
0.816296 0.000000 0.023337
0.852273 0.000000 0.022730
0.888226 0.000000 0.022108
0.924155 0.000000 0.021471
0.960061 0.000000 0.020821
0.995946 0.000000 0.020157
1.000000 0.000000 0.019481
1.000000 0.000000 0.018987
1.000000 0.000000 0.018987
0.019900 0.003070 0.033760
0.019900 0.003070 0.033760
0.048157 0.002726 0.033416
0.086227 0.002262 0.032952
0.123828 0.001804 0.032494
0.161147 0.001350 0.032040
0.198264 0.000897 0.031587
0.235222 0.000447 0.031137
0.272051 0.000000 0.030689
0.308769 0.000000 0.030241
0.345393 0.000000 0.029795
0.381932 0.000000 0.029350
0.418397 0.000000 0.028906
0.454793 0.000000 0.028463
0.491127 0.000000 0.028020
0.527405 0.000000 0.027575
0.563639 0.000000 0.027111
0.599833 0.000000 0.026627
0.635990 0.000000 0.026124
0.672112 0.000000 0.025602
0.708202 0.000000 0.025061
0.744262 0.000000 0.024503
0.780292 0.000000 0.023928
0.816296 0.000000 0.023337
0.852273 0.000000 0.022730
0.888226 0.000000 0.022108
0.924155 0.000000 0.021471
0.960061 0.000000 0.020821
0.995946 0.000000 0.020157
1.000000 0.000000 0.019481
1.000000 0.000000 0.018987
1.000000 0.000000 0.018987
0.018742 0.030513 0.032602
0.018742 0.030513 0.032602
0.046999 0.030169 0.032258
0.085069 0.029705 0.031794
0.122670 0.029247 0.031336
0.159989 0.028793 0.030882
0.197106 0.028340 0.030430
0.234064 0.027890 0.029979
0.270893 0.027442 0.029531
0.307612 0.026994 0.029084
0.344235 0.026548 0.028637
0.380775 0.026103 0.028192
0.417239 0.025659 0.027748
0.453642 0.025219 0.027290
0.489991 0.024784 0.026812
0.526293 0.024355 0.026314
0.562551 0.023931 0.025797
0.598768 0.023511 0.025261
0.634947 0.023096 0.024708
0.671091 0.022686 0.024137
0.707201 0.022280 0.023550
0.743281 0.021878 0.022947
0.779331 0.021480 0.022329
0.815353 0.021085 0.021696
0.851348 0.020695 0.021049
0.887318 0.020307 0.020388
0.923263 0.019923 0.019715
0.959185 0.019543 0.019030
0.995084 0.019165 0.018333
1.000000 0.018790 0.017625
1.000000 0.018521 0.017108
1.000000 0.018521 0.017108
0.017182 0.067487 0.031042
0.017182 0.067487 0.031042
0.045439 0.067143 0.030698
0.083509 0.066679 0.030234
0.121110 0.066221 0.029776
0.158429 0.065767 0.029322
0.195546 0.065314 0.028870
0.232504 0.064864 0.028419
0.269333 0.064416 0.027971
0.306054 0.063969 0.027519
0.342689 0.063529 0.027047
0.379249 0.063094 0.026555
0.415743 0.062665 0.026044
0.452177 0.062241 0.025514
0.488558 0.061822 0.024967
0.524890 0.061407 0.024401
0.561177 0.060998 0.023819
0.597422 0.060592 0.023220
0.633628 0.060191 0.022606
0.669797 0.059793 0.021977
0.705933 0.059399 0.021334
0.742036 0.059009 0.020677
0.778109 0.058623 0.020007
0.814153 0.058239 0.019325
0.850169 0.057859 0.018631
0.886159 0.057482 0.017925
0.922123 0.057107 0.017209
0.958063 0.056736 0.016483
0.993980 0.056366 0.015748
1.000000 0.055999 0.015004
1.000000 0.055737 0.014463
1.000000 0.055737 0.014463
0.015641 0.104005 0.029501
0.015641 0.104005 0.029501
0.043898 0.103661 0.029157
0.081968 0.103197 0.028694
0.119569 0.102739 0.028236
0.156889 0.102285 0.027781
0.194011 0.101836 0.027316
0.230985 0.101393 0.026830
0.267839 0.100957 0.026325
0.304592 0.100527 0.025801
0.341258 0.100102 0.025259
0.377848 0.099683 0.024699
0.414372 0.099268 0.024122
0.450834 0.098858 0.023529
0.487243 0.098453 0.022920
0.523601 0.098051 0.022295
0.559912 0.097654 0.021656
0.596182 0.097261 0.021003
0.632411 0.096871 0.020337
0.668603 0.096484 0.019658
0.704759 0.096101 0.018967
0.740883 0.095722 0.018265
0.776975 0.095345 0.017551
0.813037 0.094970 0.016828
0.849071 0.094599 0.016095
0.885077 0.094230 0.015352
0.921057 0.093863 0.014602
0.957011 0.093498 0.013843
0.992941 0.093136 0.013077
1.000000 0.092775 0.012305
1.000000 0.092517 0.011745
1.000000 0.092517 0.011745
0.014112 0.140250 0.027972
0.014112 0.140250 0.027972
0.042370 0.139906 0.027626
0.080450 0.139447 0.027141
0.118070 0.138999 0.026639
0.155419 0.138559 0.026119
0.192573 0.138126 0.025581
0.229578 0.137699 0.025026
0.266462 0.137278 0.024454
0.303243 0.136862 0.023865
0.339937 0.136451 0.023260
0.376555 0.136045 0.022640
0.413104 0.135643 0.022005
0.449591 0.135246 0.021356
0.486023 0.134852 0.020694
0.522404 0.134462 0.020019
0.558737 0.134075 0.019331
0.595027 0.133692 0.018631
0.631276 0.133312 0.017921
0.667486 0.132935 0.017200
0.703661 0.132561 0.016469
0.739801 0.132190 0.015729
0.775909 0.131821 0.014980
0.811986 0.131454 0.014223
0.848034 0.131089 0.013458
0.884053 0.130727 0.012687
0.920044 0.130366 0.011909
0.956010 0.130007 0.011126
0.991950 0.129649 0.010337
1.000000 0.129293 0.009544
1.000000 0.129038 0.008971
1.000000 0.129038 0.008971
0.012637 0.176320 0.026349
0.012637 0.176320 0.026349
0.040918 0.175989 0.025949
0.079031 0.175546 0.025390
0.116682 0.175113 0.024819
0.154060 0.174688 0.024232
0.191243 0.174269 0.023630
0.228276 0.173856 0.023013
0.265186 0.173448 0.022381
0.301993 0.173045 0.021736
0.338711 0.172646 0.021076
0.375352 0.172252 0.020404
0.411923 0.171861 0.019719
0.448432 0.171474 0.019023
0.484884 0.171090 0.018315
0.521283 0.170710 0.017596
0.557635 0.170333 0.016867
0.593942 0.169958 0.016129
0.630208 0.169586 0.015382
0.666434 0.169217 0.014626
0.702622 0.168850 0.013863
0.738776 0.168485 0.013092
0.774897 0.168122 0.012315
0.810985 0.167761 0.011533
0.847043 0.167402 0.010744
0.883072 0.167044 0.009951
0.919072 0.166688 0.009154
0.955045 0.166333 0.008353
0.990992 0.165979 0.007549
1.000000 0.165626 0.006743
1.000000 0.165372 0.006161
1.000000 0.165372 0.006161
0.011271 0.212289 0.024500
0.011271 0.212289 0.024500
0.039575 0.211968 0.024050
0.077716 0.211540 0.023427
0.115395 0.211121 0.022793
0.152799 0.210709 0.022147
0.190008 0.210303 0.021488
0.227064 0.209902 0.020817
0.263997 0.209505 0.020134
0.300826 0.209113 0.019439
0.337565 0.208725 0.018733
0.374225 0.208340 0.018016
0.410815 0.207959 0.017289
0.447342 0.207581 0.016552
0.483811 0.207205 0.015806
0.520227 0.206833 0.015052
0.556593 0.206463 0.014290
0.592914 0.206096 0.013520
0.629193 0.205730 0.012743
0.665431 0.205367 0.011961
0.701631 0.205005 0.011173
0.737794 0.204646 0.010380
0.773924 0.204287 0.009582
0.810021 0.203931 0.008781
0.846086 0.203575 0.007976
0.882121 0.203220 0.007169
0.918127 0.202867 0.006359
0.954104 0.202514 0.005549
0.990055 0.202161 0.004737
1.000000 0.201809 0.003925
1.000000 0.201556 0.003340
1.000000 0.201556 0.003340
0.010003 0.248177 0.022449
0.010003 0.248177 0.022449
0.038326 0.247866 0.021955
0.076493 0.247451 0.021275
0.114196 0.247044 0.020587
0.151623 0.246643 0.019890
0.188853 0.246248 0.019183
0.225930 0.245857 0.018465
0.262882 0.245470 0.017738
0.299730 0.245087 0.017001
0.336486 0.244708 0.016256
0.373163 0.244331 0.015502
0.409769 0.243958 0.014740
0.446310 0.243587 0.013970
0.482792 0.243219 0.013194
0.519221 0.242853 0.012411
0.555599 0.242489 0.011623
0.591931 0.242126 0.010829
0.628219 0.241766 0.010031
0.664465 0.241407 0.009229
0.700673 0.241049 0.008423
0.736844 0.240693 0.007614
0.772979 0.240338 0.006804
0.809081 0.239983 0.005991
0.845150 0.239630 0.005177
0.881188 0.239277 0.004363
0.917196 0.238924 0.003549
0.953175 0.238572 0.002735
0.989126 0.238219 0.001923
1.000000 0.237867 0.001112
1.000000 0.237614 0.000530
1.000000 0.237614 0.000530
0.008819 0.283999 0.020223
0.008819 0.283999 0.020223
0.037159 0.283697 0.019691
0.075348 0.283292 0.018961
0.113071 0.282895 0.018227
0.150518 0.282504 0.017486
0.187766 0.282118 0.016738
0.224860 0.281736 0.015981
0.261829 0.281358 0.015218
0.298692 0.280982 0.014447
0.335463 0.280610 0.013669
0.372153 0.280240 0.012885
0.408770 0.279873 0.012096
0.445323 0.279507 0.011301
0.481815 0.279144 0.010502
0.518253 0.278783 0.009698
0.554640 0.278423 0.008891
0.590979 0.278064 0.008081
0.627273 0.277707 0.007268
0.663525 0.277351 0.006453
0.699738 0.276995 0.005637
0.735912 0.276641 0.004821
0.772050 0.276287 0.004004
0.808153 0.275933 0.003187
0.844223 0.275580 0.002372
0.880262 0.275227 0.001558
0.916269 0.274874 0.000746
0.952245 0.274521 0.000000
0.988193 0.274167 0.000000
1.000000 0.273813 0.000000
1.000000 0.273558 0.000000
1.000000 0.273558 0.000000
0.007708 0.319763 0.017846
0.007708 0.319763 0.017846
0.036062 0.319468 0.017281
0.074269 0.319072 0.016510
0.112010 0.318684 0.015738
0.149473 0.318301 0.014960
0.186736 0.317923 0.014178
0.223844 0.317547 0.013391
0.260826 0.317175 0.012598
0.297700 0.316806 0.011800
0.334482 0.316439 0.010998
0.371182 0.316074 0.010192
0.407809 0.315711 0.009382
0.444369 0.315350 0.008569
0.480869 0.314990 0.007754
0.517313 0.314632 0.006937
0.553704 0.314274 0.006118
0.590048 0.313918 0.005299
0.626345 0.313562 0.004479
0.662600 0.313207 0.003659
0.698813 0.312853 0.002840
0.734988 0.312498 0.002022
0.771126 0.312144 0.001207
0.807228 0.311790 0.000394
0.843295 0.311435 0.000000
0.879330 0.311081 0.000000
0.915333 0.310725 0.000000
0.951304 0.310369 0.000000
0.987254 0.310013 0.000000
1.000000 0.309657 0.000000
1.000000 0.309401 0.000000
1.000000 0.309401 0.000000
0.006657 0.355474 0.015343
0.006657 0.355474 0.015343
0.035024 0.355184 0.014752
0.073246 0.354796 0.013947
0.111001 0.354415 0.013143
0.148476 0.354039 0.012338
0.185751 0.353666 0.011529
0.222870 0.353296 0.010717
0.259861 0.352929 0.009903
0.296744 0.352564 0.009086
0.333534 0.352200 0.008266
0.370240 0.351839 0.007445
0.406873 0.351479 0.006623
0.443438 0.351120 0.005799
0.479941 0.350762 0.004975
0.516388 0.350405 0.004152
0.552781 0.350049 0.003329
0.589126 0.349693 0.002507
0.625423 0.349337 0.001687
0.661677 0.348982 0.000869
0.697889 0.348626 0.000054
0.734061 0.348270 0.000000
0.770195 0.347914 0.000000
0.806292 0.347558 0.000000
0.842354 0.347201 0.000000
0.878403 0.346843 0.000000
0.914457 0.346486 0.000000
0.950515 0.346129 0.000000
0.986576 0.345773 0.000000
1.000000 0.345415 0.000000
1.000000 0.345158 0.000000
1.000000 0.345158 0.000000
0.005656 0.391134 0.012740
0.005656 0.391134 0.012740
0.034032 0.390850 0.012127
0.072266 0.390468 0.011296
0.110031 0.390092 0.010469
0.147516 0.389720 0.009642
0.184799 0.389351 0.008814
0.221925 0.388985 0.007986
0.258923 0.388621 0.007157
0.295812 0.388259 0.006328
0.332605 0.387898 0.005499
0.369316 0.387538 0.004670
0.405950 0.387179 0.003841
0.442517 0.386821 0.003014
0.479021 0.386464 0.002189
0.515467 0.386106 0.001366
0.551860 0.385749 0.000546
0.588202 0.385392 0.000000
0.624496 0.385035 0.000000
0.660746 0.384678 0.000000
0.696953 0.384320 0.000000
0.733123 0.383961 0.000000
0.769287 0.383603 0.000000
0.805450 0.383245 0.000000
0.841613 0.382887 0.000000
0.877775 0.382529 0.000000
0.913938 0.382171 0.000000
0.950099 0.381812 0.000000
0.986260 0.381452 0.000000
1.000000 0.381092 0.000000
1.000000 0.380832 0.000000
1.000000 0.380832 0.000000
0.004693 0.426747 0.010059
0.004693 0.426747 0.010059
0.033076 0.426466 0.009431
0.071318 0.426088 0.008581
0.109091 0.425715 0.007738
0.146581 0.425347 0.006897
0.183870 0.424980 0.006058
0.221000 0.424616 0.005220
0.258001 0.424254 0.004384
0.294892 0.423893 0.003550
0.331687 0.423532 0.002718
0.368397 0.423173 0.001889
0.405032 0.422814 0.001062
0.441597 0.422455 0.000239
0.478098 0.422096 0.000000
0.514541 0.421737 0.000000
0.550929 0.421378 0.000000
0.587265 0.421018 0.000000
0.623568 0.420658 0.000000
0.659862 0.420299 0.000000
0.696149 0.419939 0.000000
0.732430 0.419580 0.000000
0.768705 0.419221 0.000000
0.804975 0.418862 0.000000
0.841240 0.418502 0.000000
0.877500 0.418141 0.000000
0.913754 0.417779 0.000000
0.950003 0.417417 0.000000
0.986246 0.417053 0.000000
1.000000 0.416688 0.000000
1.000000 0.416424 0.000000
1.000000 0.416424 0.000000
0.003758 0.462311 0.007326
0.003758 0.462311 0.007326
0.032145 0.462032 0.006688
0.070392 0.461657 0.005827
0.108168 0.461286 0.004975
0.145662 0.460919 0.004127
0.182952 0.460554 0.003284
0.220084 0.460190 0.002444
0.257084 0.459828 0.001609
0.293974 0.459466 0.000777
0.330767 0.459105 0.000000
0.367475 0.458743 0.000000
0.404105 0.458382 0.000000
0.440665 0.458021 0.000000
0.477162 0.457659 0.000000
0.513626 0.457298 0.000000
0.550073 0.456937 0.000000
0.586504 0.456577 0.000000
0.622921 0.456216 0.000000
0.659325 0.455856 0.000000
0.695717 0.455495 0.000000
0.732098 0.455133 0.000000
0.768469 0.454771 0.000000
0.804829 0.454408 0.000000
0.841179 0.454044 0.000000
0.877519 0.453679 0.000000
0.913849 0.453312 0.000000
0.950169 0.452943 0.000000
0.986478 0.452573 0.000000
1.000000 0.452201 0.000000
1.000000 0.451932 0.000000
1.000000 0.451932 0.000000
0.002838 0.497827 0.004563
0.002838 0.497827 0.004563
0.031227 0.497549 0.003922
0.069476 0.497174 0.003057
0.107253 0.496804 0.002203
0.144746 0.496437 0.001356
0.182035 0.496071 0.000516
0.219164 0.495706 0.000000
0.256162 0.495342 0.000000
0.293047 0.494978 0.000000
0.329835 0.494614 0.000000
0.366543 0.494250 0.000000
0.403209 0.493887 0.000000
0.439841 0.493524 0.000000
0.476445 0.493162 0.000000
0.513022 0.492800 0.000000
0.549577 0.492438 0.000000
0.586112 0.492075 0.000000
0.622627 0.491712 0.000000
0.659124 0.491348 0.000000
0.695605 0.490984 0.000000
0.732069 0.490618 0.000000
0.768519 0.490251 0.000000
0.804953 0.489882 0.000000
0.841372 0.489512 0.000000
0.877776 0.489140 0.000000
0.914165 0.488766 0.000000
0.950539 0.488390 0.000000
0.986898 0.488011 0.000000
1.000000 0.487630 0.000000
1.000000 0.487354 0.000000
1.000000 0.487354 0.000000
0.001924 0.533293 0.001796
0.001924 0.533293 0.001796
0.030313 0.533015 0.001155
0.068560 0.532639 0.000294
0.106334 0.532268 0.000000
0.143824 0.531899 0.000000
0.181108 0.531531 0.000000
0.218232 0.531163 0.000000
0.255239 0.530796 0.000000
0.292173 0.530430 0.000000
0.329046 0.530065 0.000000
0.365867 0.529701 0.000000
0.402645 0.529337 0.000000
0.439384 0.528973 0.000000
0.476090 0.528608 0.000000
0.512764 0.528243 0.000000
0.549411 0.527878 0.000000
0.586032 0.527511 0.000000
0.622629 0.527143 0.000000
0.659203 0.526775 0.000000
0.695756 0.526404 0.000000
0.732288 0.526032 0.000000
0.768799 0.525658 0.000000
0.805291 0.525282 0.000000
0.841762 0.524904 0.000000
0.878215 0.524523 0.000000
0.914647 0.524140 0.000000
0.951059 0.523753 0.000000
0.987451 0.523364 0.000000
1.000000 0.522972 0.000000
1.000000 0.522688 0.000000
1.000000 0.522688 0.000000
0.001005 0.568708 0.000000
0.001005 0.568708 0.000000
0.029391 0.568428 0.000000
0.067633 0.568050 0.000000
0.105402 0.567676 0.000000
0.142913 0.567304 0.000000
0.180257 0.566934 0.000000
0.217478 0.566566 0.000000
0.254601 0.566199 0.000000
0.291646 0.565832 0.000000
0.328625 0.565465 0.000000
0.365547 0.565098 0.000000
0.402420 0.564731 0.000000
0.439250 0.564363 0.000000
0.476040 0.563994 0.000000
0.512795 0.563624 0.000000
0.549517 0.563253 0.000000
0.586209 0.562881 0.000000
0.622871 0.562507 0.000000
0.659506 0.562131 0.000000
0.696114 0.561752 0.000000
0.732697 0.561372 0.000000
0.769255 0.560989 0.000000
0.805787 0.560604 0.000000
0.842295 0.560215 0.000000
0.878779 0.559824 0.000000
0.915238 0.559429 0.000000
0.951672 0.559031 0.000000
0.988082 0.558630 0.000000
1.000000 0.558225 0.000000
1.000000 0.557931 0.000000
1.000000 0.557931 0.000000
0.000079 0.604069 0.000000
0.000079 0.604069 0.000000
0.028491 0.603788 0.000000
0.066804 0.603409 0.000000
0.104681 0.603034 0.000000
0.142309 0.602661 0.000000
0.179764 0.602290 0.000000
0.217089 0.601920 0.000000
0.254312 0.601550 0.000000
0.291451 0.601179 0.000000
0.328519 0.600809 0.000000
0.365526 0.600437 0.000000
0.402478 0.600065 0.000000
0.439381 0.599692 0.000000
0.476241 0.599317 0.000000
0.513059 0.598940 0.000000
0.549841 0.598562 0.000000
0.586586 0.598181 0.000000
0.623298 0.597799 0.000000
0.659977 0.597413 0.000000
0.696625 0.597025 0.000000
0.733242 0.596635 0.000000
0.769829 0.596241 0.000000
0.806387 0.595844 0.000000
0.842915 0.595444 0.000000
0.879414 0.595039 0.000000
0.915884 0.594632 0.000000
0.952324 0.594220 0.000000
0.988737 0.593806 0.000000
1.000000 0.593391 0.000000
1.000000 0.593093 0.000000
1.000000 0.593093 0.000000
0.000000 0.639384 0.000000
0.000000 0.639384 0.000000
0.027913 0.639102 0.000000
0.066338 0.638721 0.000000
0.104321 0.638344 0.000000
0.142048 0.637969 0.000000
0.179597 0.637594 0.000000
0.217011 0.637220 0.000000
0.254317 0.636845 0.000000
0.291534 0.636470 0.000000
0.328674 0.636093 0.000000
0.365748 0.635715 0.000000
0.402763 0.635336 0.000000
0.439724 0.634955 0.000000
0.476636 0.634572 0.000000
0.513502 0.634187 0.000000
0.550326 0.633799 0.000000
0.587109 0.633408 0.000000
0.623854 0.633015 0.000000
0.660561 0.632619 0.000000
0.697232 0.632219 0.000000
0.733868 0.631816 0.000000
0.770468 0.631409 0.000000
0.807035 0.630999 0.000000
0.843567 0.630585 0.000000
0.880071 0.630169 0.000000
0.916550 0.629754 0.000000
0.953005 0.629339 0.000000
0.989437 0.628925 0.000000
1.000000 0.628511 0.000000
1.000000 0.628213 0.000000
1.000000 0.628213 0.000000
0.000000 0.674654 0.000000
0.000000 0.674654 0.000000
0.027674 0.674369 0.000000
0.066194 0.673985 0.000000
0.104265 0.673603 0.000000
0.142075 0.673223 0.000000
0.179701 0.672843 0.000000
0.217186 0.672463 0.000000
0.254559 0.672081 0.000000
0.291837 0.671698 0.000000
0.329034 0.671314 0.000000
0.366159 0.670928 0.000000
0.403220 0.670540 0.000000
0.440222 0.670149 0.000000
0.477170 0.669755 0.000000
0.514068 0.669359 0.000000
0.550918 0.668960 0.000000
0.587723 0.668558 0.000000
0.624484 0.668152 0.000000
0.661203 0.667743 0.000000
0.697881 0.667329 0.000000
0.734520 0.666912 0.000000
0.771127 0.666496 0.000000
0.807705 0.666079 0.000000
0.844255 0.665664 0.000000
0.880776 0.665248 0.000000
0.917269 0.664834 0.000000
0.953734 0.664419 0.000000
0.990171 0.664005 0.000000
1.000000 0.663591 0.000000
1.000000 0.663294 0.000000
1.000000 0.663294 0.000000
0.000000 0.709873 0.000000
0.000000 0.709873 0.000000
0.027719 0.709585 0.000000
0.066316 0.709195 0.000000
0.104459 0.708807 0.000000
0.142334 0.708420 0.000000
0.180021 0.708032 0.000000
0.217562 0.707644 0.000000
0.254984 0.707253 0.000000
0.292307 0.706861 0.000000
0.329544 0.706467 0.000000
0.366704 0.706070 0.000000
0.403794 0.705671 0.000000
0.440821 0.705269 0.000000
0.477789 0.704863 0.000000
0.514702 0.704454 0.000000
0.551562 0.704042 0.000000
0.588373 0.703626 0.000000
0.625137 0.703207 0.000000
0.661865 0.702789 0.000000
0.698557 0.702371 0.000000
0.735214 0.701954 0.000000
0.771837 0.701538 0.000000
0.808428 0.701122 0.000000
0.844985 0.700707 0.000000
0.881511 0.700292 0.000000
0.918005 0.699877 0.000000
0.954466 0.699462 0.000000
0.990896 0.699048 0.000000
1.000000 0.698634 0.000000
1.000000 0.698336 0.000000
1.000000 0.698336 0.000000
0.000000 0.745038 0.000000
0.000000 0.745038 0.000000
0.027992 0.744744 0.000000
0.066650 0.744346 0.000000
0.104848 0.743950 0.000000
0.142772 0.743554 0.000000
0.180502 0.743157 0.000000
0.218082 0.742758 0.000000
0.255538 0.742357 0.000000
0.292890 0.741954 0.000000
0.330150 0.741548 0.000000
0.367328 0.741139 0.000000
0.404432 0.740726 0.000000
0.441467 0.740310 0.000000
0.478439 0.739891 0.000000
0.515357 0.739470 0.000000
0.552228 0.739051 0.000000
0.589054 0.738632 0.000000
0.625837 0.738213 0.000000
0.662579 0.737796 0.000000
0.699282 0.737379 0.000000
0.735946 0.736962 0.000000
0.772572 0.736546 0.000000
0.809162 0.736130 0.000000
0.845715 0.735714 0.000000
0.882232 0.735299 0.000000
0.918713 0.734884 0.000000
0.955159 0.734469 0.000000
0.991569 0.734054 0.000000
1.000000 0.733639 0.000000
1.000000 0.733340 0.000000
1.000000 0.733340 0.000000
0.000000 0.780143 0.000000
0.000000 0.780143 0.000000
0.028439 0.779842 0.000000
0.067141 0.779434 0.000000
0.105377 0.779028 0.000000
0.143334 0.778620 0.000000
0.181091 0.778212 0.000000
0.218693 0.777801 0.000000
0.256166 0.777387 0.000000
0.293530 0.776971 0.000000
0.330797 0.776551 0.000000
0.367978 0.776128 0.000000
0.405089 0.775705 0.000000
0.442137 0.775284 0.000000
0.479126 0.774863 0.000000
0.516061 0.774443 0.000000
0.552945 0.774024 0.000000
0.589781 0.773605 0.000000
0.626570 0.773187 0.000000
0.663314 0.772770 0.000000
0.700014 0.772352 0.000000
0.736672 0.771935 0.000000
0.773289 0.771519 0.000000
0.809865 0.771103 0.000000
0.846400 0.770686 0.000000
0.882896 0.770270 0.000000
0.919352 0.769854 0.000000
0.955769 0.769438 0.000000
0.992146 0.769022 0.000000
1.000000 0.768606 0.000000
1.000000 0.768306 0.000000
1.000000 0.768306 0.000000
0.000264 0.815183 0.000000
0.000264 0.815183 0.000000
0.029006 0.814874 0.000000
0.067735 0.814454 0.000000
0.105992 0.814035 0.000000
0.143965 0.813615 0.000000
0.181733 0.813193 0.000000
0.219341 0.812768 0.000000
0.256818 0.812341 0.000000
0.294190 0.811915 0.000000
0.331471 0.811491 0.000000
0.368671 0.811068 0.000000
0.405798 0.810646 0.000000
0.442857 0.810225 0.000000
0.479855 0.809804 0.000000
0.516795 0.809385 0.000000
0.553679 0.808965 0.000000
0.590511 0.808547 0.000000
0.627292 0.808128 0.000000
0.664025 0.807710 0.000000
0.700710 0.807293 0.000000
0.737349 0.806875 0.000000
0.773943 0.806458 0.000000
0.810492 0.806041 0.000000
0.846997 0.805623 0.000000
0.883459 0.805206 0.000000
0.919877 0.804789 0.000000
0.956252 0.804372 0.000000
0.992584 0.803954 0.000000
1.000000 0.803536 0.000000
1.000000 0.803235 0.000000
1.000000 0.803235 0.000000
0.000887 0.850155 0.000000
0.000887 0.850155 0.000000
0.029639 0.849835 0.000000
0.068378 0.849401 0.000000
0.106640 0.848968 0.000000
0.144617 0.848535 0.000000
0.182396 0.848105 0.000000
0.220019 0.847677 0.000000
0.257515 0.847251 0.000000
0.294902 0.846826 0.000000
0.332194 0.846402 0.000000
0.369401 0.845979 0.000000
0.406531 0.845557 0.000000
0.443590 0.845136 0.000000
0.480582 0.844715 0.000000
0.517513 0.844295 0.000000
0.554385 0.843875 0.000000
0.591200 0.843456 0.000000
0.627961 0.843037 0.000000
0.664670 0.842618 0.000000
0.701327 0.842200 0.000000
0.737934 0.841781 0.000000
0.774492 0.841363 0.000000
0.811002 0.840944 0.000000
0.847464 0.840526 0.000000
0.883879 0.840107 0.000000
0.920246 0.839688 0.000000
0.956567 0.839269 0.000000
0.992840 0.838849 0.000000
1.000000 0.838429 0.000000
1.000000 0.838127 0.000000
1.000000 0.838127 0.000000
0.001536 0.885051 0.000000
0.001536 0.885051 0.000000
0.030293 0.884724 0.000000
0.069044 0.884283 0.000000
0.107322 0.883847 0.000000
0.145318 0.883415 0.000000
0.183111 0.882986 0.000000
0.220744 0.882558 0.000000
0.258245 0.882132 0.000000
0.295634 0.881707 0.000000
0.332924 0.881283 0.000000
0.370125 0.880860 0.000000
0.407245 0.880438 0.000000
0.444290 0.880016 0.000000
0.481265 0.879595 0.000000
0.518174 0.879174 0.000000
0.555020 0.878754 0.000000
0.591806 0.878333 0.000000
0.628534 0.877913 0.000000
0.665205 0.877493 0.000000
0.701822 0.877073 0.000000
0.738384 0.876653 0.000000
0.774894 0.876233 0.000000
0.811351 0.875813 0.000000
0.847757 0.875392 0.000000
0.884112 0.874972 0.000000
0.920416 0.874551 0.000000
0.956669 0.874129 0.000000
0.992872 0.873707 0.000000
1.000000 0.873285 0.000000
1.000000 0.872980 0.000000
1.000000 0.872980 0.000000
0.002226 0.919903 0.000000
0.002226 0.919903 0.000000
0.030996 0.919576 0.000000
0.069760 0.919136 0.000000
0.108048 0.918701 0.000000
0.146049 0.918269 0.000000
0.183842 0.917839 0.000000
0.221472 0.917411 0.000000
0.258967 0.916985 0.000000
0.296344 0.916560 0.000000
0.333619 0.916135 0.000000
0.370800 0.915712 0.000000
0.407897 0.915289 0.000000
0.444916 0.914866 0.000000
0.481860 0.914444 0.000000
0.518734 0.914022 0.000000
0.555542 0.913600 0.000000
0.592286 0.913178 0.000000
0.628967 0.912757 0.000000
