omv/luts/10_sierra_sunset.cube
# Original OMV LUT; redistribution permitted with OMV.
TITLE "Sierra Sunset"
LUT_3D_SIZE 5
DOMAIN_MIN 0.000000 0.000000 0.000000
DOMAIN_MAX 0.903226 0.903226 0.903226
0.019900 0.003070 0.033760
0.235222 0.000447 0.031137
0.491127 0.000000 0.028020
0.744262 0.000000 0.024503
0.995946 0.000000 0.020157
0.011271 0.212289 0.024500
0.227064 0.209902 0.020817
0.483811 0.207205 0.015806
0.737794 0.204646 0.010380
0.990055 0.202161 0.004737
0.003758 0.462311 0.007326
0.220084 0.460190 0.002444
0.477162 0.457659 0.000000
0.732098 0.455133 0.000000
0.986478 0.452573 0.000000
0.000000 0.709873 0.000000
0.217562 0.707644 0.000000
0.477789 0.704863 0.000000
0.735214 0.701954 0.000000
0.990896 0.699048 0.000000
0.002955 0.954729 0.000000
0.222162 0.952236 0.000000
0.482324 0.949261 0.000000
0.738709 0.946295 0.000000
0.992092 0.943312 0.000000
0.019009 0.002179 0.250814
0.234331 0.000000 0.248191
0.490248 0.000000 0.245048
0.743503 0.000000 0.241261
0.995280 0.000000 0.236706
0.010512 0.211464 0.241258
0.226386 0.209117 0.237392
0.483204 0.206457 0.232221
0.737231 0.203918 0.226698
0.989506 0.201442 0.221020
0.003206 0.461590 0.223618
0.219534 0.459470 0.218731
0.476686 0.456931 0.213053
0.732048 0.454396 0.208110
0.986710 0.451809 0.204090
0.000000 0.709125 0.205964
0.217862 0.706866 0.202872
0.478182 0.704035 0.200184
0.735654 0.701108 0.198295
0.991312 0.698201 0.196448
0.003397 0.953883 0.197412
0.222543 0.951388 0.195809
0.482525 0.948407 0.193780
0.738615 0.945431 0.191538
0.991592 0.942434 0.188977
0.017951 0.001121 0.508777
0.233273 0.000000 0.506155
0.489251 0.000000 0.502873
0.742639 0.000000 0.498786
0.994516 0.000000 0.494005
0.009649 0.210503 0.498782
0.225611 0.208200 0.494718
0.482503 0.205577 0.489381
0.736570 0.203059 0.483767
0.988854 0.200586 0.478070
0.002553 0.460734 0.480667
0.218876 0.458612 0.475794
0.476298 0.456064 0.470282
0.732114 0.453512 0.465636
0.987059 0.450887 0.461946
0.000000 0.708224 0.463652
0.218272 0.705925 0.460856
0.478654 0.703030 0.458539
0.736183 0.700102 0.456681
0.991768 0.697193 0.454815
0.003908 0.952877 0.455794
0.222944 0.950378 0.454162
0.482667 0.947388 0.452063
0.738364 0.944399 0.449717
0.990815 0.941385 0.447015
0.016904 0.000074 0.763753
0.232226 0.000000 0.761130
0.488314 0.000000 0.757602
0.741823 0.000000 0.753243
0.993789 0.000000 0.748263
0.008833 0.209572 0.753239
0.224873 0.207308 0.749001
0.481827 0.204716 0.743523
0.735923 0.202212 0.737843
0.988205 0.199738 0.732153
0.001909 0.459889 0.734738
0.218216 0.457759 0.729899
0.476086 0.455204 0.724628
0.732293 0.452627 0.720287
0.987461 0.449958 0.716935
0.000000 0.707319 0.718469
0.218714 0.704975 0.715978
0.479150 0.702035 0.713926
0.736696 0.699108 0.712073
0.992163 0.696195 0.710176
0.004381 0.951881 0.711175
0.223270 0.949377 0.709504
0.482690 0.946377 0.707324
0.737952 0.943374 0.704862
0.989841 0.940341 0.702011
0.015866 0.000000 1.000000
0.231200 0.000000 1.000000
0.487428 0.000000 1.000000
0.741047 0.000000 1.000000
0.993089 0.000000 1.000000
0.008056 0.208664 1.000000
0.224164 0.206435 1.000000
0.481169 0.203867 0.995798
0.735284 0.201373 0.990077
0.987552 0.198893 0.984416
0.001266 0.459048 0.986979
0.217652 0.456909 0.982221
0.476026 0.454344 0.977233
0.732565 0.451736 0.973207
0.987899 0.449016 0.970204
0.000113 0.706405 0.971561
0.219171 0.704010 0.969381
0.479664 0.701048 0.967471
0.737180 0.698120 0.965611
0.992486 0.695201 0.963670
0.004804 0.950891 0.964697
0.223508 0.948381 0.962976
0.482582 0.945370 0.960704
0.737366 0.942350 0.958115
0.988802 0.939302 0.955142
