omv/luts/10_sierra_sunset.cube
# Original OMV LUT; redistribution permitted with OMV.
TITLE "Sierra Sunset"
LUT_3D_SIZE 8
DOMAIN_MIN 0.000000 0.000000 0.000000
DOMAIN_MAX 0.903226 0.903226 0.903226
0.019900 0.003070 0.033760
0.123828 0.001804 0.032494
0.272051 0.000000 0.030689
0.418397 0.000000 0.028906
0.563639 0.000000 0.027111
0.708202 0.000000 0.025061
0.852273 0.000000 0.022730
0.995946 0.000000 0.020157
0.015641 0.104005 0.029501
0.119569 0.102739 0.028236
0.267839 0.100957 0.026325
0.414372 0.099268 0.024122
0.559912 0.097654 0.021656
0.704759 0.096101 0.018967
0.849071 0.094599 0.016095
0.992941 0.093136 0.013077
0.010003 0.248177 0.022449
0.114196 0.247044 0.020587
0.262882 0.245470 0.017738
0.409769 0.243958 0.014740
0.555599 0.242489 0.011623
0.700673 0.241049 0.008423
0.845150 0.239630 0.005177
0.989126 0.238219 0.001923
0.005656 0.391134 0.012740
0.110031 0.390092 0.010469
0.258923 0.388621 0.007157
0.405950 0.387179 0.003841
0.551860 0.385749 0.000546
0.696953 0.384320 0.000000
0.841613 0.382887 0.000000
0.986260 0.381452 0.000000
0.001924 0.533293 0.001796
0.106334 0.532268 0.000000
0.255239 0.530796 0.000000
0.402645 0.529337 0.000000
0.549411 0.527878 0.000000
0.695756 0.526404 0.000000
0.841762 0.524904 0.000000
0.987451 0.523364 0.000000
0.000000 0.674654 0.000000
0.104265 0.673603 0.000000
0.254559 0.672081 0.000000
0.403220 0.670540 0.000000
0.550918 0.668960 0.000000
0.697881 0.667329 0.000000
0.844255 0.665664 0.000000
0.990171 0.664005 0.000000
0.000264 0.815183 0.000000
0.105992 0.814035 0.000000
0.256818 0.812341 0.000000
0.405798 0.810646 0.000000
0.553679 0.808965 0.000000
0.700710 0.807293 0.000000
0.846997 0.805623 0.000000
0.992584 0.803954 0.000000
0.002955 0.954729 0.000000
0.108775 0.953526 0.000000
0.259635 0.951809 0.000000
0.408446 0.950109 0.000000
0.555908 0.948414 0.000000
0.702274 0.946719 0.000000
0.847653 0.945020 0.000000
0.992092 0.943312 0.000000
0.019470 0.002640 0.138524
0.123398 0.001374 0.137258
0.271621 0.000000 0.135453
0.417967 0.000000 0.133670
0.563228 0.000000 0.131833
0.707824 0.000000 0.129708
0.851924 0.000000 0.127312
0.995621 0.000000 0.124684
0.015212 0.103575 0.134265
0.119140 0.102310 0.133000
0.267441 0.100544 0.131016
0.414006 0.098871 0.128741
0.559574 0.097270 0.126213
0.704445 0.095729 0.123473
0.848774 0.094236 0.120558
0.992659 0.092780 0.117509
0.009657 0.247789 0.127025
0.113868 0.246665 0.125122
0.262576 0.245102 0.122224
0.409479 0.243598 0.119187
0.555322 0.242135 0.116042
0.700404 0.240700 0.112824
0.844885 0.239282 0.109570
0.988860 0.237872 0.106317
0.005376 0.390779 0.117168
0.109758 0.389740 0.114881
0.258656 0.388273 0.111554
0.405686 0.386832 0.108233
0.551593 0.385401 0.104943
0.696683 0.383968 0.101717
0.841470 0.382535 0.098684
0.986228 0.381097 0.095926
0.001659 0.532945 0.106190
0.106066 0.531919 0.103847
0.255015 0.530445 0.100579
0.402547 0.528984 0.097591
0.549416 0.527520 0.094907
0.695841 0.526039 0.092534
0.841905 0.524529 0.090485
0.987628 0.522977 0.088774
0.000000 0.674299 0.095941
0.104298 0.673244 0.094117
0.254666 0.671713 0.091787
0.403377 0.670161 0.089820
0.551103 0.668568 0.088216
0.698071 0.666921 0.086982
0.844465 0.665255 0.085918
0.990385 0.663597 0.084870
0.000441 0.814797 0.088834
0.106180 0.813638 0.087801
0.257015 0.811932 0.086626
0.406011 0.810238 0.085550
0.553890 0.808557 0.084487
0.700900 0.806884 0.083415
0.847149 0.805213 0.082313
0.992680 0.803542 0.081161
0.003169 0.954321 0.084939
0.108982 0.953118 0.084176
0.259815 0.951399 0.083066
0.408580 0.949697 0.081929
0.555979 0.948001 0.080738
0.702264 0.946303 0.079472
0.847545 0.944600 0.078112
0.991867 0.942889 0.076638
0.018857 0.002027 0.287939
0.122785 0.000761 0.286673
0.271008 0.000000 0.284868
0.417354 0.000000 0.283085
0.562656 0.000000 0.281155
0.707298 0.000000 0.278927
0.851437 0.000000 0.276442
0.995168 0.000000 0.273739
0.014598 0.102962 0.283680
0.118536 0.101701 0.282393
0.266889 0.099961 0.280295
0.413497 0.098310 0.277921
0.559103 0.096728 0.275310
0.704004 0.095202 0.272500
0.848358 0.093721 0.269530
0.992262 0.092275 0.266438
0.009174 0.247241 0.276146
0.113409 0.246129 0.274189
0.262147 0.244581 0.271225
0.409072 0.243088 0.268138
0.554931 0.241633 0.264957
0.700023 0.240203 0.261717
0.844508 0.238787 0.258455
0.988481 0.237375 0.255206
0.004980 0.390274 0.266094
0.109371 0.389240 0.263786
0.258277 0.387777 0.260442
0.405308 0.386337 0.257118
0.551210 0.384903 0.253839
0.696350 0.383467 0.250654
0.841317 0.382031 0.247712
0.986222 0.380588 0.245052
0.001279 0.532449 0.255080
0.105680 0.531419 0.252750
0.254752 0.529943 0.249549
0.402455 0.528479 0.246656
0.549461 0.527007 0.244073
0.695990 0.525515 0.241808
0.842126 0.523990 0.239873
0.987890 0.522419 0.238283
0.000000 0.673789 0.245066
0.104380 0.672728 0.243317
0.254844 0.671184 0.241100
0.403617 0.669615 0.239252
0.551371 0.668001 0.237772
0.698352 0.666337 0.236635
0.844769 0.664673 0.235578
0.990687 0.663014 0.234529
0.000701 0.814240 0.238339
0.106451 0.813064 0.237397
0.257307 0.811349 0.236282
0.406318 0.809655 0.235210
0.554185 0.807974 0.234144
0.701158 0.806299 0.233062
0.847345 0.804627 0.231943
0.992787 0.802952 0.230768
0.003472 0.953738 0.234598
0.109269 0.952535 0.233830
0.260056 0.950815 0.232709
0.408749 0.949110 0.231552
0.556049 0.947410 0.230335
0.702211 0.945709 0.229036
0.847343 0.944001 0.227637
0.991492 0.942284 0.226116
0.018252 0.001422 0.435462
0.122180 0.000156 0.434196
0.270402 0.000000 0.432391
0.416756 0.000000 0.430591
0.562108 0.000000 0.428550
0.706793 0.000000 0.426225
0.850969 0.000000 0.423657
0.994730 0.000000 0.420885
0.013993 0.102357 0.431204
0.117958 0.101109 0.429855
0.266358 0.099393 0.427649
0.413008 0.097762 0.425183
0.558648 0.096198 0.422493
0.703578 0.094686 0.419619
0.847955 0.093217 0.416599
0.991874 0.091778 0.413471
0.008710 0.246707 0.423352
0.112967 0.245605 0.421345
0.261731 0.244071 0.418321
0.408677 0.242588 0.415189
0.554549 0.241140 0.411977
0.699649 0.239713 0.408720
0.844135 0.238298 0.405454
0.988103 0.236884 0.402216
0.004594 0.389779 0.413124
0.108993 0.388748 0.410798
0.257904 0.387288 0.407442
0.404934 0.385847 0.404121
0.550830 0.384410 0.400857
0.696087 0.382971 0.397736
0.841220 0.381533 0.394886
0.986260 0.380082 0.392325
0.000901 0.531957 0.402090
0.105302 0.530925 0.399778
0.254553 0.529447 0.396664
0.402413 0.527978 0.393868
0.549544 0.526498 0.391387
0.696165 0.524993 0.389231
0.842361 0.523451 0.387411
0.988155 0.521861 0.385942
0.000000 0.673284 0.392339
0.104496 0.672215 0.390665
0.255044 0.670657 0.388562
0.403867 0.669070 0.386833
0.551639 0.667434 0.385479
0.698640 0.665762 0.384396
0.845072 0.664097 0.383343
0.990979 0.662439 0.382291
0.000966 0.813682 0.385993
0.106719 0.812490 0.385141
0.257603 0.810774 0.384046
0.406619 0.809080 0.382975
0.554467 0.807398 0.381904
0.701394 0.805722 0.380810
0.847510 0.804047 0.379672
0.992857 0.802370 0.378471
0.003765 0.953163 0.382361
0.109540 0.951958 0.381587
0.260272 0.950237 0.380451
0.408884 0.948530 0.379273
0.556080 0.946826 0.378028
0.702111 0.945120 0.376694
0.847088 0.943407 0.375253
0.991057 0.941684 0.373684
0.017651 0.000821 0.581861
0.121579 0.000000 0.580596
0.269801 0.000000 0.578790
0.416180 0.000000 0.576934
0.561579 0.000000 0.574787
0.706305 0.000000 0.572371
0.850516 0.000000 0.569725
0.994305 0.000000 0.566889
0.013400 0.101760 0.577585
0.117401 0.100531 0.576156
0.265847 0.098837 0.573848
0.412535 0.097225 0.571295
0.558208 0.095677 0.568532
0.703163 0.094179 0.565599
0.847560 0.092719 0.562534
0.991494 0.091288 0.559374
0.008260 0.246181 0.569412
0.112538 0.245090 0.567358
0.261326 0.243568 0.564280
0.408290 0.242094 0.561108
0.554174 0.240651 0.557870
0.699279 0.239228 0.554601
0.843764 0.237812 0.551336
0.987726 0.236395 0.548113
0.004215 0.389289 0.559024
0.108620 0.388262 0.556685
0.257535 0.386802 0.553322
0.404562 0.385360 0.550007
0.550454 0.383919 0.546766
0.695886 0.382479 0.543729
0.841174 0.381036 0.540973
0.986337 0.379577 0.538511
0.000524 0.531468 0.547988
0.104981 0.530433 0.545711
0.254412 0.528953 0.542690
0.402418 0.527478 0.539992
0.549661 0.525988 0.537615
0.696363 0.524470 0.535569
0.842609 0.522911 0.533866
0.988420 0.521299 0.532520
0.000000 0.672779 0.538525
0.104642 0.671701 0.536927
0.255262 0.670128 0.534940
0.404124 0.668522 0.533332
0.551905 0.666864 0.532102
0.698934 0.665191 0.531034
0.845371 0.663527 0.529982
0.991259 0.661867 0.528926
0.001231 0.813121 0.532566
0.106994 0.811919 0.531774
0.257901 0.810203 0.530685
0.406915 0.808509 0.529613
0.554733 0.806826 0.528534
0.701607 0.805148 0.527426
0.847644 0.803471 0.526267
0.992888 0.801790 0.525039
0.004047 0.952592 0.528996
0.109793 0.951386 0.528214
0.260463 0.949662 0.527061
0.408986 0.947952 0.525860
0.556068 0.946245 0.524584
0.701961 0.944534 0.523214
0.846775 0.942816 0.521729
0.990557 0.941086 0.520111
0.017053 0.000223 0.727457
0.120981 0.000000 0.726191
0.269204 0.000000 0.724386
0.415624 0.000000 0.722436
0.561068 0.000000 0.720189
0.705832 0.000000 0.717687
0.850075 0.000000 0.714968
0.993891 0.000000 0.712072
0.012828 0.101175 0.723124
0.116862 0.099963 0.721619
0.265352 0.098290 0.719213
0.412077 0.096697 0.716578
0.557779 0.095164 0.713748
0.702759 0.093678 0.710761
0.847174 0.092227 0.707655
0.991119 0.090802 0.704469
0.007822 0.245664 0.714648
0.112120 0.244583 0.712550
0.260930 0.243071 0.709423
0.407909 0.241605 0.706216
0.553803 0.240167 0.702957
0.698911 0.238745 0.699680
0.843394 0.237328 0.696421
0.987349 0.235907 0.693216
0.003841 0.388803 0.704116
0.108250 0.387778 0.701767
0.257167 0.386320 0.698401
0.404189 0.384875 0.695098
0.550136 0.383430 0.691898
0.695742 0.381989 0.688951
0.841173 0.380539 0.686290
0.986448 0.379071 0.683931
0.000148 0.530980 0.693093
0.104724 0.529944 0.690874
0.254324 0.528461 0.687946
0.402464 0.526978 0.685348
0.549809 0.525477 0.683077
0.696580 0.523944 0.681143
0.842865 0.522366 0.679558
0.988685 0.520732 0.678334
0.000000 0.672273 0.683943
0.104815 0.671186 0.682424
0.255497 0.669596 0.680554
0.404386 0.667969 0.679069
0.552180 0.666295 0.677930
0.699230 0.664623 0.676868
0.845665 0.662959 0.675816
0.991525 0.661299 0.674752
0.001495 0.812555 0.678376
0.107278 0.811351 0.677605
0.258199 0.809635 0.676519
0.407201 0.807941 0.675445
0.554983 0.806257 0.674356
0.701795 0.804577 0.673231
0.847745 0.802897 0.672049
0.992877 0.801212 0.670791
0.004316 0.952023 0.674822
0.110027 0.950816 0.674032
0.260625 0.949090 0.672860
0.409052 0.947377 0.671632
0.556012 0.945666 0.670324
0.701759 0.943950 0.668915
0.846403 0.942226 0.667385
0.989990 0.940490 0.665715
0.016458 0.000000 0.872427
0.120387 0.000000 0.871161
0.268617 0.000000 0.869338
0.415086 0.000000 0.867278
0.560572 0.000000 0.864936
0.705373 0.000000 0.862351
0.849646 0.000000 0.859565
0.993486 0.000000 0.856615
0.012274 0.100601 0.868002
0.116341 0.099405 0.866423
0.264871 0.097753 0.863926
0.411630 0.096177 0.861213
0.557361 0.094658 0.858320
0.702363 0.093182 0.855284
0.846793 0.091739 0.852143
0.990749 0.090319 0.848934
0.007396 0.245153 0.859238
0.111711 0.244081 0.857101
0.260541 0.242579 0.853929
0.407534 0.241120 0.850691
0.553435 0.239686 0.847415
0.698545 0.238264 0.844135
0.843023 0.236845 0.840887
0.987016 0.235421 0.837718
0.003471 0.388321 0.848580
0.107884 0.387297 0.846223
0.256799 0.385838 0.842859
0.403814 0.384390 0.839571
0.549881 0.382944 0.836437
0.695651 0.381498 0.833580
0.841214 0.380042 0.831017
0.986591 0.378563 0.828761
0.000000 0.530493 0.837598
0.104528 0.529457 0.835442
0.254284 0.527969 0.832610
0.402548 0.526477 0.830114
0.549983 0.524964 0.827951
0.696813 0.523414 0.826130
0.843125 0.521816 0.824665
0.988957 0.520166 0.823535
0.000000 0.671764 0.828773
0.105011 0.670668 0.827333
0.255742 0.669060 0.825582
0.404649 0.667411 0.824221
0.552463 0.665730 0.823134
0.699528 0.664058 0.822076
0.845951 0.662393 0.821021
0.991775 0.660732 0.819947
0.001766 0.811989 0.823577
0.107569 0.810785 0.822811
0.258496 0.809070 0.821727
0.407478 0.807375 0.820647
0.555214 0.805690 0.819546
0.701955 0.804007 0.818402
0.847810 0.802324 0.817195
0.992823 0.800635 0.815905
0.004569 0.951456 0.820018
0.110240 0.950249 0.819217
0.260758 0.948520 0.818024
0.409080 0.946803 0.816768
0.555910 0.945087 0.815426
0.701503 0.943367 0.813975
0.845969 0.941637 0.812398
0.989395 0.939895 0.810685
0.015866 0.000000 1.000000
0.119794 0.000000 1.000000
0.268049 0.000000 1.000000
0.414565 0.000000 1.000000
0.560091 0.000000 1.000000
0.704926 0.000000 1.000000
0.849227 0.000000 1.000000
0.993089 0.000000 1.000000
0.011738 0.100037 1.000000
0.115836 0.098856 1.000000
0.264405 0.097223 1.000000
0.411196 0.095663 1.000000
0.556953 0.094157 1.000000
0.701974 0.092691 0.999283
0.846418 0.091255 0.996110
0.990382 0.089839 0.992883
0.006980 0.244649 1.000000
0.111312 0.243585 1.000000
0.260159 0.242092 0.997912
0.407164 0.240638 0.994649
0.553070 0.239207 0.991361
0.698179 0.237785 0.988083
0.842651 0.236363 0.984849
0.986747 0.234936 0.981739
0.003105 0.387841 0.992528
0.107519 0.386819 0.990168
0.256431 0.385358 0.986811
0.403445 0.383906 0.983545
0.549685 0.382458 0.980495
0.695608 0.381008 0.977731
0.841293 0.379543 0.975267
0.986760 0.378052 0.973117
0.000000 0.530009 0.981622
0.104388 0.528970 0.979530
0.254290 0.527476 0.976797
0.402665 0.525975 0.974404
0.550179 0.524447 0.972350
0.697058 0.522880 0.970645
0.843387 0.521261 0.969302
0.989238 0.519602 0.968226
0.000000 0.671254 0.973128
0.105227 0.670146 0.971769
0.255997 0.668519 0.970139
0.404912 0.666848 0.968900
0.552753 0.665166 0.967827
0.699823 0.663495 0.966771
0.846226 0.661830 0.965710
0.992006 0.660166 0.964624
0.002046 0.811425 0.968268
0.107863 0.810222 0.967505
0.258787 0.808507 0.966420
0.407740 0.806811 0.965333
0.555423 0.805124 0.964218
0.702086 0.803439 0.963053
0.847838 0.801752 0.961818
0.992724 0.800059 0.960494
0.004804 0.950891 0.964697
0.110429 0.949682 0.963883
0.260858 0.947950 0.962666
0.409067 0.946229 0.961381
0.555760 0.944509 0.960001
0.701191 0.942783 0.958508
0.845471 0.941047 0.956881
0.988802 0.939302 0.955142
