omv/luts/11_zion_canyon.cube
# Original OMV LUT; redistribution permitted with OMV.
TITLE "Zion Canyon"
LUT_3D_SIZE 8
DOMAIN_MIN 0.000000 0.000000 0.000000
DOMAIN_MAX 0.903226 0.903226 0.903226
0.018922 0.021904 0.004012
0.131581 0.019278 0.001386
0.283688 0.015732 0.000000
0.434861 0.012209 0.000000
0.585471 0.008686 0.000000
0.735716 0.005029 0.000000
0.885689 0.001220 0.000000
1.000000 0.000000 0.000000
0.010088 0.128355 0.000000
0.122747 0.125729 0.000000
0.274875 0.122113 0.000000
0.426121 0.118346 0.000000
0.576845 0.114443 0.000000
0.727199 0.110422 0.000000
0.877266 0.106303 0.000000
1.000000 0.102107 0.000000
0.000000 0.271532 0.000000
0.111088 0.268561 0.000000
0.263365 0.264445 0.000000
0.414738 0.260253 0.000000
0.565568 0.256001 0.000000
0.716005 0.251705 0.000000
0.866131 0.247384 0.000000
1.000000 0.243059 0.000000
0.000000 0.412342 0.000000
0.099913 0.409139 0.000000
0.252265 0.404773 0.000000
0.403690 0.400408 0.000000
0.554550 0.396056 0.000000
0.704995 0.391733 0.000000
0.855258 0.387518 0.000000
1.000000 0.383551 0.000000
0.000000 0.551903 0.000000
0.088942 0.548651 0.000000
0.241299 0.544287 0.000000
0.393021 0.540123 0.000000
0.544602 0.536222 0.000000
0.696130 0.532576 0.000000
0.847624 0.529178 0.000000
0.999076 0.526022 0.000000
0.000000 0.691479 0.000000
0.079357 0.688647 0.000000
0.232919 0.685040 0.000000
0.385810 0.681699 0.000000
0.538329 0.678609 0.000000
0.690568 0.675763 0.000000
0.842562 0.673106 0.000000
0.994348 0.670487 0.000000
0.000000 0.833232 0.000000
0.073363 0.831002 0.000000
0.227566 0.828200 0.000000
0.380898 0.825540 0.000000
0.533695 0.822906 0.000000
0.686058 0.820270 0.000000
0.838014 0.817608 0.000000
0.989563 0.814894 0.000000
0.000000 0.977115 0.000000
0.068795 0.975144 0.000000
0.223071 0.972467 0.000000
0.376297 0.969764 0.000000
0.528784 0.967006 0.000000
0.680635 0.964166 0.000000
0.831879 0.961218 0.000000
0.982517 0.958139 0.000000
0.018030 0.021012 0.118406
0.130690 0.018386 0.115780
0.282796 0.014841 0.112234
0.433969 0.011317 0.108710
0.584586 0.007771 0.105178
0.734844 0.004071 0.101558
0.884829 0.000225 0.097853
1.000000 0.000000 0.094074
0.009196 0.127463 0.109571
0.121856 0.124836 0.106945
0.273997 0.121175 0.103330
0.425255 0.117368 0.099636
0.575990 0.113430 0.095869
0.726353 0.109380 0.092039
0.876426 0.105238 0.088156
1.000000 0.101023 0.084232
0.000000 0.270532 0.097250
0.110236 0.267537 0.094403
0.262522 0.263392 0.090498
0.413901 0.259180 0.086561
0.564735 0.254911 0.082595
0.715175 0.250604 0.078611
0.865304 0.246279 0.074618
1.000000 0.241954 0.070628
0.000000 0.411258 0.084126
0.099082 0.408044 0.081148
0.251437 0.403670 0.077105
0.402863 0.399302 0.073075
0.553721 0.394952 0.069060
0.704164 0.390637 0.065071
0.854535 0.386480 0.060959
1.000000 0.382576 0.056625
0.000000 0.550798 0.070656
0.088113 0.547550 0.067657
0.240502 0.543209 0.063601
0.392339 0.539109 0.059362
0.544018 0.535270 0.054925
0.695626 0.531686 0.050336
0.847183 0.528349 0.045642
0.998681 0.525253 0.040890
0.000000 0.690502 0.056753
0.078802 0.687716 0.053371
0.232439 0.684171 0.048677
0.385388 0.680892 0.043913
0.537947 0.677862 0.039118
0.690209 0.675075 0.034338
0.842222 0.672435 0.029563
0.994013 0.669818 0.024771
0.000000 0.832460 0.041106
0.072990 0.830275 0.037514
0.227213 0.827524 0.032679
0.380561 0.824871 0.027850
0.533359 0.822237 0.023025
0.685706 0.819595 0.018235
0.837632 0.816920 0.013513
0.989136 0.814188 0.008893
0.000000 0.976446 0.025050
0.068455 0.974473 0.021444
0.222711 0.971788 0.016609
0.375901 0.969071 0.011875
0.528337 0.966292 0.007267
0.680121 0.963425 0.002815
0.831283 0.960445 0.000000
0.981824 0.957327 0.000000
0.016826 0.019808 0.272854
0.129485 0.017182 0.270228
0.281592 0.013637 0.266682
0.432765 0.010113 0.263158
0.583397 0.006517 0.259597
0.733672 0.002762 0.255943
0.883671 0.000000 0.252209
1.000000 0.000000 0.248406
0.007992 0.126259 0.264019
0.120657 0.123613 0.261381
0.272817 0.119892 0.257730
0.424090 0.116032 0.254005
0.574838 0.112050 0.250211
0.725213 0.107963 0.246359
0.875295 0.103791 0.242458
1.000000 0.099554 0.238521
0.000000 0.269167 0.251602
0.109089 0.266141 0.248736
0.261385 0.261962 0.244810
0.412773 0.257722 0.240857
0.563613 0.253434 0.236880
0.714057 0.249115 0.232888
0.864187 0.244785 0.228893
1.000000 0.240463 0.224904
0.000000 0.409788 0.238415
0.097961 0.406563 0.235429
0.250319 0.402179 0.231381
0.401746 0.397809 0.227349
0.552602 0.393464 0.223338
0.703077 0.389177 0.219335
0.853604 0.385105 0.215139
1.000000 0.381284 0.210736
0.000000 0.549307 0.224932
0.086993 0.546066 0.221937
0.239475 0.541780 0.217832
0.391460 0.537764 0.213514
0.543264 0.534010 0.209015
0.694973 0.530509 0.204380
0.846609 0.527253 0.199658
0.998162 0.524239 0.194895
0.000000 0.689208 0.210866
0.078085 0.686485 0.207443
0.231817 0.683024 0.202710
0.384836 0.679826 0.197923
0.537443 0.676877 0.193124
0.689732 0.674162 0.188349
0.841767 0.671531 0.183562
0.993560 0.668914 0.178768
0.000000 0.831442 0.195111
0.072497 0.829317 0.191522
0.226746 0.826615 0.186685
0.380109 0.823967 0.181847
0.532901 0.821331 0.177025
0.685222 0.818679 0.172251
0.837100 0.815985 0.167558
0.988536 0.813225 0.162978
0.000000 0.975543 0.179047
0.067991 0.973565 0.175448
0.222213 0.970866 0.170634
0.375348 0.968127 0.165933
0.527708 0.965318 0.161370
0.679396 0.962413 0.156975
0.830442 0.959386 0.152781
0.980846 0.956213 0.148821
0.015629 0.018611 0.426353
0.128289 0.015985 0.423727
0.280395 0.012440 0.420182
0.431571 0.008907 0.416653
0.582221 0.005252 0.413055
0.732511 0.001443 0.409370
0.882524 0.000000 0.405608
1.000000 0.000000 0.401782
0.006795 0.125062 0.417519
0.119473 0.122377 0.414857
0.271649 0.118598 0.411172
0.422937 0.114689 0.407417
0.573698 0.110665 0.403598
0.724083 0.106543 0.399725
0.874173 0.102344 0.395808
1.000000 0.098087 0.391859
0.000000 0.267796 0.404997
0.107953 0.264742 0.402114
0.260259 0.260531 0.398169
0.411654 0.256267 0.394201
0.562499 0.251962 0.390214
0.712946 0.247633 0.386217
0.863076 0.243301 0.382220
1.000000 0.238984 0.378235
0.000000 0.408321 0.391753
0.096848 0.405086 0.388761
0.249208 0.400695 0.384708
0.400635 0.396326 0.380677
0.551489 0.391989 0.376671
0.702053 0.387754 0.372621
0.852726 0.383766 0.368346
1.000000 0.380029 0.363882
0.000000 0.547828 0.378262
0.085879 0.544596 0.375271
0.238506 0.540388 0.371088
0.390631 0.536457 0.366697
0.542551 0.532787 0.362141
0.694353 0.529367 0.357468
0.846060 0.526193 0.352723
0.997660 0.523258 0.347955
0.000000 0.687950 0.364013
0.077406 0.685289 0.360554
0.231225 0.681911 0.355787
0.384307 0.678794 0.350985
0.536953 0.675926 0.346185
0.689267 0.673258 0.341410
0.841317 0.670633 0.336613
0.993105 0.668014 0.331823
0.000000 0.830457 0.348171
0.072015 0.828392 0.344587
0.226289 0.825714 0.339741
0.379660 0.823070 0.334898
0.532439 0.820428 0.330084
0.684726 0.817762 0.325330
0.836551 0.815047 0.320669
0.987912 0.812258 0.316134
0.000000 0.974643 0.332102
0.067520 0.972659 0.328513
0.221701 0.969943 0.323722
0.374774 0.967180 0.319058
0.527053 0.964338 0.314545
0.678638 0.961391 0.310212
0.829561 0.958315 0.306092
0.979821 0.955086 0.302217
0.014437 0.017419 0.579278
0.127097 0.014793 0.576652
0.279203 0.011248 0.573107
0.430387 0.007686 0.569560
0.581055 0.003972 0.565928
0.731361 0.000113 0.562212
0.881386 0.000000 0.558425
1.000000 0.000000 0.554577
0.005607 0.123856 0.570435
0.118298 0.121125 0.567746
0.270491 0.117292 0.564028
0.421793 0.113336 0.560245
0.572566 0.109272 0.556403
0.722960 0.105119 0.552510
0.873058 0.100895 0.548579
1.000000 0.096621 0.544620
0.000000 0.266417 0.557810
0.106825 0.263336 0.554911
0.259140 0.259096 0.550949
0.410541 0.254810 0.546968
0.561390 0.250491 0.542972
0.711839 0.246155 0.538970
0.861970 0.241823 0.534974
1.000000 0.237514 0.530993
0.000000 0.406855 0.544513
0.095741 0.403611 0.541517
0.248102 0.399216 0.537461
0.399528 0.394850 0.533432
0.550380 0.390525 0.529432
0.701084 0.386366 0.525305
0.851897 0.382462 0.520957
1.000000 0.378806 0.516437
0.000000 0.546358 0.531021
0.084809 0.543153 0.528011
0.237591 0.539031 0.523743
0.389848 0.535183 0.519285
0.541875 0.531595 0.514679
0.693763 0.528257 0.509973
0.845531 0.525163 0.505212
0.997171 0.522308 0.500444
0.000000 0.686725 0.516569
0.076762 0.684126 0.513079
0.230659 0.680830 0.508284
0.383795 0.677794 0.503471
0.536473 0.675005 0.498678
0.688812 0.672360 0.493893
0.840870 0.669739 0.489092
0.992645 0.667115 0.484309
0.000000 0.829504 0.500659
0.071543 0.827488 0.497080
0.225839 0.824819 0.492221
0.379211 0.822175 0.487378
0.531970 0.819525 0.482576
0.684216 0.816843 0.477846
0.835981 0.814104 0.473221
0.987261 0.811282 0.468735
0.000000 0.973744 0.484586
0.067040 0.971752 0.481011
0.221173 0.969017 0.476249
0.374178 0.966226 0.471626
0.526367 0.963348 0.467166
0.677843 0.960358 0.462898
0.828637 0.957230 0.458856
0.978747 0.953941 0.455072
0.013248 0.016230 0.731789
0.125908 0.013604 0.729163
0.278014 0.010059 0.725617
0.429213 0.006447 0.722040
0.579897 0.002678 0.718375
0.730217 0.000000 0.714631
0.880255 0.000000 0.710819
1.000000 0.000000 0.706952
0.004429 0.122631 0.722925
0.117133 0.119857 0.720210
0.269341 0.115972 0.716460
0.420657 0.111972 0.712651
0.571440 0.107872 0.708787
0.721843 0.103689 0.704876
0.871948 0.099443 0.700932
1.000000 0.095155 0.696964
0.000000 0.265029 0.710201
0.105703 0.261924 0.707287
0.258026 0.257657 0.703309
0.409433 0.253352 0.699316
0.560286 0.249020 0.695314
0.710736 0.244681 0.691309
0.860865 0.240352 0.687314
1.000000 0.236052 0.683340
0.000000 0.405388 0.696857
0.094637 0.402139 0.693857
0.246999 0.397742 0.689801
0.398423 0.393381 0.685775
0.549310 0.389084 0.681759
0.700168 0.385010 0.677548
0.851111 0.381188 0.673133
1.000000 0.377615 0.668563
0.000000 0.544896 0.683367
0.083796 0.541742 0.680307
0.236725 0.537705 0.675959
0.389105 0.533941 0.671440
0.541233 0.530435 0.666791
0.693197 0.527178 0.662057
0.845020 0.524164 0.657285
0.996691 0.521387 0.652523
0.000000 0.685531 0.668697
0.076149 0.682993 0.665179
0.230116 0.679779 0.660363
0.383298 0.676823 0.655545
0.536002 0.674104 0.650758
0.688363 0.671467 0.645959
0.840422 0.668846 0.641157
0.992178 0.666215 0.636386
0.000000 0.828580 0.652737
0.071081 0.826590 0.649154
0.225392 0.823927 0.644286
0.378758 0.821280 0.639446
0.531491 0.818620 0.634660
0.683690 0.815919 0.629959
0.835386 0.813153 0.625375
0.986579 0.810296 0.620941
0.000000 0.972845 0.636663
0.066547 0.970841 0.633103
0.220626 0.968084 0.628375
0.373555 0.965263 0.623797
0.525649 0.962348 0.619394
0.677009 0.959311 0.615196
0.827666 0.956129 0.611235
0.977621 0.952777 0.607545
0.012062 0.015044 0.883975
0.124721 0.012418 0.881349
0.276830 0.008863 0.877798
0.428048 0.005191 0.874185
0.578748 0.001369 0.870488
0.729081 0.000000 0.866717
0.879130 0.000000 0.862883
1.000000 0.000000 0.858997
0.003259 0.121390 0.875077
0.115975 0.118574 0.872338
0.268199 0.114640 0.868559
0.419527 0.110598 0.864725
0.570321 0.106464 0.860840
0.720732 0.102254 0.856913
0.870842 0.097989 0.852957
1.000000 0.093689 0.848982
0.000000 0.263633 0.862261
0.104586 0.260504 0.859334
0.256917 0.256213 0.855341
0.408329 0.251891 0.851338
0.559184 0.247551 0.847330
0.709635 0.243209 0.843324
0.859763 0.238885 0.839333
1.000000 0.234611 0.835347
0.000000 0.403921 0.848875
0.093536 0.400668 0.845872
0.245898 0.396271 0.841816
0.397319 0.391919 0.837795
0.548298 0.387676 0.833731
0.699301 0.383685 0.829442
0.850367 0.379946 0.824967
1.000000 0.376454 0.820352
0.000000 0.543454 0.835375
0.082837 0.540363 0.832250
0.235905 0.536410 0.827830
0.388401 0.532729 0.823255
0.540620 0.529304 0.818567
0.692654 0.526128 0.813812
0.844523 0.523193 0.809035
0.996220 0.520487 0.804279
0.000000 0.684368 0.820487
0.075562 0.681890 0.816947
0.229591 0.678757 0.812114
0.382812 0.675881 0.807297
0.535542 0.673208 0.802508
0.687917 0.670577 0.797701
0.839971 0.667954 0.792902
0.991701 0.665312 0.788147
0.000000 0.827678 0.804494
0.070629 0.825697 0.800900
0.224947 0.823037 0.796027
0.378300 0.820385 0.791196
0.530999 0.817711 0.786430
0.683144 0.814989 0.781761
0.834766 0.812192 0.777221
0.985864 0.809298 0.772844
0.000000 0.971943 0.788422
0.066040 0.969926 0.784882
0.220056 0.967145 0.780190
0.372904 0.964291 0.775662
0.524895 0.961334 0.771320
0.676132 0.958249 0.767196
0.826647 0.955009 0.763321
0.976444 0.951594 0.759725
0.010877 0.013859 1.000000
0.123537 0.011233 1.000000
0.275655 0.007648 1.000000
0.426890 0.003919 1.000000
0.577604 0.000047 1.000000
0.727951 0.000000 1.000000
0.878011 0.000000 1.000000
1.000000 0.000000 1.000000
0.002097 0.120131 1.000000
0.114825 0.117276 1.000000
0.267062 0.113295 1.000000
0.418402 0.109214 1.000000
0.569206 0.105048 1.000000
0.719624 0.100814 1.000000
0.869739 0.096532 1.000000
1.000000 0.092222 1.000000
0.000000 0.262228 1.000000
0.103474 0.259079 1.000000
0.255811 0.254766 1.000000
0.407227 0.250430 1.000000
0.558085 0.246083 0.999079
0.708536 0.241741 0.995073
0.858661 0.237425 0.991086
1.000000 0.233200 0.987058
0.000000 0.402455 1.000000
0.092437 0.399199 0.997620
0.244798 0.394806 0.993567
0.396217 0.390464 0.989551
0.547338 0.386298 0.985409
0.698479 0.382390 0.981048
0.849660 0.378733 0.976517
1.000000 0.375322 0.971864
0.000000 0.542042 0.987087
0.081928 0.539014 0.983900
0.235128 0.535145 0.979414
0.387731 0.531547 0.974789
0.540035 0.528203 0.970069
0.692130 0.525107 0.965297
0.844037 0.522251 0.960521
0.995760 0.519592 0.955764
0.000000 0.683234 0.972000
0.075000 0.680817 0.968441
0.229083 0.677764 0.963598
0.382336 0.674968 0.958787
0.535090 0.672316 0.953988
0.687473 0.669689 0.949176
0.839514 0.667060 0.944385
0.991210 0.664405 0.939649
0.000000 0.826783 0.955980
0.070181 0.824808 0.952377
0.224501 0.822148 0.947504
0.377833 0.819488 0.942684
0.530491 0.816798 0.937943
0.682576 0.814051 0.933310
0.834117 0.811222 0.928819
0.985113 0.808287 0.924503
0.000000 0.971037 0.939923
0.065515 0.969006 0.936406
0.219463 0.966197 0.931755
0.372221 0.963307 0.927280
0.524103 0.960307 0.923004
0.675212 0.957170 0.918957
0.825577 0.953871 0.915172
0.975260 0.950410 0.911644
