omv/luts/11_zion_canyon.cube
# Original OMV LUT; redistribution permitted with OMV.
TITLE "Zion Canyon"
LUT_3D_SIZE 5
DOMAIN_MIN 0.000000 0.000000 0.000000
DOMAIN_MAX 0.903226 0.903226 0.903226
0.018922 0.021904 0.004012
0.245773 0.016616 0.000000
0.510222 0.010452 0.000000
0.773233 0.004090 0.000000
1.000000 0.000000 0.000000
0.001208 0.236005 0.000000
0.228239 0.230119 0.000000
0.493001 0.222912 0.000000
0.756330 0.215487 0.000000
1.000000 0.207948 0.000000
0.000000 0.482215 0.000000
0.208802 0.475664 0.000000
0.473687 0.468047 0.000000
0.737727 0.460888 0.000000
1.000000 0.454501 0.000000
0.000000 0.726688 0.000000
0.193038 0.721432 0.000000
0.460824 0.715990 0.000000
0.727438 0.711236 0.000000
0.993240 0.706650 0.000000
0.000000 0.977115 0.000000
0.184623 0.973137 0.000000
0.452624 0.968394 0.000000
0.718502 0.963440 0.000000
0.982517 0.958139 0.000000
0.017126 0.020108 0.234355
0.243977 0.014820 0.229067
0.508431 0.008643 0.222895
0.771486 0.002132 0.216537
1.000000 0.000000 0.209937
0.000000 0.234042 0.216316
0.226524 0.228053 0.210608
0.491313 0.220758 0.203765
0.754658 0.213280 0.196827
1.000000 0.205721 0.189849
0.000000 0.479994 0.193225
0.207135 0.473438 0.187176
0.472070 0.465871 0.180122
0.736493 0.458933 0.172577
1.000000 0.452762 0.164533
0.000000 0.724842 0.168626
0.192158 0.719771 0.161532
0.460080 0.714541 0.153114
0.726758 0.709886 0.144735
0.992547 0.705296 0.136353
0.000000 0.975768 0.140661
0.183905 0.971772 0.133435
0.451765 0.966973 0.125224
0.717408 0.961925 0.117473
0.981094 0.956493 0.110354
0.015033 0.018015 0.502875
0.241884 0.012727 0.497587
0.506359 0.006476 0.491371
0.769464 0.000000 0.484914
1.000000 0.000000 0.478240
0.000000 0.231706 0.484691
0.224536 0.225608 0.478917
0.489352 0.218223 0.472021
0.752712 0.210695 0.465052
1.000000 0.203125 0.458068
0.000000 0.477399 0.461444
0.205190 0.470849 0.455399
0.470340 0.463416 0.448234
0.735171 0.456735 0.440480
1.000000 0.450815 0.432316
0.000000 0.722769 0.436457
0.191195 0.717913 0.429293
0.459239 0.712928 0.420875
0.725972 0.708316 0.412471
0.991713 0.703706 0.404118
0.000000 0.974194 0.408403
0.183027 0.970165 0.401226
0.450688 0.965286 0.393134
0.716023 0.960115 0.385569
0.979291 0.954516 0.378700
0.012951 0.015933 0.769863
0.239802 0.010646 0.764575
0.504318 0.004261 0.758279
0.767467 0.000000 0.751732
1.000000 0.000000 0.744992
0.000000 0.229337 0.751507
0.222570 0.223142 0.745675
0.487408 0.215681 0.738733
0.750779 0.208117 0.731742
1.000000 0.200550 0.724759
0.000000 0.474817 0.728132
0.203254 0.468285 0.722097
0.468771 0.461063 0.714736
0.733968 0.454635 0.706802
0.999044 0.448963 0.698549
0.000000 0.720793 0.702725
0.190292 0.716150 0.695516
0.458429 0.711355 0.687100
0.725187 0.706753 0.678681
0.990842 0.702109 0.670379
0.000000 0.972620 0.674630
0.182100 0.968546 0.667521
0.449526 0.963572 0.659571
0.714515 0.958263 0.652213
0.977331 0.952483 0.645615
0.010877 0.013859 1.000000
0.237733 0.008557 1.000000
0.502300 0.002000 1.000000
0.765490 0.000000 1.000000
1.000000 0.000000 1.000000
0.000000 0.226935 1.000000
0.220620 0.220656 1.000000
0.485477 0.213132 1.000000
0.748855 0.205545 0.997474
1.000000 0.197994 0.990501
0.000000 0.472248 0.993866
0.201383 0.465770 0.987810
0.467345 0.458805 0.980212
0.732864 0.452628 0.972130
0.998141 0.447200 0.963819
0.000000 0.718907 0.968012
0.189432 0.714475 0.960786
0.457643 0.709796 0.952358
0.724387 0.705189 0.943947
0.989920 0.700496 0.935719
0.000000 0.971037 0.939923
0.181110 0.966905 0.932902
0.448263 0.961823 0.925115
0.712872 0.956361 0.917985
0.975260 0.950410 0.911644
