omv/luts/11_zion_canyon.cube
# Original OMV LUT; redistribution permitted with OMV.
TITLE "Zion Canyon"
LUT_3D_SIZE 32
DOMAIN_MIN 0.0 0.0 0.0
DOMAIN_MAX 1.0 1.0 1.0
0.018922 0.021904 0.004012
0.018922 0.021904 0.004012
0.054793 0.021068 0.003176
0.093292 0.020170 0.002278
0.131581 0.019278 0.001386
0.169737 0.018389 0.000497
0.207794 0.017501 0.000000
0.245773 0.016616 0.000000
0.283688 0.015732 0.000000
0.321548 0.014850 0.000000
0.359360 0.013969 0.000000
0.397129 0.013088 0.000000
0.434861 0.012209 0.000000
0.472557 0.011330 0.000000
0.510222 0.010452 0.000000
0.547859 0.009573 0.000000
0.585471 0.008686 0.000000
0.623061 0.007787 0.000000
0.660632 0.006878 0.000000
0.698183 0.005958 0.000000
0.735716 0.005029 0.000000
0.773233 0.004090 0.000000
0.810733 0.003142 0.000000
0.848219 0.002186 0.000000
0.885689 0.001220 0.000000
0.923147 0.000247 0.000000
0.960591 0.000000 0.000000
0.998022 0.000000 0.000000
1.000000 0.000000 0.000000
1.000000 0.000000 0.000000
1.000000 0.000000 0.000000
1.000000 0.000000 0.000000
0.018922 0.021904 0.004012
0.018922 0.021904 0.004012
0.054793 0.021068 0.003176
0.093292 0.020170 0.002278
0.131581 0.019278 0.001386
0.169737 0.018389 0.000497
0.207794 0.017501 0.000000
0.245773 0.016616 0.000000
0.283688 0.015732 0.000000
0.321548 0.014850 0.000000
0.359360 0.013969 0.000000
0.397129 0.013088 0.000000
0.434861 0.012209 0.000000
0.472557 0.011330 0.000000
0.510222 0.010452 0.000000
0.547859 0.009573 0.000000
0.585471 0.008686 0.000000
0.623061 0.007787 0.000000
0.660632 0.006878 0.000000
0.698183 0.005958 0.000000
0.735716 0.005029 0.000000
0.773233 0.004090 0.000000
0.810733 0.003142 0.000000
0.848219 0.002186 0.000000
0.885689 0.001220 0.000000
0.923147 0.000247 0.000000
0.960591 0.000000 0.000000
0.998022 0.000000 0.000000
1.000000 0.000000 0.000000
1.000000 0.000000 0.000000
1.000000 0.000000 0.000000
1.000000 0.000000 0.000000
0.016109 0.055798 0.001199
0.016109 0.055798 0.001199
0.051980 0.054962 0.000363
0.090479 0.054065 0.000000
0.128769 0.053172 0.000000
0.166924 0.052283 0.000000
0.204981 0.051396 0.000000
0.242960 0.050510 0.000000
0.280875 0.049627 0.000000
0.318735 0.048744 0.000000
0.356547 0.047863 0.000000
0.394316 0.046982 0.000000
0.432049 0.046100 0.000000
0.469749 0.045208 0.000000
0.507422 0.044305 0.000000
0.545069 0.043392 0.000000
0.582692 0.042468 0.000000
0.620292 0.041535 0.000000
0.657872 0.040593 0.000000
0.695433 0.039641 0.000000
0.732976 0.038681 0.000000
0.770501 0.037712 0.000000
0.808011 0.036735 0.000000
0.845505 0.035751 0.000000
0.882983 0.034759 0.000000
0.920448 0.033759 0.000000
0.957900 0.032753 0.000000
0.995338 0.031741 0.000000
1.000000 0.030722 0.000000
1.000000 0.029697 0.000000
1.000000 0.028751 0.000000
1.000000 0.028751 0.000000
0.013090 0.092176 0.000000
0.013090 0.092176 0.000000
0.048961 0.091340 0.000000
0.087461 0.090443 0.000000
0.125750 0.089550 0.000000
0.163905 0.088661 0.000000
0.201962 0.087774 0.000000
0.239941 0.086888 0.000000
0.277856 0.086004 0.000000
0.315718 0.085115 0.000000
0.353536 0.084215 0.000000
0.391314 0.083305 0.000000
0.429058 0.082384 0.000000
0.466770 0.081454 0.000000
0.504454 0.080515 0.000000
0.542111 0.079566 0.000000
0.579744 0.078608 0.000000
0.617355 0.077642 0.000000
0.654944 0.076668 0.000000
0.692514 0.075686 0.000000
0.730066 0.074696 0.000000
0.767600 0.073699 0.000000
0.805117 0.072695 0.000000
0.842619 0.071684 0.000000
0.880105 0.070667 0.000000
0.917577 0.069644 0.000000
0.955036 0.068616 0.000000
0.992481 0.067582 0.000000
1.000000 0.066543 0.000000
1.000000 0.065499 0.000000
1.000000 0.064537 0.000000
1.000000 0.064537 0.000000
0.010088 0.128355 0.000000
0.010088 0.128355 0.000000
0.045959 0.127519 0.000000
0.084458 0.126622 0.000000
0.122747 0.125729 0.000000
0.160903 0.124838 0.000000
0.198964 0.123940 0.000000
0.236950 0.123031 0.000000
0.274875 0.122113 0.000000
0.312748 0.121185 0.000000
0.350577 0.120248 0.000000
0.388366 0.119301 0.000000
0.426121 0.118346 0.000000
0.463843 0.117382 0.000000
0.501536 0.116410 0.000000
0.539203 0.115430 0.000000
0.576845 0.114443 0.000000
0.614464 0.113448 0.000000
0.652062 0.112446 0.000000
0.689640 0.111437 0.000000
0.727199 0.110422 0.000000
0.764741 0.109401 0.000000
0.802265 0.108374 0.000000
0.839773 0.107341 0.000000
0.877266 0.106303 0.000000
0.914744 0.105261 0.000000
0.952207 0.104214 0.000000
0.989658 0.103163 0.000000
1.000000 0.102107 0.000000
1.000000 0.101049 0.000000
1.000000 0.100073 0.000000
1.000000 0.100073 0.000000
0.007096 0.164408 0.000000
0.007096 0.164408 0.000000
0.042968 0.163568 0.000000
0.081472 0.162654 0.000000
0.119770 0.161734 0.000000
0.157937 0.160806 0.000000
0.196009 0.159869 0.000000
0.234006 0.158923 0.000000
0.271942 0.157970 0.000000
0.309826 0.157007 0.000000
0.347664 0.156037 0.000000
0.385463 0.155059 0.000000
0.423226 0.154073 0.000000
0.460958 0.153080 0.000000
0.498659 0.152079 0.000000
0.536334 0.151072 0.000000
0.573984 0.150059 0.000000
0.611611 0.149039 0.000000
0.649216 0.148013 0.000000
0.686801 0.146982 0.000000
0.724366 0.145945 0.000000
0.761914 0.144904 0.000000
0.799444 0.143858 0.000000
0.836957 0.142807 0.000000
0.874455 0.141753 0.000000
0.911937 0.140695 0.000000
0.949406 0.139633 0.000000
0.986860 0.138568 0.000000
1.000000 0.137501 0.000000
1.000000 0.136431 0.000000
1.000000 0.135447 0.000000
1.000000 0.135447 0.000000
0.004130 0.200306 0.000000
0.004130 0.200306 0.000000
0.040013 0.199429 0.000000
0.078529 0.198477 0.000000
0.116837 0.197521 0.000000
0.155015 0.196557 0.000000
0.193097 0.195586 0.000000
0.231104 0.194608 0.000000
0.269050 0.193623 0.000000
0.306942 0.192630 0.000000
0.344790 0.191631 0.000000
0.382597 0.190625 0.000000
0.420368 0.189612 0.000000
0.458107 0.188593 0.000000
0.495816 0.187569 0.000000
0.533498 0.186538 0.000000
0.571155 0.185503 0.000000
0.608788 0.184462 0.000000
0.646399 0.183417 0.000000
0.683989 0.182367 0.000000
0.721560 0.181313 0.000000
0.759112 0.180255 0.000000
0.796647 0.179194 0.000000
0.834164 0.178129 0.000000
0.871666 0.177062 0.000000
0.909152 0.175992 0.000000
0.946623 0.174920 0.000000
0.984080 0.173846 0.000000
1.000000 0.172771 0.000000
1.000000 0.171694 0.000000
1.000000 0.170704 0.000000
1.000000 0.170704 0.000000
0.001208 0.236005 0.000000
0.001208 0.236005 0.000000
0.037101 0.235096 0.000000
0.075627 0.234110 0.000000
0.113945 0.233121 0.000000
0.152132 0.232126 0.000000
0.190223 0.231125 0.000000
0.228239 0.230119 0.000000
0.266192 0.229106 0.000000
0.304093 0.228087 0.000000
0.341948 0.227062 0.000000
0.379763 0.226032 0.000000
0.417541 0.224997 0.000000
0.455286 0.223957 0.000000
0.493001 0.222912 0.000000
0.530689 0.221862 0.000000
0.568351 0.220808 0.000000
0.605989 0.219751 0.000000
0.643605 0.218689 0.000000
0.681200 0.217625 0.000000
0.718774 0.216557 0.000000
0.756330 0.215487 0.000000
0.793868 0.214415 0.000000
0.831389 0.213340 0.000000
0.868893 0.212264 0.000000
0.906381 0.211186 0.000000
0.943855 0.210108 0.000000
0.981313 0.209028 0.000000
1.000000 0.207948 0.000000
1.000000 0.206868 0.000000
1.000000 0.205876 0.000000
1.000000 0.205876 0.000000
0.000000 0.271532 0.000000
0.000000 0.271532 0.000000
0.034226 0.270594 0.000000
0.072761 0.269579 0.000000
0.111088 0.268561 0.000000
0.149283 0.267539 0.000000
0.187382 0.266513 0.000000
0.225405 0.265481 0.000000
0.263365 0.264445 0.000000
0.301273 0.263403 0.000000
0.339134 0.262358 0.000000
0.376955 0.261308 0.000000
0.414738 0.260253 0.000000
0.452489 0.259195 0.000000
0.490209 0.258134 0.000000
0.527901 0.257069 0.000000
0.565568 0.256001 0.000000
0.603210 0.254930 0.000000
0.640829 0.253857 0.000000
0.678427 0.252782 0.000000
0.716005 0.251705 0.000000
0.753563 0.250626 0.000000
0.791103 0.249546 0.000000
0.828626 0.248466 0.000000
0.866131 0.247384 0.000000
0.903621 0.246303 0.000000
0.941095 0.245221 0.000000
0.978554 0.244140 0.000000
1.000000 0.243059 0.000000
1.000000 0.241980 0.000000
1.000000 0.240989 0.000000
1.000000 0.240989 0.000000
0.000000 0.306911 0.000000
0.000000 0.306911 0.000000
0.031383 0.305947 0.000000
0.069926 0.304906 0.000000
0.108260 0.303864 0.000000
0.146462 0.302819 0.000000
0.184568 0.301770 0.000000
0.222597 0.300718 0.000000
0.260564 0.299662 0.000000
0.298477 0.298602 0.000000
0.336343 0.297539 0.000000
0.374168 0.296473 0.000000
0.411957 0.295404 0.000000
0.449711 0.294332 0.000000
0.487435 0.293258 0.000000
0.525131 0.292181 0.000000
0.562800 0.291103 0.000000
0.600445 0.290023 0.000000
0.638067 0.288942 0.000000
0.675667 0.287860 0.000000
0.713246 0.286777 0.000000
0.750806 0.285694 0.000000
0.788347 0.284611 0.000000
0.825871 0.283527 0.000000
0.863377 0.282445 0.000000
0.900866 0.281363 0.000000
0.938340 0.280283 0.000000
0.975798 0.279204 0.000000
1.000000 0.278127 0.000000
1.000000 0.277051 0.000000
1.000000 0.276066 0.000000
1.000000 0.276066 0.000000
0.000000 0.342160 0.000000
0.000000 0.342160 0.000000
0.028569 0.341175 0.000000
0.067118 0.340112 0.000000
0.105458 0.339049 0.000000
0.143666 0.337985 0.000000
0.181777 0.336918 0.000000
0.219811 0.335848 0.000000
0.257783 0.334777 0.000000
0.295700 0.333703 0.000000
0.333570 0.332626 0.000000
0.371399 0.331548 0.000000
0.409191 0.330468 0.000000
0.446949 0.329386 0.000000
0.484675 0.328303 0.000000
0.522373 0.327219 0.000000
0.560044 0.326134 0.000000
0.597691 0.325049 0.000000
0.635314 0.323964 0.000000
0.672915 0.322879 0.000000
0.710495 0.321794 0.000000
0.748055 0.320710 0.000000
0.785596 0.319627 0.000000
0.823119 0.318546 0.000000
0.860624 0.317466 0.000000
0.898112 0.316388 0.000000
0.935585 0.315312 0.000000
0.973041 0.314239 0.000000
1.000000 0.313170 0.000000
1.000000 0.312113 0.000000
1.000000 0.311157 0.000000
1.000000 0.311157 0.000000
0.000000 0.377298 0.000000
0.000000 0.377298 0.000000
0.025777 0.376295 0.000000
0.064332 0.375215 0.000000
0.102677 0.374135 0.000000
0.140890 0.373055 0.000000
0.179005 0.371974 0.000000
0.217043 0.370892 0.000000
0.255018 0.369808 0.000000
0.292939 0.368723 0.000000
0.330812 0.367637 0.000000
0.368643 0.366551 0.000000
0.406437 0.365463 0.000000
0.444196 0.364376 0.000000
0.481924 0.363288 0.000000
0.519624 0.362200 0.000000
0.557296 0.361113 0.000000
0.594942 0.360026 0.000000
0.632566 0.358941 0.000000
0.670166 0.357856 0.000000
0.707746 0.356773 0.000000
0.745305 0.355693 0.000000
0.782844 0.354614 0.000000
0.820366 0.353538 0.000000
0.857869 0.352464 0.000000
0.895364 0.351397 0.000000
0.932872 0.350346 0.000000
0.970394 0.349310 0.000000
1.000000 0.348290 0.000000
1.000000 0.347286 0.000000
1.000000 0.346377 0.000000
1.000000 0.346377 0.000000
0.000000 0.412342 0.000000
0.000000 0.412342 0.000000
0.023005 0.411326 0.000000
0.061564 0.410231 0.000000
0.099913 0.409139 0.000000
0.138129 0.408047 0.000000
0.176247 0.406956 0.000000
0.214288 0.405865 0.000000
0.252265 0.404773 0.000000
0.290188 0.403682 0.000000
0.328063 0.402590 0.000000
0.365896 0.401499 0.000000
0.403690 0.400408 0.000000
0.441451 0.399318 0.000000
0.479179 0.398229 0.000000
0.516878 0.397142 0.000000
0.554550 0.396056 0.000000
0.592196 0.394972 0.000000
0.629818 0.393889 0.000000
0.667417 0.392810 0.000000
0.704995 0.391733 0.000000
0.742552 0.390659 0.000000
0.780109 0.389596 0.000000
0.817678 0.388549 0.000000
0.855258 0.387518 0.000000
0.892850 0.386503 0.000000
0.930453 0.385503 0.000000
0.968067 0.384519 0.000000
1.000000 0.383551 0.000000
1.000000 0.382598 0.000000
1.000000 0.381737 0.000000
1.000000 0.381737 0.000000
0.000000 0.447310 0.000000
0.000000 0.447310 0.000000
0.020248 0.446283 0.000000
0.058810 0.445178 0.000000
0.097161 0.444077 0.000000
0.135380 0.442978 0.000000
0.173500 0.441880 0.000000
0.211542 0.440783 0.000000
0.249521 0.439688 0.000000
0.287444 0.438593 0.000000
0.325320 0.437500 0.000000
0.363153 0.436408 0.000000
0.400947 0.435318 0.000000
0.438707 0.434230 0.000000
0.476434 0.433144 0.000000
0.514132 0.432060 0.000000
0.551802 0.430979 0.000000
0.589447 0.429901 0.000000
0.627070 0.428828 0.000000
0.664699 0.427769 0.000000
0.702335 0.426727 0.000000
0.739981 0.425700 0.000000
0.777635 0.424689 0.000000
0.815298 0.423695 0.000000
0.852969 0.422715 0.000000
0.890647 0.421752 0.000000
0.928334 0.420804 0.000000
0.966027 0.419872 0.000000
1.000000 0.418955 0.000000
1.000000 0.418053 0.000000
1.000000 0.417238 0.000000
1.000000 0.417238 0.000000
0.000000 0.482215 0.000000
0.000000 0.482215 0.000000
0.017502 0.481182 0.000000
0.056065 0.480071 0.000000
0.094418 0.478965 0.000000
0.132638 0.477862 0.000000
0.170759 0.476762 0.000000
0.208802 0.475664 0.000000
0.246780 0.474568 0.000000
0.284703 0.473474 0.000000
0.322578 0.472383 0.000000
0.360410 0.471295 0.000000
0.398203 0.470209 0.000000
0.435961 0.469126 0.000000
0.473687 0.468047 0.000000
0.511394 0.466976 0.000000
0.549105 0.465921 0.000000
0.586820 0.464882 0.000000
0.624539 0.463860 0.000000
0.662263 0.462853 0.000000
0.699992 0.461863 0.000000
0.737727 0.460888 0.000000
0.775466 0.459929 0.000000
0.813211 0.458986 0.000000
0.850960 0.458058 0.000000
0.888714 0.457145 0.000000
0.926471 0.456249 0.000000
0.964233 0.455367 0.000000
1.000000 0.454501 0.000000
1.000000 0.453650 0.000000
1.000000 0.452881 0.000000
1.000000 0.452881 0.000000
0.000000 0.517075 0.000000
0.000000 0.517075 0.000000
0.014762 0.516038 0.000000
0.053326 0.514925 0.000000
0.091680 0.513818 0.000000
0.129899 0.512716 0.000000
0.168020 0.511617 0.000000
0.206062 0.510521 0.000000
0.244039 0.509429 0.000000
0.281961 0.508340 0.000000
0.319834 0.507255 0.000000
0.357665 0.506174 0.000000
0.395479 0.505105 0.000000
0.433288 0.504054 0.000000
0.471095 0.503018 0.000000
0.508901 0.502000 0.000000
0.546706 0.500997 0.000000
0.584512 0.500010 0.000000
0.622319 0.499040 0.000000
0.660128 0.498085 0.000000
0.697937 0.497146 0.000000
0.735749 0.496222 0.000000
0.773562 0.495315 0.000000
0.811377 0.494422 0.000000
0.849192 0.493545 0.000000
0.887009 0.492684 0.000000
0.924826 0.491837 0.000000
0.962643 0.491006 0.000000
1.000000 0.490190 0.000000
1.000000 0.489389 0.000000
1.000000 0.488666 0.000000
1.000000 0.488666 0.000000
0.000000 0.551903 0.000000
0.000000 0.551903 0.000000
0.012025 0.550867 0.000000
0.050589 0.549755 0.000000
0.088942 0.548651 0.000000
0.127160 0.547553 0.000000
0.165279 0.546459 0.000000
0.203319 0.545370 0.000000
0.241299 0.544287 0.000000
0.279253 0.543221 0.000000
0.317188 0.542171 0.000000
0.355110 0.541139 0.000000
0.393021 0.540123 0.000000
0.430925 0.539123 0.000000
0.468822 0.538140 0.000000
0.506714 0.537173 0.000000
0.544602 0.536222 0.000000
0.582488 0.535287 0.000000
0.620371 0.534368 0.000000
0.658251 0.533464 0.000000
0.696130 0.532576 0.000000
0.734007 0.531704 0.000000
0.771882 0.530846 0.000000
0.809754 0.530005 0.000000
0.847624 0.529178 0.000000
0.885492 0.528367 0.000000
0.923357 0.527570 0.000000
0.961218 0.526789 0.000000
0.999076 0.526022 0.000000
1.000000 0.525271 0.000000
1.000000 0.524594 0.000000
1.000000 0.524594 0.000000
0.000000 0.586714 0.000000
0.000000 0.586714 0.000000
0.009287 0.585682 0.000000
0.047849 0.584576 0.000000
0.086200 0.583479 0.000000
0.124429 0.582393 0.000000
0.162590 0.581327 0.000000
0.200703 0.580278 0.000000
0.238780 0.579247 0.000000
0.276830 0.578233 0.000000
0.314859 0.577236 0.000000
0.352869 0.576255 0.000000
0.390866 0.575291 0.000000
0.428851 0.574344 0.000000
0.466827 0.573412 0.000000
0.504794 0.572497 0.000000
0.542753 0.571597 0.000000
0.580706 0.570713 0.000000
0.618653 0.569844 0.000000
0.656594 0.568991 0.000000
0.694529 0.568154 0.000000
0.732460 0.567331 0.000000
0.770384 0.566524 0.000000
0.808303 0.565733 0.000000
0.846216 0.564956 0.000000
0.884123 0.564194 0.000000
0.922024 0.563447 0.000000
0.959917 0.562715 0.000000
0.997803 0.561998 0.000000
1.000000 0.561295 0.000000
1.000000 0.560663 0.000000
1.000000 0.560663 0.000000
0.000000 0.621523 0.000000
0.000000 0.621523 0.000000
0.006567 0.620507 0.000000
0.045182 0.619433 0.000000
0.083615 0.618381 0.000000
0.121943 0.617348 0.000000
0.160200 0.616334 0.000000
0.198405 0.615338 0.000000
0.236571 0.614359 0.000000
0.274705 0.613397 0.000000
0.312814 0.612452 0.000000
0.350902 0.611523 0.000000
0.388973 0.610611 0.000000
0.427028 0.609714 0.000000
0.465070 0.608834 0.000000
0.503099 0.607969 0.000000
0.541118 0.607120 0.000000
0.579126 0.606286 0.000000
0.617125 0.605468 0.000000
0.655115 0.604665 0.000000
0.693096 0.603878 0.000000
0.731067 0.603105 0.000000
0.769030 0.602348 0.000000
0.806983 0.601606 0.000000
0.844927 0.600878 0.000000
0.882862 0.600165 0.000000
0.920786 0.599468 0.000000
0.958700 0.598785 0.000000
0.996603 0.598116 0.000000
1.000000 0.597455 0.000000
1.000000 0.596851 0.000000
1.000000 0.596851 0.000000
0.000000 0.656424 0.000000
0.000000 0.656424 0.000000
0.004113 0.655458 0.000000
0.042823 0.654437 0.000000
0.081347 0.653437 0.000000
0.119763 0.652457 0.000000
0.158104 0.651495 0.000000
0.196389 0.650551 0.000000
0.234631 0.649624 0.000000
0.272837 0.648714 0.000000
0.311015 0.647820 0.000000
0.349169 0.646942 0.000000
0.387301 0.646080 0.000000
0.425414 0.645234 0.000000
0.463510 0.644404 0.000000
0.501591 0.643590 0.000000
0.539657 0.642791 0.000000
0.577709 0.642007 0.000000
0.615748 0.641239 0.000000
0.653775 0.640486 0.000000
0.691788 0.639748 0.000000
0.729790 0.639025 0.000000
0.767778 0.638317 0.000000
0.805755 0.637623 0.000000
0.843718 0.636945 0.000000
0.881668 0.636279 0.000000
0.919608 0.635619 0.000000
0.957538 0.634961 0.000000
0.995457 0.634304 0.000000
1.000000 0.633649 0.000000
1.000000 0.633049 0.000000
1.000000 0.633049 0.000000
0.000000 0.691479 0.000000
0.000000 0.691479 0.000000
0.001959 0.690562 0.000000
0.040752 0.689594 0.000000
0.079357 0.688647 0.000000
0.117848 0.687719 0.000000
0.156260 0.686809 0.000000
0.194613 0.685916 0.000000
0.232919 0.685040 0.000000
0.271187 0.684180 0.000000
0.309422 0.683337 0.000000
0.347628 0.682510 0.000000
0.385810 0.681699 0.000000
0.423969 0.680903 0.000000
0.462108 0.680123 0.000000
0.500228 0.679359 0.000000
0.538329 0.678609 0.000000
0.576414 0.677875 0.000000
0.614481 0.677156 0.000000
0.652533 0.676452 0.000000
0.690568 0.675763 0.000000
0.728587 0.675089 0.000000
0.766591 0.674425 0.000000
0.804583 0.673765 0.000000
0.842562 0.673106 0.000000
0.880529 0.672450 0.000000
0.918482 0.671795 0.000000
0.956422 0.671140 0.000000
0.994348 0.670487 0.000000
1.000000 0.669833 0.000000
1.000000 0.669233 0.000000
1.000000 0.669233 0.000000
0.000000 0.726688 0.000000
0.000000 0.726688 0.000000
0.000066 0.725820 0.000000
0.038931 0.724905 0.000000
0.077603 0.724009 0.000000
0.116157 0.723133 0.000000
0.154629 0.722274 0.000000
0.193038 0.721432 0.000000
0.231397 0.720606 0.000000
0.269713 0.719797 0.000000
0.307993 0.719005 0.000000
0.346241 0.718228 0.000000
0.384461 0.717466 0.000000
0.422655 0.716720 0.000000
0.460824 0.715990 0.000000
0.498971 0.715275 0.000000
0.537096 0.714574 0.000000
0.575201 0.713889 0.000000
0.613285 0.713219 0.000000
0.651352 0.712556 0.000000
0.689403 0.711895 0.000000
0.727438 0.711236 0.000000
0.765458 0.710579 0.000000
0.803462 0.709923 0.000000
0.841450 0.709268 0.000000
0.879422 0.708614 0.000000
0.917377 0.707960 0.000000
0.955317 0.707305 0.000000
0.993240 0.706650 0.000000
1.000000 0.705994 0.000000
1.000000 0.705390 0.000000
1.000000 0.705390 0.000000
0.000000 0.762051 0.000000
0.000000 0.762051 0.000000
0.000000 0.761231 0.000000
0.037318 0.760367 0.000000
0.076045 0.759523 0.000000
0.114652 0.758698 0.000000
0.153171 0.757889 0.000000
0.191625 0.757098 0.000000
0.230024 0.756323 0.000000
0.268376 0.755564 0.000000
0.306690 0.754821 0.000000
0.344968 0.754093 0.000000
0.383213 0.753381 0.000000
0.421429 0.752685 0.000000
0.459618 0.752003 0.000000
0.497781 0.751335 0.000000
0.535922 0.750671 0.000000
0.574042 0.750010 0.000000
0.612143 0.749350 0.000000
0.650224 0.748693 0.000000
0.688285 0.748036 0.000000
0.726328 0.747381 0.000000
0.764353 0.746725 0.000000
0.802358 0.746070 0.000000
0.840344 0.745415 0.000000
0.878312 0.744758 0.000000
0.916259 0.744101 0.000000
0.954188 0.743442 0.000000
0.992096 0.742782 0.000000
1.000000 0.742119 0.000000
1.000000 0.741507 0.000000
1.000000 0.741507 0.000000
0.000000 0.797566 0.000000
0.000000 0.797566 0.000000
0.000000 0.796794 0.000000
0.035875 0.795981 0.000000
0.074645 0.795188 0.000000
0.113291 0.794413 0.000000
0.151847 0.793655 0.000000
0.190332 0.792913 0.000000
0.228760 0.792188 0.000000
0.267138 0.791478 0.000000
0.305472 0.790785 0.000000
0.343768 0.790106 0.000000
0.382029 0.789439 0.000000
0.420261 0.788774 0.000000
0.458466 0.788112 0.000000
0.496644 0.787452 0.000000
0.534798 0.786793 0.000000
0.572928 0.786135 0.000000
0.611035 0.785479 0.000000
0.649120 0.784822 0.000000
0.687182 0.784166 0.000000
0.725222 0.783509 0.000000
0.763241 0.782852 0.000000
0.801237 0.782193 0.000000
0.839211 0.781532 0.000000
0.877163 0.780870 0.000000
0.915092 0.780205 0.000000
0.952999 0.779538 0.000000
0.990883 0.778867 0.000000
1.000000 0.778193 0.000000
1.000000 0.777570 0.000000
1.000000 0.777570 0.000000
0.000000 0.833232 0.000000
0.000000 0.833232 0.000000
0.000000 0.832508 0.000000
0.034561 0.831745 0.000000
0.073363 0.831002 0.000000
0.112036 0.830277 0.000000
0.150616 0.829569 0.000000
0.189121 0.828877 0.000000
0.227566 0.828200 0.000000
0.265959 0.827531 0.000000
0.304310 0.826865 0.000000
0.342621 0.826202 0.000000
0.380898 0.825540 0.000000
0.419142 0.824880 0.000000
0.457355 0.824222 0.000000
0.495539 0.823564 0.000000
0.533695 0.822906 0.000000
0.571825 0.822248 0.000000
0.609928 0.821590 0.000000
0.648006 0.820931 0.000000
0.686058 0.820270 0.000000
0.724084 0.819608 0.000000
0.762086 0.818944 0.000000
0.800063 0.818277 0.000000
0.838014 0.817608 0.000000
0.875940 0.816935 0.000000
0.913840 0.816259 0.000000
0.951715 0.815578 0.000000
0.989563 0.814894 0.000000
1.000000 0.814204 0.000000
1.000000 0.813566 0.000000
1.000000 0.813566 0.000000
0.000000 0.869048 0.000000
0.000000 0.869048 0.000000
0.000000 0.868371 0.000000
0.033337 0.867659 0.000000
0.072158 0.866965 0.000000
0.110848 0.866288 0.000000
0.149443 0.865616 0.000000
0.187965 0.864948 0.000000
0.226425 0.864282 0.000000
0.264833 0.863619 0.000000
0.303194 0.862957 0.000000
0.341514 0.862297 0.000000
0.379795 0.861637 0.000000
0.418040 0.860978 0.000000
0.456251 0.860319 0.000000
0.494430 0.859659 0.000000
0.532578 0.858998 0.000000
0.570696 0.858335 0.000000
0.608785 0.857671 0.000000
0.646845 0.857005 0.000000
0.684876 0.856336 0.000000
0.722879 0.855664 0.000000
0.760853 0.854989 0.000000
0.798800 0.854311 0.000000
0.836718 0.853628 0.000000
0.874607 0.852940 0.000000
0.912468 0.852248 0.000000
0.950299 0.851551 0.000000
0.988102 0.850848 0.000000
1.000000 0.850138 0.000000
1.000000 0.849481 0.000000
1.000000 0.849481 0.000000
0.000000 0.905013 0.000000
0.000000 0.905013 0.000000
0.000000 0.904378 0.000000
0.032169 0.903699 0.000000
0.071007 0.903026 0.000000
0.109712 0.902357 0.000000
0.148321 0.901690 0.000000
0.186852 0.901026 0.000000
0.225319 0.900363 0.000000
0.263731 0.899701 0.000000
0.302092 0.899040 0.000000
0.340409 0.898378 0.000000
0.378684 0.897716 0.000000
0.416919 0.897053 0.000000
0.455118 0.896388 0.000000
0.493282 0.895722 0.000000
0.531411 0.895054 0.000000
0.569507 0.894383 0.000000
0.607571 0.893709 0.000000
0.645602 0.893031 0.000000
0.683602 0.892350 0.000000
0.721570 0.891664 0.000000
0.759507 0.890974 0.000000
0.797412 0.890279 0.000000
0.835286 0.889578 0.000000
0.873129 0.888872 0.000000
0.910939 0.888160 0.000000
0.948718 0.887441 0.000000
0.986464 0.886715 0.000000
1.000000 0.885983 0.000000
1.000000 0.885303 0.000000
1.000000 0.885303 0.000000
0.000000 0.941064 0.000000
0.000000 0.941064 0.000000
0.000000 0.940435 0.000000
0.031051 0.939761 0.000000
0.069897 0.939091 0.000000
0.108609 0.938424 0.000000
0.147220 0.937759 0.000000
0.185750 0.937094 0.000000
0.224213 0.936429 0.000000
0.262617 0.935764 0.000000
0.300969 0.935099 0.000000
0.339271 0.934432 0.000000
0.377529 0.933763 0.000000
0.415745 0.933092 0.000000
0.453921 0.932418 0.000000
0.492058 0.931741 0.000000
0.530158 0.931061 0.000000
0.568222 0.930377 0.000000
0.606249 0.929689 0.000000
