omv/luts/12_divide_duststorm.cube
# Original OMV LUT; redistribution permitted with OMV.
TITLE "Divide Duststorm"
LUT_3D_SIZE 5
DOMAIN_MIN 0.000000 0.000000 0.000000
DOMAIN_MAX 0.903226 0.903226 0.903226
0.057280 0.037640 0.000000
0.199990 0.050619 0.000537
0.391729 0.068057 0.017975
0.579592 0.085012 0.035331
0.764725 0.101469 0.052950
0.100754 0.210939 0.031362
0.242897 0.223635 0.044766
0.433402 0.240456 0.063130
0.619999 0.256777 0.081435
0.804287 0.272812 0.099688
0.154876 0.441632 0.093432
0.296188 0.453913 0.107459
0.486084 0.470430 0.126280
0.673840 0.487366 0.143734
0.861628 0.505238 0.159405
0.209571 0.668919 0.153209
0.354298 0.682989 0.164717
0.550264 0.702682 0.179055
0.743735 0.722597 0.192283
0.935145 0.742350 0.205273
0.281019 0.902714 0.199479
0.427747 0.917821 0.209504
0.624316 0.937816 0.223390
0.816123 0.956849 0.237841
1.000000 0.974821 0.253305
0.061688 0.042048 0.121696
0.204397 0.055027 0.134675
0.396121 0.072458 0.152125
0.583810 0.089325 0.169612
0.768811 0.105716 0.187330
0.105008 0.215270 0.165615
0.247038 0.227909 0.179104
0.437430 0.244674 0.197553
0.623958 0.260960 0.215910
0.808219 0.276982 0.234183
0.158812 0.445804 0.227924
0.300121 0.458083 0.241954
0.490153 0.474671 0.260674
0.678505 0.491921 0.277688
0.866793 0.510055 0.292990
0.214544 0.673635 0.286936
0.359621 0.687888 0.298185
0.555976 0.707781 0.312235
0.749547 0.727748 0.325389
0.940899 0.747470 0.338421
0.286815 0.907857 0.332597
0.433454 0.922917 0.342686
0.629784 0.942785 0.356749
0.821221 0.961622 0.371472
1.000000 0.979331 0.387301
0.067610 0.047970 0.301919
0.210319 0.060949 0.314898
0.401948 0.078332 0.332420
0.589417 0.095089 0.350071
0.774256 0.111400 0.367910
0.110660 0.221057 0.346041
0.252552 0.233627 0.359634
0.442808 0.250324 0.378185
0.629260 0.266573 0.396598
0.813501 0.282584 0.414886
0.164095 0.451407 0.408626
0.305411 0.463689 0.422651
0.495874 0.480504 0.441053
0.684991 0.498155 0.457503
0.873914 0.516620 0.472336
0.221422 0.680073 0.466462
0.366942 0.694557 0.477383
0.563734 0.714675 0.491108
0.757350 0.734666 0.504228
0.948571 0.754319 0.517358
0.294567 0.914748 0.511474
0.441046 0.929723 0.521682
0.636999 0.949392 0.536022
0.827884 0.967937 0.551150
1.000000 0.985278 0.567490
0.073422 0.053782 0.478800
0.216132 0.066761 0.491780
0.407586 0.084057 0.509431
0.594859 0.100717 0.527230
0.779558 0.116957 0.545174
0.116142 0.226704 0.523170
0.257912 0.239213 0.536854
0.448054 0.255853 0.555490
0.634451 0.272074 0.573946
0.818691 0.288085 0.592234
0.169279 0.456905 0.585978
0.310617 0.469199 0.599986
0.501760 0.486370 0.617888
0.691586 0.504393 0.633814
0.881092 0.523161 0.648216
0.228377 0.686499 0.642507
0.374300 0.701191 0.653129
0.571384 0.721460 0.666638
0.764984 0.741442 0.679771
0.956016 0.760995 0.693039
0.302116 0.921480 0.687078
0.448393 0.936348 0.697434
0.643914 0.955788 0.712092
0.834199 0.974015 0.727662
1.000000 0.991090 0.744372
0.079169 0.059529 0.653688
0.221863 0.072500 0.666679
0.413090 0.089682 0.684501
0.600186 0.106254 0.702432
0.784766 0.122434 0.720466
0.121504 0.232258 0.698346
0.263168 0.244715 0.712110
0.453217 0.261308 0.730815
0.639577 0.277511 0.749298
0.823835 0.293531 0.767574
0.174411 0.462345 0.761327
0.315892 0.474713 0.775229
0.507830 0.492303 0.792544
0.698316 0.510670 0.807983
0.888358 0.529716 0.821988
0.235439 0.692949 0.816430
0.381731 0.707831 0.826778
0.578961 0.728176 0.840179
0.772486 0.748119 0.853367
0.963273 0.767542 0.866815
0.309504 0.928095 0.860759
0.455536 0.942833 0.871295
0.650570 0.962016 0.886310
0.840202 0.979898 0.902361
1.000000 0.996837 0.919259
