omv/luts/12_divide_duststorm.cube
# Original OMV LUT; redistribution permitted with OMV.
TITLE "Divide Duststorm"
LUT_3D_SIZE 8
DOMAIN_MIN 0.000000 0.000000 0.000000
DOMAIN_MAX 0.903226 0.903226 0.903226
0.057280 0.037640 0.000000
0.115582 0.042942 0.000000
0.227718 0.053141 0.003059
0.337417 0.063118 0.013036
0.445748 0.072962 0.022905
0.552945 0.082624 0.032834
0.659214 0.092117 0.042853
0.764725 0.101469 0.052950
0.075118 0.108477 0.005396
0.133420 0.113780 0.010698
0.245551 0.123976 0.020900
0.355077 0.133866 0.031007
0.463035 0.143524 0.041156
0.569871 0.153005 0.051356
0.675836 0.162346 0.061603
0.781098 0.171574 0.071886
0.108906 0.244463 0.040095
0.166927 0.249624 0.045608
0.278383 0.259484 0.056316
0.387270 0.269054 0.066902
0.494705 0.278451 0.077443
0.601129 0.287726 0.087952
0.706790 0.296914 0.098427
0.811854 0.306043 0.108859
0.139952 0.376490 0.075546
0.197733 0.381532 0.081238
0.308815 0.391204 0.092227
0.417444 0.400646 0.103007
0.524732 0.409968 0.113659
0.631113 0.419222 0.124200
0.737119 0.428592 0.134420
0.843298 0.438307 0.144029
0.169629 0.506400 0.111301
0.227363 0.511418 0.117029
0.338463 0.521100 0.128005
0.447760 0.530892 0.138292
0.556480 0.540967 0.147887
0.664943 0.551314 0.156893
0.773289 0.561911 0.165387
0.881581 0.572729 0.173435
0.200695 0.636049 0.145533
0.259395 0.641575 0.150548
0.372837 0.652486 0.159797
0.484443 0.663487 0.168380
0.595215 0.674632 0.176458
0.705483 0.685916 0.184127
0.815223 0.697234 0.191588
0.924401 0.708510 0.198979
0.238659 0.768551 0.174290
0.298395 0.774616 0.178540
0.413611 0.786446 0.186473
0.526470 0.798096 0.194127
0.637948 0.809606 0.201682
0.748369 0.820969 0.209237
0.857865 0.832157 0.216877
0.966486 0.843139 0.224679
0.281019 0.902714 0.199479
0.340988 0.908900 0.203555
0.456223 0.920739 0.211475
0.568730 0.932202 0.219388
0.679532 0.943354 0.227440
0.788961 0.954191 0.235724
0.897155 0.964691 0.244322
1.000000 0.974821 0.253305
0.059081 0.039441 0.042358
0.117383 0.044743 0.047661
0.229518 0.054942 0.057859
0.339218 0.064919 0.067836
0.447526 0.074752 0.077722
0.554682 0.084393 0.087682
0.660917 0.093868 0.097727
0.766398 0.103206 0.107846
0.076918 0.110278 0.060196
0.135220 0.115580 0.065498
0.247338 0.125770 0.075710
0.356821 0.135639 0.085850
0.464743 0.145278 0.096026
0.571547 0.154744 0.106249
0.677487 0.164072 0.116515
0.782730 0.173291 0.126813
0.110617 0.246219 0.094962
0.168620 0.251372 0.100488
0.280047 0.261216 0.111218
0.388911 0.270775 0.121822
0.496329 0.280163 0.132376
0.602741 0.289432 0.142893
0.708397 0.298618 0.153373
0.813460 0.307747 0.163805
0.141578 0.378204 0.130476
0.199352 0.383242 0.136175
0.310424 0.392909 0.147171
0.419050 0.402349 0.157953
0.526340 0.411673 0.168603
0.632731 0.420931 0.179137
0.738878 0.430376 0.189253
0.845191 0.440161 0.198764
0.171236 0.508104 0.166246
0.228973 0.513124 0.171972
0.340130 0.522835 0.182906
0.449573 0.532704 0.193085
0.558426 0.542849 0.202583
0.667007 0.553258 0.211501
0.775459 0.563909 0.219917
0.883844 0.574775 0.227896
0.202608 0.637914 0.200252
0.261376 0.643475 0.205218
0.374938 0.654449 0.214378
0.486648 0.665504 0.222884
0.597511 0.676696 0.230895
0.707843 0.688012 0.238516
0.817597 0.699338 0.245967
0.926772 0.710613 0.253360
0.240931 0.770603 0.228744
0.300712 0.776691 0.232960
0.415977 0.788546 0.240858
0.528845 0.800201 0.248506
0.640313 0.811706 0.256067
0.750708 0.823054 0.263642
0.860159 0.834219 0.271315
0.968718 0.845168 0.279162
0.283389 0.904816 0.253861
0.343348 0.910996 0.257944
0.458550 0.922818 0.265888
0.571005 0.934254 0.273839
0.681738 0.945369 0.281942
0.791082 0.956161 0.290289
0.899173 0.966606 0.298963
1.000000 0.976673 0.308035
0.062544 0.042904 0.147759
0.120846 0.048207 0.153061
0.232982 0.058405 0.163260
0.342681 0.068382 0.173237
0.450925 0.078183 0.183171
0.558005 0.087786 0.193189
0.664174 0.097229 0.203283
0.769601 0.106539 0.213442
0.080382 0.113741 0.165597
0.138684 0.119044 0.170899
0.250753 0.129209 0.181147
0.360157 0.139038 0.191346
0.468010 0.148644 0.201573
0.574758 0.158081 0.211839
0.680653 0.167387 0.222139
0.785861 0.176588 0.232463
0.113891 0.249587 0.200504
0.171862 0.254724 0.206055
0.283235 0.264541 0.216826
0.392057 0.274080 0.227461
0.499445 0.283453 0.238037
0.605839 0.292713 0.248569
0.711486 0.301895 0.259054
0.816552 0.311025 0.269485
0.144699 0.381496 0.236134
0.202460 0.386528 0.241842
0.313517 0.396187 0.252850
0.422139 0.405625 0.263635
0.529436 0.414952 0.274279
0.635910 0.424255 0.284752
0.742334 0.433844 0.294665
0.848898 0.443761 0.303990
0.174329 0.511382 0.271924
0.232074 0.516406 0.277645
0.343413 0.526213 0.288444
0.453131 0.536227 0.298421
0.562231 0.546501 0.307736
0.671035 0.557026 0.316490
0.779683 0.567780 0.324760
0.888241 0.578735 0.332611
0.206354 0.641535 0.305449
0.265248 0.647162 0.310322
0.379034 0.658252 0.319316
0.490938 0.669408 0.327678
0.601969 0.680687 0.335565
0.712391 0.692051 0.343119
0.822164 0.703386 0.350556
0.931324 0.714653 0.357960
0.245346 0.774572 0.333446
0.305211 0.780703 0.337600
0.420535 0.792589 0.345454
0.533410 0.804248 0.353096
0.644852 0.815738 0.360677
0.755185 0.827054 0.368298
0.864541 0.838169 0.376040
0.972972 0.849050 0.383981
0.287939 0.908855 0.358463
0.347875 0.915023 0.362563
0.463003 0.926805 0.370562
0.575349 0.938184 0.378592
0.685941 0.949224 0.386799
0.795109 0.959924 0.395275
0.902993 0.970259 0.404101
1.000000 0.980198 0.413349
0.065932 0.046292 0.250870
0.124234 0.051595 0.256172
0.236370 0.061793 0.266371
0.346060 0.071766 0.276355
0.454222 0.081525 0.286351
0.561231 0.091093 0.296421
0.667340 0.100506 0.306560
0.772718 0.109792 0.316756
0.083770 0.117130 0.268708
0.142072 0.122432 0.274010
0.254066 0.132560 0.284315
0.363396 0.142352 0.294569
0.471186 0.151926 0.304844
0.577883 0.161338 0.315148
0.683736 0.170622 0.325479
0.788914 0.179808 0.335826
0.117073 0.252872 0.303770
0.175014 0.257994 0.309344
0.286338 0.267787 0.320151
0.395124 0.277307 0.330813
0.502486 0.286667 0.341408
0.608865 0.295920 0.351951
0.714508 0.305100 0.362440
0.819580 0.314233 0.372866
0.147744 0.384712 0.339503
0.205495 0.389739 0.345218
0.316540 0.399393 0.356234
0.425163 0.408831 0.367020
0.532470 0.418164 0.377656
0.639118 0.427557 0.388000
0.745804 0.437285 0.397720
0.852607 0.447327 0.406869
0.177360 0.514592 0.375304
0.235116 0.519621 0.381015
0.346720 0.529567 0.391620
0.456699 0.539718 0.401404
0.566032 0.550115 0.410547
0.675045 0.560749 0.419146
0.783878 0.571598 0.427280
0.892598 0.582637 0.435011
0.210099 0.645119 0.408302
0.269113 0.650809 0.413086
0.383109 0.662009 0.421925
0.495195 0.673259 0.430152
0.606381 0.684617 0.437923
0.716851 0.696006 0.445442
0.826631 0.707345 0.452874
0.935764 0.718598 0.460298
0.249719 0.778482 0.435834
0.309645 0.784645 0.439941
0.425001 0.796548 0.447773
0.537872 0.808204 0.455418
0.649274 0.819674 0.463028
0.759535 0.830952 0.470701
0.868788 0.842011 0.478520
0.977082 0.852820 0.486561
0.292376 0.912799 0.460802
0.352283 0.918951 0.464925
0.467326 0.930689 0.472985
0.579555 0.942005 0.481102
0.689996 0.952965 0.489419
0.798982 0.963568 0.498030
0.906651 0.973789 0.507014
1.000000 0.983600 0.516441
0.069279 0.049639 0.352713
0.127581 0.054941 0.358015
0.239717 0.065140 0.368213
0.349369 0.075093 0.378226
0.457453 0.084815 0.388280
0.564396 0.094349 0.398400
0.670450 0.103734 0.408580
0.775783 0.112998 0.418810
0.087117 0.120476 0.370550
0.145401 0.125770 0.375866
0.257313 0.135856 0.386232
0.366572 0.145613 0.396540
0.474304 0.155158 0.406857
0.580954 0.164546 0.417198
0.686770 0.173813 0.427556
0.791921 0.182985 0.437923
0.120197 0.256108 0.405780
0.178110 0.261216 0.411374
0.289390 0.270986 0.422214
0.398143 0.280490 0.432901
0.505484 0.289839 0.443513
0.611851 0.299086 0.454064
0.717493 0.308266 0.464554
0.822575 0.317403 0.474972
0.150744 0.387886 0.441605
0.208487 0.392908 0.447327
0.319525 0.402558 0.458349
0.428151 0.411998 0.469131
0.535477 0.421341 0.479753
0.642379 0.430868 0.489910
0.749316 0.440727 0.499445
0.856347 0.450889 0.508426
0.180359 0.517764 0.477407
0.238192 0.522835 0.483062
0.350075 0.532928 0.493460
0.460304 0.543209 0.503061
0.569861 0.553723 0.512038
0.679072 0.564460 0.520491
0.788080 0.575400 0.528495
0.896951 0.586517 0.536114
0.213873 0.648699 0.509833
0.273001 0.654448 0.514534
0.387197 0.665752 0.523224
0.499455 0.677091 0.531324
0.610764 0.688513 0.539003
0.721263 0.699916 0.546502
0.831037 0.711252 0.553937
0.940133 0.722486 0.561389
0.254084 0.782368 0.536927
0.314039 0.788546 0.541014
0.429414 0.800459 0.548831
0.542269 0.812107 0.556488
0.653622 0.823551 0.564134
0.763801 0.834785 0.571868
0.872939 0.845784 0.579772
0.981087 0.856515 0.587920
0.296741 0.916685 0.561896
0.356613 0.922818 0.566044
0.471561 0.934506 0.574174
0.583662 0.945754 0.582386
0.693942 0.956630 0.590821
0.802737 0.967131 0.599573
0.910182 0.977234 0.608721
1.000000 0.986947 0.618284
0.072597 0.052957 0.453672
0.130898 0.058259 0.458975
0.243034 0.068457 0.469173
0.352622 0.078379 0.479234
0.460633 0.088063 0.489343
0.567514 0.097567 0.499509
0.673516 0.106926 0.509729
0.778807 0.116169 0.519990
0.090430 0.123792 0.471513
0.148673 0.129064 0.476860
0.260506 0.139112 0.487285
0.369700 0.148836 0.497641
0.477378 0.158354 0.508000
0.583984 0.167720 0.518373
0.689768 0.176970 0.528756
0.794896 0.186131 0.539140
0.123276 0.259306 0.506918
0.181163 0.264401 0.512532
0.292403 0.274152 0.523402
0.401127 0.283641 0.534111
0.508450 0.292981 0.544736
0.614810 0.302225 0.555293
0.720455 0.311405 0.565780
0.825549 0.320549 0.576189
0.153713 0.391029 0.542826
0.211449 0.396049 0.548553
0.322484 0.405696 0.559577
0.431117 0.415140 0.570354
0.538533 0.424529 0.580911
0.645700 0.434196 0.590872
0.752878 0.444182 0.600229
0.860127 0.454457 0.609049
0.183357 0.520923 0.578607
0.241335 0.526069 0.584155
0.353487 0.536304 0.594355
0.463955 0.546711 0.603779
0.573725 0.557336 0.612599
0.683126 0.568171 0.620912
0.792300 0.579197 0.628792
0.901294 0.590378 0.636319
0.217687 0.652285 0.610431
0.276923 0.658091 0.615051
0.391309 0.669494 0.623601
0.503729 0.680916 0.631581
0.615122 0.692381 0.639198
0.725637 0.703794 0.646684
0.835396 0.715121 0.654131
0.944445 0.726329 0.661618
0.258432 0.786232 0.637129
0.318405 0.792419 0.641203
0.433787 0.804336 0.649015
0.546615 0.815969 0.656691
0.657908 0.827381 0.664382
0.767994 0.838566 0.672184
0.877007 0.849499 0.680179
0.985000 0.860148 0.688442
0.301048 0.920526 0.662128
0.360878 0.926637 0.666307
0.475721 0.938269 0.674515
0.587683 0.949444 0.682828
0.697794 0.960230 0.691388
0.806386 0.970624 0.700288
0.913600 0.980604 0.709607
1.000000 0.990264 0.719243
0.075892 0.056252 0.553955
0.134194 0.061554 0.559257
0.246320 0.071748 0.569463
0.355828 0.081629 0.579584
0.463770 0.091279 0.589744
0.570592 0.100754 0.599954
0.676546 0.110089 0.610210
0.781800 0.119313 0.620499
0.093697 0.127073 0.571817
0.151896 0.132324 0.577196
0.263656 0.142334 0.587677
0.372788 0.152028 0.598079
0.480416 0.161520 0.608476
0.586982 0.170867 0.618878
0.692736 0.180102 0.629283
0.797845 0.189254 0.639681
0.126318 0.262475 0.607391
0.184182 0.267558 0.613021
0.295385 0.277290 0.623920
0.404084 0.286767 0.634647
0.511393 0.296100 0.645283
0.617749 0.305342 0.655842
0.723400 0.314525 0.666325
0.828552 0.323700 0.676692
0.156658 0.394149 0.643371
0.214390 0.399166 0.649101
0.325424 0.408814 0.660126
0.434068 0.418263 0.670895
0.541659 0.427745 0.681322
0.649083 0.437547 0.691094
0.756493 0.447654 0.700280
0.863951 0.458039 0.708946
0.186423 0.524106 0.679062
0.244546 0.529329 0.684504
0.356957 0.539700 0.694513
0.467655 0.550228 0.703767
0.577630 0.560959 0.712435
0.687211 0.571888 0.720615
0.796542 0.582995 0.728379
0.905622 0.594219 0.735843
0.221543 0.655883 0.710305
0.280882 0.661743 0.714848
0.395450 0.673239 0.723263
0.508022 0.684740 0.731130
0.619460 0.696229 0.738713
0.729981 0.707644 0.746195
0.839713 0.718957 0.753662
0.948703 0.730134 0.761192
0.262763 0.790075 0.736650
0.322748 0.796269 0.740715
0.438126 0.808183 0.748530
0.550915 0.819796 0.756235
0.662137 0.831170 0.763978
0.772120 0.842301 0.771855
0.880999 0.853163 0.779949
0.988826 0.863724 0.788334
0.305302 0.924328 0.761706
0.365085 0.930415 0.765919
0.479811 0.941985 0.774213
0.591625 0.953081 0.782635
0.701555 0.963772 0.791328
0.809937 0.974055 0.800383
0.916914 0.983909 0.809876
1.000000 0.993560 0.819526
0.079169 0.059529 0.653688
0.137471 0.064831 0.658990
0.249561 0.075007 0.669223
0.358992 0.084850 0.679402
0.466868 0.094467 0.689611
0.573636 0.103914 0.699863
0.679546 0.113227 0.710151
0.784766 0.122434 0.720466
0.096919 0.130322 0.671592
0.155077 0.135553 0.677001
0.266767 0.145528 0.687534
0.375841 0.155193 0.697980
0.483422 0.164662 0.708412
0.589952 0.173991 0.718841
0.695681 0.183213 0.729266
0.800774 0.192356 0.739676
0.129329 0.265619 0.707324
0.187172 0.270692 0.712970
0.298342 0.280407 0.723893
0.407019 0.289873 0.734637
0.514317 0.299201 0.745280
0.620673 0.308442 0.755841
0.726333 0.317631 0.766316
0.831630 0.326881 0.776576
0.159583 0.397250 0.743368
0.217313 0.402266 0.749100
0.328351 0.411916 0.760122
0.437013 0.421375 0.770877
0.544857 0.430989 0.781118
0.652528 0.440921 0.790709
0.760162 0.451145 0.799729
0.867820 0.461634 0.808246
0.189563 0.527320 0.778901
0.247825 0.532616 0.784240
0.360486 0.543118 0.794065
0.471406 0.553762 0.803155
0.581577 0.564595 0.811679
0.691329 0.575613 0.819731
0.800808 0.586796 0.827385
0.909935 0.598045 0.834814
0.225442 0.659495 0.809583
0.284881 0.665406 0.814053
0.399621 0.676991 0.822340
0.512315 0.688554 0.830116
0.623780 0.700058 0.837680
0.734296 0.711470 0.845166
0.843990 0.722764 0.852660
0.952911 0.733904 0.860241
0.267079 0.793902 0.835620
0.327070 0.800099 0.839680
0.442432 0.812005 0.847506
0.555172 0.823592 0.855248
0.666312 0.834923 0.863050
0.776182 0.845994 0.871012
0.884916 0.856779 0.879212
0.992568 0.867247 0.887726
0.309504 0.928095 0.860759
0.369235 0.934155 0.865010
0.483833 0.945657 0.873398
0.595488 0.956669 0.881937
0.705229 0.967259 0.890769
0.813390 0.977425 0.899987
0.920191 0.987187 0.909609
1.000000 0.996837 0.919259
