omv/luts/12_divide_duststorm.cube
# Original OMV LUT; redistribution permitted with OMV.
TITLE "Divide Duststorm"
LUT_3D_SIZE 32
DOMAIN_MIN 0.0 0.0 0.0
DOMAIN_MAX 1.0 1.0 1.0
0.057280 0.037640 0.000000
0.057280 0.037640 0.000000
0.057280 0.037640 0.000000
0.086726 0.040318 0.000000
0.115582 0.042942 0.000000
0.143982 0.045525 0.000000
0.172093 0.048082 0.000000
0.199990 0.050619 0.000537
0.227718 0.053141 0.003059
0.255306 0.055650 0.005568
0.282776 0.058148 0.008066
0.310142 0.060637 0.010555
0.337417 0.063118 0.013036
0.364610 0.065591 0.015509
0.391729 0.068057 0.017975
0.418777 0.070516 0.020438
0.445748 0.072962 0.022905
0.472646 0.075395 0.025379
0.499475 0.077816 0.027858
0.526241 0.080226 0.030343
0.552945 0.082624 0.032834
0.579592 0.085012 0.035331
0.606184 0.087390 0.037833
0.632724 0.089758 0.040341
0.659214 0.092117 0.042853
0.685658 0.094467 0.045371
0.712056 0.096809 0.047893
0.738411 0.099143 0.050419
0.764725 0.101469 0.052950
0.790429 0.103738 0.055429
0.790429 0.103738 0.055429
0.790429 0.103738 0.055429
0.057280 0.037640 0.000000
0.057280 0.037640 0.000000
0.057280 0.037640 0.000000
0.086726 0.040318 0.000000
0.115582 0.042942 0.000000
0.143982 0.045525 0.000000
0.172093 0.048082 0.000000
0.199990 0.050619 0.000537
0.227718 0.053141 0.003059
0.255306 0.055650 0.005568
0.282776 0.058148 0.008066
0.310142 0.060637 0.010555
0.337417 0.063118 0.013036
0.364610 0.065591 0.015509
0.391729 0.068057 0.017975
0.418777 0.070516 0.020438
0.445748 0.072962 0.022905
0.472646 0.075395 0.025379
0.499475 0.077816 0.027858
0.526241 0.080226 0.030343
0.552945 0.082624 0.032834
0.579592 0.085012 0.035331
0.606184 0.087390 0.037833
0.632724 0.089758 0.040341
0.659214 0.092117 0.042853
0.685658 0.094467 0.045371
0.712056 0.096809 0.047893
0.738411 0.099143 0.050419
0.764725 0.101469 0.052950
0.790429 0.103738 0.055429
0.790429 0.103738 0.055429
0.790429 0.103738 0.055429
0.057280 0.037640 0.000000
0.057280 0.037640 0.000000
0.057280 0.037640 0.000000
0.086726 0.040318 0.000000
0.115582 0.042942 0.000000
0.143982 0.045525 0.000000
0.172093 0.048082 0.000000
0.199990 0.050619 0.000537
0.227718 0.053141 0.003059
0.255306 0.055650 0.005568
0.282776 0.058148 0.008066
0.310142 0.060637 0.010555
0.337417 0.063118 0.013036
0.364610 0.065591 0.015509
0.391729 0.068057 0.017975
0.418777 0.070516 0.020438
0.445748 0.072962 0.022905
0.472646 0.075395 0.025379
0.499475 0.077816 0.027858
0.526241 0.080226 0.030343
0.552945 0.082624 0.032834
0.579592 0.085012 0.035331
0.606184 0.087390 0.037833
0.632724 0.089758 0.040341
0.659214 0.092117 0.042853
0.685658 0.094467 0.045371
0.712056 0.096809 0.047893
0.738411 0.099143 0.050419
0.764725 0.101469 0.052950
0.790429 0.103738 0.055429
0.790429 0.103738 0.055429
0.790429 0.103738 0.055429
0.066289 0.073417 0.000000
0.066289 0.073417 0.000000
0.066289 0.073417 0.000000
0.095735 0.076095 0.000000
0.124591 0.078720 0.001870
0.152992 0.081303 0.004453
0.181102 0.083859 0.007009
0.208999 0.086396 0.009546
0.236727 0.088918 0.012068
0.264315 0.091427 0.014577
0.291785 0.093926 0.017076
0.319151 0.096414 0.019565
0.346414 0.098889 0.022054
0.373580 0.101349 0.024548
0.400656 0.103794 0.027046
0.427650 0.106226 0.029549
0.454568 0.108645 0.032056
0.481414 0.111052 0.034568
0.508194 0.113448 0.037085
0.534911 0.115834 0.039606
0.561570 0.118209 0.042132
0.588172 0.120575 0.044662
0.614722 0.122931 0.047196
0.641221 0.125279 0.049734
0.667673 0.127619 0.052276
0.694079 0.129951 0.054821
0.720442 0.132275 0.057369
0.746764 0.134592 0.059921
0.773046 0.136902 0.062476
0.798720 0.139156 0.064977
0.798720 0.139156 0.064977
0.798720 0.139156 0.064977
0.075118 0.108477 0.005396
0.075118 0.108477 0.005396
0.075118 0.108477 0.005396
0.104564 0.111155 0.008074
0.133420 0.113780 0.010698
0.161820 0.116363 0.013281
0.189931 0.118919 0.015838
0.217827 0.121456 0.018375
0.245551 0.123976 0.020900
0.273118 0.126475 0.023425
0.300552 0.128955 0.025950
0.327867 0.131418 0.028478
0.355077 0.133866 0.031007
0.382191 0.136300 0.033540
0.409217 0.138720 0.036075
0.436163 0.141128 0.038614
0.463035 0.143524 0.041156
0.489837 0.145909 0.043701
0.516575 0.148284 0.046250
0.543251 0.150649 0.048801
0.569871 0.153005 0.051356
0.596436 0.155352 0.053914
0.622950 0.157691 0.056474
0.649416 0.160022 0.059038
0.675836 0.162346 0.061603
0.702212 0.164663 0.064171
0.728546 0.166973 0.066741
0.754841 0.169276 0.069313
0.781098 0.171574 0.071886
0.806749 0.173817 0.074405
0.806749 0.173817 0.074405
0.806749 0.173817 0.074405
0.083807 0.142984 0.014085
0.083807 0.142984 0.014085
0.083807 0.142984 0.014085
0.113253 0.145662 0.016763
0.142109 0.148286 0.019388
0.170498 0.150864 0.021979
0.198580 0.153406 0.024557
0.226433 0.155921 0.027127
0.254102 0.158414 0.029693
0.281618 0.160886 0.032257
0.309001 0.163341 0.034820
0.336268 0.165781 0.037384
0.363431 0.168205 0.039948
0.390500 0.170616 0.042514
0.417483 0.173015 0.045082
0.444388 0.175403 0.047651
0.471221 0.177779 0.050223
0.497985 0.180146 0.052796
0.524687 0.182503 0.055372
0.551330 0.184851 0.057949
0.577917 0.187191 0.060528
0.604452 0.189522 0.063108
0.630937 0.191847 0.065691
0.657376 0.194164 0.068274
0.683770 0.196475 0.070859
0.710122 0.198780 0.073445
0.736435 0.201079 0.076031
0.762709 0.203372 0.078618
0.788947 0.205661 0.081206
0.814582 0.207895 0.083737
0.814582 0.207895 0.083737
0.814582 0.207895 0.083737
0.092390 0.177129 0.022699
0.092390 0.177129 0.022699
0.092390 0.177129 0.022699
0.121801 0.179790 0.025403
0.150606 0.182389 0.028066
0.178941 0.184939 0.030698
0.206971 0.187455 0.033315
0.234774 0.189946 0.035922
0.262395 0.192414 0.038524
0.289865 0.194864 0.041122
0.317204 0.197297 0.043719
0.344429 0.199715 0.046314
0.371552 0.202120 0.048908
0.398582 0.204512 0.051503
0.425529 0.206892 0.054098
0.452400 0.209262 0.056694
0.479199 0.211622 0.059290
0.505933 0.213973 0.061887
0.532605 0.216316 0.064484
0.559220 0.218650 0.067082
0.585781 0.220976 0.069681
0.612291 0.223296 0.072280
0.638754 0.225609 0.074879
0.665171 0.227916 0.077478
0.691546 0.230217 0.080078
0.717881 0.232513 0.082677
0.744177 0.234804 0.085275
0.770437 0.237090 0.087873
0.796662 0.239373 0.090470
0.822286 0.241601 0.093010
0.822286 0.241601 0.093010
0.822286 0.241601 0.093010
0.100754 0.210939 0.031362
0.100754 0.210939 0.031362
0.100754 0.210939 0.031362
0.130112 0.213573 0.034106
0.158866 0.216146 0.036807
0.187153 0.218672 0.039475
0.215137 0.221166 0.042126
0.242897 0.223635 0.044766
0.270477 0.226082 0.047399
0.297907 0.228512 0.050027
0.325208 0.230926 0.052652
0.352398 0.233327 0.055274
0.379486 0.235714 0.057894
0.406485 0.238090 0.060513
0.433402 0.240456 0.063130
0.460243 0.242811 0.065748
0.487016 0.245158 0.068364
0.513724 0.247496 0.070980
0.540373 0.249827 0.073595
0.566966 0.252150 0.076209
0.593507 0.254467 0.078823
0.619999 0.256777 0.081435
0.646444 0.259082 0.084047
0.672847 0.261381 0.086658
0.699208 0.263676 0.089267
0.725531 0.265966 0.091875
0.751817 0.268252 0.094482
0.778069 0.270534 0.097086
0.804287 0.272812 0.099688
0.829905 0.275038 0.102232
0.829905 0.275038 0.102232
0.829905 0.275038 0.102232
0.108906 0.244463 0.040095
0.108906 0.244463 0.040095
0.108906 0.244463 0.040095
0.138217 0.247073 0.042874
0.166927 0.249624 0.045608
0.195172 0.252130 0.048307
0.223117 0.254604 0.050988
0.250839 0.257053 0.053656
0.278383 0.259484 0.056316
0.305780 0.261897 0.058969
0.333050 0.264295 0.061617
0.360209 0.266681 0.064261
0.387270 0.269054 0.066902
0.414243 0.271417 0.069541
0.441135 0.273770 0.072177
0.467954 0.276114 0.074811
0.494705 0.278451 0.077443
0.521394 0.280779 0.080073
0.548025 0.283101 0.082701
0.574602 0.285416 0.085328
0.601129 0.287726 0.087952
0.627608 0.290030 0.090574
0.654043 0.292329 0.093194
0.680436 0.294624 0.095812
0.706790 0.296914 0.098427
0.733107 0.299201 0.101040
0.759388 0.301485 0.103649
0.785637 0.303766 0.106256
0.811854 0.306043 0.108859
0.837472 0.308270 0.111403
0.837472 0.308270 0.111403
0.837472 0.308270 0.111403
0.116875 0.277747 0.048889
0.116875 0.277747 0.048889
0.116875 0.277747 0.048889
0.146145 0.280337 0.051699
0.174817 0.282870 0.054461
0.203027 0.285357 0.057187
0.230939 0.287814 0.059893
0.258630 0.290249 0.062584
0.286145 0.292664 0.065266
0.313514 0.295064 0.067940
0.340758 0.297449 0.070607
0.367894 0.299823 0.073269
0.394933 0.302185 0.075927
0.421885 0.304538 0.078580
0.448758 0.306882 0.081231
0.475560 0.309218 0.083877
0.502297 0.311546 0.086521
0.528972 0.313868 0.089161
0.555591 0.316184 0.091798
0.582158 0.318494 0.094432
0.608676 0.320799 0.097063
0.635149 0.323100 0.099691
0.661578 0.325396 0.102315
0.687967 0.327689 0.104935
0.714319 0.329979 0.107552
0.740635 0.332266 0.110165
0.766918 0.334550 0.112774
0.793169 0.336832 0.115378
0.819390 0.339112 0.117978
0.845015 0.341341 0.120517
0.845015 0.341341 0.120517
0.845015 0.341341 0.120517
0.124689 0.310828 0.057736
0.124689 0.310828 0.057736
0.124689 0.310828 0.057736
0.153925 0.313401 0.060572
0.182566 0.315918 0.063358
0.210746 0.318390 0.066106
0.238630 0.320834 0.068832
0.266296 0.323256 0.071543
0.293788 0.325659 0.074242
0.321135 0.328048 0.076931
0.348360 0.330424 0.079614
0.375477 0.332788 0.082289
0.402500 0.335143 0.084959
0.429438 0.337488 0.087624
0.456298 0.339825 0.090284
0.483089 0.342156 0.092939
0.509816 0.344480 0.095589
0.536483 0.346797 0.098236
0.563096 0.349110 0.100877
0.589659 0.351418 0.103515
0.616174 0.353722 0.106148
0.642645 0.356022 0.108776
0.669075 0.358318 0.111400
0.695466 0.360612 0.114019
0.721821 0.362904 0.116633
0.748142 0.365193 0.119243
0.774432 0.367480 0.121846
0.800691 0.369766 0.124445
0.826931 0.372056 0.127031
0.852616 0.374317 0.129525
0.852616 0.374317 0.129525
0.852616 0.374317 0.129525
0.132374 0.343734 0.066625
0.132374 0.343734 0.066625
0.132374 0.343734 0.066625
0.161582 0.346293 0.069482
0.190197 0.348797 0.072287
0.218353 0.351258 0.075053
0.246216 0.353691 0.077795
0.273863 0.356103 0.080520
0.301337 0.358498 0.083232
0.328669 0.360879 0.085934
0.355879 0.363247 0.088627
0.382984 0.365606 0.091312
0.409996 0.367955 0.093989
0.436925 0.370296 0.096661
0.463779 0.372630 0.099326
0.490564 0.374957 0.101985
0.517287 0.377279 0.104639
0.543952 0.379596 0.107287
0.570564 0.381908 0.109929
0.597128 0.384216 0.112566
0.623645 0.386522 0.115197
0.650121 0.388824 0.117822
0.676556 0.391123 0.120442
0.702955 0.393421 0.123055
0.729319 0.395717 0.125663
0.755678 0.398025 0.128244
0.782052 0.400357 0.130785
0.808442 0.402712 0.133287
0.834848 0.405089 0.135751
0.860695 0.407435 0.138126
0.860695 0.407435 0.138126
0.860695 0.407435 0.138126
0.139952 0.376490 0.075546
0.139952 0.376490 0.075546
0.139952 0.376490 0.075546
0.169138 0.379038 0.078419
0.197733 0.381532 0.081238
0.225872 0.383984 0.084017
0.253720 0.386410 0.086771
0.281352 0.388815 0.089506
0.308815 0.391204 0.092227
0.336137 0.393579 0.094937
0.363339 0.395944 0.097636
0.390437 0.398299 0.100325
0.417444 0.400646 0.103007
0.444370 0.402985 0.105681
0.471222 0.405318 0.108347
0.498007 0.407645 0.111006
0.524732 0.409968 0.113659
0.551400 0.412287 0.116304
0.578017 0.414601 0.118943
0.604587 0.416913 0.121575
0.631113 0.419222 0.124200
0.657604 0.421533 0.126813
0.684099 0.423863 0.129389
0.710604 0.426216 0.131924
0.737119 0.428592 0.134420
0.763646 0.430989 0.136877
0.790185 0.433408 0.139297
0.816736 0.435847 0.141681
0.843298 0.438307 0.144029
0.869296 0.440732 0.146293
0.869296 0.440732 0.146293
0.869296 0.440732 0.146293
0.147445 0.409116 0.084485
0.147445 0.409116 0.084485
0.147445 0.409116 0.084485
0.176616 0.411656 0.087370
0.205197 0.414144 0.090200
0.233325 0.416590 0.092988
0.261163 0.419011 0.095749
0.288787 0.421412 0.098490
0.316243 0.423798 0.101216
0.343561 0.426171 0.103928
0.370760 0.428534 0.106629
0.397858 0.430889 0.109320
0.424866 0.433236 0.112001
0.451793 0.435576 0.114673
0.478649 0.437911 0.117336
0.505440 0.440242 0.119991
0.532172 0.442568 0.122638
0.558849 0.444891 0.125277
0.585498 0.447222 0.127893
0.612147 0.449575 0.130466
0.638799 0.451951 0.132998
0.665455 0.454348 0.135490
0.692117 0.456766 0.137943
0.718785 0.459205 0.140358
0.745460 0.461665 0.142736
0.772142 0.464144 0.145079
0.798833 0.466642 0.147387
0.825532 0.469159 0.149661
0.852239 0.471695 0.151902
0.878375 0.474192 0.154064
0.878375 0.474192 0.154064
0.878375 0.474192 0.154064
0.154876 0.441632 0.093432
0.154876 0.441632 0.093432
0.154876 0.441632 0.093432
0.184036 0.444167 0.096325
0.212610 0.446651 0.099160
0.240732 0.449095 0.101952
0.268566 0.451513 0.104716
0.296188 0.453913 0.107459
0.323644 0.456299 0.110185
0.350962 0.458673 0.112897
0.378165 0.461037 0.115596
0.405267 0.463394 0.118283
0.432281 0.465744 0.120959
0.459216 0.468089 0.123625
0.486084 0.470430 0.126280
0.512925 0.472786 0.128898
0.539756 0.475164 0.131472
0.566578 0.477564 0.134004
0.593396 0.479984 0.136495
0.620211 0.482425 0.138946
0.647025 0.484885 0.141358
0.673840 0.487366 0.143734
0.700655 0.489865 0.146073
0.727474 0.492383 0.148377
0.754296 0.494920 0.150647
0.781122 0.497474 0.152883
0.807952 0.500045 0.155088
0.834788 0.502634 0.157262
0.861628 0.505238 0.159405
0.887890 0.507802 0.161474
0.887890 0.507802 0.161474
0.887890 0.507802 0.161474
0.162263 0.474055 0.102375
0.162263 0.474055 0.102375
0.162263 0.474055 0.102375
0.191420 0.476588 0.105270
0.219992 0.479071 0.108107
0.248114 0.481514 0.110899
0.275949 0.483933 0.113662
0.303575 0.486335 0.116402
0.331036 0.488723 0.119124
0.358361 0.491101 0.121831
0.385572 0.493470 0.124523
0.412695 0.495837 0.127195
0.439777 0.498223 0.129821
0.466829 0.500629 0.132402
0.493858 0.503055 0.134938
0.520868 0.505500 0.137431
0.547863 0.507965 0.139884
0.574847 0.510449 0.142297
0.601822 0.512952 0.144672
0.628790 0.515473 0.147010
0.655754 0.518012 0.149312
0.682714 0.520569 0.151580
0.709673 0.523143 0.153814
0.736630 0.525734 0.156016
0.763586 0.528340 0.158186
0.790544 0.530963 0.160326
0.817502 0.533601 0.162436
0.844461 0.536255 0.164518
0.871422 0.538922 0.166572
0.897799 0.541545 0.168556
0.897799 0.541545 0.168556
0.897799 0.541545 0.168556
0.169629 0.506400 0.111301
0.169629 0.506400 0.111301
0.169629 0.506400 0.111301
0.198787 0.508934 0.114195
0.227363 0.511418 0.117029
0.255491 0.513865 0.119817
0.283334 0.516288 0.122574
0.310968 0.518694 0.125307
0.338463 0.521100 0.128005
0.365873 0.523521 0.130649
0.393217 0.525961 0.133243
0.420509 0.528417 0.135790
0.447760 0.530892 0.138292
0.474977 0.533384 0.140751
0.502166 0.535894 0.143169
0.529332 0.538422 0.145547
0.556480 0.540967 0.147887
0.583613 0.543529 0.150190
0.610733 0.546108 0.152458
0.637842 0.548703 0.154692
0.664943 0.551314 0.156893
0.692038 0.553941 0.159061
0.719126 0.556583 0.161199
0.746210 0.559240 0.163307
0.773289 0.561911 0.165387
0.800366 0.564595 0.167438
0.827440 0.567294 0.169463
0.854511 0.570005 0.171462
0.881581 0.572729 0.173435
0.908061 0.575405 0.175343
0.908061 0.575405 0.175343
0.908061 0.575405 0.175343
0.176990 0.538681 0.120199
0.176990 0.538681 0.120199
0.176990 0.538681 0.120199
0.206157 0.541220 0.123086
0.234743 0.543709 0.125913
0.262918 0.546180 0.128666
0.290860 0.548655 0.131350
0.318644 0.551140 0.133974
0.346312 0.553637 0.136543
0.373891 0.556148 0.139063
0.401400 0.558674 0.141536
0.428852 0.561215 0.143964
0.456259 0.563771 0.146351
0.483628 0.566343 0.148698
0.510966 0.568931 0.151006
0.538276 0.571535 0.153278
0.565565 0.574153 0.155514
0.592834 0.576787 0.157716
0.620087 0.579435 0.159886
0.647326 0.582098 0.162024
0.674552 0.584774 0.164132
0.701768 0.587464 0.166211
0.728975 0.590167 0.168261
0.756173 0.592884 0.170285
0.783364 0.595612 0.172282
0.810548 0.598353 0.174254
0.837726 0.601105 0.176201
0.864898 0.603868 0.178126
0.892064 0.606641 0.180027
0.918635 0.609365 0.181867
0.918635 0.609365 0.181867
0.918635 0.609365 0.181867
0.184413 0.570937 0.129023
0.184413 0.570937 0.129023
0.184413 0.570937 0.129023
0.213692 0.573535 0.131827
0.242442 0.576111 0.134533
0.270793 0.578674 0.137157
0.298906 0.581239 0.139714
0.326856 0.583811 0.142216
0.354685 0.586393 0.144667
0.382420 0.588986 0.147071
0.410082 0.591592 0.149431
0.437682 0.594211 0.151751
0.465233 0.596842 0.154031
0.492742 0.599488 0.156274
0.520216 0.602147 0.158482
0.547659 0.604819 0.160656
0.575076 0.607505 0.162797
0.602470 0.610203 0.164908
0.629844 0.612915 0.166988
0.657200 0.615638 0.169039
0.684540 0.618374 0.171063
0.711866 0.621121 0.173060
0.739178 0.623879 0.175032
0.766479 0.626648 0.176979
0.793769 0.629428 0.178903
0.821049 0.632217 0.180804
0.848319 0.635017 0.182683
0.875571 0.637821 0.184548
0.902798 0.640626 0.186405
0.929409 0.643370 0.188214
0.929409 0.643370 0.188214
0.929409 0.643370 0.188214
0.192295 0.603382 0.137481
0.192295 0.603382 0.137481
0.192295 0.603382 0.137481
0.221752 0.606073 0.140154
0.250673 0.608739 0.142735
0.279188 0.611389 0.145237
0.307459 0.614037 0.147678
0.335562 0.616689 0.150066
0.363540 0.619349 0.152407
0.391420 0.622018 0.154705
0.419222 0.624697 0.156962
0.446958 0.627386 0.159181
0.474641 0.630087 0.161364
0.502278 0.632800 0.163512
0.529876 0.635523 0.165628
0.557439 0.638258 0.167713
0.584972 0.641004 0.169768
0.612479 0.643761 0.171795
0.639962 0.646529 0.173795
0.667423 0.649307 0.175768
0.694865 0.652095 0.177716
0.722289 0.654892 0.179641
0.749696 0.657699 0.181542
0.777087 0.660514 0.183423
0.804449 0.663331 0.185293
0.831781 0.666148 0.187155
0.859084 0.668965 0.189010
0.886357 0.671780 0.190859
0.913600 0.674593 0.192704
0.940222 0.677343 0.194506
0.940222 0.677343 0.194506
0.940222 0.677343 0.194506
0.200695 0.636049 0.145533
0.200695 0.636049 0.145533
0.200695 0.636049 0.145533
0.230317 0.638827 0.148084
0.259395 0.641575 0.150548
0.288061 0.644304 0.152939
0.316479 0.647029 0.155272
0.344723 0.649755 0.157557
0.372837 0.652486 0.159797
0.400850 0.655224 0.161996
0.428779 0.657969 0.164159
0.456640 0.660723 0.166286
0.484443 0.663487 0.168380
0.512195 0.666259 0.170443
0.539905 0.669041 0.172476
0.567577 0.671832 0.174481
0.595215 0.674632 0.176458
0.622822 0.677441 0.178410
0.650402 0.680259 0.180337
0.677957 0.683085 0.182241
0.705483 0.685916 0.184127
0.732973 0.688747 0.186003
0.760425 0.691578 0.187871
0.787842 0.694407 0.189732
0.815223 0.697234 0.191588
0.842570 0.700058 0.193439
0.869882 0.702879 0.195287
0.897159 0.705697 0.197134
0.924401 0.708510 0.198979
0.951018 0.711257 0.200785
0.951018 0.711257 0.200785
0.951018 0.711257 0.200785
0.209571 0.668919 0.153209
0.209571 0.668919 0.153209
0.209571 0.668919 0.153209
0.239346 0.671776 0.155648
0.268569 0.674600 0.158005
0.297374 0.677402 0.160293
0.325925 0.680196 0.162528
0.354298 0.682989 0.164717
0.382536 0.685785 0.166865
0.410668 0.688585 0.168976
0.438714 0.691391 0.171053
0.466686 0.694203 0.173097
0.494597 0.697022 0.175111
0.522454 0.699848 0.177097
0.550264 0.702682 0.179055
0.578032 0.705522 0.180988
0.605762 0.708370 0.182897
0.633448 0.711219 0.184791
0.661087 0.714067 0.186675
0.688679 0.716913 0.188551
0.716228 0.719756 0.190420
0.743735 0.722597 0.192283
0.771200 0.725434 0.194142
0.798624 0.728266 0.195998
0.826007 0.731095 0.197852
0.853351 0.733918 0.199705
0.880656 0.736735 0.201559
0.907920 0.739546 0.203414
0.935145 0.742350 0.205273
0.961740 0.745086 0.207094
0.961740 0.745086 0.207094
0.961740 0.745086 0.207094
0.218884 0.701972 0.160541
0.218884 0.701972 0.160541
0.218884 0.701972 0.160541
0.248797 0.704902 0.162877
0.278153 0.707795 0.165136
0.307084 0.710662 0.167331
0.335756 0.713519 0.169476
0.364246 0.716373 0.171578
0.392597 0.719227 0.173643
0.420837 0.722083 0.175674
0.448986 0.724942 0.177674
0.477059 0.727806 0.179644
0.505065 0.730674 0.181587
0.533013 0.733547 0.183505
0.560895 0.736418 0.185410
0.588715 0.739285 0.187305
0.616476 0.742149 0.189190
0.644183 0.745009 0.191069
0.671837 0.747865 0.192942
0.699440 0.750717 0.194810
0.726995 0.753563 0.196674
0.754502 0.756404 0.198537
0.781962 0.759238 0.200400
0.809376 0.762066 0.202263
0.836746 0.764887 0.204127
0.864071 0.767700 0.205995
0.891351 0.770504 0.207866
0.918586 0.773300 0.209743
0.945777 0.776086 0.211626
0.972335 0.778801 0.213476
0.972335 0.778801 0.213476
0.972335 0.778801 0.213476
0.228593 0.735189 0.167558
0.228593 0.735189 0.167558
0.228593 0.735189 0.167558
0.258633 0.738185 0.169801
0.288108 0.741140 0.171971
0.317153 0.744066 0.174081
0.345934 0.746980 0.176145
0.374528 0.749888 0.178170
0.402979 0.752793 0.180161
0.431316 0.755698 0.182121
0.459552 0.758602 0.184055
0.487691 0.761500 0.185976
0.515744 0.764393 0.187885
0.543718 0.767279 0.189784
0.571619 0.770160 0.191674
0.599453 0.773035 0.193559
0.627223 0.775904 0.195438
0.654934 0.778766 0.197314
0.682586 0.781621 0.199187
0.710183 0.784469 0.201060
0.737727 0.787309 0.202933
0.765217 0.790142 0.204808
0.792656 0.792965 0.206686
0.820045 0.795779 0.208568
0.847383 0.798583 0.210455
0.874672 0.801377 0.212349
0.901912 0.804160 0.214251
0.929102 0.806931 0.216161
0.956242 0.809691 0.218081
0.982745 0.812378 0.219970
0.982745 0.812378 0.219970
0.982745 0.812378 0.219970
0.238659 0.768551 0.174290
0.238659 0.768551 0.174290
0.238659 0.768551 0.174290
0.268812 0.771606 0.176449
0.298395 0.774616 0.178540
0.327542 0.777595 0.180574
0.356420 0.780558 0.182566
0.385098 0.783509 0.184529
0.413611 0.786446 0.186473
0.441988 0.789373 0.188403
0.470248 0.792289 0.190320
0.498405 0.795197 0.192228
0.526470 0.798096 0.194127
0.554451 0.800986 0.196021
0.582355 0.803868 0.197910
0.610186 0.806742 0.199797
0.637948 0.809606 0.201682
0.665645 0.812461 0.203567
0.693280 0.815307 0.205454
0.720854 0.818143 0.207344
0.748369 0.820969 0.209237
0.775827 0.823783 0.211136
0.803229 0.826587 0.213042
0.830575 0.829378 0.214955
0.857865 0.832157 0.216877
0.885102 0.834923 0.218810
0.912284 0.837676 0.220753
0.939412 0.840415 0.222709
0.966486 0.843139 0.224679
0.992919 0.845788 0.226620
0.992919 0.845788 0.226620
0.992919 0.845788 0.226620
0.249043 0.802039 0.180767
0.249043 0.802039 0.180767
0.249043 0.802039 0.180767
0.279297 0.805145 0.182851
0.308962 0.808198 0.184880
0.338169 0.811208 0.186871
0.367083 0.814190 0.188836
0.395784 0.817153 0.190782
0.424314 0.820099 0.192714
0.452702 0.823031 0.194636
0.480967 0.825951 0.196549
0.509125 0.828859 0.198455
0.537186 0.831756 0.200358
0.565158 0.834641 0.202259
0.593047 0.837515 0.204159
0.620858 0.840378 0.206060
0.648596 0.843230 0.207963
0.676263 0.846069 0.209870
0.703863 0.848897 0.211783
0.731398 0.851712 0.213701
0.758868 0.854513 0.215628
0.786277 0.857302 0.217563
0.813624 0.860077 0.219509
0.840911 0.862837 0.221466
0.868137 0.865582 0.223435
0.895305 0.868312 0.225418
0.922414 0.871025 0.227416
0.949463 0.873722 0.229429
0.976454 0.876402 0.231460
1.000000 0.879007 0.233464
1.000000 0.879007 0.233464
1.000000 0.879007 0.233464
0.259661 0.835611 0.187052
0.259661 0.835611 0.187052
0.259661 0.835611 0.187052
0.289950 0.838735 0.189110
0.319638 0.841800 0.191123
0.348860 0.844818 0.193101
0.377785 0.847806 0.195059
0.406490 0.850771 0.197002
0.435020 0.853717 0.198934
0.463402 0.856646 0.200860
0.491657 0.859560 0.202781
0.519798 0.862460 0.204700
0.547838 0.865345 0.206618
0.575783 0.868216 0.208538
0.603640 0.871074 0.210461
0.631415 0.873917 0.212389
0.659111 0.876747 0.214323
0.686733 0.879562 0.216264
0.714281 0.882362 0.218214
0.741760 0.885147 0.220174
0.769169 0.887917 0.222146
0.796512 0.890670 0.224129
0.823788 0.893408 0.226127
0.850999 0.896128 0.228139
0.878146 0.898830 0.230168
0.905228 0.901515 0.232214
0.932247 0.904181 0.234278
0.959201 0.906828 0.236361
0.986092 0.909455 0.238465
1.000000 0.912005 0.240543
1.000000 0.912005 0.240543
1.000000 0.912005 0.240543
0.270340 0.869179 0.193274
0.270340 0.869179 0.193274
0.270340 0.869179 0.193274
0.300640 0.872309 0.195324
0.330331 0.875376 0.197334
0.359552 0.878393 0.199314
0.388470 0.881378 0.201277
0.417163 0.884336 0.203229
0.445674 0.887273 0.205174
0.474034 0.890190 0.207116
0.502260 0.893089 0.209058
0.530369 0.895971 0.211001
0.558370 0.898836 0.212948
0.586272 0.901684 0.214900
0.614081 0.904517 0.216858
0.641803 0.907332 0.218825
0.669441 0.910131 0.220802
0.697000 0.912912 0.222789
0.724480 0.915677 0.224789
