omv/luts/13_wasteland_noir.cube
# Original OMV LUT; redistribution permitted with OMV.
TITLE "Wasteland Noir"
LUT_3D_SIZE 5
DOMAIN_MIN 0.000000 0.000000 0.000000
DOMAIN_MAX 0.903226 0.903226 0.903226
0.012988 0.017928 0.023856
0.092585 0.042698 0.048626
0.214629 0.080676 0.086604
0.337539 0.118848 0.124621
0.461094 0.157053 0.162327
0.096333 0.156070 0.107134
0.176025 0.180777 0.131653
0.298341 0.218574 0.168904
0.421564 0.256537 0.206086
0.545332 0.294600 0.243223
0.225171 0.367180 0.232026
0.305080 0.391742 0.255966
0.427602 0.429401 0.292668
0.551054 0.467462 0.329733
0.675388 0.506097 0.367232
0.355877 0.579836 0.356685
0.436238 0.604910 0.381022
0.559569 0.643622 0.418704
0.683719 0.682815 0.457053
0.808369 0.722194 0.495592
0.489319 0.796603 0.485288
0.569759 0.822004 0.510163
0.692952 0.860845 0.548285
0.816645 0.899714 0.586617
0.940374 0.938404 0.625041
0.021400 0.026340 0.087095
0.100997 0.051110 0.111865
0.223042 0.089087 0.149841
0.345992 0.127232 0.187749
0.469579 0.165416 0.225372
0.104769 0.164466 0.170311
0.184485 0.189157 0.194764
0.306830 0.226934 0.231936
0.430073 0.264884 0.269066
0.553851 0.302941 0.306179
0.233688 0.375522 0.294987
0.313599 0.400083 0.318920
0.436116 0.437745 0.355634
0.559661 0.475897 0.392752
0.684063 0.514618 0.430330
0.364537 0.588334 0.419759
0.444927 0.613459 0.444155
0.568269 0.652234 0.481946
0.692428 0.691449 0.520329
0.817066 0.730820 0.558867
0.498022 0.805233 0.548564
0.578444 0.830621 0.573437
0.701584 0.869422 0.611552
0.825192 0.908228 0.649873
0.948806 0.946831 0.688283
0.034298 0.039238 0.184058
0.113895 0.064007 0.208828
0.235958 0.101972 0.246753
0.358968 0.140078 0.284502
0.482599 0.178232 0.322007
0.117719 0.177329 0.267132
0.197470 0.201996 0.291492
0.319857 0.239746 0.328556
0.443125 0.277679 0.365618
0.566912 0.315729 0.402705
0.246748 0.388311 0.391516
0.326660 0.412871 0.415447
0.449201 0.450567 0.452195
0.572894 0.488869 0.489407
0.697382 0.527715 0.527116
0.377838 0.601399 0.516504
0.458262 0.626595 0.540998
0.581607 0.665458 0.578957
0.705780 0.704688 0.617349
0.830388 0.744036 0.655883
0.511357 0.818458 0.645581
0.591742 0.843819 0.670449
0.714787 0.882549 0.708553
0.838253 0.921248 0.746856
0.961705 0.959729 0.785246
0.047279 0.052219 0.281647
0.126876 0.076988 0.306417
0.248981 0.114926 0.344232
0.372045 0.152995 0.381836
0.495715 0.191123 0.419237
0.130773 0.190261 0.364528
0.210556 0.214907 0.388803
0.332978 0.252633 0.425771
0.456266 0.290553 0.462779
0.580058 0.328601 0.499855
0.259894 0.401182 0.488665
0.339804 0.425744 0.512602
0.462427 0.463526 0.549408
0.586249 0.501970 0.586728
0.710801 0.540934 0.624581
0.391246 0.614587 0.613925
0.471689 0.639851 0.638524
0.595039 0.678778 0.676603
0.719213 0.718008 0.714995
0.843775 0.757321 0.753523
0.524761 0.831757 0.743223
0.605098 0.857082 0.768086
0.728032 0.895728 0.806175
0.851339 0.934308 0.844459
0.974686 0.972710 0.882835
0.060310 0.065250 0.379613
0.139909 0.090018 0.404378
0.262073 0.127916 0.442033
0.385188 0.165952 0.479505
0.508891 0.204058 0.516815
0.143895 0.203232 0.462252
0.223706 0.227859 0.486452
0.346158 0.265565 0.523339
0.469461 0.303475 0.560307
0.593252 0.341523 0.597385
0.273091 0.414103 0.586190
0.352994 0.438669 0.610144
0.475756 0.476586 0.647029
0.599684 0.515164 0.684468
0.724280 0.554237 0.722478
0.404719 0.627863 0.711774
0.485167 0.653188 0.736488
0.608529 0.692153 0.774626
0.732688 0.731372 0.813016
0.857186 0.770637 0.851536
0.538194 0.845089 0.841239
0.618474 0.870371 0.866094
0.741280 0.908921 0.904168
0.864411 0.947369 0.942429
0.987717 0.985741 0.980801
