omv/luts/13_wasteland_noir.cube
# Original OMV LUT; redistribution permitted with OMV.
TITLE "Wasteland Noir"
LUT_3D_SIZE 32
DOMAIN_MIN 0.0 0.0 0.0
DOMAIN_MAX 1.0 1.0 1.0
0.012988 0.017928 0.023856
0.012988 0.017928 0.023856
0.012988 0.017928 0.023856
0.023687 0.021257 0.027185
0.040782 0.026577 0.032505
0.057989 0.031932 0.037860
0.075263 0.037307 0.043235
0.092585 0.042698 0.048626
0.109945 0.048100 0.054028
0.127336 0.053512 0.059440
0.144754 0.058932 0.064860
0.162194 0.064359 0.070287
0.179655 0.069793 0.075721
0.197133 0.075232 0.081160
0.214629 0.080676 0.086604
0.232139 0.086125 0.092053
0.249666 0.091576 0.097498
0.267210 0.097029 0.102937
0.284770 0.102483 0.108368
0.302346 0.107937 0.113792
0.319935 0.113392 0.119210
0.337539 0.118848 0.124621
0.355155 0.124305 0.130025
0.372784 0.129762 0.135423
0.390424 0.135219 0.140815
0.408076 0.140677 0.146201
0.425738 0.146135 0.151582
0.443411 0.151594 0.156957
0.461094 0.157053 0.162327
0.472338 0.160523 0.165738
0.472338 0.160523 0.165738
0.472338 0.160523 0.165738
0.012988 0.017928 0.023856
0.012988 0.017928 0.023856
0.012988 0.017928 0.023856
0.023687 0.021257 0.027185
0.040782 0.026577 0.032505
0.057989 0.031932 0.037860
0.075263 0.037307 0.043235
0.092585 0.042698 0.048626
0.109945 0.048100 0.054028
0.127336 0.053512 0.059440
0.144754 0.058932 0.064860
0.162194 0.064359 0.070287
0.179655 0.069793 0.075721
0.197133 0.075232 0.081160
0.214629 0.080676 0.086604
0.232139 0.086125 0.092053
0.249666 0.091576 0.097498
0.267210 0.097029 0.102937
0.284770 0.102483 0.108368
0.302346 0.107937 0.113792
0.319935 0.113392 0.119210
0.337539 0.118848 0.124621
0.355155 0.124305 0.130025
0.372784 0.129762 0.135423
0.390424 0.135219 0.140815
0.408076 0.140677 0.146201
0.425738 0.146135 0.151582
0.443411 0.151594 0.156957
0.461094 0.157053 0.162327
0.472338 0.160523 0.165738
0.472338 0.160523 0.165738
0.472338 0.160523 0.165738
0.012988 0.017928 0.023856
0.012988 0.017928 0.023856
0.012988 0.017928 0.023856
0.023687 0.021257 0.027185
0.040782 0.026577 0.032505
0.057989 0.031932 0.037860
0.075263 0.037307 0.043235
0.092585 0.042698 0.048626
0.109945 0.048100 0.054028
0.127336 0.053512 0.059440
0.144754 0.058932 0.064860
0.162194 0.064359 0.070287
0.179655 0.069793 0.075721
0.197133 0.075232 0.081160
0.214629 0.080676 0.086604
0.232139 0.086125 0.092053
0.249666 0.091576 0.097498
0.267210 0.097029 0.102937
0.284770 0.102483 0.108368
0.302346 0.107937 0.113792
0.319935 0.113392 0.119210
0.337539 0.118848 0.124621
0.355155 0.124305 0.130025
0.372784 0.129762 0.135423
0.390424 0.135219 0.140815
0.408076 0.140677 0.146201
0.425738 0.146135 0.151582
0.443411 0.151594 0.156957
0.461094 0.157053 0.162327
0.472338 0.160523 0.165738
0.472338 0.160523 0.165738
0.472338 0.160523 0.165738
0.024188 0.036498 0.035056
0.024188 0.036498 0.035056
0.024188 0.036498 0.035056
0.034887 0.039827 0.038386
0.051982 0.045147 0.043705
0.069189 0.050502 0.049060
0.086463 0.055877 0.054435
0.103786 0.061268 0.059826
0.121146 0.066670 0.065228
0.138537 0.072082 0.070640
0.155954 0.077502 0.076060
0.173394 0.082929 0.081487
0.190855 0.088363 0.086921
0.208334 0.093802 0.092360
0.225832 0.099244 0.097796
0.243350 0.104688 0.103225
0.260885 0.110134 0.108648
0.278438 0.115581 0.114065
0.296006 0.121029 0.119475
0.313589 0.126479 0.124879
0.331186 0.131929 0.130277
0.348796 0.137380 0.135669
0.366419 0.142832 0.141055
0.384054 0.148285 0.146436
0.401701 0.153738 0.151811
0.419359 0.159192 0.157182
0.437027 0.164647 0.162547
0.454705 0.170102 0.167908
0.472393 0.175557 0.173264
0.483640 0.179025 0.176667
0.483640 0.179025 0.176667
0.483640 0.179025 0.176667
0.042084 0.066168 0.052952
0.042084 0.066168 0.052952
0.042084 0.066168 0.052952
0.052783 0.069498 0.056281
0.069877 0.074817 0.061601
0.087084 0.080172 0.066955
0.104359 0.085548 0.072331
0.121681 0.090938 0.077722
0.139041 0.096340 0.083124
0.156432 0.101752 0.088536
0.173850 0.107172 0.093954
0.191295 0.112596 0.099370
0.208764 0.118024 0.104781
0.226255 0.123455 0.110187
0.243767 0.128888 0.115587
0.261297 0.134324 0.120983
0.278845 0.139762 0.126373
0.296409 0.145201 0.131758
0.313988 0.150642 0.137138
0.331582 0.156084 0.142513
0.349190 0.161527 0.147883
0.366810 0.166971 0.153248
0.384443 0.172417 0.158608
0.402087 0.177863 0.163964
0.419743 0.183311 0.169317
0.437409 0.188759 0.174665
0.455085 0.194209 0.180009
0.472770 0.199659 0.185350
0.490465 0.205110 0.190688
0.501717 0.208575 0.194079
0.501717 0.208575 0.194079
0.501717 0.208575 0.194079
0.060097 0.096034 0.070965
0.060097 0.096034 0.070965
0.060097 0.096034 0.070965
0.070796 0.099364 0.074295
0.087891 0.104683 0.079614
0.105098 0.110038 0.084969
0.122372 0.115413 0.090344
0.139696 0.120803 0.095731
0.157062 0.126201 0.101118
0.174463 0.131607 0.106504
0.191894 0.137018 0.111887
0.209351 0.142433 0.117268
0.226833 0.147853 0.122645
0.244336 0.153276 0.128019
0.261860 0.158701 0.133388
0.279401 0.164129 0.138754
0.296960 0.169559 0.144115
0.314535 0.174992 0.149472
0.332124 0.180426 0.154825
0.349728 0.185862 0.160175
0.367344 0.191299 0.165520
0.384973 0.196737 0.170862
0.402614 0.202178 0.176201
0.420266 0.207619 0.181536
0.437929 0.213061 0.186869
0.455602 0.218505 0.192198
0.473284 0.223950 0.197526
0.490976 0.229397 0.202851
0.508677 0.234844 0.208174
0.519931 0.238307 0.211557
0.519931 0.238307 0.211557
0.519931 0.238307 0.211557
0.078181 0.126016 0.089049
0.078181 0.126016 0.089049
0.078181 0.126016 0.089049
0.088880 0.129346 0.092378
0.105978 0.134663 0.097689
0.123192 0.140013 0.103025
0.140477 0.145381 0.108371
0.157814 0.150762 0.113722
0.175193 0.156152 0.119075
0.192606 0.161549 0.124428
0.210049 0.166952 0.129779
0.227519 0.172360 0.135129
0.245012 0.177772 0.140476
0.262526 0.183187 0.145821
0.280059 0.188606 0.151163
0.297611 0.194028 0.156502
0.315179 0.199452 0.161838
0.332762 0.204878 0.167171
0.350360 0.210306 0.172502
0.367972 0.215737 0.177829
0.385596 0.221169 0.183154
0.403233 0.226603 0.188477
0.420880 0.232038 0.193798
0.438539 0.237475 0.199116
0.456207 0.242914 0.204433
0.473886 0.248354 0.209748
0.491573 0.253796 0.215062
0.509269 0.259239 0.220375
0.526974 0.264684 0.225688
0.538231 0.268145 0.229064
0.538231 0.268145 0.229064
0.538231 0.268145 0.229064
0.096333 0.156070 0.107134
0.096333 0.156070 0.107134
0.096333 0.156070 0.107134
0.107040 0.159394 0.110441
0.124151 0.164703 0.115718
0.141378 0.170044 0.121020
0.158675 0.175405 0.126334
0.176025 0.180777 0.131653
0.193415 0.186159 0.136975
0.210839 0.191549 0.142298
0.228293 0.196945 0.147622
0.245772 0.202346 0.152944
0.263275 0.207752 0.158266
0.280798 0.213161 0.163586
0.298341 0.218574 0.168904
0.315901 0.223990 0.174220
0.333477 0.229408 0.179535
0.351068 0.234830 0.184848
0.368673 0.240253 0.190160
0.386291 0.245679 0.195470
0.403922 0.251107 0.200778
0.421564 0.256537 0.206086
0.439217 0.261969 0.211392
0.456880 0.267403 0.216698
0.474553 0.272839 0.222003
0.492235 0.278276 0.227308
0.509926 0.283716 0.232613
0.527626 0.289157 0.237917
0.545332 0.294600 0.243223
0.556591 0.298060 0.246596
0.556591 0.298060 0.246596
0.556591 0.298060 0.246596
0.114569 0.186160 0.125143
0.114569 0.186160 0.125143
0.114569 0.186160 0.125143
0.125283 0.189479 0.128430
0.142405 0.194780 0.133676
0.159643 0.200115 0.138948
0.176952 0.205467 0.144233
0.194311 0.210833 0.149524
0.211711 0.216209 0.154820
0.229145 0.221592 0.160118
0.246608 0.226982 0.165417
0.264096 0.232377 0.170716
0.281607 0.237777 0.176015
0.299139 0.243181 0.181315
0.316688 0.248589 0.186613
0.334255 0.254000 0.191911
0.351838 0.259415 0.197209
0.369435 0.264832 0.202506
0.387046 0.270252 0.207802
0.404669 0.275674 0.213098
0.422304 0.281099 0.218395
0.439950 0.286526 0.223691
0.457607 0.291956 0.228987
0.475274 0.297388 0.234284
0.492950 0.302821 0.239581
0.510635 0.308257 0.244879
0.528328 0.313695 0.250179
0.546028 0.319136 0.255480
0.563736 0.324578 0.260782
0.574995 0.328038 0.264154
0.574995 0.328038 0.264154
0.574995 0.328038 0.264154
0.132875 0.216278 0.143080
0.132875 0.216278 0.143080
0.132875 0.216278 0.143080
0.143596 0.219593 0.146350
0.160729 0.224887 0.151569
0.177977 0.230215 0.156815
0.195294 0.235562 0.162075
0.212663 0.240921 0.167343
0.230071 0.246291 0.172615
0.247513 0.251669 0.177892
0.264984 0.257054 0.183170
0.282479 0.262444 0.188450
0.299997 0.267840 0.193732
0.317534 0.273240 0.199014
0.335090 0.278644 0.204297
0.352662 0.284051 0.209580
0.370250 0.289462 0.214865
0.387852 0.294877 0.220150
0.405466 0.300294 0.225435
0.423094 0.305714 0.230722
0.440732 0.311137 0.236009
0.458381 0.316562 0.241298
0.476040 0.321990 0.246588
0.493709 0.327420 0.251880
0.511386 0.332853 0.257174
0.529072 0.338289 0.262469
0.546765 0.343726 0.267768
0.564466 0.349166 0.273069
0.582173 0.354609 0.278372
0.593431 0.358070 0.281745
0.593431 0.358070 0.281745
0.593431 0.358070 0.281745
0.151243 0.246419 0.160955
0.151243 0.246419 0.160955
0.151243 0.246419 0.160955
0.161970 0.249730 0.164210
0.179111 0.255019 0.169406
0.196367 0.260341 0.174630
0.213693 0.265682 0.179868
0.231069 0.271037 0.185116
0.248484 0.276402 0.190370
0.265933 0.281776 0.195629
0.283410 0.287156 0.200891
0.300911 0.292543 0.206156
0.318434 0.297935 0.211423
0.335976 0.303332 0.216692
0.353536 0.308733 0.221964
0.371113 0.314138 0.227237
0.388704 0.319547 0.232511
0.406308 0.324959 0.237788
0.423926 0.330374 0.243067
0.441555 0.335793 0.248348
0.459195 0.341214 0.253631
0.476845 0.346639 0.258916
0.494505 0.352066 0.264204
0.512174 0.357497 0.269495
0.529851 0.362930 0.274789
0.547536 0.368365 0.280087
0.565228 0.373804 0.285388
0.582928 0.379245 0.290693
0.600633 0.384689 0.296002
0.611890 0.388150 0.299378
0.611890 0.388150 0.299378
0.611890 0.388150 0.299378
0.169665 0.276581 0.178776
0.169665 0.276581 0.178776
0.169665 0.276581 0.178776
0.180396 0.279889 0.182018
0.197544 0.285173 0.187195
0.214807 0.290490 0.192401
0.232139 0.295827 0.197622
0.249521 0.301178 0.202854
0.266942 0.306539 0.208093
0.284396 0.311910 0.213338
0.301877 0.317287 0.218588
0.319383 0.322671 0.223842
0.336909 0.328060 0.229099
0.354455 0.333455 0.234359
0.372018 0.338854 0.239623
0.389597 0.344257 0.244889
0.407190 0.349665 0.250159
0.424796 0.355076 0.255432
0.442415 0.360491 0.260707
0.460044 0.365909 0.265987
0.477685 0.371330 0.271269
0.495335 0.376755 0.276555
0.512994 0.382183 0.281845
0.530661 0.387614 0.287140
0.548337 0.393048 0.292438
0.566020 0.398485 0.297741
0.583711 0.403926 0.303049
0.601419 0.409378 0.308364
0.619144 0.414842 0.313685
0.630420 0.418321 0.317071
0.630420 0.418321 0.317071
0.630420 0.418321 0.317071
0.188131 0.306762 0.196554
0.188131 0.306762 0.196554
0.188131 0.306762 0.196554
0.198866 0.310067 0.199786
0.216020 0.315347 0.204947
0.233289 0.320661 0.210139
0.250625 0.325994 0.215348
0.268012 0.331342 0.220567
0.285437 0.336701 0.225796
0.302894 0.342069 0.231031
0.320379 0.347444 0.236273
0.337887 0.352826 0.241519
0.355416 0.358214 0.246770
0.372963 0.363608 0.252026
0.390528 0.369006 0.257286
0.408107 0.374408 0.262550
0.425701 0.379816 0.267818
0.443307 0.385227 0.273091
0.460925 0.390642 0.278368
0.478554 0.396060 0.283649
0.496193 0.401483 0.288935
0.513841 0.406909 0.294226
0.531498 0.412338 0.299523
0.549167 0.417774 0.304825
0.566855 0.423222 0.310133
0.584562 0.428682 0.315450
0.602286 0.434154 0.320773
0.620028 0.439638 0.326105
0.637786 0.445134 0.331444
0.649081 0.448632 0.334842
0.649081 0.448632 0.334842
0.649081 0.448632 0.334842
0.206636 0.336961 0.214300
0.206636 0.336961 0.214300
0.206636 0.336961 0.214300
0.217374 0.340264 0.217525
0.234532 0.345541 0.222675
0.251804 0.350853 0.227856
0.269144 0.356184 0.233056
0.286534 0.361530 0.238268
0.303961 0.366887 0.243489
0.321421 0.372254 0.248719
0.338907 0.377628 0.253956
0.356416 0.383009 0.259199
0.373946 0.388397 0.264448
0.391494 0.393790 0.269703
0.409058 0.399188 0.274963
0.426637 0.404591 0.280229
0.444229 0.409999 0.285500
0.461834 0.415411 0.290777
0.479450 0.420827 0.296059
0.497077 0.426248 0.301347
0.514720 0.431678 0.306642
0.532385 0.437121 0.311944
0.550070 0.442576 0.317255
0.567773 0.448044 0.322573
0.585495 0.453524 0.327899
0.603233 0.459015 0.333234
0.620987 0.464518 0.338577
0.638757 0.470031 0.343929
0.656541 0.475555 0.349290
0.667852 0.479072 0.352702
0.667852 0.479072 0.352702
0.667852 0.479072 0.352702
0.225171 0.367180 0.232026
0.225171 0.367180 0.232026
0.225171 0.367180 0.232026
0.235911 0.370482 0.235246
0.253072 0.375757 0.240389
0.270347 0.381067 0.245564
0.287689 0.386397 0.250758
0.305080 0.391742 0.255966
0.322509 0.397098 0.261185
0.339969 0.402464 0.266414
0.357455 0.407839 0.271650
0.374964 0.413220 0.276894
0.392493 0.418608 0.282145
0.410039 0.424002 0.287403
0.427602 0.429401 0.292668
0.445179 0.434806 0.297939
0.462770 0.440216 0.303218
0.480384 0.445639 0.308504
0.498020 0.451076 0.313798
0.515678 0.456526 0.319101
0.533356 0.461988 0.324413
0.551054 0.467462 0.329733
0.568769 0.472949 0.335062
0.586502 0.478447 0.340400
0.604250 0.483956 0.345747
0.622014 0.489475 0.351104
0.639792 0.495006 0.356470
0.657584 0.500547 0.361846
0.675388 0.506097 0.367232
0.686710 0.509630 0.370661
0.686710 0.509630 0.370661
0.686710 0.509630 0.370661
0.243731 0.397419 0.249745
0.243731 0.397419 0.249745
0.243731 0.397419 0.249745
0.254473 0.400720 0.252962
0.271635 0.405995 0.258101
0.288910 0.411304 0.263274
0.306253 0.416634 0.268467
0.323643 0.421979 0.273676
0.341072 0.427335 0.278896
0.358531 0.432702 0.284127
0.376016 0.438077 0.289367
0.393523 0.443460 0.294616
0.411049 0.448849 0.299873
0.428598 0.454248 0.305139
0.446173 0.459662 0.310414
0.463775 0.465090 0.315699
0.481400 0.470532 0.320993
0.499047 0.475987 0.326296
0.516716 0.481454 0.331609
0.534404 0.486935 0.336931
0.552110 0.492427 0.342262
0.569834 0.497930 0.347604
0.587575 0.503445 0.352955
0.605330 0.508970 0.358316
0.623100 0.514506 0.363688
0.640883 0.520052 0.369070
0.658679 0.525608 0.374463
0.676486 0.531174 0.379866
0.694304 0.536748 0.385281
0.705634 0.540296 0.388729
0.705634 0.540296 0.388729
0.705634 0.540296 0.388729
0.262310 0.427679 0.267469
0.262310 0.427679 0.267469
0.262310 0.427679 0.267469
0.273051 0.430981 0.270685
0.290213 0.436255 0.275825
0.307488 0.441565 0.281000
0.324829 0.446896 0.286196
0.342218 0.452242 0.291408
0.359645 0.457600 0.296634
0.377102 0.462968 0.301871
0.394592 0.468352 0.307120
0.412117 0.473752 0.312381
0.429672 0.479168 0.317652
0.447255 0.484599 0.322934
0.464863 0.490045 0.328227
0.482496 0.495503 0.333530
0.500151 0.500975 0.338843
0.517826 0.506460 0.344167
0.535520 0.511956 0.349501
0.553233 0.517464 0.354846
0.570962 0.522984 0.360201
0.588706 0.528514 0.365567
0.606465 0.534055 0.370945
0.624238 0.539605 0.376333
0.642022 0.545166 0.381732
0.659819 0.550736 0.387143
0.677626 0.556315 0.392566
0.695442 0.561902 0.398001
0.713268 0.567499 0.403448
0.724602 0.571060 0.406917
0.724602 0.571060 0.406917
0.724602 0.571060 0.406917
0.280900 0.457963 0.285210
0.280900 0.457963 0.285210
0.280900 0.457963 0.285210
0.291641 0.461265 0.288428
0.308801 0.466541 0.293573
0.326073 0.471852 0.298753
0.343415 0.477186 0.303957
0.360814 0.482544 0.309179
0.378262 0.487924 0.314417
0.395751 0.493322 0.319670
0.413276 0.498737 0.324935
0.430833 0.504169 0.330213
0.448418 0.509615 0.335504
0.466030 0.515076 0.340806
0.483666 0.520551 0.346119
0.501324 0.526038 0.351444
0.519002 0.531538 0.356780
0.536699 0.537049 0.362128
0.554413 0.542572 0.367487
0.572143 0.548106 0.372858
0.589888 0.553650 0.378241
0.607647 0.559205 0.383635
0.625419 0.564769 0.389042
0.643202 0.570342 0.394460
0.660996 0.575925 0.399891
0.678799 0.581516 0.405335
0.696611 0.587116 0.410792
0.714431 0.592723 0.416261
0.732258 0.598339 0.421744
0.743592 0.601912 0.425236
0.743592 0.601912 0.425236
0.743592 0.601912 0.425236
0.299498 0.488273 0.302981
0.299498 0.488273 0.302981
0.299498 0.488273 0.302981
0.310242 0.491581 0.306205
0.327417 0.496872 0.311361
0.344715 0.502208 0.316555
0.362090 0.507573 0.321774
0.379523 0.512963 0.327013
0.397003 0.518373 0.332269
0.414521 0.523801 0.337541
0.432074 0.529246 0.342826
0.449657 0.534706 0.348126
0.467267 0.540181 0.353438
0.484902 0.545670 0.358764
0.502559 0.551171 0.364101
0.520236 0.556684 0.369452
0.537931 0.562209 0.374815
0.555644 0.567745 0.380190
0.573372 0.573292 0.385578
0.591114 0.578849 0.390979
0.608869 0.584416 0.396392
0.626636 0.589992 0.401818
0.644414 0.595577 0.407258
0.662202 0.601171 0.412710
0.679998 0.606773 0.418176
0.697802 0.612384 0.423656
0.715614 0.618001 0.429150
0.733431 0.623626 0.434657
0.751257 0.629256 0.440169
0.762592 0.632836 0.443674
0.762592 0.632836 0.443674
0.762592 0.632836 0.443674
0.318179 0.518674 0.320806
0.318179 0.518674 0.320806
0.318179 0.518674 0.320806
0.328944 0.522001 0.324041
0.346151 0.527323 0.329213
0.363480 0.532689 0.334426
0.380884 0.538084 0.339664
0.398344 0.543503 0.344924
0.415849 0.548941 0.350201
0.433392 0.554397 0.355496
0.450967 0.559869 0.360805
0.468570 0.565356 0.366129
0.486198 0.570857 0.371467
0.503850 0.576370 0.376820
0.521521 0.581896 0.382185
0.539211 0.587433 0.387565
0.556918 0.592981 0.392958
0.574640 0.598539 0.398364
0.592375 0.604107 0.403784
0.610123 0.609685 0.409218
0.627882 0.615272 0.414666
0.645651 0.620867 0.420127
0.663429 0.626471 0.425603
0.681215 0.632083 0.431093
0.699009 0.637702 0.436595
0.716814 0.643325 0.442101
0.734628 0.648952 0.447609
0.752451 0.654583 0.453119
0.770282 0.660216 0.458632
0.781619 0.663798 0.462138
0.781619 0.663798 0.462138
0.781619 0.663798 0.462138
0.336979 0.549198 0.338704
0.336979 0.549198 0.338704
0.336979 0.549198 0.338704
0.347762 0.552543 0.341951
0.364995 0.557893 0.347144
0.382348 0.563287 0.352378
0.399775 0.568710 0.357639
0.417256 0.574155 0.362923
0.434781 0.579619 0.368226
0.452341 0.585101 0.373546
0.469931 0.590598 0.378882
0.487549 0.596108 0.384235
0.505190 0.601632 0.389602
0.522851 0.607168 0.394985
0.540532 0.612716 0.400382
0.558228 0.618274 0.405794
0.575940 0.623842 0.411221
0.593665 0.629421 0.416662
0.611402 0.635008 0.422118
0.629149 0.640604 0.427588
0.646906 0.646209 0.433074
0.664674 0.651820 0.438568
0.682453 0.657435 0.444066
0.700242 0.663055 0.449566
0.718042 0.668678 0.455069
0.735851 0.674305 0.460575
0.753668 0.679934 0.466084
0.771493 0.685566 0.471595
0.789324 0.691199 0.477108
0.800661 0.694781 0.480613
0.800661 0.694781 0.480613
0.800661 0.694781 0.480613
0.355877 0.579836 0.356685
0.355877 0.579836 0.356685
0.355877 0.579836 0.356685
0.366673 0.583197 0.359947
0.383926 0.588574 0.365164
0.401298 0.593993 0.370423
0.418742 0.599441 0.375711
0.436238 0.604910 0.381022
0.453775 0.610398 0.386353
0.471347 0.615903 0.391703
0.488948 0.621422 0.397070
0.506573 0.626954 0.402454
0.524220 0.632499 0.407855
0.541886 0.638055 0.413271
0.559569 0.643622 0.418704
0.577266 0.649199 0.424152
0.594977 0.654786 0.429615
0.612699 0.660381 0.435094
0.630435 0.665982 0.440578
0.648185 0.671589 0.446066
0.665946 0.677200 0.451558
0.683719 0.682815 0.457053
0.701502 0.688433 0.462551
0.719295 0.694055 0.468052
0.737096 0.699679 0.473555
0.754904 0.705306 0.479061
0.772720 0.710934 0.484569
0.790542 0.716563 0.490080
0.808369 0.722194 0.495592
0.819702 0.725773 0.499097
0.819702 0.725773 0.499097
0.819702 0.725773 0.499097
0.374850 0.610579 0.374761
0.374850 0.610579 0.374761
0.374850 0.610579 0.374761
0.385656 0.613956 0.378040
0.402923 0.619356 0.383284
0.420308 0.624799 0.388572
0.437762 0.630269 0.393890
0.455268 0.635760 0.399232
0.472812 0.641269 0.404595
0.490389 0.646794 0.409978
0.507993 0.652333 0.415380
0.525621 0.657884 0.420799
0.543268 0.663448 0.426236
0.560932 0.669022 0.431690
0.578612 0.674605 0.437157
0.596310 0.680194 0.442630
0.614024 0.685790 0.448107
0.631751 0.691390 0.453588
0.649492 0.696995 0.459073
0.667245 0.702604 0.464561
0.685009 0.708217 0.470053
0.702783 0.713832 0.475548
0.720565 0.719450 0.481046
0.738356 0.725071 0.486547
0.756153 0.730692 0.492050
0.773957 0.736315 0.497555
0.791767 0.741939 0.503063
0.809581 0.747563 0.508572
0.827399 0.753187 0.514084
0.838726 0.756761 0.517587
0.838726 0.756761 0.517587
0.838726 0.756761 0.517587
0.393879 0.641418 0.392944
0.393879 0.641418 0.392944
0.393879 0.641418 0.392944
0.404691 0.644809 0.396241
0.421966 0.650230 0.401517
0.439357 0.655694 0.406837
0.456816 0.661184 0.412189
0.474324 0.666695 0.417565
0.491870 0.672223 0.422964
0.509446 0.677766 0.428384
0.527048 0.683322 0.433823
0.544674 0.688888 0.439273
0.562322 0.694463 0.444730
0.579990 0.700044 0.450193
0.597676 0.705631 0.455661
0.615378 0.711224 0.461134
0.633095 0.716822 0.466611
0.650825 0.722423 0.472093
0.668566 0.728029 0.477578
0.686318 0.733637 0.483066
0.704079 0.739248 0.488558
0.721849 0.744860 0.494052
0.739626 0.750474 0.499550
0.757410 0.756089 0.505049
0.775199 0.761705 0.510552
0.792994 0.767321 0.516056
0.810792 0.772936 0.521562
0.828594 0.778551 0.527070
0.846399 0.784165 0.532579
0.857717 0.787732 0.536082
0.857717 0.787732 0.536082
0.857717 0.787732 0.536082
0.412941 0.672345 0.411246
0.412941 0.672345 0.411246
0.412941 0.672345 0.411246
0.423755 0.675748 0.414564
0.441033 0.681188 0.419874
0.458424 0.686670 0.425230
0.475881 0.692178 0.430618
0.493387 0.697705 0.436031
0.510933 0.703246 0.441456
0.528511 0.708799 0.446891
0.546118 0.714361 0.452335
0.563749 0.719931 0.457786
0.581401 0.725508 0.463243
0.599072 0.731092 0.468707
0.616759 0.736680 0.474175
0.634461 0.742272 0.479648
0.652176 0.747869 0.485125
0.669902 0.753468 0.490606
0.687639 0.759070 0.496091
0.705385 0.764674 0.501578
0.723139 0.770279 0.507069
0.740900 0.775886 0.512563
0.758668 0.781492 0.518059
0.776440 0.787099 0.523557
0.794217 0.792705 0.529057
0.811997 0.798310 0.534560
0.829780 0.803914 0.540064
0.847566 0.809516 0.545570
0.865352 0.815116 0.551077
0.876657 0.818674 0.554578
0.876657 0.818674 0.554578
0.876657 0.818674 0.554578
0.432016 0.703350 0.429677
0.432016 0.703350 0.429677
0.432016 0.703350 0.429677
0.442828 0.706763 0.433019
0.460104 0.712219 0.438361
0.477496 0.717712 0.443739
0.494957 0.723228 0.449138
0.512468 0.728760 0.454552
0.530018 0.734305 0.459978
0.547600 0.739860 0.465414
0.565209 0.745424 0.470858
0.582841 0.750994 0.476309
0.600492 0.756571 0.481766
0.618160 0.762152 0.487229
0.635844 0.767738 0.492697
0.653541 0.773327 0.498169
0.671250 0.778919 0.503645
0.688968 0.784512 0.509125
0.706696 0.790107 0.514609
0.724432 0.795703 0.520095
0.742174 0.801300 0.525585
0.759922 0.806896 0.531076
0.777675 0.812492 0.536571
0.795431 0.818087 0.542067
0.813191 0.823680 0.547565
0.830952 0.829271 0.553065
0.848715 0.834860 0.558567
0.866479 0.840446 0.564070
0.884242 0.846028 0.569575
0.895532 0.849575 0.573074
0.895532 0.849575 0.573074
0.895532 0.849575 0.573074
0.451099 0.734413 0.448204
0.451099 0.734413 0.448204
0.451099 0.734413 0.448204
0.461914 0.737830 0.451548
0.479196 0.743290 0.456891
0.496591 0.748786 0.462269
0.514055 0.754304 0.467668
0.531568 0.759837 0.473082
0.549118 0.765382 0.478508
0.566699 0.770936 0.483944
0.584305 0.776497 0.489388
0.601932 0.782065 0.494838
0.619578 0.787637 0.500295
0.637240 0.793214 0.505757
0.654915 0.798793 0.511224
0.672603 0.804375 0.516695
0.690300 0.809958 0.522170
0.708007 0.815543 0.527649
0.725721 0.821128 0.533130
0.743442 0.826712 0.538615
0.761167 0.832297 0.544102
0.778897 0.837879 0.549592
0.796631 0.843461 0.555083
0.814367 0.849040 0.560577
0.832104 0.854617 0.566073
0.849842 0.860190 0.571570
0.867580 0.865760 0.577068
0.885318 0.871327 0.582568
0.903054 0.876889 0.588069
0.914325 0.880421 0.591566
0.914325 0.880421 0.591566
0.914325 0.880421 0.591566
0.470205 0.765502 0.466742
0.470205 0.765502 0.466742
0.470205 0.765502 0.466742
0.481022 0.768919 0.470086
0.498304 0.774379 0.475429
0.515699 0.779875 0.480807
0.533161 0.785392 0.486206
0.550670 0.790922 0.491620
0.568216 0.796464 0.497046
0.585790 0.802013 0.502481
0.603389 0.807569 0.507923
0.621008 0.813130 0.513373
0.638644 0.818695 0.518828
0.656294 0.824263 0.524289
0.673957 0.829833 0.529754
0.691630 0.835404 0.535224
0.709312 0.840976 0.540697
0.727002 0.846548 0.546173
0.744697 0.852119 0.551652
