omv/luts/13_wasteland_noir.cube
# Original OMV LUT; redistribution permitted with OMV.
TITLE "Wasteland Noir"
LUT_3D_SIZE 8
DOMAIN_MIN 0.000000 0.000000 0.000000
DOMAIN_MAX 0.903226 0.903226 0.903226
0.012988 0.017928 0.023856
0.040782 0.026577 0.032505
0.109945 0.048100 0.054028
0.179655 0.069793 0.075721
0.249666 0.091576 0.097498
0.319935 0.113392 0.119210
0.390424 0.135219 0.140815
0.461094 0.157053 0.162327
0.042084 0.066168 0.052952
0.069877 0.074817 0.061601
0.139041 0.096340 0.083124
0.208764 0.118024 0.104781
0.278845 0.139762 0.126373
0.349190 0.161527 0.147883
0.419743 0.183311 0.169317
0.490465 0.205110 0.190688
0.114569 0.186160 0.125143
0.142405 0.194780 0.133676
0.211711 0.216209 0.154820
0.281607 0.237777 0.176015
0.351838 0.259415 0.197209
0.422304 0.281099 0.218395
0.492950 0.302821 0.239581
0.563736 0.324578 0.260782
0.188131 0.306762 0.196554
0.216020 0.315347 0.204947
0.285437 0.336701 0.225796
0.355416 0.358214 0.246770
0.425701 0.379816 0.267818
0.496193 0.401483 0.288935
0.566855 0.423222 0.310133
0.637786 0.445134 0.331444
0.262310 0.427679 0.267469
0.290213 0.436255 0.275825
0.359645 0.457600 0.296634
0.429672 0.479168 0.317652
0.500151 0.500975 0.338843
0.570962 0.522984 0.360201
0.642022 0.545166 0.381732
0.713268 0.567499 0.403448
0.336979 0.549198 0.338704
0.364995 0.557893 0.347144
0.434781 0.579619 0.368226
0.505190 0.601632 0.389602
0.575940 0.623842 0.411221
0.646906 0.646209 0.433074
0.718042 0.668678 0.455069
0.789324 0.691199 0.477108
0.412941 0.672345 0.411246
0.441033 0.681188 0.419874
0.510933 0.703246 0.441456
0.581401 0.725508 0.463243
0.652176 0.747869 0.485125
0.723139 0.770279 0.507069
0.794217 0.792705 0.529057
0.865352 0.815116 0.551077
0.489319 0.796603 0.485288
0.517412 0.805476 0.493974
0.587295 0.827539 0.515587
0.657673 0.849733 0.537364
0.728268 0.871959 0.559223
0.798964 0.894169 0.581133
0.869685 0.916327 0.603077
0.940374 0.938404 0.625041
0.015925 0.020865 0.045938
0.043719 0.029514 0.054587
0.112883 0.051037 0.076110
0.182592 0.072730 0.097802
0.252607 0.094511 0.119571
0.322884 0.116322 0.141260
0.393380 0.138144 0.162846
0.464056 0.159974 0.184343
0.045021 0.069106 0.075034
0.072815 0.077755 0.083683
0.141978 0.099278 0.105206
0.211708 0.120957 0.126846
0.281796 0.142689 0.148417
0.352148 0.164450 0.169909
0.422707 0.186230 0.191327
0.493434 0.208027 0.212687
0.117520 0.189088 0.147188
0.145359 0.197707 0.155714
0.214672 0.219131 0.176841
0.284573 0.240696 0.198022
0.354807 0.262331 0.219205
0.425276 0.284013 0.240383
0.495924 0.305734 0.261565
0.566711 0.327490 0.282764
0.191100 0.309677 0.218550
0.218991 0.318262 0.226940
0.288410 0.339614 0.247782
0.358390 0.361127 0.268753
0.428675 0.382728 0.289800
0.499167 0.404396 0.310920
0.569839 0.426146 0.332126
0.640791 0.448078 0.353449
0.265284 0.430592 0.289451
0.293187 0.439168 0.297808
0.362618 0.460513 0.318621
0.432664 0.482100 0.339649
0.503161 0.503926 0.360853
0.573986 0.525952 0.382226
0.645056 0.548149 0.403775
0.716306 0.570496 0.425512
0.339990 0.552149 0.360713
0.368012 0.560851 0.369159
0.437809 0.582594 0.390257
0.508225 0.604621 0.411652
0.578978 0.626844 0.433292
0.649943 0.649221 0.455168
0.721083 0.671693 0.477164
0.792365 0.694214 0.499202
0.415980 0.675347 0.433317
0.444071 0.684194 0.441955
0.513971 0.706260 0.463550
0.584442 0.728523 0.485338
0.655215 0.750883 0.507220
0.726174 0.773290 0.529163
0.797243 0.795709 0.551150
0.868366 0.818111 0.573168
0.492358 0.799617 0.507383
0.520450 0.808489 0.516069
0.590327 0.830547 0.537681
0.660695 0.852733 0.559456
0.731277 0.874950 0.581313
0.801956 0.897147 0.603222
0.872657 0.919290 0.625163
0.943322 0.941349 0.647124
0.023235 0.028175 0.100888
0.051028 0.036824 0.109537
0.120192 0.058347 0.131060
0.189901 0.080039 0.152753
0.259929 0.101812 0.174486
0.330227 0.123609 0.196121
0.400740 0.145419 0.217661
0.471430 0.167240 0.239119
0.052330 0.076415 0.129984
0.080124 0.085064 0.138633
0.149288 0.106587 0.160155
0.219037 0.128253 0.181741
0.289145 0.149972 0.203262
0.359513 0.171722 0.224710
0.430085 0.193494 0.246094
0.500822 0.215283 0.267426
0.124867 0.196372 0.202035
0.152714 0.204986 0.210543
0.222041 0.226400 0.231630
0.291954 0.247957 0.252779
0.362198 0.269585 0.273936
0.432674 0.291263 0.295097
0.503325 0.312982 0.316269
0.574113 0.334738 0.337467
0.198491 0.316932 0.273282
0.226385 0.325515 0.281664
0.295810 0.346864 0.302492
0.365792 0.368374 0.323456
0.436077 0.389976 0.344504
0.506565 0.411646 0.365632
0.577280 0.433436 0.386860
0.648279 0.455416 0.408214
0.272686 0.437839 0.344154
0.300588 0.446416 0.352514
0.370022 0.467770 0.373338
0.440122 0.489407 0.394393
0.510663 0.511280 0.415630
0.581519 0.533347 0.437044
0.652609 0.555582 0.458640
0.723867 0.577962 0.480430
0.347491 0.559502 0.415490
0.375526 0.568222 0.423951
0.445351 0.590004 0.445091
0.515782 0.612066 0.466536
0.586539 0.634320 0.488231
0.657504 0.656719 0.510150
0.728650 0.679195 0.532147
0.799929 0.701715 0.554184
0.423541 0.682823 0.488256
0.451630 0.691682 0.496918
0.521536 0.713760 0.518532
0.592009 0.736026 0.540321
0.662777 0.758381 0.562201
0.733721 0.780777 0.584143
0.804767 0.803179 0.606127
0.875858 0.825557 0.628141
0.499920 0.807115 0.562364
0.528006 0.815984 0.571050
0.597866 0.838029 0.592660
0.668208 0.860195 0.614432
0.738755 0.882385 0.636285
0.809390 0.904550 0.658188
0.880038 0.926653 0.680122
0.950642 0.948666 0.702076
0.030602 0.035542 0.156272
0.058395 0.044191 0.164921
0.127559 0.065713 0.186444
0.197269 0.087406 0.208135
0.267317 0.109165 0.229815
0.337634 0.130949 0.251399
0.408163 0.152749 0.272895
0.478867 0.174561 0.294317
0.059697 0.083782 0.185367
0.087491 0.092431 0.194016
0.156661 0.113949 0.215521
0.226432 0.135602 0.237052
0.296557 0.157309 0.258524
0.366941 0.179049 0.279932
0.437525 0.200812 0.301282
0.508272 0.222595 0.322588
0.132279 0.203709 0.257300
0.160132 0.212319 0.265790
0.229473 0.233723 0.286840
0.299398 0.255272 0.307958
0.369651 0.276895 0.329093
0.440132 0.298570 0.350238
0.510786 0.320287 0.371403
0.581573 0.342042 0.392602
0.205943 0.324243 0.328439
0.233839 0.332823 0.336815
0.303269 0.354169 0.357630
0.373253 0.375679 0.378589
0.443537 0.397281 0.399641
0.514027 0.418958 0.420781
0.584796 0.440800 0.442036
0.655839 0.462827 0.463423
0.280146 0.445145 0.399291
0.308047 0.453722 0.407654
0.377504 0.475101 0.428496
0.447655 0.496788 0.449580
0.518235 0.518706 0.470853
0.589119 0.540814 0.492309
0.660225 0.563085 0.513954
0.731487 0.585496 0.535801
0.355063 0.566928 0.470712
0.383111 0.575664 0.479190
0.452958 0.597485 0.500374
0.523402 0.619581 0.521870
0.594159 0.641865 0.543624
0.665127 0.664278 0.565565
0.736277 0.686757 0.587563
0.807551 0.709273 0.609600
0.431160 0.690368 0.543649
0.459248 0.699236 0.552332
0.529161 0.721321 0.573948
0.599635 0.743587 0.595737
0.670394 0.765936 0.617616
0.741321 0.788319 0.639556
0.812340 0.810701 0.661537
0.883396 0.833053 0.683546
0.507537 0.814670 0.617779
0.535618 0.823534 0.626464
0.605457 0.845563 0.648071
0.675769 0.867708 0.669840
0.746278 0.889869 0.691688
0.816866 0.911998 0.713585
0.887458 0.934060 0.735512
0.958009 0.956032 0.757459
0.038000 0.042940 0.211893
0.065794 0.051589 0.220542
0.134957 0.073112 0.242065
0.204674 0.094800 0.263739
0.274743 0.116545 0.285362
0.345078 0.138317 0.306897
0.415623 0.160107 0.328353
0.486339 0.181910 0.349742
0.067096 0.091180 0.240988
0.094889 0.099829 0.249637
0.164074 0.121339 0.271106
0.233864 0.142977 0.292583
0.304007 0.164673 0.314008
0.374405 0.186403 0.335377
0.445001 0.208159 0.356697
0.515756 0.229936 0.377981
0.139728 0.211074 0.312787
0.167587 0.219680 0.321261
0.236942 0.241075 0.342275
0.306877 0.262617 0.363365
0.377137 0.284235 0.384480
0.447623 0.305907 0.405613
0.518279 0.327622 0.426773
0.589065 0.349379 0.447975
0.213430 0.331583 0.383827
0.241328 0.340162 0.392196
0.310761 0.361506 0.413002
0.380746 0.383015 0.433960
0.451027 0.404618 0.455017
0.521539 0.426320 0.476175
0.592360 0.448212 0.497459
0.663443 0.470285 0.518882
0.287636 0.452482 0.454667
0.315535 0.461061 0.463035
0.385037 0.482482 0.483900
0.455235 0.504217 0.505015
0.525851 0.526178 0.526326
0.596759 0.548326 0.547827
0.667877 0.570632 0.569524
0.739140 0.593073 0.591430
0.362678 0.574400 0.526185
0.390737 0.583153 0.534679
0.460604 0.605010 0.555911
0.531055 0.627139 0.577461
0.601809 0.649451 0.599273
0.672786 0.671871 0.621219
0.743935 0.694351 0.643216
0.815201 0.716860 0.665252
0.438810 0.697954 0.599298
0.466901 0.706826 0.607985
0.536821 0.728916 0.629602
0.607292 0.751179 0.651390
0.678039 0.773519 0.673268
0.748945 0.795887 0.695205
0.819935 0.818247 0.717182
0.890953 0.840570 0.739187
0.515182 0.822253 0.673431
0.543256 0.831112 0.682115
0.613071 0.853124 0.703719
0.683350 0.875244 0.725483
0.753818 0.897374 0.747327
0.824356 0.919465 0.769217
0.894888 0.941482 0.791137
0.965407 0.963431 0.813080
0.045421 0.050361 0.267680
0.073214 0.059010 0.276329
0.142378 0.080533 0.297852
0.212108 0.102212 0.319489
0.282198 0.123943 0.341058
0.352550 0.145703 0.362547
0.423110 0.167483 0.383964
0.493837 0.189279 0.405322
0.074516 0.098601 0.296775
0.102311 0.107250 0.305423
0.171516 0.128745 0.326836
0.241325 0.150371 0.348262
0.311485 0.172056 0.369644
0.381896 0.193777 0.390977
0.452502 0.215526 0.412269
0.523265 0.237298 0.433532
0.147204 0.218458 0.368425
0.175069 0.227059 0.376883
0.244436 0.248447 0.397865
0.314381 0.269982 0.418930
0.384647 0.291596 0.440027
0.455137 0.313265 0.461150
0.525793 0.334980 0.482309
0.596577 0.356738 0.503517
0.220940 0.338943 0.439374
0.248840 0.347521 0.447739
0.318275 0.368863 0.468538
0.388260 0.390373 0.489496
0.458538 0.411978 0.510562
0.529093 0.433721 0.531743
0.599962 0.455662 0.553058
0.671081 0.477779 0.574520
0.295148 0.459842 0.510212
0.323054 0.468429 0.518587
0.392610 0.489901 0.539478
0.462851 0.511683 0.560627
0.533498 0.533687 0.581979
0.604426 0.555873 0.603527
0.675553 0.578212 0.625279
0.746813 0.600681 0.647244
0.370326 0.581908 0.581838
0.398394 0.590676 0.590350
0.468276 0.612569 0.611631
0.538731 0.634730 0.633237
0.609485 0.657063 0.655092
0.680468 0.679488 0.677039
0.751615 0.701966 0.699036
0.822869 0.724466 0.721070
0.446486 0.705566 0.655117
0.474581 0.714441 0.663804
0.544503 0.736532 0.685422
0.614968 0.758792 0.707209
0.685701 0.781121 0.729085
0.756583 0.803471 0.751019
0.827541 0.825806 0.772992
0.898517 0.848098 0.794992
0.522843 0.829854 0.729248
0.550909 0.838707 0.737931
0.620698 0.860699 0.759532
0.690942 0.882792 0.781292
0.761365 0.904889 0.803129
0.831849 0.926940 0.825013
0.902319 0.948910 0.846926
0.972828 0.970852 0.868867
0.052858 0.057798 0.323594
0.080652 0.066447 0.332243
0.149816 0.087970 0.353765
0.219567 0.109635 0.375347
0.289676 0.131354 0.396865
0.360045 0.153103 0.418310
0.430618 0.174874 0.439691
0.501356 0.196662 0.461021
0.081954 0.106038 0.352690
0.109755 0.114682 0.361318
0.178981 0.136164 0.382676
0.248809 0.157778 0.404053
0.318984 0.179452 0.425394
0.389408 0.201165 0.446694
0.460024 0.222907 0.467960
0.530793 0.244675 0.489206
0.154703 0.225855 0.424177
0.182573 0.234452 0.432621
0.251951 0.255832 0.453572
0.321905 0.277363 0.474615
0.392177 0.298972 0.495697
0.462669 0.320640 0.516813
0.533325 0.342355 0.537973
0.604106 0.364115 0.559189
0.228469 0.346320 0.495045
0.256371 0.354897 0.503405
0.325808 0.376238 0.524200
0.395791 0.397748 0.545162
0.466072 0.419362 0.566241
0.536682 0.441156 0.587448
0.607595 0.463144 0.608797
0.678746 0.485304 0.630301
0.302680 0.467225 0.565890
0.330609 0.475832 0.574274
0.400216 0.497354 0.595195
0.470497 0.519181 0.616380
0.541172 0.541226 0.637775
0.612116 0.563448 0.659373
0.683246 0.585819 0.681182
0.754506 0.608310 0.703191
0.377999 0.589447 0.637634
0.406075 0.598230 0.646165
0.475968 0.620157 0.667497
0.546423 0.642348 0.689162
0.617181 0.664695 0.711039
0.688168 0.687123 0.732986
0.759309 0.709596 0.754982
0.830549 0.732086 0.777015
0.454183 0.713198 0.711064
0.482280 0.722075 0.719751
0.552202 0.744166 0.741369
0.622658 0.766419 0.763155
0.693373 0.788734 0.785029
0.764229 0.811064 0.806960
0.835151 0.833373 0.828929
0.906082 0.855632 0.850923
0.530516 0.837468 0.785192
0.558572 0.846314 0.793874
0.628331 0.868283 0.815471
0.698536 0.890347 0.837226
0.768911 0.912409 0.859058
0.839339 0.934417 0.880935
0.909756 0.956348 0.902840
0.980265 0.978289 0.924782
0.060310 0.065250 0.379613
0.088103 0.073899 0.388262
0.157275 0.095417 0.409765
0.227047 0.117068 0.431291
0.297174 0.138774 0.452759
0.367558 0.160513 0.474163
0.438144 0.182276 0.495511
0.508891 0.204058 0.516815
0.089412 0.113486 0.408693
0.117222 0.122124 0.417298
0.186467 0.143592 0.438602
0.256313 0.165195 0.459933
0.326502 0.186860 0.481236
0.396937 0.208565 0.502505
0.467561 0.230301 0.523748
0.538337 0.252065 0.544980
0.162220 0.233262 0.480020
0.190095 0.241857 0.488452
0.259484 0.263230 0.509375
0.329445 0.284755 0.530398
0.399721 0.306362 0.551467
0.470216 0.328028 0.572579
0.540870 0.349744 0.593742
0.611654 0.371513 0.614971
0.236014 0.353709 0.550815
0.263916 0.362286 0.559173
0.333354 0.383626 0.579967
0.403335 0.405138 0.600935
0.473640 0.426777 0.622031
0.544302 0.448622 0.643268
0.615254 0.470656 0.664654
0.686434 0.492857 0.686200
0.310247 0.474639 0.621680
0.338198 0.483267 0.630075
0.407851 0.504837 0.651027
0.478168 0.526708 0.672251
0.548866 0.548793 0.693691
0.619823 0.571049 0.715342
0.690953 0.593450 0.737210
0.762217 0.615956 0.759242
0.385694 0.597013 0.693549
0.413776 0.605811 0.702100
0.483676 0.627770 0.723487
0.554128 0.649988 0.745210
0.624895 0.672342 0.767091
0.695881 0.694771 0.789038
0.767014 0.717237 0.811033
0.838236 0.739714 0.833063
0.461896 0.720845 0.767116
0.489994 0.729723 0.775803
0.559913 0.751812 0.797420
0.630357 0.774056 0.819205
0.701051 0.796356 0.841076
0.771878 0.818664 0.863003
0.842761 0.840944 0.884967
0.913645 0.863166 0.906956
0.538194 0.845089 0.841239
0.566239 0.853927 0.849920
0.635965 0.875872 0.871513
0.706129 0.897905 0.893263
0.776453 0.919928 0.915088
0.846821 0.941892 0.936957
0.917208 0.963799 0.958859
0.987717 0.985741 0.980801
