omv/luts/14_midnight_mojave.cube
# Original OMV LUT; redistribution permitted with OMV.
TITLE "Midnight Mojave"
LUT_3D_SIZE 32
DOMAIN_MIN 0.0 0.0 0.0
DOMAIN_MAX 1.0 1.0 1.0
0.000000 0.013263 0.032211
0.020455 0.014358 0.044358
0.048119 0.014925 0.044925
0.075884 0.015593 0.045593
0.103724 0.016337 0.046337
0.131630 0.017146 0.047146
0.159594 0.018013 0.048013
0.187611 0.018933 0.048933
0.215677 0.019903 0.049903
0.243790 0.020919 0.050919
0.271947 0.021980 0.051980
0.300148 0.023083 0.053083
0.328395 0.024226 0.054225
0.356767 0.025388 0.055365
0.385302 0.026557 0.056487
0.414014 0.027729 0.057587
0.442919 0.028896 0.058660
0.472028 0.030056 0.059702
0.501355 0.031202 0.060709
0.530910 0.032331 0.061679
0.560705 0.033438 0.062607
0.590748 0.034520 0.063490
0.621048 0.035574 0.064328
0.651614 0.036595 0.065116
0.682450 0.037582 0.065853
0.713563 0.038532 0.066538
0.744959 0.039442 0.067169
0.776639 0.040311 0.067745
0.808608 0.041136 0.068266
0.840866 0.041917 0.068729
0.873415 0.042651 0.069136
0.906255 0.043339 0.069487
0.000000 0.036101 0.043536
0.020464 0.038560 0.046625
0.048391 0.040036 0.047456
0.076374 0.040923 0.048342
0.104410 0.041861 0.049281
0.132493 0.042848 0.050267
0.160623 0.043881 0.051300
0.188796 0.044957 0.052377
0.217011 0.046076 0.053495
0.245285 0.047231 0.054641
0.273679 0.048407 0.055776
0.302212 0.049597 0.056890
0.330900 0.050795 0.057981
0.359759 0.051995 0.059043
0.388801 0.053194 0.060073
0.418040 0.054384 0.061067
0.447488 0.055563 0.062021
0.477156 0.056726 0.062934
0.507055 0.057869 0.063801
0.537193 0.058987 0.064620
0.567579 0.060079 0.065390
0.598221 0.061141 0.066109
0.629124 0.062169 0.066774
0.660293 0.063162 0.067386
0.691734 0.064118 0.067941
0.723450 0.065033 0.068441
0.755443 0.065908 0.068884
0.787714 0.066739 0.069270
0.820265 0.067527 0.069600
0.853095 0.068270 0.069874
0.886201 0.068967 0.070091
0.919583 0.069619 0.070254
0.000000 0.060703 0.048692
0.021215 0.062860 0.049634
0.049316 0.064509 0.050638
0.077461 0.066203 0.051687
0.105650 0.067940 0.052779
0.133880 0.069074 0.053912
0.162177 0.070243 0.055056
0.190573 0.071438 0.056184
0.219086 0.072654 0.057290
0.247732 0.073884 0.058371
0.276527 0.075123 0.059422
0.305485 0.076365 0.060439
0.334621 0.077605 0.061419
0.363946 0.078838 0.062359
0.393473 0.080060 0.063255
0.423214 0.081267 0.064105
0.453176 0.082455 0.064907
0.483371 0.083621 0.065658
0.513805 0.084760 0.066358
0.544485 0.085871 0.067003
0.575419 0.086950 0.067594
0.606610 0.087995 0.068130
0.638063 0.089004 0.068609
0.669782 0.089974 0.069031
0.701768 0.090905 0.069397
0.734022 0.091795 0.069706
0.766545 0.092643 0.069959
0.799336 0.093447 0.070157
0.832393 0.094208 0.070300
0.865714 0.094926 0.070391
0.899294 0.095600 0.070429
0.933131 0.096230 0.070418
0.001080 0.085951 0.052080
0.024768 0.087703 0.053187
0.050756 0.089497 0.054330
0.079058 0.091329 0.055469
0.107438 0.093195 0.056590
0.135912 0.095087 0.057687
0.164499 0.097000 0.058757
0.193213 0.098281 0.059796
0.222072 0.099571 0.060800
0.251088 0.100865 0.061766
0.280276 0.102157 0.062690
0.309648 0.103443 0.063570
0.339216 0.104719 0.064402
0.368990 0.105980 0.065186
0.398980 0.107223 0.065919
0.429195 0.108444 0.066599
0.459643 0.109640 0.067225
0.490330 0.110808 0.067796
0.521261 0.111945 0.068311
0.552443 0.113049 0.068769
0.583878 0.114119 0.069171
0.615570 0.115151 0.069516
0.647520 0.116145 0.069805
0.679730 0.117099 0.070038
0.712199 0.118013 0.070215
0.744927 0.118884 0.070339
0.777911 0.119714 0.070411
0.811148 0.120502 0.070431
0.844635 0.121248 0.070402
0.878366 0.121952 0.070327
0.912335 0.122615 0.070207
0.946537 0.123237 0.070046
0.004951 0.111139 0.055879
0.028780 0.113036 0.056992
0.052682 0.114964 0.058080
0.081191 0.116918 0.059140
0.109809 0.118893 0.060166
0.138552 0.120881 0.061157
0.167434 0.122878 0.062107
0.196470 0.124878 0.063016
0.225672 0.126877 0.063878
0.255055 0.128225 0.064694
0.284628 0.129563 0.065459
0.314402 0.130886 0.066173
0.344386 0.132192 0.066833
0.374590 0.133476 0.067439
0.405020 0.134736 0.067990
0.435682 0.135969 0.068484
0.466583 0.137171 0.068922
0.497727 0.138341 0.069303
0.529118 0.139478 0.069628
0.560757 0.140578 0.069896
0.592648 0.141640 0.070109
0.624790 0.142664 0.070267
0.657182 0.143648 0.070371
0.689825 0.144591 0.070424
0.722715 0.145494 0.070426
0.755849 0.146356 0.070380
0.789223 0.147177 0.070289
0.822831 0.147958 0.070153
0.856669 0.148699 0.069978
0.890727 0.149401 0.069765
0.924999 0.150065 0.069517
0.959474 0.150694 0.069240
0.009091 0.136869 0.059517
0.033080 0.138895 0.060531
0.057175 0.140941 0.061508
0.083649 0.143000 0.062443
0.112519 0.145068 0.063335
0.141539 0.147139 0.064181
0.170723 0.149208 0.064978
0.200082 0.151271 0.065725
0.229629 0.153323 0.066419
0.259372 0.155362 0.067060
0.289321 0.157383 0.067646
0.319484 0.158737 0.068176
0.349868 0.160067 0.068650
0.380480 0.161371 0.069067
0.411325 0.162644 0.069428
0.442407 0.163886 0.069732
0.473729 0.165094 0.069980
0.505294 0.166266 0.070172
0.537103 0.167402 0.070311
0.569157 0.168499 0.070396
0.601454 0.169558 0.070430
0.633993 0.170576 0.070415
0.666772 0.171555 0.070352
0.699787 0.172494 0.070244
0.733033 0.173393 0.070094
0.766505 0.174252 0.069904
0.800197 0.175073 0.069678
0.834101 0.175855 0.069420
0.868208 0.176602 0.069132
0.902509 0.177313 0.068819
0.936995 0.177992 0.068485
0.971652 0.178639 0.068135
0.013275 0.163171 0.062773
0.037448 0.165309 0.063648
0.061756 0.167455 0.064477
0.086213 0.169604 0.065256
0.115347 0.171751 0.065984
0.144654 0.173891 0.066659
0.174145 0.176020 0.067280
0.203830 0.178135 0.067846
0.233717 0.180232 0.068355
0.263815 0.182308 0.068809
0.294130 0.184359 0.069205
0.324668 0.186383 0.069545
0.355434 0.188377 0.069829
0.386433 0.189695 0.070056
0.417667 0.190979 0.070229
0.449138 0.192227 0.070348
0.480848 0.193439 0.070415
0.512796 0.194613 0.070430
0.544981 0.195749 0.070397
0.577402 0.196845 0.070318
0.610056 0.197901 0.070194
0.642939 0.198919 0.070029
0.676046 0.199896 0.069826
0.709371 0.200835 0.069588
0.742908 0.201736 0.069318
0.776648 0.202600 0.069020
0.810584 0.203428 0.068699
0.844705 0.204223 0.068359
0.879000 0.204984 0.068004
0.913458 0.205716 0.067640
0.948067 0.206420 0.067271
0.982812 0.207099 0.066903
0.017325 0.190062 0.065527
0.041706 0.192295 0.066236
0.066247 0.194526 0.066891
0.090959 0.196749 0.067492
0.118112 0.198961 0.068038
0.147714 0.201157 0.068527
0.177516 0.203335 0.068960
0.207527 0.205492 0.069335
0.237751 0.207623 0.069655
0.268196 0.209727 0.069918
0.298865 0.211801 0.070125
0.329763 0.213843 0.070278
0.360892 0.215851 0.070378
0.392254 0.217823 0.070426
0.423849 0.219759 0.070424
0.455678 0.221012 0.070374
0.487740 0.222226 0.070278
0.520031 0.223400 0.070139
0.552550 0.224536 0.069960
0.585291 0.225632 0.069743
0.618250 0.226689 0.069493
0.651421 0.227707 0.069213
0.684796 0.228688 0.068906
0.718369 0.229632 0.068578
0.752128 0.230541 0.068231
0.786065 0.231416 0.067873
0.820169 0.232260 0.067506
0.854427 0.233074 0.067137
0.888827 0.233861 0.066770
0.923354 0.234623 0.066412
0.957994 0.235364 0.066070
0.992731 0.236087 0.065748
0.021099 0.217549 0.067697
0.045710 0.219861 0.068222
0.070502 0.222160 0.068691
0.095485 0.224442 0.069103
0.120667 0.226706 0.069458
0.150571 0.228946 0.069757
0.180688 0.231161 0.070000
0.211022 0.233348 0.070187
0.241579 0.235504 0.070321
0.272362 0.237627 0.070402
0.303373 0.239716 0.070431
0.334613 0.241769 0.070411
0.366083 0.243785 0.070344
0.397783 0.245762 0.070232
0.429711 0.247701 0.070078
0.461865 0.249600 0.069885
0.494241 0.251459 0.069656
0.526835 0.252633 0.069394
0.559642 0.253769 0.069104
0.592654 0.254865 0.068789
0.625866 0.255924 0.068453
0.659267 0.256947 0.068102
0.692850 0.257934 0.067740
0.726603 0.258888 0.067371
0.760516 0.259810 0.067002
0.794577 0.260703 0.066639
0.828771 0.261569 0.066286
0.863085 0.262411 0.065950
0.897504 0.263232 0.065637
0.932011 0.264035 0.065355
0.966589 0.264825 0.065110
1.000000 0.265832 0.065534
0.024492 0.245630 0.069239
0.049354 0.248002 0.069574
0.074415 0.250354 0.069852
0.099682 0.252681 0.070074
0.125161 0.254982 0.070242
0.153114 0.257254 0.070356
0.183546 0.259493 0.070418
0.214202 0.261700 0.070429
0.245085 0.263870 0.070392
0.276195 0.266004 0.070308
0.307532 0.268100 0.070181
0.339096 0.270157 0.070012
0.370886 0.272174 0.069806
0.402897 0.274151 0.069564
0.435127 0.276088 0.069292
0.467571 0.277984 0.068992
0.500223 0.279841 0.068669
0.533077 0.281659 0.068327
0.566124 0.283439 0.067971
0.599357 0.284536 0.067606
0.632766 0.285599 0.067237
0.666339 0.286627 0.066869
0.700066 0.287624 0.066509
0.733934 0.288592 0.066161
0.767930 0.289532 0.065833
0.802038 0.290449 0.065531
0.836244 0.291344 0.065261
0.870531 0.292222 0.065032
0.904881 0.293086 0.064849
0.939277 0.293940 0.064721
0.973698 0.294788 0.064656
1.000000 0.297108 0.069247
0.027433 0.274288 0.070142
0.052567 0.276704 0.070290
0.077913 0.279092 0.070385
0.103475 0.281449 0.070428
0.129258 0.283773 0.070421
0.155265 0.286062 0.070367
0.186012 0.288315 0.070267
0.216986 0.290529 0.070124
0.248186 0.292704 0.069941
0.279611 0.294839 0.069721
0.311259 0.296933 0.069468
0.343127 0.298986 0.069185
0.375210 0.300998 0.068877
0.407505 0.302969 0.068546
0.440005 0.304900 0.068199
0.472702 0.306790 0.067839
0.505590 0.308642 0.067472
0.538659 0.310456 0.067102
0.571899 0.312234 0.066737
0.605300 0.313978 0.066380
0.638849 0.315690 0.066039
0.672534 0.316726 0.065720
0.706341 0.317735 0.065429
0.740254 0.318720 0.065173
0.774260 0.319684 0.064959
0.808339 0.320630 0.064796
0.842476 0.321561 0.064690
0.876651 0.322482 0.064649
0.910844 0.323397 0.064683
0.945035 0.324310 0.064798
0.979202 0.325227 0.065004
1.000000 0.328483 0.073584
0.029889 0.303495 0.070431
0.055313 0.305938 0.070407
0.080957 0.308346 0.070336
0.106826 0.310717 0.070220
0.132919 0.313050 0.070062
0.159239 0.315343 0.069865
0.188042 0.317595 0.069633
0.219328 0.319806 0.069369
0.250835 0.321975 0.069076
0.282561 0.324101 0.068759
0.314502 0.326185 0.068422
0.346651 0.328227 0.068069
0.379004 0.330226 0.067706
0.411551 0.332185 0.067337
0.444287 0.334104 0.066969
0.477200 0.335984 0.066605
0.510281 0.337828 0.066254
0.543519 0.339636 0.065920
0.576902 0.341411 0.065610
0.610416 0.343155 0.065331
0.644047 0.344871 0.065090
0.677781 0.346563 0.064894
0.711601 0.348232 0.064750
0.745491 0.349237 0.064667
0.779431 0.350228 0.064652
0.813404 0.351208 0.064715
0.847389 0.352181 0.064862
0.881365 0.353152 0.065104
0.915311 0.354126 0.065449
0.949203 0.355108 0.065907
0.983017 0.356103 0.066487
1.000000 0.359926 0.078596
0.031860 0.333210 0.070167
0.057589 0.335662 0.069995
0.083545 0.338073 0.069785
0.109728 0.340442 0.069540
0.136137 0.342769 0.069265
0.162771 0.345052 0.068963
0.189626 0.347292 0.068638
0.221216 0.349487 0.068295
0.253020 0.351639 0.067938
0.285031 0.353746 0.067572
0.317245 0.355810 0.067203
0.349652 0.357832 0.066835
0.382245 0.359812 0.066476
0.415015 0.361753 0.066130
0.447950 0.363655 0.065804
0.481039 0.365520 0.065505
0.514270 0.367351 0.065239
0.547629 0.369151 0.065013
0.581102 0.370921 0.064835
0.614674 0.372665 0.064713
0.648328 0.374386 0.064653
0.682047 0.376087 0.064666
0.715812 0.377773 0.064758
0.749605 0.379447 0.064939
0.783405 0.381114 0.065217
0.817190 0.382132 0.065602
0.850940 0.383153 0.066103
0.884629 0.384181 0.066730
0.918234 0.385221 0.067493
0.951730 0.386280 0.068403
0.985102 0.387360 0.069457
1.000000 0.391402 0.084298
0.033379 0.363379 0.069443
0.059430 0.365821 0.069158
0.085708 0.368218 0.068847
0.112213 0.370570 0.068515
0.138940 0.372876 0.068166
0.165886 0.375135 0.067805
0.193047 0.377348 0.067438
0.222673 0.379516 0.067069
0.254760 0.381638 0.066703
0.287040 0.383716 0.066348
0.319505 0.385751 0.066009
0.352146 0.387744 0.065692
0.384950 0.389697 0.065403
0.417908 0.391612 0.065151
0.451005 0.393491 0.064942
0.484228 0.395337 0.064784
0.517563 0.397152 0.064683
0.550994 0.398940 0.064649
0.584505 0.400703 0.064690
0.618076 0.402445 0.064813
0.651691 0.404170 0.065028
0.685329 0.405882 0.065344
0.718971 0.407586 0.065770
0.752593 0.409286 0.066316
0.786174 0.410987 0.066992
0.819690 0.412694 0.067807
0.853117 0.414412 0.068772
0.886465 0.415497 0.069852
0.919808 0.416582 0.070937
0.953150 0.417666 0.072021
0.986490 0.418748 0.073103
1.000000 0.422840 0.090352
0.034517 0.393935 0.068390
0.060902 0.396349 0.068036
0.087512 0.398715 0.067672
0.114343 0.401032 0.067303
0.141390 0.403301 0.066935
0.168646 0.405522 0.066573
0.196105 0.407695 0.066222
0.223758 0.409822 0.065890
0.256112 0.411903 0.065583
0.288642 0.413941 0.065307
0.321336 0.415937 0.065070
0.354182 0.417892 0.064878
0.387167 0.419810 0.064740
0.420277 0.421692 0.064663
0.453498 0.423542 0.064655
0.486812 0.425362 0.064725
0.520204 0.427157 0.064880
0.553656 0.428929 0.065131
0.587148 0.430682 0.065486
0.620660 0.432421 0.065955
0.654172 0.434149 0.066547
0.687662 0.435873 0.067272
0.721108 0.437596 0.068140
0.754485 0.439323 0.069162
0.787828 0.441054 0.070247
0.821171 0.442783 0.071332
0.854512 0.444512 0.072415
0.887851 0.446238 0.073496
0.921188 0.447962 0.074575
0.954522 0.449039 0.075651
0.987849 0.450123 0.076733
1.000000 0.454239 0.096687
0.035376 0.424797 0.067169
0.062107 0.427165 0.066802
0.089056 0.429481 0.066443
0.116218 0.431747 0.066099
0.143583 0.433963 0.065775
0.171145 0.436130 0.065479
0.198894 0.438249 0.065216
0.226818 0.440322 0.064994
0.257166 0.442350 0.064821
0.289925 0.444336 0.064704
0.322822 0.446282 0.064651
0.355846 0.448190 0.064671
0.388978 0.450064 0.064771
0.422205 0.451906 0.064960
0.455508 0.453720 0.065248
0.488869 0.455509 0.065643
0.522269 0.457278 0.066155
0.555688 0.459030 0.066795
0.589104 0.460771 0.067571
0.622496 0.462504 0.068494
0.655847 0.464235 0.069557
0.689191 0.465965 0.070642
0.722533 0.467694 0.071726
0.755873 0.469422 0.072809
0.789212 0.471147 0.073889
0.822548 0.472870 0.074967
0.855882 0.474592 0.076044
0.889217 0.476323 0.077129
0.922545 0.478062 0.078224
0.955859 0.479812 0.079329
0.989152 0.481574 0.080445
1.000000 0.485669 0.103407
0.036094 0.455871 0.065978
0.063181 0.458174 0.065664
0.090476 0.460423 0.065379
0.117969 0.462620 0.065130
0.145652 0.464767 0.064925
0.173513 0.466864 0.064772
0.201541 0.468915 0.064677
0.229723 0.470920 0.064650
0.258046 0.472882 0.064697
0.291011 0.474805 0.064829
0.324086 0.476690 0.065053
0.357256 0.478541 0.065379
0.390502 0.480361 0.065816
0.423806 0.482155 0.066373
0.457148 0.483925 0.067061
0.490509 0.485677 0.067889
0.523866 0.487415 0.068869
0.557210 0.489146 0.069952
0.590553 0.490876 0.071037
0.623895 0.492605 0.072121
0.657235 0.494332 0.073203
0.690572 0.496056 0.074282
0.723907 0.497778 0.075359
0.757247 0.499501 0.076438
0.790596 0.501230 0.077526
0.823945 0.502966 0.078625
0.857286 0.504710 0.079734
0.890613 0.506462 0.080854
0.923917 0.508225 0.081987
0.957193 0.509997 0.083133
0.990434 0.511781 0.084292
1.000000 0.516464 0.110614
0.036842 0.487052 0.065050
0.064294 0.489269 0.064863
0.091938 0.491432 0.064730
0.119764 0.493543 0.064659
0.147760 0.495603 0.064658
0.175912 0.497616 0.064735
0.204208 0.499582 0.064899
0.232631 0.501506 0.065159
0.261167 0.503389 0.065524
0.292056 0.505235 0.066004
0.325281 0.507048 0.066608
0.358565 0.508832 0.067346
0.391888 0.510590 0.068228
0.425230 0.512326 0.069262
0.458573 0.514057 0.070347
0.491916 0.515787 0.071432
0.525257 0.517515 0.072515
0.558596 0.519241 0.073596
0.591933 0.520965 0.074674
0.625268 0.522686 0.075751
0.658621 0.524408 0.076833
0.691989 0.526134 0.077925
0.725365 0.527864 0.079027
0.758739 0.529600 0.080140
0.792105 0.531342 0.081266
0.825456 0.533092 0.082403
0.858783 0.534849 0.083553
0.892081 0.536615 0.084717
0.925343 0.538391 0.085895
0.958564 0.540176 0.087087
0.991736 0.541972 0.088293
1.000000 0.546569 0.118411
0.037828 0.518218 0.064650
0.065651 0.520330 0.064676
0.093647 0.522388 0.064784
0.121804 0.524394 0.064982
0.150107 0.526351 0.065280
0.178541 0.528261 0.065685
0.207090 0.530129 0.066209
0.235737 0.531956 0.066860
0.264464 0.533747 0.067650
0.293252 0.535504 0.068587
0.326593 0.537238 0.069657
0.359936 0.538968 0.070742
0.393278 0.540697 0.071826
0.426618 0.542425 0.072909
0.459957 0.544150 0.073989
0.493292 0.545873 0.075066
0.526635 0.547593 0.076144
0.560007 0.549313 0.077230
0.593401 0.551033 0.078325
0.626809 0.552756 0.079431
0.660222 0.554482 0.080549
0.693633 0.556212 0.081678
0.727034 0.557947 0.082820
0.760418 0.559688 0.083975
0.793778 0.561435 0.085144
0.827107 0.563190 0.086327
0.860400 0.564952 0.087524
0.893649 0.566724 0.088736
0.926851 0.568503 0.089961
0.959998 0.570292 0.091202
0.993086 0.572089 0.092456
1.000000 0.576539 0.126900
0.039292 0.549237 0.065079
0.067490 0.551223 0.065414
0.095839 0.553155 0.065862
0.124323 0.555038 0.066431
0.152926 0.556874 0.067131
0.181631 0.558666 0.067973
0.210419 0.560418 0.068967
0.239246 0.562149 0.070052
0.268073 0.563879 0.071137
0.296898 0.565608 0.072221
0.327980 0.567335 0.073302
0.361317 0.569059 0.074382
0.394652 0.570781 0.075458
0.428011 0.572498 0.076538
0.461409 0.574214 0.077627
0.494835 0.575927 0.078727
0.528281 0.577640 0.079837
0.561738 0.579354 0.080958
0.595199 0.581070 0.082092
0.628656 0.582789 0.083239
0.662101 0.584512 0.084399
0.695528 0.586239 0.085573
0.728929 0.587972 0.086761
0.762297 0.589710 0.087963
0.795628 0.591455 0.089180
0.828914 0.593207 0.090411
0.862151 0.594966 0.091657
0.895333 0.596733 0.092917
0.928455 0.598507 0.094191
0.961513 0.600290 0.095479
0.994502 0.602081 0.096780
1.000000 0.606315 0.136182
0.041507 0.579961 0.066670
0.070084 0.581800 0.067421
0.098785 0.583588 0.068317
0.127588 0.585330 0.069362
0.156415 0.587060 0.070447
0.185241 0.588790 0.071532
0.214066 0.590518 0.072615
0.242889 0.592244 0.073695
0.271709 0.593967 0.074774
0.300533 0.595687 0.075850
0.329401 0.597401 0.076933
0.362829 0.599110 0.078026
0.396293 0.600814 0.079129
0.429783 0.602516 0.080244
0.463290 0.604217 0.081370
0.496806 0.605917 0.082508
0.530324 0.607618 0.083660
0.563835 0.609321 0.084825
0.597333 0.611026 0.086004
0.630810 0.612735 0.087197
0.664259 0.614448 0.088405
0.697674 0.616165 0.089627
0.731049 0.617888 0.090863
0.764379 0.619617 0.092114
0.797657 0.621352 0.093379
0.830880 0.623092 0.094658
0.864041 0.624840 0.095951
0.897136 0.626594 0.097257
0.930162 0.628355 0.098576
0.963115 0.630123 0.099907
0.995990 0.631897 0.101250
1.000000 0.635836 0.146357
0.044757 0.610241 0.069757
0.073584 0.611971 0.070842
0.102410 0.613700 0.071926
0.131234 0.615428 0.073008
0.160056 0.617153 0.074088
0.188875 0.618875 0.075166
0.217715 0.620592 0.076243
0.246613 0.622300 0.077330
0.275563 0.624000 0.078427
0.304554 0.625694 0.079534
0.333576 0.627382 0.080652
0.364881 0.629068 0.081783
0.398457 0.630751 0.082926
0.432041 0.632432 0.084083
0.465623 0.634114 0.085253
0.499196 0.635796 0.086437
0.532753 0.637479 0.087635
0.566286 0.639165 0.088848
0.599790 0.640854 0.090075
0.633258 0.642547 0.091317
0.666684 0.644244 0.092573
0.700062 0.645945 0.093843
0.733387 0.647651 0.095127
0.766654 0.649363 0.096425
0.799859 0.651080 0.097736
0.832996 0.652802 0.099059
0.866062 0.654530 0.100395
0.899054 0.656263 0.101742
0.931967 0.658002 0.103100
0.964799 0.659745 0.104467
0.997546 0.661494 0.105843
1.000000 0.665047 0.157526
0.048402 0.640337 0.073402
0.077223 0.642062 0.074481
0.106042 0.643783 0.075557
0.134911 0.645494 0.076638
0.163846 0.647193 0.077728
0.192838 0.648883 0.078828
0.221878 0.650564 0.079939
0.250955 0.652238 0.081062
0.280061 0.653907 0.082198
0.309188 0.655571 0.083346
0.338325 0.657231 0.084507
0.367466 0.658890 0.085682
0.401119 0.660547 0.086872
0.434760 0.662204 0.088075
0.468382 0.663862 0.089293
0.501978 0.665521 0.090526
0.535542 0.667182 0.091772
0.569068 0.668846 0.093034
0.602549 0.670513 0.094309
0.635980 0.672183 0.095598
0.669356 0.673858 0.096901
0.702672 0.675536 0.098216
0.735922 0.677220 0.099544
0.769105 0.678907 0.100884
0.802214 0.680599 0.102235
0.835246 0.682295 0.103596
0.868199 0.683995 0.104967
0.901069 0.685700 0.106346
0.933853 0.687407 0.107733
0.966549 0.689119 0.109126
0.999155 0.690832 0.110524
1.000000 0.693890 0.169788
0.052124 0.670392 0.077034
0.081102 0.672081 0.078127
0.110143 0.673759 0.079232
0.139237 0.675425 0.080347
0.168374 0.677083 0.081474
0.197545 0.678732 0.082614
0.226741 0.680376 0.083767
0.255954 0.682014 0.084933
0.285175 0.683648 0.086114
0.314395 0.685279 0.087308
0.343609 0.686908 0.088517
0.372807 0.688536 0.089740
0.404241 0.690164 0.090978
0.437904 0.691793 0.092230
0.471532 0.693422 0.093496
0.505119 0.695054 0.094777
0.538659 0.696688 0.096071
0.572146 0.698325 0.097378
0.605575 0.699964 0.098698
0.638942 0.701607 0.100031
0.672242 0.703253 0.101375
0.705471 0.704903 0.102730
0.738624 0.706556 0.104094
0.771699 0.708213 0.105468
0.804692 0.709873 0.106850
0.837600 0.711535 0.108240
0.870421 0.713201 0.109634
0.903153 0.714868 0.111034
0.935793 0.716537 0.112437
0.968339 0.718207 0.113841
1.000000 0.719883 0.116968
1.000000 0.722310 0.183244
0.056634 0.700275 0.080756
0.085836 0.701915 0.081888
0.115077 0.703544 0.083032
0.144348 0.705165 0.084190
0.173640 0.706779 0.085361
0.202944 0.708387 0.086547
0.232253 0.709991 0.087746
0.261559 0.711591 0.088961
0.290853 0.713188 0.090189
0.320128 0.714784 0.091432
0.349378 0.716379 0.092689
0.378596 0.717973 0.093961
0.407775 0.719569 0.095246
0.441426 0.721165 0.096545
0.475027 0.722763 0.097857
0.508572 0.724362 0.099182
0.542057 0.725964 0.100519
0.575476 0.727569 0.101867
0.608826 0.729176 0.103225
0.642102 0.730785 0.104594
0.675300 0.732398 0.105971
0.708417 0.734013 0.107355
0.741451 0.735630 0.108747
0.774397 0.737249 0.110143
0.807254 0.738870 0.111544
0.840019 0.740492 0.112948
0.872691 0.742114 0.114353
0.905268 0.743737 0.115758
0.937749 0.745359 0.117160
0.970132 0.746980 0.118560
1.000000 0.748556 0.125795
1.000000 0.750254 0.197997
0.062009 0.729938 0.084615
0.091385 0.731527 0.085791
0.120778 0.733108 0.086982
0.150179 0.734682 0.088187
0.179580 0.736252 0.089406
0.208973 0.737817 0.090640
0.238351 0.739379 0.091888
0.267707 0.740939 0.093151
0.297033 0.742498 0.094427
0.326324 0.744056 0.095718
0.355573 0.745613 0.097021
0.384773 0.747171 0.098338
0.413921 0.748730 0.099667
0.445267 0.750291 0.101008
0.478808 0.751853 0.102360
0.512280 0.753416 0.103722
0.545680 0.754982 0.105094
0.579002 0.756550 0.106474
0.612245 0.758119 0.107861
0.645404 0.759690 0.109255
0.678476 0.761263 0.110653
0.711459 0.762837 0.112055
0.744349 0.764412 0.113459
0.777146 0.765988 0.114864
0.809847 0.767563 0.116269
0.842452 0.769137 0.117670
0.874958 0.770710 0.119068
0.907364 0.772281 0.120459
0.939672 0.773848 0.121843
0.971880 0.775412 0.123217
1.000000 0.776783 0.135317
1.000000 0.777670 0.214155
0.068174 0.759352 0.088629
0.097674 0.760890 0.089854
0.127170 0.762422 0.091093
0.156655 0.763950 0.092346
0.186119 0.765474 0.093614
0.215557 0.766995 0.094895
0.244962 0.768515 0.096191
0.274327 0.770033 0.097499
0.303645 0.771550 0.098821
0.332913 0.773068 0.100154
0.362122 0.774586 0.101499
0.391270 0.776105 0.102855
0.420350 0.777625 0.104221
0.449358 0.779146 0.105596
0.482807 0.780668 0.106978
0.516175 0.782192 0.108368
0.549460 0.783717 0.109763
0.582658 0.785243 0.111163
0.615767 0.786771 0.112566
0.648783 0.788298 0.113971
0.681705 0.789826 0.115376
0.714530 0.791354 0.116779
0.747257 0.792881 0.118180
0.779884 0.794406 0.119575
0.812411 0.795930 0.120964
0.844836 0.797450 0.122344
0.877160 0.798966 0.123714
0.909382 0.800477 0.125071
0.941503 0.801982 0.126412
0.973522 0.803480 0.127737
1.000000 0.804531 0.145473
1.000000 0.804505 0.231839
0.075040 0.788494 0.092806
0.104616 0.789982 0.094079
0.134168 0.791465 0.095365
0.163689 0.792945 0.096666
0.193173 0.794423 0.097979
0.222612 0.795899 0.099305
0.252001 0.797375 0.100643
0.281334 0.798850 0.101992
0.310606 0.800325 0.103351
0.339811 0.801801 0.104720
0.368945 0.803277 0.106098
0.398004 0.804753 0.107483
0.426983 0.806231 0.108875
0.455878 0.807710 0.110272
0.486945 0.809189 0.111674
0.520179 0.810669 0.113077
0.553321 0.812150 0.114482
0.586367 0.813630 0.115887
0.619315 0.815111 0.117290
