omv/luts/14_midnight_mojave.cube
# Original OMV LUT; redistribution permitted with OMV.
TITLE "Midnight Mojave"
LUT_3D_SIZE 8
DOMAIN_MIN 0.000000 0.000000 0.000000
DOMAIN_MAX 0.903226 0.903226 0.903226
0.000000 0.013263 0.032211
0.103724 0.016337 0.046337
0.215677 0.019903 0.049903
0.328395 0.024226 0.054225
0.442919 0.028896 0.058660
0.560705 0.033438 0.062607
0.682450 0.037582 0.065853
0.808608 0.041136 0.068266
0.004951 0.111139 0.055879
0.109809 0.118893 0.060166
0.225672 0.126877 0.063878
0.344386 0.132192 0.066833
0.466583 0.137171 0.068922
0.592648 0.141640 0.070109
0.722715 0.145494 0.070426
0.856669 0.148699 0.069978
0.021099 0.217549 0.067697
0.120667 0.226706 0.069458
0.241579 0.235504 0.070321
0.366083 0.243785 0.070344
0.494241 0.251459 0.069656
0.625866 0.255924 0.068453
0.760516 0.259810 0.067002
0.897504 0.263232 0.065637
0.031860 0.333210 0.070167
0.136137 0.342769 0.069265
0.253020 0.351639 0.067938
0.382245 0.359812 0.066476
0.514270 0.367351 0.065239
0.648328 0.374386 0.064653
0.783405 0.381114 0.065217
0.918234 0.385221 0.067493
0.036094 0.455871 0.065978
0.145652 0.464767 0.064925
0.258046 0.472882 0.064697
0.390502 0.480361 0.065816
0.523866 0.487415 0.068869
0.657235 0.494332 0.073203
0.790596 0.501230 0.077526
0.923917 0.508225 0.081987
0.041507 0.579961 0.066670
0.156415 0.587060 0.070447
0.271709 0.593967 0.074774
0.396293 0.600814 0.079129
0.530324 0.607618 0.083660
0.664259 0.614448 0.088405
0.797657 0.621352 0.093379
0.930162 0.628355 0.098576
0.056634 0.700275 0.080756
0.173640 0.706779 0.085361
0.290853 0.713188 0.090189
0.407775 0.719569 0.095246
0.542057 0.725964 0.100519
0.675300 0.732398 0.105971
0.807254 0.738870 0.111544
0.937749 0.745359 0.117160
0.082508 0.817347 0.097142
0.200644 0.823082 0.102485
0.317820 0.828805 0.107989
0.433727 0.834534 0.113589
0.557172 0.840265 0.119196
0.688010 0.845975 0.124703
0.817144 0.851616 0.129978
0.944594 0.857120 0.134869
0.000000 0.015690 0.115231
0.095806 0.017451 0.144225
0.208036 0.021294 0.141617
0.321116 0.025807 0.146143
0.436485 0.030468 0.150942
0.555221 0.034901 0.155640
0.677965 0.038863 0.159973
0.805114 0.042185 0.163751
0.006604 0.115428 0.154333
0.102756 0.123300 0.152679
0.219120 0.128706 0.157271
0.338456 0.133931 0.161420
0.461338 0.138753 0.164964
0.588093 0.143021 0.167808
0.718799 0.146655 0.169931
0.853282 0.149643 0.171378
0.022519 0.222391 0.162787
0.122525 0.231447 0.166083
0.234919 0.240084 0.168663
0.359955 0.248166 0.170531
0.488605 0.253045 0.171758
0.620624 0.257305 0.172484
0.755514 0.261016 0.172920
0.892526 0.264320 0.173341
0.032525 0.338235 0.171046
0.137316 0.347564 0.172071
0.245653 0.356195 0.172663
0.375280 0.364143 0.173058
0.507561 0.371492 0.173557
0.641675 0.378397 0.174531
0.776547 0.382498 0.176421
0.910853 0.386665 0.179733
0.036381 0.460690 0.173209
0.146488 0.469309 0.173835
0.259298 0.477189 0.175088
0.382948 0.484496 0.177433
0.516309 0.491470 0.181309
0.649668 0.498378 0.185636
0.783067 0.505294 0.189921
0.916364 0.512339 0.194206
0.042684 0.584150 0.178660
0.157888 0.591114 0.182888
0.273190 0.598006 0.187201
0.388985 0.604830 0.191477
0.523139 0.611636 0.195779
0.657086 0.618487 0.200161
0.790406 0.625422 0.204657
0.922759 0.632462 0.209280
0.058704 0.704204 0.193037
0.175961 0.710667 0.197362
0.293292 0.717060 0.201783
0.410218 0.723441 0.206325
0.535376 0.729849 0.210993
0.668451 0.736296 0.215769
0.800180 0.742778 0.220614
0.930412 0.749264 0.225468
0.085670 0.821002 0.208011
0.203755 0.826730 0.212721
0.320782 0.832454 0.217528
0.436460 0.838185 0.222384
0.550582 0.843913 0.227221
0.681087 0.849605 0.231948
0.809867 0.855209 0.236454
0.936958 0.860648 0.240603
0.000000 0.017327 0.212423
0.087990 0.018668 0.248668
0.200476 0.022766 0.246315
0.314072 0.027397 0.244702
0.430270 0.032013 0.243718
0.549930 0.036309 0.249429
0.673638 0.040069 0.255063
0.801733 0.043149 0.260377
0.008285 0.119771 0.259545
0.104773 0.125140 0.258691
0.212610 0.130513 0.257955
0.332560 0.135622 0.257046
0.456109 0.140270 0.262195
0.583528 0.144328 0.266804
0.714834 0.147741 0.270791
0.849798 0.150520 0.274148
0.023872 0.227206 0.271879
0.124325 0.236140 0.270393
0.228199 0.244600 0.268329
0.353756 0.249894 0.272085
0.482877 0.254559 0.275223
0.615258 0.258621 0.277829
0.750344 0.262175 0.280054
0.887328 0.265384 0.282119
0.033119 0.343184 0.279747
0.138430 0.352279 0.276227
0.247249 0.360672 0.278673
0.368229 0.368404 0.280810
0.500741 0.375582 0.282886
0.634873 0.379802 0.285214
0.769493 0.383889 0.288178
0.903300 0.388138 0.292171
0.036687 0.465412 0.281558
0.147342 0.473765 0.283686
0.260559 0.481428 0.286197
0.375383 0.488591 0.289500
0.508750 0.495524 0.293750
0.642103 0.502421 0.298061
0.775562 0.509374 0.302210
0.908822 0.513894 0.306214
0.044055 0.588248 0.290990
0.159357 0.595164 0.295325
0.274771 0.602035 0.299594
0.390793 0.608844 0.303680
0.516016 0.615659 0.307653
0.649956 0.622535 0.311589
0.783182 0.629505 0.315540
0.915372 0.636581 0.319535
0.060911 0.708115 0.305135
0.178388 0.714547 0.309087
0.295808 0.720930 0.313024
0.412714 0.727318 0.316988
0.528727 0.733738 0.321004
0.661618 0.740199 0.325071
0.793108 0.746686 0.329170
0.923066 0.753165 0.333259
0.088905 0.824654 0.318444
0.206910 0.830377 0.322479
0.323760 0.836104 0.326562
0.439187 0.841836 0.330663
0.553000 0.847556 0.334733
0.674125 0.853226 0.338699
0.802537 0.858783 0.342467
0.929261 0.864145 0.345923
0.000000 0.018493 0.317618
0.089300 0.019978 0.353203
0.192998 0.024313 0.351094
0.307236 0.028984 0.350071
0.424248 0.033520 0.350038
0.544807 0.037655 0.350545
0.669444 0.041197 0.351220
0.798441 0.044025 0.358213
0.009978 0.121574 0.365222
0.106817 0.126979 0.365433
0.206127 0.132289 0.366041
0.326684 0.137260 0.366698
0.450883 0.141718 0.367130
0.578935 0.145561 0.367132
0.710804 0.148753 0.373019
0.846198 0.151331 0.378274
0.025153 0.231988 0.382146
0.126062 0.240778 0.382441
0.230447 0.246467 0.382249
0.347481 0.251549 0.381458
0.477050 0.256003 0.380029
0.609761 0.259878 0.384439
0.745000 0.263293 0.388333
0.881902 0.266434 0.391875
0.033649 0.348055 0.396264
0.139484 0.356912 0.394605
0.248779 0.365072 0.392360
0.361096 0.372600 0.389652
0.493813 0.377046 0.393120
0.627926 0.381190 0.396571
0.762246 0.385300 0.400331
0.895740 0.389611 0.404611
0.037023 0.470039 0.403838
0.148229 0.478141 0.400815
0.261842 0.485610 0.397885
0.376852 0.492658 0.401852
0.501187 0.499574 0.406187
0.634575 0.506473 0.410434
0.768084 0.510890 0.414336
0.901293 0.515470 0.417965
0.045529 0.592303 0.409884
0.160823 0.599210 0.407758
0.276461 0.606055 0.411893
0.392683 0.612859 0.415683
0.508952 0.619690 0.419239
0.642868 0.626595 0.422653
0.775983 0.633601 0.425998
0.907998 0.640710 0.429321
0.063249 0.712013 0.416999
0.180915 0.718421 0.420494
0.298398 0.724801 0.423876
0.415259 0.731198 0.427208
0.531139 0.737632 0.430532
0.654795 0.744105 0.433867
0.786033 0.750594 0.437211
0.915708 0.757057 0.440541
0.092205 0.828303 0.428418
0.210100 0.834025 0.431745
0.326749 0.839754 0.435085
0.441901 0.845486 0.438427
0.555385 0.851194 0.441741
0.667115 0.856834 0.444972
0.795148 0.862335 0.448046
0.921496 0.867608 0.450865
0.000000 0.019377 0.428050
0.090696 0.021374 0.457825
0.185681 0.025895 0.456077
0.300586 0.030555 0.455955
0.418396 0.034981 0.457130
0.539829 0.038932 0.459097
0.665359 0.042241 0.461429
0.795212 0.044813 0.463770
0.011672 0.123402 0.471513
0.108872 0.128807 0.473030
0.208691 0.134026 0.475176
0.320814 0.138838 0.477549
0.445644 0.143095 0.479817
0.574302 0.146717 0.481720
0.706693 0.149694 0.483066
0.842469 0.152083 0.483731
0.026358 0.236727 0.493654
0.127732 0.242774 0.495816
0.232627 0.248263 0.497535
0.341125 0.253131 0.498643
0.471121 0.257379 0.499043
0.604128 0.261082 0.498706
0.739476 0.264379 0.497672
0.876241 0.267481 0.502498
0.034119 0.352846 0.514126
0.140483 0.361464 0.514258
0.250248 0.369399 0.513658
0.362918 0.374158 0.512392
0.486780 0.378476 0.510592
0.620837 0.382574 0.508459
0.754808 0.386746 0.512714
0.888178 0.391081 0.517049
0.037406 0.474576 0.527042
0.149161 0.482443 0.525094
0.263161 0.489742 0.522902
0.378326 0.496713 0.520745
0.493620 0.503620 0.518620
0.627092 0.507957 0.522694
0.760632 0.512425 0.526246
0.893778 0.517068 0.529412
0.047002 0.596356 0.535227
0.162312 0.603248 0.533074
0.278255 0.610071 0.530492
0.394653 0.616877 0.527437
0.510979 0.623729 0.530493
0.635818 0.630666 0.533320
0.768809 0.637708 0.536007
0.900637 0.642270 0.538621
0.065714 0.715900 0.541486
0.183537 0.722293 0.537995
0.301055 0.728674 0.534310
0.417847 0.735082 0.536964
0.533574 0.741531 0.539565
0.647979 0.748012 0.542151
0.778951 0.754499 0.544739
0.908332 0.760940 0.547323
0.095561 0.831950 0.544366
0.213317 0.837674 0.540507
0.329739 0.843405 0.543093
0.444594 0.849133 0.545681
0.557731 0.854825 0.548258
0.669082 0.860426 0.550789
0.787692 0.865861 0.553218
0.913655 0.871031 0.555465
0.000000 0.020079 0.542268
0.092173 0.022850 0.562528
0.187565 0.027485 0.561445
0.294099 0.032098 0.562502
0.412691 0.036386 0.565116
0.534973 0.040134 0.568730
0.661361 0.043200 0.572860
0.792023 0.045512 0.577094
0.013354 0.125242 0.578556
0.110928 0.130613 0.581595
0.211257 0.135715 0.585449
0.314937 0.140352 0.589661
0.440379 0.144399 0.593843
0.569614 0.147799 0.597679
0.702488 0.150566 0.600919
0.838594 0.152782 0.603385
0.027485 0.238836 0.606457
0.129332 0.244705 0.610547
0.234735 0.249987 0.614191
0.343718 0.254641 0.617166
0.465083 0.258692 0.619318
0.598354 0.262238 0.620561
0.733767 0.265442 0.620878
0.870341 0.268537 0.620320
0.034535 0.357556 0.633303
0.141433 0.365936 0.635130
0.251661 0.371076 0.636035
0.364667 0.375664 0.636023
0.479647 0.379879 0.635172
0.613609 0.383966 0.633626
0.747252 0.388220 0.631607
0.880612 0.392547 0.629483
0.037851 0.479028 0.651057
0.150155 0.486680 0.649932
0.264530 0.493836 0.648181
0.379799 0.500767 0.646089
0.495092 0.505083 0.643935
0.619653 0.509457 0.641236
0.753209 0.513981 0.637893
0.886278 0.518690 0.640517
0.048471 0.600406 0.660568
0.163925 0.607276 0.658290
0.280153 0.614085 0.655337
0.396701 0.620901 0.651800
0.513061 0.627778 0.647831
0.628807 0.634750 0.643559
0.761657 0.639247 0.645544
0.893287 0.643838 0.647421
0.068298 0.719780 0.665650
0.186249 0.726163 0.661556
0.303775 0.732551 0.657203
0.420474 0.738972 0.652688
0.536028 0.745433 0.648091
0.650196 0.751921 0.649921
0.771857 0.758399 0.651759
0.900934 0.764809 0.653620
0.098965 0.835598 0.666273
0.216553 0.841324 0.661661
0.332722 0.847056 0.657039
0.447258 0.852776 0.652434
0.560029 0.858444 0.654302
0.670987 0.863999 0.656176
0.780161 0.869356 0.658016
0.905732 0.874411 0.659764
0.000000 0.020658 0.659430
0.093729 0.024400 0.667326
0.189597 0.029071 0.667356
0.287752 0.033603 0.669845
0.407111 0.037728 0.674107
0.530216 0.041257 0.679529
0.657426 0.044071 0.685573
0.788852 0.046124 0.691769
0.015013 0.127081 0.686477
0.112972 0.132387 0.691229
0.213813 0.137349 0.696936
0.318075 0.141797 0.703086
0.435077 0.145627 0.709235
0.564859 0.148807 0.715009
0.698175 0.151374 0.720104
0.834561 0.153434 0.724284
0.028532 0.240890 0.720598
0.130861 0.246569 0.726650
0.236769 0.251638 0.732209
0.346223 0.256081 0.736994
0.458936 0.259946 0.740795
0.592435 0.263354 0.743469
0.727868 0.266492 0.744941
0.864196 0.269615 0.745207
0.034907 0.362184 0.753753
0.142342 0.367752 0.757156
0.253026 0.372688 0.759398
0.366350 0.377126 0.760428
0.481452 0.381267 0.760267
0.606249 0.385379 0.759001
0.739693 0.389693 0.756951
0.873040 0.394013 0.754799
0.038374 0.483400 0.775756
0.151226 0.490858 0.775179
0.265966 0.497901 0.773546
0.381268 0.502236 0.771430
0.496624 0.506555 0.769136
0.612260 0.510974 0.766008
0.745816 0.515558 0.762134
0.878794 0.520334 0.757693
0.049936 0.604452 0.785904
0.165667 0.611296 0.783348
0.282151 0.618100 0.779926
0.398824 0.624932 0.775826
0.515197 0.631839 0.771218
0.630862 0.636266 0.766249
0.754526 0.640797 0.761045
0.885946 0.645414 0.755713
0.070997 0.723654 0.789451
0.189044 0.730034 0.784695
0.306551 0.736431 0.779627
0.423135 0.742866 0.774366
0.538494 0.749339 0.769008
0.652410 0.755829 0.763629
0.764746 0.762291 0.758281
0.893510 0.766080 0.759449
0.102408 0.839246 0.787674
0.219799 0.844975 0.782301
0.335689 0.850706 0.776928
0.449885 0.856414 0.771601
0.562272 0.862051 0.766345
0.672820 0.867549 0.761160
0.781581 0.872817 0.762478
0.897718 0.877741 0.763808
0.000453 0.021453 0.774034
0.095398 0.025983 0.772492
0.191756 0.030641 0.773958
0.290559 0.035060 0.778108
0.401637 0.039000 0.784201
0.525538 0.042296 0.791568
0.653533 0.044854 0.799617
0.785675 0.046650 0.807821
0.016639 0.128907 0.795390
0.114994 0.134121 0.802020
0.216349 0.138924 0.809701
0.321182 0.143170 0.817863
0.429726 0.146779 0.826007
0.560024 0.149744 0.833701
0.693741 0.152123 0.840586
0.830357 0.154047 0.846368
0.029499 0.242883 0.836106
0.132316 0.248361 0.844132
0.238728 0.253216 0.851570
0.348639 0.257454 0.858084
0.461707 0.261147 0.863405
0.586368 0.264439 0.867335
0.721777 0.267539 0.869743
0.857803 0.270728 0.870566
0.035241 0.364151 0.875423
0.143216 0.369494 0.880257
0.254350 0.374243 0.883645
0.367975 0.378554 0.885479
0.483169 0.382651 0.885723
0.598762 0.386827 0.884407
0.732130 0.391163 0.882292
0.865467 0.395506 0.879986
0.038992 0.487698 0.901004
0.152392 0.494988 0.900673
0.267440 0.499375 0.898892
0.382734 0.503701 0.896766
0.498220 0.508040 0.894158
0.613945 0.512511 0.890508
0.738451 0.517157 0.886026
0.871326 0.522002 0.880907
0.051436 0.608490 0.911199
0.167534 0.615311 0.908191
0.284246 0.622118 0.904214
0.401019 0.628971 0.899478
0.517383 0.633330 0.894172
0.632949 0.637793 0.888463
0.747412 0.642357 0.882495
0.878611 0.646995 0.876392
0.073803 0.727525 0.912855
0.191917 0.733907 0.907384
0.309378 0.740316 0.901565
0.425822 0.746765 0.895535
0.540968 0.753247 0.889409
0.654615 0.759734 0.883281
0.766645 0.763592 0.877222
0.886053 0.767331 0.871284
0.105880 0.842895 0.908562
0.223046 0.848626 0.902426
0.338633 0.854353 0.896316
0.452465 0.860044 0.890297
0.564450 0.865642 0.884410
0.674574 0.871073 0.878677
0.782909 0.876238 0.873096
0.889605 0.881016 0.867644
