omv/luts/14_midnight_mojave.cube
# Original OMV LUT; redistribution permitted with OMV.
TITLE "Midnight Mojave"
LUT_3D_SIZE 5
DOMAIN_MIN 0.000000 0.000000 0.000000
DOMAIN_MAX 0.903226 0.903226 0.903226
0.000000 0.013263 0.032211
0.187611 0.018933 0.048933
0.385302 0.026557 0.056487
0.590748 0.034520 0.063490
0.808608 0.041136 0.068266
0.017325 0.190062 0.065527
0.207527 0.205492 0.069335
0.423849 0.219759 0.070424
0.651421 0.227707 0.069213
0.888827 0.233861 0.066770
0.034517 0.393935 0.068390
0.223758 0.409822 0.065890
0.453498 0.423542 0.064655
0.687662 0.435873 0.067272
0.921188 0.447962 0.074575
0.044757 0.610241 0.069757
0.246613 0.622300 0.077330
0.465623 0.634114 0.085253
0.700062 0.645945 0.093843
0.931967 0.658002 0.103100
0.082508 0.817347 0.097142
0.288634 0.827374 0.106601
0.491132 0.837400 0.116398
0.720454 0.847394 0.126049
0.944594 0.857120 0.134869
0.000000 0.016972 0.187218
0.174185 0.021314 0.220669
0.373426 0.029335 0.217791
0.581707 0.036972 0.227250
0.802569 0.042916 0.236110
0.020027 0.198348 0.241903
0.195814 0.213495 0.238969
0.413822 0.222674 0.245521
0.642830 0.229979 0.250161
0.880876 0.235639 0.253426
0.035145 0.402577 0.251461
0.225943 0.417681 0.254485
0.440751 0.430810 0.257905
0.674571 0.442959 0.263765
0.907936 0.450535 0.271308
0.047335 0.617335 0.266528
0.249612 0.629314 0.273965
0.453320 0.641097 0.281091
0.687674 0.652992 0.288233
0.919082 0.665137 0.295564
0.088090 0.823741 0.290877
0.293913 0.833759 0.298280
0.495661 0.843787 0.305780
0.708159 0.853727 0.313067
0.931192 0.863274 0.319630
0.000000 0.018963 0.372290
0.161008 0.023943 0.403943
0.362188 0.032055 0.403097
0.573176 0.039223 0.405051
0.796820 0.044430 0.407604
0.022552 0.206584 0.432697
0.199765 0.216810 0.435053
0.403588 0.225367 0.436087
0.633869 0.232056 0.435160
0.872296 0.237322 0.443571
0.035680 0.410946 0.461009
0.228029 0.425307 0.457546
0.427801 0.437960 0.453176
0.661343 0.445536 0.460536
0.894686 0.453174 0.467814
0.049901 0.624418 0.474579
0.252944 0.636302 0.470161
0.457024 0.648096 0.475993
0.675386 0.660070 0.481332
0.906228 0.672295 0.486524
0.093876 0.830127 0.483227
0.299245 0.840147 0.488412
0.500125 0.850166 0.493594
0.695714 0.860017 0.498638
0.917586 0.869325 0.503205
0.000000 0.020234 0.571307
0.164022 0.026712 0.587844
0.351464 0.034661 0.590597
0.565029 0.041242 0.597434
0.791230 0.045674 0.605635
0.024869 0.210205 0.627075
0.203539 0.219926 0.635228
0.393110 0.227839 0.642107
0.624498 0.233963 0.646544
0.863041 0.238962 0.648015
0.036178 0.419046 0.674122
0.230068 0.432731 0.674508
0.430501 0.440531 0.672248
0.648104 0.448104 0.668588
0.881453 0.455893 0.663788
0.052617 0.631471 0.693804
0.256596 0.643282 0.688217
0.460915 0.655117 0.681044
0.663185 0.667178 0.673010
0.893395 0.674952 0.675925
0.099822 0.836510 0.696671
0.304588 0.846536 0.688260
0.504484 0.856528 0.679890
0.698884 0.866246 0.682887
0.903737 0.875248 0.685797
0.000453 0.021453 0.774034
0.167473 0.029488 0.773309
0.341136 0.037102 0.780955
0.557147 0.043007 0.793538
0.785675 0.046650 0.807821
0.026958 0.213684 0.825382
0.207111 0.222829 0.839608
0.398164 0.230099 0.852172
0.614683 0.235734 0.861377
0.853073 0.240617 0.866167
0.036702 0.426891 0.890358
0.232118 0.435475 0.893405
0.433101 0.443101 0.891650
0.634886 0.450679 0.887797
0.868248 0.458700 0.881537
0.055788 0.638483 0.912552
0.260546 0.650267 0.905307
0.464975 0.662166 0.896076
0.666862 0.669799 0.885757
0.880567 0.677613 0.875042
0.105880 0.842895 0.908562
0.309895 0.852923 0.897837
0.508691 0.862859 0.887335
0.701821 0.872394 0.877268
0.889605 0.881016 0.867644
