omv/luts/15_desert_noir.cube
# Original OMV LUT; redistribution permitted with OMV.
TITLE "Desert Noir"
LUT_3D_SIZE 5
DOMAIN_MIN 0.000000 0.000000 0.000000
DOMAIN_MAX 0.903226 0.903226 0.903226
0.002000 0.013000 0.025000
0.147650 0.036714 0.048714
0.296137 0.062773 0.074694
0.454139 0.089003 0.099836
0.627607 0.113424 0.122170
0.088785 0.152708 0.108341
0.222586 0.193758 0.129462
0.394080 0.233278 0.147160
0.579578 0.259184 0.161929
0.777283 0.282775 0.175070
0.164888 0.324861 0.166809
0.292188 0.366238 0.179835
0.480146 0.404828 0.194295
0.673475 0.441596 0.213380
0.865846 0.477975 0.238136
0.231188 0.511705 0.222188
0.373608 0.548087 0.247049
0.540869 0.584997 0.267906
0.735566 0.621522 0.283425
0.934873 0.656478 0.294014
0.303513 0.696215 0.287819
0.443168 0.733912 0.296781
0.587108 0.769291 0.301928
0.785381 0.801584 0.304489
0.987408 0.830374 0.306040
0.009726 0.020726 0.109500
0.131446 0.045349 0.131865
0.281775 0.071791 0.156571
0.443298 0.097563 0.184772
0.620507 0.121114 0.212208
0.097699 0.174194 0.197191
0.208390 0.214863 0.221734
0.381973 0.242352 0.246247
0.569240 0.267431 0.268304
0.767711 0.290381 0.288539
0.171144 0.346709 0.275824
0.300351 0.387081 0.295710
0.464513 0.424903 0.315929
0.657348 0.461412 0.338993
0.849602 0.486451 0.363939
0.239714 0.531521 0.348134
0.381882 0.568033 0.372465
0.524310 0.604967 0.393170
0.719457 0.641074 0.409760
0.919363 0.675290 0.422354
0.308615 0.716671 0.414790
0.448353 0.753689 0.426028
0.592587 0.788088 0.433995
0.766234 0.819221 0.439633
0.968096 0.846788 0.444232
0.017809 0.028809 0.194357
0.115500 0.054242 0.217533
0.268201 0.080717 0.244736
0.433091 0.105861 0.275404
0.613765 0.128462 0.306805
0.106388 0.195608 0.292208
0.218848 0.224453 0.323355
0.369600 0.251142 0.352806
0.558430 0.275426 0.379730
0.757337 0.297859 0.406353
0.177271 0.368205 0.394212
0.308373 0.407622 0.417794
0.448605 0.444820 0.440065
0.641036 0.469939 0.464939
0.833746 0.494868 0.489608
0.248218 0.551315 0.476315
0.389947 0.588044 0.498096
0.532419 0.624838 0.519524
0.703162 0.660405 0.537823
0.903602 0.693798 0.552827
0.313293 0.736938 0.543664
0.453184 0.773160 0.557496
0.597730 0.806506 0.568366
0.746714 0.836444 0.576931
0.948323 0.862793 0.584194
0.026186 0.037186 0.279508
0.124846 0.063274 0.303956
0.255261 0.089483 0.335640
0.423360 0.113859 0.372406
0.607216 0.135464 0.410860
0.114813 0.205598 0.391702
0.229078 0.233788 0.430085
0.356912 0.259648 0.466821
0.547094 0.283201 0.500414
0.746103 0.305272 0.530167
0.183338 0.389357 0.517040
0.316319 0.427901 0.545379
0.457318 0.453358 0.570218
0.624703 0.478445 0.593122
0.818216 0.503177 0.615645
0.256584 0.571144 0.606726
0.397767 0.608060 0.628941
0.540320 0.644565 0.649581
0.686644 0.679483 0.667844
0.887547 0.700692 0.685535
0.317559 0.756970 0.679141
0.457672 0.792297 0.693501
0.602544 0.824527 0.704974
0.751666 0.853250 0.716189
0.928090 0.878400 0.725602
0.034835 0.045835 0.364932
0.134723 0.072289 0.392326
0.242812 0.098030 0.430114
0.413955 0.121530 0.474059
0.600706 0.142124 0.520103
0.122947 0.215401 0.496106
0.239050 0.242847 0.542064
0.368711 0.267880 0.585880
0.535190 0.290798 0.625393
0.733961 0.312696 0.659241
0.189422 0.410181 0.643757
0.324261 0.436675 0.675361
0.465885 0.461885 0.700756
0.608420 0.486920 0.723593
0.802928 0.511334 0.747037
0.264593 0.591096 0.737409
0.405312 0.628026 0.760910
0.547980 0.664106 0.783640
0.694705 0.686988 0.804511
0.871162 0.707250 0.822784
0.321432 0.776731 0.816830
0.461831 0.811074 0.834042
0.607044 0.842141 0.848208
0.756262 0.869641 0.859411
0.907408 0.893624 0.868079
