omv/luts/15_desert_noir.cube
# Original OMV LUT; redistribution permitted with OMV.
TITLE "Desert Noir"
LUT_3D_SIZE 8
DOMAIN_MIN 0.000000 0.000000 0.000000
DOMAIN_MAX 0.903226 0.903226 0.903226
0.002000 0.013000 0.025000
0.084888 0.026210 0.038210
0.168669 0.040314 0.052314
0.253214 0.055173 0.067171
0.339936 0.070364 0.082097
0.430705 0.085334 0.096392
0.526404 0.099764 0.109805
0.627607 0.113424 0.122170
0.049747 0.089164 0.072659
0.121469 0.111410 0.087389
0.209827 0.133892 0.101388
0.301732 0.149772 0.114434
0.397980 0.165203 0.126394
0.499051 0.179971 0.137219
0.605109 0.193946 0.146947
0.716008 0.207086 0.155701
0.101336 0.175308 0.118918
0.163487 0.199177 0.130466
0.258112 0.222572 0.140883
0.357211 0.245299 0.150238
0.460857 0.267244 0.158684
0.568811 0.281929 0.166461
0.680517 0.295867 0.173894
0.795107 0.309201 0.181393
0.146030 0.272664 0.153407
0.214010 0.296956 0.161578
0.300622 0.320365 0.169187
0.405534 0.342879 0.176592
0.513906 0.364576 0.184233
0.624774 0.385615 0.192637
0.736865 0.406243 0.202416
0.848589 0.420342 0.214266
0.182309 0.378508 0.179321
0.256775 0.401890 0.187174
0.334739 0.424271 0.196003
0.443534 0.445828 0.206451
0.553404 0.466824 0.219246
0.663233 0.487620 0.233588
0.773122 0.508364 0.247653
0.884036 0.529047 0.260156
0.219596 0.485848 0.210796
0.300568 0.506890 0.224471
0.381988 0.527665 0.238795
0.477536 0.548520 0.252410
0.587612 0.569537 0.264267
0.698593 0.590448 0.274362
0.810916 0.611017 0.282745
0.924880 0.631043 0.289501
0.266499 0.588893 0.256932
0.346761 0.610406 0.268144
0.427315 0.631957 0.277608
0.508693 0.653279 0.285387
0.619678 0.674143 0.291580
0.732145 0.694357 0.296324
0.846219 0.713766 0.299795
0.961891 0.732252 0.302202
0.303513 0.696215 0.287819
0.382858 0.717983 0.293466
0.463446 0.739130 0.297725
0.545500 0.759470 0.300782
0.643298 0.778857 0.302861
0.756792 0.797179 0.304226
0.871602 0.814364 0.305173
0.987408 0.830374 0.306040
0.006361 0.017361 0.073232
0.075394 0.030910 0.085491
0.159441 0.045280 0.098570
0.244401 0.060334 0.113646
0.332166 0.075491 0.129016
0.424114 0.090309 0.144248
0.521058 0.104499 0.159017
0.623496 0.117859 0.173089
0.054996 0.100926 0.120524
0.112921 0.123300 0.134597
0.201899 0.139319 0.149692
0.294578 0.155076 0.164231
0.391679 0.170301 0.178007
0.493608 0.184809 0.190901
0.600460 0.198502 0.202880
0.712013 0.211364 0.213997
0.106272 0.187712 0.169342
0.168967 0.211447 0.182807
0.250035 0.234633 0.195367
0.349792 0.257103 0.207022
0.454046 0.272320 0.217854
0.562483 0.286741 0.228032
0.674476 0.300453 0.237809
0.789084 0.313630 0.247524
0.150003 0.285269 0.211054
0.218618 0.309268 0.221623
0.291634 0.332370 0.231621
0.397035 0.354594 0.241332
0.505714 0.376044 0.251127
0.616635 0.396912 0.261460
0.728450 0.411021 0.272874
0.839499 0.425183 0.285994
0.185775 0.390829 0.244866
0.260911 0.413857 0.254800
0.339378 0.435933 0.265459
0.434242 0.457266 0.277417
0.544087 0.478152 0.291216
0.653897 0.498929 0.305542
0.763977 0.519665 0.319307
0.875254 0.540280 0.331609
0.224112 0.497351 0.282219
0.305439 0.518213 0.296439
0.386830 0.538974 0.310710
0.468152 0.559914 0.323960
0.578309 0.580924 0.335713
0.689454 0.601743 0.345953
0.801993 0.622148 0.354697
0.916195 0.641951 0.362002
0.270848 0.600437 0.328414
0.350940 0.621995 0.339616
0.431447 0.643496 0.349307
0.512867 0.664686 0.357519
0.609759 0.685349 0.364321
0.722355 0.705305 0.369819
0.836553 0.724413 0.374158
0.952314 0.742566 0.377517
0.306481 0.707925 0.360154
0.385822 0.729505 0.366467
0.466472 0.750397 0.371524
0.548622 0.770428 0.375484
0.632324 0.789464 0.378538
0.745887 0.807406 0.380920
0.860706 0.824194 0.382897
0.976430 0.839804 0.384774
0.010861 0.021861 0.121603
0.065994 0.035704 0.134155
0.150297 0.050330 0.147491
0.235875 0.065498 0.161643
0.324666 0.080577 0.176553
0.417764 0.095210 0.193048
0.515908 0.109137 0.209443
0.619526 0.122185 0.225432
0.060274 0.112748 0.170059
0.118614 0.128749 0.185128
0.194023 0.144714 0.200336
0.287466 0.160317 0.215324
0.385397 0.175315 0.231106
0.488150 0.189553 0.246202
0.595746 0.202961 0.260506
0.707892 0.215554 0.274002
0.111123 0.200081 0.223720
0.174372 0.223654 0.237979
0.241882 0.246611 0.251504
0.342283 0.262362 0.265512
0.447117 0.277304 0.278724
0.555997 0.291470 0.291239
0.668222 0.304977 0.303239
0.782780 0.318026 0.314993
0.153887 0.297778 0.271701
0.223141 0.321475 0.283353
0.296749 0.344273 0.295655
0.388425 0.366218 0.307530
0.497377 0.387445 0.319278
0.608303 0.401722 0.331283
0.719784 0.415804 0.344015
0.830188 0.430059 0.357962
0.189257 0.403026 0.311804
0.265064 0.425713 0.323596
0.344021 0.447509 0.335807
0.424929 0.468651 0.348937
0.534766 0.489475 0.363185
0.644563 0.510231 0.377470
0.754912 0.530952 0.390968
0.866540 0.545020 0.403251
0.228865 0.508736 0.354058
0.310304 0.529530 0.368401
0.391634 0.550320 0.382519
0.472930 0.571315 0.395585
0.568978 0.592288 0.407407
0.680285 0.612990 0.417939
0.793031 0.633210 0.427167
0.907456 0.652772 0.435118
0.275064 0.612008 0.400036
0.355006 0.633578 0.411392
0.435476 0.655000 0.421449
0.516945 0.676033 0.430207
0.599746 0.696474 0.437706
0.712465 0.716156 0.444021
0.826777 0.734949 0.449266
0.942611 0.752761 0.453591
0.309309 0.719579 0.433080
0.388663 0.740947 0.440137
0.469384 0.761564 0.446047
0.551633 0.781270 0.450938
0.635432 0.799944 0.454972
0.734863 0.817500 0.458350
0.849678 0.833888 0.461309
0.965300 0.849099 0.464125
0.015468 0.026468 0.170081
0.070877 0.040587 0.182910
0.141243 0.055459 0.196500
0.227606 0.070649 0.211375
0.317406 0.085611 0.227469
0.411623 0.100029 0.244232
0.510924 0.113672 0.261200
0.615665 0.126398 0.279287
0.065566 0.118162 0.220175
0.124336 0.134193 0.236571
0.186181 0.150068 0.253458
0.280378 0.165488 0.270403
0.379116 0.180241 0.287059
0.482656 0.194201 0.303166
0.590948 0.207326 0.319839
0.703624 0.219660 0.335698
0.115882 0.212404 0.279566
0.179696 0.235788 0.296048
0.247840 0.252049 0.311907
0.334677 0.267527 0.326999
0.440062 0.282198 0.341266
0.549343 0.296123 0.356024
0.661746 0.309447 0.370096
0.776185 0.322403 0.383678
0.157686 0.310187 0.335340
0.227586 0.333578 0.349308
0.301777 0.356076 0.362508
0.379707 0.377759 0.375084
0.488898 0.392336 0.388553
0.599783 0.406508 0.401940
0.710869 0.420609 0.415644
0.820867 0.434931 0.429931
0.192774 0.415102 0.382599
0.269251 0.437465 0.394708
0.348685 0.459009 0.406869
0.429804 0.479997 0.420804
0.525438 0.500792 0.435147
0.635291 0.521536 0.449325
0.745913 0.535764 0.462732
0.857880 0.549712 0.475163
0.233741 0.520063 0.427321
0.315160 0.540837 0.440354
0.396389 0.561697 0.454312
0.477668 0.582714 0.467377
0.559609 0.603621 0.479427
0.671075 0.624181 0.490384
0.784021 0.644195 0.500205
0.898655 0.663502 0.508885
0.279146 0.623594 0.471886
0.358954 0.645143 0.483546
0.439401 0.666458 0.494092
0.520925 0.687311 0.503497
0.603828 0.707512 0.511767
0.702472 0.726904 0.518949
0.816887 0.745372 0.525125
0.932776 0.762836 0.530414
0.311999 0.731169 0.506637
0.391380 0.752302 0.514504
0.472182 0.772626 0.521308
0.554535 0.791994 0.527146
0.638429 0.810295 0.532149
0.723720 0.827458 0.536489
0.838518 0.843446 0.540371
0.954019 0.858261 0.544042
0.020173 0.031173 0.218657
0.075848 0.045557 0.231751
0.132380 0.060620 0.245756
0.219565 0.075774 0.261750
0.310356 0.090582 0.279351
0.405661 0.104758 0.297937
0.506076 0.118102 0.316975
0.611881 0.130498 0.336017
0.070855 0.123602 0.271057
0.130071 0.139619 0.289083
0.192548 0.155368 0.307892
0.273296 0.170581 0.326979
0.372818 0.185075 0.345927
0.477110 0.198751 0.364406
0.586047 0.211599 0.382168
0.699190 0.223690 0.399054
0.120545 0.224671 0.336963
0.184936 0.241393 0.355774
0.253711 0.257396 0.374016
0.326967 0.272599 0.391474
0.432874 0.287005 0.408017
0.542514 0.300705 0.423603
0.655040 0.313874 0.438271
0.769292 0.326772 0.453440
0.161407 0.322493 0.400657
0.231958 0.345578 0.416852
0.306724 0.367786 0.432095
0.385081 0.382772 0.446456
0.480283 0.397180 0.460095
0.591079 0.411286 0.473253
0.701708 0.425453 0.487549
0.811539 0.439797 0.501894
0.196343 0.427062 0.454545
0.273490 0.449123 0.467976
0.353387 0.470444 0.481036
0.434680 0.491325 0.494067
0.516101 0.512101 0.507101
0.626077 0.526385 0.521194
0.736966 0.540543 0.534690
0.849259 0.554347 0.547424
0.238612 0.531386 0.501870
0.319992 0.552148 0.514868
0.401087 0.573091 0.527477
0.482358 0.594100 0.539421
0.564388 0.614913 0.551845
0.661816 0.635309 0.563348
0.774954 0.655099 0.573857
0.889782 0.667683 0.583337
0.283091 0.635183 0.546626
0.362783 0.656680 0.557435
0.443218 0.677863 0.567292
0.524802 0.698514 0.577429
0.607808 0.718455 0.586532
0.692371 0.737545 0.594616
0.806878 0.755679 0.601734
0.922807 0.772790 0.607974
0.314553 0.742687 0.582153
0.393976 0.763564 0.589591
0.474869 0.783578 0.597315
0.557329 0.802594 0.604101
0.641315 0.820515 0.610051
0.726653 0.837281 0.615304
0.827227 0.852869 0.620037
0.942589 0.867292 0.624464
0.024972 0.035972 0.267327
0.080902 0.050612 0.280676
0.137918 0.065784 0.295489
0.211725 0.080858 0.312951
0.303488 0.095479 0.332349
0.399849 0.109391 0.352992
0.501333 0.122421 0.374276
0.608146 0.134485 0.395681
0.076128 0.129051 0.322878
0.135806 0.145012 0.342804
0.198916 0.160605 0.363746
0.266204 0.175590 0.385130
0.366486 0.189813 0.406467
0.471492 0.203205 0.427356
0.581025 0.215783 0.447479
0.694572 0.227650 0.466605
0.125109 0.230422 0.395977
0.190086 0.246915 0.417193
0.259489 0.262651 0.437835
0.333342 0.277578 0.457617
0.425548 0.291730 0.476339
0.535504 0.305226 0.493886
0.648097 0.318269 0.510227
0.762094 0.331150 0.525419
0.165059 0.334695 0.467614
0.236265 0.357475 0.485917
0.311597 0.372954 0.503024
0.390358 0.387718 0.518936
0.471537 0.401987 0.533739
0.582195 0.416070 0.547607
0.692393 0.430329 0.560813
0.802203 0.444655 0.573848
0.199984 0.438912 0.527497
0.277799 0.460694 0.541935
0.358144 0.481826 0.555522
0.439552 0.502648 0.568616
0.520956 0.516951 0.581625
0.616909 0.531220 0.594466
0.728059 0.545282 0.606925
0.840666 0.558919 0.620103
0.243476 0.542702 0.576412
0.324751 0.563496 0.589381
0.405721 0.584493 0.602107
0.486992 0.605463 0.614379
0.569114 0.626157 0.626017
0.652501 0.646366 0.636883
0.765820 0.659463 0.648162
0.880829 0.671765 0.658498
0.286897 0.646765 0.621748
0.366489 0.668181 0.633119
0.446923 0.689206 0.643675
0.528575 0.709634 0.653326
0.611683 0.729300 0.662020
0.696353 0.748076 0.671029
0.796747 0.765868 0.679087
0.912698 0.782622 0.686250
0.316975 0.754124 0.659654
0.396454 0.774726 0.667993
0.477447 0.794414 0.675361
0.560017 0.813067 0.681794
0.644093 0.830601 0.688654
0.729470 0.846967 0.694759
0.815805 0.862156 0.700255
0.931008 0.876194 0.705326
0.029860 0.040860 0.316086
0.086043 0.055744 0.329708
0.143636 0.070934 0.345899
0.204059 0.085889 0.365147
0.296775 0.100293 0.386603
0.394161 0.113921 0.409505
0.496668 0.126628 0.433179
0.604430 0.138359 0.457034
0.081369 0.134494 0.375795
0.141524 0.150363 0.397861
0.205271 0.165772 0.421118
0.273281 0.180511 0.444921
0.360105 0.194455 0.468713
0.465788 0.207565 0.492018
0.575865 0.219886 0.514451
0.689751 0.231548 0.535707
0.129571 0.236101 0.456661
0.195144 0.252348 0.480326
0.265171 0.267811 0.503354
0.339604 0.282467 0.525389
0.418080 0.296378 0.546160
0.528308 0.309693 0.565479
0.640911 0.322645 0.583247
0.754583 0.335551 0.599449
0.168650 0.346792 0.536159
0.240516 0.362822 0.556418
0.316405 0.378038 0.575180
0.395547 0.392606 0.592376
0.476860 0.406773 0.608020
0.573138 0.420876 0.622214
0.683072 0.435201 0.635362
0.792879 0.449500 0.648378
0.203716 0.450659 0.601297
0.282198 0.472190 0.616398
0.362977 0.493171 0.630106
0.444416 0.507513 0.643158
0.525841 0.521805 0.656177
0.607774 0.536030 0.669230
0.719177 0.549970 0.682097
0.832086 0.563420 0.694555
0.248332 0.554009 0.650945
0.329425 0.574873 0.663986
0.410285 0.595891 0.676999
0.491563 0.616794 0.689741
0.573778 0.637345 0.702003
0.657315 0.650895 0.713614
0.756613 0.663736 0.724441
0.871787 0.675743 0.734387
0.290562 0.658328 0.697321
0.370071 0.679637 0.709364
0.450516 0.700480 0.720703
0.532240 0.720666 0.731218
0.615451 0.740042 0.740826
0.700222 0.758492 0.749480
0.786491 0.775936 0.757171
0.902447 0.785880 0.765217
0.319266 0.765474 0.737875
0.398817 0.785782 0.747139
0.479918 0.805130 0.755441
0.562602 0.823411 0.762786
0.646766 0.840551 0.769215
0.732173 0.856518 0.774807
0.818450 0.871311 0.780967
0.919281 0.884971 0.786557
0.034835 0.045835 0.364932
0.091316 0.060906 0.379193
0.149509 0.076057 0.397172
0.210735 0.090855 0.418492
0.290192 0.105017 0.442234
0.388570 0.118344 0.467567
0.492054 0.130722 0.493744
0.600706 0.142124 0.520103
0.086568 0.139918 0.429951
0.147215 0.155660 0.454364
0.211598 0.170861 0.480086
0.280319 0.185340 0.506402
0.353660 0.199001 0.532681
0.459981 0.211833 0.558380
0.570551 0.223911 0.583040
0.684713 0.235396 0.606287
0.133932 0.241702 0.519054
0.200109 0.257690 0.545180
0.270756 0.272877 0.570550
0.345752 0.287269 0.594734
0.424659 0.300957 0.617392
0.520923 0.314118 0.638265
0.633479 0.327014 0.657183
0.746756 0.339993 0.674059
0.172192 0.352333 0.606225
0.244720 0.368074 0.628259
0.321155 0.383048 0.648436
0.400657 0.397447 0.666616
0.482067 0.411550 0.682744
0.563916 0.425723 0.696851
0.673744 0.440066 0.709905
0.783681 0.454316 0.722965
0.207561 0.462312 0.675776
0.286708 0.483621 0.691160
0.367853 0.498047 0.704660
0.449273 0.512370 0.717692
0.530748 0.526654 0.730854
0.612853 0.540807 0.744283
0.710308 0.554602 0.757695
0.823507 0.567845 0.770839
0.253152 0.565321 0.725486
0.334008 0.586269 0.738778
0.414771 0.607276 0.752232
0.496064 0.628084 0.765574
0.578375 0.642017 0.778565
0.662057 0.655343 0.791002
0.747325 0.667912 0.802722
0.862649 0.679614 0.813597
0.294085 0.669864 0.773406
0.373529 0.691038 0.786217
0.453995 0.711678 0.798410
0.535796 0.731604 0.809835
0.619109 0.750677 0.820378
0.703975 0.768793 0.829962
0.790302 0.779432 0.838547
0.892052 0.789017 0.846131
0.321432 0.776731 0.816830
0.401069 0.796727 0.827031
0.482286 0.815723 0.836254
0.565086 0.833623 0.844473
0.649336 0.850367 0.851699
0.734765 0.865932 0.857979
0.820969 0.880335 0.863399
0.907408 0.893624 0.868079
