omv/luts/15_desert_noir.cube
# Original OMV LUT; redistribution permitted with OMV.
TITLE "Desert Noir"
LUT_3D_SIZE 32
DOMAIN_MIN 0.0 0.0 0.0
DOMAIN_MAX 1.0 1.0 1.0
0.002000 0.013000 0.025000
0.022613 0.016194 0.028194
0.043311 0.019472 0.031472
0.064071 0.022813 0.034813
0.084888 0.026210 0.038210
0.105758 0.029661 0.041661
0.126679 0.033163 0.045163
0.147650 0.036714 0.048714
0.168669 0.040314 0.052314
0.189735 0.043961 0.055961
0.210848 0.047654 0.059654
0.232005 0.051393 0.063393
0.253214 0.055173 0.067171
0.274576 0.058971 0.070945
0.296137 0.062773 0.074694
0.317918 0.066573 0.078413
0.339936 0.070364 0.082097
0.362209 0.074142 0.085741
0.384752 0.077899 0.089341
0.407579 0.081631 0.092892
0.430705 0.085334 0.096392
0.454139 0.089003 0.099836
0.477895 0.092633 0.103221
0.501980 0.096221 0.106545
0.526404 0.099764 0.109805
0.551174 0.103259 0.112999
0.576294 0.106702 0.116126
0.601771 0.110091 0.119183
0.627607 0.113424 0.122170
0.653805 0.116699 0.125087
0.680365 0.119916 0.127932
0.707288 0.123072 0.130706
0.013044 0.031140 0.036044
0.030331 0.036170 0.039460
0.051220 0.041252 0.042930
0.072160 0.044773 0.046450
0.093148 0.048342 0.050019
0.114185 0.051959 0.053637
0.135268 0.055623 0.057300
0.156397 0.059333 0.061010
0.177571 0.063087 0.064764
0.198812 0.066880 0.068548
0.220199 0.070694 0.072313
0.241757 0.074520 0.076051
0.263506 0.078352 0.079758
0.285466 0.082183 0.083428
0.307655 0.086007 0.087057
0.330088 0.089819 0.090640
0.352780 0.093613 0.094173
0.375747 0.097384 0.097652
0.399001 0.101128 0.101075
0.422554 0.104839 0.104438
0.446415 0.108514 0.107739
0.470595 0.112149 0.110976
0.495101 0.115741 0.114145
0.519939 0.119287 0.117247
0.545116 0.122784 0.120279
0.570636 0.126229 0.123241
0.596502 0.129622 0.126131
0.622715 0.132959 0.128950
0.649276 0.136239 0.131698
0.676185 0.139463 0.134376
0.703440 0.142628 0.136983
0.731037 0.145734 0.139520
0.024744 0.049937 0.047744
0.038653 0.055137 0.051331
0.059707 0.060384 0.054965
0.080807 0.065678 0.058646
0.101952 0.071017 0.062372
0.123142 0.074787 0.066142
0.144410 0.078596 0.069921
0.165799 0.082432 0.073677
0.187330 0.086289 0.077405
0.209027 0.090159 0.081099
0.230907 0.094036 0.084754
0.252989 0.097914 0.088367
0.275292 0.101786 0.091932
0.297832 0.105647 0.095446
0.320622 0.109492 0.098905
0.343677 0.113315 0.102307
0.367010 0.117112 0.105647
0.390631 0.120878 0.108925
0.414552 0.124611 0.112137
0.438780 0.128305 0.115282
0.463323 0.131957 0.118359
0.488187 0.135565 0.121365
0.513379 0.139127 0.124301
0.538901 0.142639 0.127166
0.564757 0.146099 0.129959
0.590947 0.149507 0.132681
0.617473 0.152861 0.135333
0.644332 0.156159 0.137914
0.671524 0.159402 0.140427
0.699044 0.162588 0.142873
0.726888 0.165719 0.145254
0.755050 0.168793 0.147571
0.036997 0.069287 0.059997
0.051062 0.074643 0.063739
0.068721 0.080042 0.067520
0.089995 0.085485 0.071291
0.111362 0.090963 0.075038
0.132845 0.096470 0.078754
0.154466 0.101999 0.082434
0.176245 0.105928 0.086075
0.198202 0.109865 0.089670
0.220356 0.113803 0.093217
0.242722 0.117737 0.096712
0.265318 0.121660 0.100150
0.288158 0.125568 0.103530
0.311255 0.129455 0.106848
0.334621 0.133318 0.110102
0.358267 0.137151 0.113290
0.382203 0.140951 0.116410
0.406437 0.144714 0.119461
0.430977 0.148437 0.122442
0.455829 0.152117 0.125352
0.480997 0.155752 0.128191
0.506485 0.159339 0.130958
0.532295 0.162877 0.133655
0.558429 0.166363 0.136281
0.584886 0.169797 0.138837
0.611665 0.173177 0.141326
0.638764 0.176504 0.143747
0.666178 0.179776 0.146105
0.693903 0.182995 0.148400
0.721932 0.186160 0.150635
0.750258 0.189272 0.152814
0.778872 0.192332 0.154940
0.049747 0.089164 0.072659
0.063973 0.094679 0.076394
0.078288 0.100230 0.080098
0.099812 0.105809 0.083765
0.121469 0.111410 0.087389
0.143281 0.117025 0.090967
0.165266 0.122648 0.094496
0.187443 0.128272 0.097970
0.209827 0.133892 0.101388
0.232434 0.137889 0.104745
0.255279 0.141872 0.108040
0.278375 0.145834 0.111271
0.301732 0.149772 0.114434
0.325363 0.153682 0.117529
0.349276 0.157559 0.120555
0.373480 0.161401 0.123510
0.397980 0.165203 0.126394
0.422784 0.168964 0.129207
0.447895 0.172680 0.131948
0.473317 0.176349 0.134619
0.499051 0.179971 0.137219
0.525098 0.183542 0.139751
0.551458 0.187062 0.142215
0.578130 0.190530 0.144613
0.605109 0.193946 0.146947
0.632393 0.197309 0.149221
0.659975 0.200620 0.151435
0.687850 0.203879 0.153594
0.716008 0.207086 0.155701
0.744442 0.210244 0.157760
0.773141 0.213354 0.159774
0.802093 0.216416 0.161749
0.062795 0.109659 0.085089
0.077214 0.115324 0.088697
0.091765 0.121010 0.092258
0.110014 0.126709 0.095767
0.131982 0.132417 0.099221
0.154138 0.138125 0.102617
0.176497 0.143830 0.105952
0.199074 0.149525 0.109224
0.221885 0.155204 0.112430
0.244941 0.160865 0.115569
0.268253 0.166501 0.118639
0.291833 0.170496 0.121639
0.315688 0.174459 0.124568
0.339827 0.178386 0.127426
0.364257 0.182275 0.130213
0.388982 0.186123 0.132929
0.414006 0.189927 0.135574
0.439333 0.193685 0.138149
0.464964 0.197395 0.140656
0.490900 0.201056 0.143095
0.517139 0.204667 0.145470
0.543680 0.208227 0.147782
0.570519 0.211736 0.150033
0.597652 0.215193 0.152227
0.625073 0.218599 0.154367
0.652775 0.221955 0.156456
0.680750 0.225260 0.158498
0.708988 0.228517 0.160498
0.737479 0.231727 0.162459
0.766211 0.234892 0.164387
0.795171 0.238014 0.166287
0.824344 0.241095 0.168165
0.075880 0.130830 0.097031
0.090525 0.136625 0.100464
0.105339 0.142428 0.103839
0.120337 0.148231 0.107151
0.142633 0.154029 0.110399
0.165144 0.159818 0.113581
0.187884 0.165591 0.116695
0.210866 0.171344 0.119739
0.234100 0.177073 0.122714
0.257597 0.182773 0.125617
0.281364 0.188442 0.128449
0.305410 0.194074 0.131210
0.329741 0.199669 0.133900
0.354361 0.203609 0.136519
0.379273 0.207506 0.139069
0.404482 0.211357 0.141552
0.429988 0.215161 0.143967
0.455790 0.218916 0.146319
0.481888 0.222622 0.148609
0.508280 0.226277 0.150839
0.534961 0.229881 0.153013
0.561927 0.233434 0.155133
0.589172 0.236937 0.157205
0.616688 0.240390 0.159231
0.644467 0.243794 0.161216
0.672499 0.247150 0.163165
0.700772 0.250460 0.165082
0.729276 0.253727 0.166973
0.757996 0.256951 0.168844
0.786918 0.260136 0.170701
0.816025 0.263285 0.172549
0.845301 0.266401 0.174397
0.088785 0.152708 0.108341
0.103687 0.158614 0.111565
0.118789 0.164515 0.114722
0.134104 0.170404 0.117811
0.153195 0.176278 0.120830
0.176073 0.182131 0.123779
0.199200 0.187959 0.126656
0.222586 0.193758 0.129462
0.246240 0.199525 0.132197
0.270167 0.205255 0.134861
0.294375 0.210947 0.137456
0.318867 0.216597 0.139981
0.343648 0.222204 0.142439
0.368718 0.227765 0.144831
0.394080 0.233278 0.147160
0.419732 0.237129 0.149427
0.445674 0.240931 0.151636
0.471902 0.244683 0.153791
0.498412 0.248383 0.155893
0.525199 0.252034 0.157947
0.552257 0.255633 0.159958
0.579578 0.259184 0.161929
0.607153 0.262685 0.163866
0.634972 0.266140 0.165773
0.663023 0.269549 0.167656
0.691294 0.272914 0.169521
0.719772 0.276239 0.171374
0.748440 0.279525 0.173222
0.777283 0.282775 0.175070
0.806284 0.285994 0.176927
0.835423 0.289184 0.178799
0.864680 0.292350 0.180695
0.101336 0.175308 0.118918
0.116524 0.181305 0.121912
0.131937 0.187286 0.124835
0.147588 0.193244 0.127686
0.163487 0.199177 0.130466
0.186740 0.205079 0.133175
0.210257 0.210948 0.135814
0.234046 0.216780 0.138383
0.258112 0.222572 0.140883
0.282459 0.228323 0.143317
0.307090 0.234028 0.145686
0.332007 0.239687 0.147992
0.357211 0.245299 0.150238
0.382700 0.250861 0.152427
0.408473 0.256372 0.154562
0.434527 0.261834 0.156646
0.460857 0.267244 0.158684
0.487458 0.270990 0.160680
0.514323 0.274686 0.162638
0.541444 0.278332 0.164563
0.568811 0.281929 0.166461
0.596414 0.285480 0.168337
0.624242 0.288985 0.170197
0.652281 0.292446 0.172047
0.680517 0.295867 0.173894
0.708935 0.299249 0.175745
0.737518 0.302597 0.177606
0.766248 0.305913 0.179486
0.795107 0.309201 0.181393
0.824073 0.312465 0.183334
0.853126 0.315710 0.185318
0.882242 0.318940 0.187355
0.113402 0.198630 0.128707
0.128902 0.204698 0.131461
0.144649 0.210738 0.134144
0.160652 0.216747 0.136757
0.176919 0.222722 0.139301
0.197004 0.228658 0.141777
0.220913 0.234553 0.144187
0.245101 0.240404 0.146533
0.269570 0.246210 0.148817
0.294323 0.251969 0.151041
0.319358 0.257678 0.153210
0.344676 0.263338 0.155326
0.370273 0.268946 0.157393
0.396147 0.274503 0.159415
0.422292 0.280008 0.161397
0.448703 0.285461 0.163343
0.475373 0.290863 0.165257
0.502293 0.296215 0.167146
0.529453 0.301518 0.169016
0.556842 0.305161 0.170871
0.584449 0.308757 0.172720
0.612260 0.312310 0.174567
0.640261 0.315822 0.176421
0.668435 0.319296 0.178288
0.696766 0.322734 0.180177
0.725236 0.326141 0.182095
0.753825 0.329520 0.184051
0.782512 0.332875 0.186053
0.811276 0.336211 0.188111
0.840093 0.339533 0.190233
0.868939 0.342845 0.192430
0.897788 0.346154 0.194712
0.124896 0.222655 0.137691
0.140732 0.228773 0.140210
0.156832 0.234854 0.142662
0.173201 0.240895 0.145048
0.189845 0.246893 0.147371
0.206767 0.252847 0.149633
0.231067 0.258753 0.151837
0.255647 0.264610 0.153986
0.280509 0.270417 0.156084
0.305651 0.276172 0.158135
0.331069 0.281875 0.160141
0.356761 0.287525 0.162109
0.382721 0.293122 0.164043
0.408943 0.298666 0.165948
0.435420 0.304158 0.167829
0.462141 0.309599 0.169693
0.489099 0.314990 0.171545
0.516281 0.320332 0.173392
0.543674 0.325628 0.175241
0.571266 0.330880 0.177099
0.599041 0.336089 0.178973
0.626983 0.339647 0.180871
0.655074 0.343169 0.182802
0.683297 0.346659 0.184774
0.711631 0.350121 0.186795
0.740056 0.353558 0.188875
0.768548 0.356976 0.191024
0.797086 0.360380 0.193251
0.825642 0.363774 0.195566
0.854193 0.367164 0.197980
0.882710 0.370557 0.200503
0.911165 0.373957 0.203147
0.135773 0.247350 0.145901
0.151967 0.253496 0.148202
0.168436 0.259597 0.150442
0.185184 0.265651 0.152626
0.202212 0.271656 0.154756
0.219522 0.277610 0.156836
0.240660 0.283511 0.158870
0.265625 0.289359 0.160862
0.290866 0.295153 0.162817
0.316379 0.300893 0.164740
0.342157 0.306578 0.166635
0.368195 0.312208 0.168509
0.394484 0.317785 0.170368
0.421016 0.323310 0.172218
0.447780 0.328782 0.174064
0.474764 0.334205 0.175916
0.501955 0.339581 0.177779
0.529340 0.344910 0.179661
0.556904 0.350197 0.181570
0.584629 0.355444 0.183515
0.612498 0.360654 0.185503
0.640492 0.365831 0.187545
0.668590 0.370978 0.189649
0.696773 0.374488 0.191825
0.725016 0.377978 0.194083
0.753296 0.381453 0.196433
0.781588 0.384917 0.198885
0.809865 0.388378 0.201451
0.838101 0.391840 0.204142
0.866265 0.395309 0.206970
0.894329 0.398794 0.209945
0.922261 0.402299 0.213082
0.146030 0.272664 0.153407
0.162602 0.278816 0.155519
0.179456 0.284917 0.157582
0.196592 0.290964 0.159600
0.214010 0.296956 0.161578
0.231706 0.302893 0.163520
0.249678 0.308774 0.165433
0.275017 0.314598 0.167320
0.300622 0.320365 0.169187
0.326485 0.326076 0.171042
0.352598 0.331731 0.172890
0.378951 0.337332 0.174738
0.405534 0.342879 0.176592
0.432335 0.348375 0.178461
0.459340 0.353822 0.180352
0.486536 0.359221 0.182273
0.513906 0.364576 0.184233
0.541433 0.369889 0.186240
0.569100 0.375164 0.188304
0.596888 0.380405 0.190433
0.624774 0.385615 0.192637
0.652739 0.390799 0.194927
0.680759 0.395962 0.197313
0.708810 0.401108 0.199805
0.736865 0.406243 0.202416
0.764900 0.409761 0.205155
0.792885 0.413278 0.208035
0.820791 0.416803 0.211068
0.848589 0.420342 0.214266
0.876246 0.423901 0.217643
0.903744 0.427486 0.221196
0.931204 0.431075 0.224785
0.155707 0.298529 0.160324
0.172676 0.304665 0.162289
0.189927 0.310743 0.164220
0.207460 0.316764 0.166122
0.225269 0.322725 0.168002
0.243349 0.328627 0.169864
0.261696 0.334469 0.171715
0.283849 0.340253 0.173562
0.309800 0.345979 0.175412
0.335991 0.351648 0.177271
0.362411 0.357262 0.179147
0.389047 0.362822 0.181048
0.415886 0.368330 0.182982
0.442913 0.373789 0.184958
0.470112 0.379201 0.186984
0.497465 0.384570 0.189071
0.524956 0.389899 0.191226
0.552563 0.395191 0.193460
0.580265 0.400452 0.195784
0.608042 0.405685 0.198207
0.635869 0.410894 0.200742
0.663721 0.416086 0.203397
0.691574 0.421265 0.206187
0.719399 0.426438 0.209121
0.747169 0.431610 0.212213
0.774854 0.436787 0.215474
0.802423 0.441977 0.218919
0.829890 0.445567 0.222502
0.857349 0.449155 0.226091
0.884805 0.452740 0.229676
0.912257 0.456322 0.233258
0.939706 0.459899 0.236835
0.164888 0.324861 0.166809
0.182269 0.330958 0.168681
0.199929 0.336992 0.170539
0.217863 0.342965 0.172388
0.236064 0.348875 0.174235
0.254525 0.354723 0.176087
0.273236 0.360511 0.177951
0.292188 0.366238 0.179835
0.318466 0.371908 0.181748
0.344960 0.377521 0.183696
0.371657 0.383080 0.185689
0.398541 0.388588 0.187736
0.425596 0.394046 0.189847
0.452804 0.399458 0.192030
0.480146 0.404828 0.194295
0.507604 0.410160 0.196654
0.535154 0.415457 0.199117
0.562775 0.420724 0.201694
0.590443 0.425967 0.204397
0.618134 0.431189 0.207237
0.645820 0.436397 0.210228
0.673475 0.441596 0.213380
0.701069 0.446793 0.216706
0.728574 0.451994 0.220219
0.756035 0.457196 0.223809
0.783493 0.462396 0.227396
0.810948 0.467593 0.230980
0.838399 0.472786 0.234560
0.865846 0.477975 0.238136
0.893290 0.481545 0.241702
0.920801 0.485109 0.245186
0.948409 0.488664 0.248559
0.173699 0.351560 0.173060
0.191506 0.357594 0.174908
0.209582 0.363561 0.176764
0.227921 0.369464 0.178634
0.246513 0.375303 0.180528
0.265347 0.381079 0.182452
0.284412 0.386793 0.184416
0.303694 0.392448 0.186428
0.326729 0.398046 0.188497
0.353499 0.403589 0.190632
0.380441 0.409080 0.192844
0.407535 0.414522 0.195143
0.434764 0.419920 0.197538
0.462106 0.425276 0.200041
0.489540 0.430595 0.202663
0.517044 0.435882 0.205414
0.544592 0.441141 0.208308
0.572160 0.446378 0.211356
0.599721 0.451597 0.214570
0.627248 0.456806 0.217963
0.654720 0.462010 0.221527
0.682180 0.467212 0.225115
0.709637 0.472411 0.228702
0.737091 0.477607 0.232284
0.764540 0.482798 0.235863
0.791985 0.487985 0.239436
0.819439 0.493167 0.242983
0.846966 0.498347 0.246426
0.874576 0.503521 0.249759
0.902279 0.508686 0.252981
0.930082 0.513838 0.256092
0.957992 0.517360 0.259091
0.182309 0.378508 0.179321
0.200552 0.384454 0.181225
0.219051 0.390332 0.183162
0.237796 0.396144 0.185143
0.256775 0.401890 0.187174
0.275974 0.407574 0.189266
0.295378 0.413197 0.191428
0.314972 0.418761 0.193671
0.334739 0.424271 0.196003
0.361757 0.429729 0.198436
0.388909 0.435138 0.200981
0.416175 0.440503 0.203649
0.443534 0.445828 0.206451
0.470961 0.451117 0.209399
0.498432 0.456376 0.212506
0.525922 0.461610 0.215784
0.553404 0.466824 0.219246
0.580866 0.472027 0.222833
0.608325 0.477228 0.226421
0.635781 0.482426 0.230006
0.663233 0.487620 0.233588
0.690680 0.492809 0.237164
0.718123 0.497994 0.240736
0.745591 0.503178 0.244249
0.773122 0.508364 0.247653
0.800723 0.513548 0.250945
0.828405 0.518726 0.254126
0.856173 0.523893 0.257197
0.884036 0.529047 0.260156
0.912000 0.534183 0.263004
0.940071 0.539298 0.265742
0.968255 0.544390 0.268370
0.190928 0.405570 0.185876
0.209617 0.411404 0.187928
0.228543 0.417168 0.190045
0.247694 0.422866 0.192235
0.267054 0.428500 0.194509
0.286606 0.434071 0.196877
0.306334 0.439583 0.199349
0.326218 0.445040 0.201937
0.346240 0.450444 0.204653
0.369925 0.455801 0.207507
0.397252 0.461114 0.210511
0.424648 0.466388 0.213679
0.452090 0.471629 0.217022
0.479550 0.476841 0.220550
0.507011 0.482043 0.224140
0.534469 0.487243 0.227727
0.561923 0.492440 0.231311
0.589374 0.497632 0.234890
0.616820 0.502820 0.238465
0.644263 0.508004 0.242028
0.671738 0.513193 0.245501
0.699262 0.518388 0.248864
0.726845 0.523585 0.252116
0.754494 0.528778 0.255257
0.782219 0.533964 0.258287
0.810025 0.539139 0.261206
0.837922 0.544299 0.264014
0.865914 0.549442 0.266712
0.894009 0.554562 0.269300
0.922211 0.559658 0.271778
0.950525 0.564726 0.274149
0.978956 0.569762 0.276412
0.199810 0.432595 0.193053
0.218952 0.438291 0.195359
0.238308 0.443919 0.197764
0.257861 0.449480 0.200278
0.277594 0.454978 0.202911
0.297487 0.460416 0.205675
0.317520 0.465798 0.208582
0.337671 0.471128 0.211645
0.357919 0.476411 0.214875
0.378238 0.481650 0.218286
0.405696 0.486858 0.221858
0.433156 0.492059 0.225446
0.460613 0.497258 0.229032
0.488066 0.502453 0.232614
0.515515 0.507644 0.236192
0.542959 0.512830 0.239765
0.570405 0.518016 0.243305
0.597875 0.523214 0.246738
0.625382 0.528421 0.250061
0.652935 0.533633 0.253272
0.680543 0.538844 0.256373
0.708213 0.544051 0.259362
0.735955 0.549250 0.262241
0.763775 0.554437 0.265009
0.791680 0.559609 0.267666
0.819677 0.564761 0.270215
0.847771 0.569891 0.272654
0.875968 0.574995 0.274985
0.904273 0.580070 0.277210
0.932689 0.585114 0.279329
0.961221 0.590122 0.281343
0.989871 0.595094 0.283254
0.209253 0.459416 0.201222
0.228853 0.464949 0.203901
0.248638 0.470414 0.206716
0.268589 0.475815 0.209679
0.288684 0.481155 0.212801
0.308902 0.486439 0.216095
0.329219 0.491671 0.219575
0.349584 0.496874 0.223164
0.369946 0.502075 0.226752
0.390304 0.507272 0.230337
0.414208 0.512466 0.233918
0.441655 0.517655 0.237494
0.469097 0.522839 0.241064
0.496540 0.528033 0.244568
0.523996 0.533243 0.247961
0.551475 0.538465 0.251243
0.578988 0.543694 0.254414
0.606544 0.548926 0.257474
0.634151 0.554157 0.260423
0.661819 0.559383 0.263261
0.689553 0.564599 0.265989
0.717363 0.569802 0.268607
0.745254 0.574988 0.271115
0.773234 0.580154 0.273515
0.801306 0.585297 0.275807
0.829477 0.590412 0.277993
0.857751 0.595498 0.280074
0.886133 0.600551 0.282050
0.914625 0.605568 0.283925
0.943231 0.610547 0.285698
0.971953 0.615484 0.287373
1.000000 0.620443 0.289759
0.219596 0.485848 0.210796
0.239657 0.491191 0.213980
0.259869 0.496469 0.217340
0.280204 0.501688 0.220881
0.300568 0.506890 0.224471
0.320928 0.512090 0.228057
0.341286 0.517286 0.231641
0.361639 0.522478 0.235220
0.381988 0.527665 0.238795
0.402330 0.532851 0.242353
0.422664 0.538056 0.245816
0.450094 0.543280 0.249169
0.477536 0.548520 0.252410
0.504999 0.553770 0.255541
0.532493 0.559026 0.258560
0.560028 0.564283 0.261469
0.587612 0.569537 0.264267
0.615253 0.574785 0.266955
0.642959 0.580022 0.269533
0.670737 0.585244 0.272002
0.698593 0.590448 0.274362
0.726534 0.595631 0.276616
0.754565 0.600789 0.278763
0.782691 0.605918 0.280806
0.810916 0.611017 0.282745
0.839244 0.616081 0.284582
0.867679 0.621108 0.286319
0.896224 0.626097 0.287958
0.924880 0.631043 0.289501
0.953650 0.635945 0.290950
0.982535 0.640800 0.292306
1.000000 0.646488 0.306400
0.231188 0.511705 0.222188
0.251551 0.516906 0.225777
0.271911 0.522104 0.229362
0.292267 0.527299 0.232944
0.312619 0.532490 0.236522
0.332966 0.537675 0.240095
0.353298 0.542867 0.243626
0.373608 0.548087 0.247049
0.393906 0.553329 0.250362
0.414203 0.558589 0.253563
0.434510 0.563862 0.256653
0.458385 0.569144 0.259632
0.485838 0.574430 0.262501
0.513330 0.579716 0.265258
0.540869 0.584997 0.267906
0.568464 0.590270 0.270444
0.596120 0.595530 0.272873
0.623847 0.600775 0.275195
0.651649 0.605999 0.277410
0.679532 0.611201 0.279519
0.707503 0.616376 0.281523
0.735566 0.621522 0.283425
0.763725 0.626635 0.285226
0.791984 0.631712 0.286927
0.820346 0.636752 0.288531
0.848815 0.641750 0.290039
0.877391 0.646706 0.291454
0.906076 0.651615 0.292778
0.934873 0.656478 0.294014
0.963780 0.661290 0.295163
0.992800 0.666051 0.296230
1.000000 0.672343 0.323812
0.243247 0.537312 0.234247
0.263597 0.542501 0.237823
0.283941 0.547685 0.241392
0.304253 0.552891 0.244885
0.324529 0.558127 0.248268
0.344780 0.563390 0.251540
0.365020 0.568673 0.254701
0.385258 0.573972 0.257751
0.405505 0.579283 0.260689
0.425771 0.584600 0.263517
0.446066 0.589919 0.266235
0.466398 0.595236 0.268843
0.493872 0.600547 0.271341
0.521400 0.605848 0.273731
0.548989 0.611134 0.276013
0.576646 0.616403 0.278190
0.604376 0.621650 0.280260
0.632187 0.626872 0.282228
0.660081 0.632066 0.284092
0.688066 0.637229 0.285857
0.716143 0.642358 0.287522
0.744319 0.647450 0.289091
0.772594 0.652502 0.290565
0.800972 0.657512 0.291946
0.829454 0.662477 0.293238
0.858043 0.667395 0.294442
0.886740 0.672264 0.295561
0.915544 0.677082 0.296598
0.944455 0.681847 0.297557
0.973473 0.686557 0.298439
1.000000 0.691381 0.302901
1.000000 0.697950 0.342143
0.255188 0.562922 0.246130
0.275419 0.568179 0.249472
0.295615 0.573465 0.252703
0.315787 0.578774 0.255824
0.335947 0.584102 0.258833
0.356105 0.589443 0.261732
0.376272 0.594794 0.264519
0.396458 0.600149 0.267197
0.416672 0.605504 0.269765
0.436922 0.610855 0.272224
0.457218 0.616197 0.274574
0.477566 0.621528 0.276818
0.501522 0.626842 0.278956
0.529093 0.632136 0.280988
0.556736 0.637407 0.282918
0.584458 0.642652 0.284746
0.612262 0.647866 0.286474
0.640154 0.653048 0.288104
0.668137 0.658193 0.289638
0.696216 0.663300 0.291078
0.724392 0.668365 0.292427
0.752668 0.673385 0.293686
0.781046 0.678360 0.294859
0.809528 0.683286 0.295948
0.838114 0.688161 0.296956
0.866805 0.692984 0.297886
0.895600 0.697752 0.298742
0.924498 0.702464 0.299526
0.953498 0.707118 0.300242
0.982598 0.711714 0.300894
1.000000 0.716944 0.319711
1.000000 0.723250 0.361552
0.266499 0.588893 0.256932
0.286572 0.594252 0.259901
0.306632 0.599627 0.262759
0.326692 0.605013 0.265507
0.346761 0.610406 0.268144
0.366849 0.615801 0.270673
0.386965 0.621194 0.273092
0.407118 0.626581 0.275403
0.427315 0.631957 0.277608
0.447564 0.637318 0.279708
0.467873 0.642661 0.281703
0.488247 0.647983 0.283595
0.508693 0.653279 0.285387
0.536312 0.658546 0.287079
0.564013 0.663781 0.288674
0.591800 0.668981 0.290173
0.619678 0.674143 0.291580
0.647649 0.679264 0.292896
0.675715 0.684341 0.294123
0.703880 0.689373 0.295265
0.732145 0.694357 0.296324
0.760511 0.699290 0.297304
0.788979 0.704170 0.298206
0.817548 0.708996 0.299036
0.846219 0.713766 0.299795
0.874991 0.718478 0.300487
0.903861 0.723130 0.301116
0.932829 0.727722 0.301687
0.961891 0.732252 0.302202
0.991045 0.736719 0.302665
1.000000 0.742164 0.337590
1.000000 0.748179 0.382220
0.277026 0.615260 0.266480
0.296971 0.620693 0.269078
0.316925 0.626130 0.271566
0.336899 0.631567 0.273946
0.356902 0.636999 0.276218
0.376942 0.642422 0.278385
0.397027 0.647833 0.280446
0.417164 0.653226 0.282404
0.437360 0.658599 0.284259
0.457621 0.663948 0.286014
0.477954 0.669268 0.287671
0.498363 0.674558 0.289231
0.518854 0.679814 0.290696
0.542978 0.685032 0.292069
0.570740 0.690210 0.293353
0.598594 0.695345 0.294549
0.626542 0.700435 0.295660
0.654588 0.705476 0.296690
0.682732 0.710467 0.297641
0.710975 0.715406 0.298517
0.739318 0.720290 0.299320
0.767761 0.725117 0.300054
0.796303 0.729887 0.300723
0.824944 0.734596 0.301331
0.853681 0.739245 0.301880
0.882512 0.743831 0.302376
0.911435 0.748353 0.302823
0.940447 0.752810 0.303224
0.969543 0.757202 0.303584
0.998720 0.761528 0.303908
1.000000 0.766977 0.356733
1.000000 0.772673 0.404356
0.286721 0.641973 0.274786
0.306567 0.647453 0.277019
0.326443 0.652925 0.279147
0.346357 0.658386 0.281171
0.366317 0.663831 0.283091
0.386330 0.669257 0.284910
0.406403 0.674659 0.286629
0.426541 0.680035 0.288250
0.446751 0.685381 0.289775
0.467038 0.690693 0.291207
0.487405 0.695968 0.292547
0.507858 0.701204 0.293798
0.528400 0.706397 0.294963
0.549033 0.711545 0.296045
0.576856 0.716645 0.297045
0.604776 0.721694 0.297968
0.632794 0.726691 0.298817
0.660909 0.731633 0.299595
0.689123 0.736519 0.300305
0.717436 0.741345 0.300951
0.745846 0.746112 0.301537
0.774352 0.750817 0.302067
0.802953 0.755458 0.302544
0.831647 0.760034 0.302973
0.860430 0.764545 0.303359
0.889298 0.768990 0.303706
0.918249 0.773366 0.304018
0.947278 0.777675 0.304300
0.976380 0.781914 0.304557
1.000000 0.786226 0.317415
1.000000 0.791313 0.377368
1.000000 0.796665 0.428204
0.295554 0.668979 0.281882
0.315331 0.674477 0.283765
0.335156 0.679957 0.285547
0.355035 0.685415 0.287230
0.374974 0.690847 0.288816
0.394981 0.696249 0.290307
0.415059 0.701619 0.291705
0.435215 0.706952 0.293012
0.455453 0.712246 0.294232
0.475776 0.717497 0.295366
0.496188 0.722704 0.296418
0.516691 0.727862 0.297390
0.537289 0.732971 0.298286
0.557982 0.738026 0.299108
0.582320 0.743027 0.299861
0.610305 0.747970 0.300548
0.638387 0.752854 0.301171
0.666567 0.757677 0.301736
0.694843 0.762437 0.302246
