omv/luts/16_vegas_after_dark.cube
# Original OMV LUT; redistribution permitted with OMV.
TITLE "Vegas After Dark"
LUT_3D_SIZE 5
DOMAIN_MIN 0.000000 0.000000 0.000000
DOMAIN_MAX 0.903226 0.903226 0.903226
0.000000 0.020588 0.037059
0.212815 0.025557 0.045557
0.431380 0.031057 0.051108
0.662424 0.034471 0.055226
0.914406 0.033172 0.055277
0.014562 0.203997 0.055796
0.225200 0.214018 0.054044
0.473428 0.220407 0.047067
0.740530 0.218054 0.035358
1.000000 0.216583 0.031844
0.008256 0.411415 0.030200
0.221788 0.418938 0.014856
0.490608 0.422813 0.000402
0.760256 0.425490 0.000000
1.000000 0.432989 0.026966
0.000000 0.629729 0.009593
0.219800 0.636135 0.000000
0.469318 0.639666 0.000000
0.737626 0.643858 0.000000
1.000000 0.648821 0.007131
0.000000 0.847686 0.000701
0.230202 0.850804 0.000000
0.457580 0.853846 0.000000
0.721714 0.856329 0.004082
0.979116 0.858762 0.008778
0.000000 0.023160 0.234141
0.194241 0.027306 0.236983
0.415035 0.032646 0.225634
0.650768 0.034624 0.234014
0.907743 0.031478 0.241109
0.016024 0.210707 0.254938
0.208511 0.219631 0.242950
0.459416 0.220079 0.245323
0.728747 0.216355 0.243554
1.000000 0.212336 0.240715
0.005163 0.417431 0.241981
0.221116 0.423575 0.235883
0.470824 0.426579 0.229067
0.745492 0.428686 0.224847
1.000000 0.430158 0.233971
0.000000 0.634068 0.234886
0.212587 0.642592 0.222008
0.446916 0.645217 0.220278
0.719333 0.648656 0.219470
0.986469 0.653148 0.219783
0.000000 0.852270 0.224618
0.228642 0.855943 0.220159
0.458812 0.857790 0.221712
0.701865 0.860143 0.223509
0.958016 0.862499 0.224605
0.000000 0.024468 0.450679
0.175869 0.029255 0.446676
0.399713 0.033818 0.438771
0.639918 0.034176 0.435653
0.901497 0.029134 0.433275
0.017086 0.217104 0.477585
0.211803 0.220261 0.474695
0.444948 0.219259 0.468863
0.716219 0.214270 0.458718
1.000000 0.206818 0.461958
0.001805 0.422946 0.496577
0.220163 0.427841 0.480371
0.450571 0.430234 0.461075
0.724486 0.428002 0.459002
0.997558 0.426150 0.456617
0.000000 0.638377 0.477490
0.212725 0.646404 0.455457
0.447288 0.649257 0.451885
0.698882 0.653043 0.448354
0.965081 0.657887 0.445356
0.000000 0.856831 0.448571
0.231592 0.859479 0.444437
0.460587 0.861533 0.442340
0.681945 0.863960 0.440581
0.936821 0.866144 0.438502
0.000648 0.025648 0.668874
0.178336 0.031154 0.657362
0.385197 0.034495 0.655735
0.629649 0.033095 0.661081
0.895436 0.026150 0.668433
0.017695 0.218607 0.706457
0.214693 0.220402 0.713528
0.429955 0.217971 0.717654
0.702871 0.211865 0.716537
0.987414 0.203758 0.708998
0.000000 0.427667 0.755381
0.219019 0.431808 0.747318
0.450253 0.429377 0.731146
0.703458 0.427296 0.711200
0.976118 0.425852 0.689688
0.000000 0.642700 0.737329
0.213241 0.650272 0.723945
0.447883 0.653407 0.699754
0.678556 0.657556 0.674962
0.943773 0.658211 0.668413
0.000000 0.861358 0.708640
0.234630 0.863093 0.684234
0.462322 0.865322 0.660505
0.682232 0.867753 0.655506
0.915491 0.869652 0.650806
0.002409 0.027409 0.878376
0.181470 0.032723 0.870784
0.371286 0.034615 0.877680
0.619754 0.031365 0.892980
0.889347 0.022556 0.910789
0.017814 0.219678 0.942153
0.217135 0.220046 0.959635
0.434707 0.216249 0.973410
0.688643 0.209219 0.980248
0.972604 0.201012 0.978041
0.008438 0.430588 1.000000
0.223878 0.430859 1.000000
0.449717 0.428780 1.000000
0.682403 0.426621 0.981272
0.954573 0.425770 0.957657
0.000000 0.647123 0.997106
0.214125 0.654220 0.990929
0.448697 0.657677 0.963600
0.678673 0.657673 0.935263
0.922543 0.658617 0.906985
0.003742 0.864919 0.967621
0.237702 0.866778 0.939564
0.463965 0.869137 0.912475
0.682356 0.871486 0.886616
0.893978 0.872978 0.861910
