omv/luts/16_vegas_after_dark.cube
# Original OMV LUT; redistribution permitted with OMV.
TITLE "Vegas After Dark"
LUT_3D_SIZE 32
DOMAIN_MIN 0.0 0.0 0.0
DOMAIN_MAX 1.0 1.0 1.0
0.000000 0.020588 0.037059
0.027584 0.022261 0.042261
0.058310 0.022665 0.042665
0.089109 0.023141 0.043141
0.119965 0.023675 0.043675
0.150871 0.024258 0.044258
0.181822 0.024886 0.044886
0.212815 0.025557 0.045557
0.243848 0.026267 0.046267
0.274918 0.027014 0.047014
0.306024 0.027798 0.047798
0.337165 0.028616 0.048616
0.368350 0.029464 0.049465
0.399731 0.030285 0.050302
0.431380 0.031057 0.051108
0.463321 0.031771 0.051874
0.495582 0.032420 0.052593
0.528184 0.032997 0.053256
0.561150 0.033496 0.053857
0.594500 0.033912 0.054390
0.628252 0.034238 0.054848
0.662424 0.034471 0.055226
0.697030 0.034606 0.055520
0.732083 0.034639 0.055723
0.767595 0.034566 0.055834
0.803576 0.034385 0.055847
0.840034 0.034094 0.055760
0.876976 0.033690 0.055571
0.914406 0.033172 0.055277
0.952328 0.032539 0.054876
0.990743 0.031791 0.054368
1.000000 0.037160 0.059165
0.000000 0.045893 0.042823
0.026301 0.047753 0.043882
0.057224 0.048998 0.044482
0.088190 0.049642 0.045126
0.119198 0.050327 0.045811
0.150244 0.051051 0.046535
0.181328 0.051812 0.047296
0.212447 0.052608 0.048092
0.243600 0.053438 0.048922
0.274822 0.054288 0.049773
0.306235 0.055111 0.050600
0.337874 0.055896 0.051392
0.369767 0.056635 0.052142
0.401940 0.057321 0.052841
0.434418 0.057946 0.053483
0.467225 0.058504 0.054059
0.500382 0.058988 0.054566
0.533907 0.059393 0.054995
0.567820 0.059714 0.055343
0.602136 0.059946 0.055604
0.636870 0.060085 0.055775
0.672035 0.060127 0.055850
0.707642 0.060069 0.055827
0.743700 0.059908 0.055703
0.780217 0.059641 0.055476
0.817199 0.059268 0.055144
0.854650 0.058786 0.054704
0.892573 0.058195 0.054156
0.930969 0.057495 0.053500
0.969836 0.056684 0.052736
1.000000 0.057673 0.053817
1.000000 0.064969 0.061344
0.000371 0.071822 0.045371
0.025586 0.073167 0.046070
0.056646 0.074550 0.046808
0.087743 0.075969 0.047581
0.118874 0.077423 0.048390
0.150040 0.078265 0.049233
0.181294 0.079116 0.050077
0.212704 0.079951 0.050893
0.244301 0.080759 0.051670
0.276114 0.081533 0.052403
0.308170 0.082264 0.053082
0.340496 0.082946 0.053700
0.373116 0.083570 0.054252
0.406052 0.084131 0.054731
0.439325 0.084623 0.055132
0.472954 0.085039 0.055449
0.506957 0.085375 0.055677
0.541350 0.085627 0.055813
0.576147 0.085790 0.055853
0.611359 0.085860 0.055794
0.646998 0.085835 0.055633
0.683072 0.085712 0.055367
0.719589 0.085488 0.054996
0.756554 0.085162 0.054517
0.793971 0.084733 0.053930
0.831842 0.084199 0.053235
0.870167 0.083561 0.052431
0.908945 0.082819 0.051519
0.948173 0.081973 0.050500
0.987846 0.081024 0.049377
1.000000 0.085747 0.055055
1.000000 0.093037 0.063708
0.002872 0.097549 0.047872
0.028209 0.099016 0.048693
0.056487 0.100513 0.049543
0.087746 0.102019 0.050378
0.119120 0.103520 0.051181
0.150644 0.105006 0.051943
0.182346 0.106469 0.052656
0.214256 0.107255 0.053314
0.246400 0.108001 0.053909
0.278806 0.108700 0.054435
0.311495 0.109346 0.054886
0.344491 0.109931 0.055257
0.377813 0.110450 0.055542
0.411480 0.110897 0.055738
0.445510 0.111268 0.055839
0.479918 0.111558 0.055843
0.514716 0.111763 0.055747
0.549917 0.111879 0.055548
0.585531 0.111904 0.055244
0.621567 0.111835 0.054834
0.658031 0.111669 0.054316
0.694928 0.111406 0.053689
0.732261 0.111043 0.052954
0.770033 0.110581 0.052111
0.808241 0.110018 0.051160
0.846886 0.109356 0.050103
0.885964 0.108595 0.048942
0.925468 0.107736 0.047678
0.965392 0.106781 0.046314
1.000000 0.106898 0.046485
1.000000 0.114105 0.056455
1.000000 0.121391 0.066307
0.005771 0.123647 0.050674
0.031272 0.125179 0.051463
0.056884 0.126707 0.052208
0.088446 0.128222 0.052903
0.120180 0.129716 0.053539
0.152116 0.131181 0.054109
0.184281 0.132608 0.054609
0.216698 0.133991 0.055031
0.249392 0.135322 0.055371
0.282383 0.135951 0.055624
0.315693 0.136516 0.055786
0.349339 0.137012 0.055852
0.383337 0.137435 0.055820
0.417703 0.137780 0.055687
0.452449 0.138043 0.055450
0.487586 0.138221 0.055107
0.523125 0.138310 0.054658
0.559074 0.138309 0.054100
0.595437 0.138215 0.053434
0.632221 0.138027 0.052660
0.669427 0.137744 0.051777
0.707057 0.137365 0.050788
0.745110 0.136889 0.049692
0.783584 0.136318 0.048493
0.822475 0.135652 0.047192
0.861776 0.134893 0.045793
0.901480 0.134041 0.044298
0.941578 0.133100 0.042711
0.982060 0.132072 0.041037
1.000000 0.135576 0.046725
1.000000 0.142767 0.058064
1.000000 0.150046 0.069186
0.008913 0.150024 0.053141
0.034638 0.151589 0.053754
0.060532 0.153135 0.054300
0.089526 0.154653 0.054772
0.121646 0.156135 0.055164
0.154014 0.157574 0.055473
0.186653 0.158964 0.055694
0.219583 0.160299 0.055821
0.252824 0.161572 0.055852
0.286394 0.162779 0.055783
0.320309 0.163914 0.055613
0.354583 0.164329 0.055338
0.389228 0.164664 0.054956
0.424255 0.164917 0.054467
0.459674 0.165085 0.053871
0.495492 0.165164 0.053165
0.531715 0.165154 0.052351
0.568346 0.165053 0.051429
0.605387 0.164859 0.050401
0.642841 0.164573 0.049268
0.680704 0.164194 0.048031
0.718975 0.163723 0.046694
0.757648 0.163160 0.045259
0.796718 0.162507 0.043731
0.836176 0.161766 0.042111
0.876012 0.160939 0.040406
0.916216 0.160029 0.038620
0.956774 0.159039 0.036758
0.997670 0.157973 0.034826
1.000000 0.164573 0.047124
1.000000 0.171740 0.059920
1.000000 0.179005 0.072389
0.011946 0.176774 0.054924
0.037939 0.178363 0.055287
0.064152 0.179917 0.055564
0.090609 0.181430 0.055751
0.123139 0.182895 0.055844
0.155956 0.184306 0.055839
0.189079 0.185656 0.055733
0.222525 0.186943 0.055525
0.256310 0.188159 0.055211
0.290448 0.189302 0.054791
0.324950 0.190368 0.054263
0.359826 0.191353 0.053626
0.395086 0.192254 0.052881
0.430736 0.192425 0.052028
0.466782 0.192509 0.051067
0.503227 0.192503 0.050001
0.540073 0.192408 0.048829
0.577319 0.192223 0.047556
0.614965 0.191948 0.046183
0.653006 0.191583 0.044714
0.691438 0.191130 0.043151
0.730254 0.190590 0.041500
0.769445 0.189964 0.039765
0.809001 0.189256 0.037951
0.848910 0.188468 0.036062
0.889158 0.187603 0.034106
0.929730 0.186666 0.032089
0.970610 0.185660 0.030017
1.000000 0.186880 0.032852
1.000000 0.193894 0.047712
1.000000 0.201025 0.062059
1.000000 0.208263 0.075955
0.014562 0.203997 0.055796
0.040865 0.205598 0.055853
0.067433 0.207152 0.055812
0.094285 0.208652 0.055669
0.124342 0.210094 0.055423
0.157623 0.211472 0.055070
0.191238 0.212781 0.054611
0.225200 0.214018 0.054044
0.259522 0.215180 0.053368
0.294213 0.216262 0.052583
0.329281 0.217262 0.051691
0.364733 0.218178 0.050691
0.400573 0.219008 0.049586
0.436804 0.219752 0.048378
0.473428 0.220407 0.047067
0.510444 0.220330 0.045659
0.547849 0.220164 0.044155
0.585641 0.219911 0.042560
0.623813 0.219572 0.040878
0.662358 0.219148 0.039113
0.701267 0.218641 0.037271
0.740530 0.218054 0.035358
0.780133 0.217390 0.033379
0.820063 0.216651 0.031341
0.860303 0.215843 0.029251
0.900836 0.214970 0.027116
0.941643 0.214035 0.024946
0.982703 0.213045 0.022747
1.000000 0.216583 0.031844
1.000000 0.223533 0.048516
1.000000 0.230614 0.064514
1.000000 0.237810 0.079919
0.016517 0.231769 0.055592
0.043170 0.233371 0.055307
0.070124 0.234914 0.054916
0.097396 0.236395 0.054417
0.125000 0.237807 0.053810
0.158755 0.239148 0.053094
0.192866 0.240413 0.052271
0.227343 0.241600 0.051339
0.262192 0.242707 0.050301
0.297419 0.243730 0.049158
0.333030 0.244668 0.047912
0.369026 0.245521 0.046566
0.405408 0.246287 0.045122
0.442176 0.246966 0.043585
0.479325 0.247559 0.041958
0.516853 0.248066 0.040245
0.554753 0.248488 0.038451
0.593017 0.248182 0.036583
0.631635 0.247796 0.034645
0.670597 0.247331 0.032643
0.709889 0.246790 0.030585
0.749497 0.246178 0.028478
0.789404 0.245498 0.026330
0.829591 0.244755 0.024148
0.870040 0.243953 0.021941
0.910729 0.243099 0.019719
0.951633 0.242197 0.017490
0.992730 0.241254 0.015265
1.000000 0.246617 0.030940
1.000000 0.253483 0.049556
1.000000 0.260494 0.067311
1.000000 0.267631 0.084315
0.017626 0.260145 0.054209
0.044665 0.261736 0.053562
0.072036 0.263260 0.052807
0.099751 0.264711 0.051944
0.127820 0.266088 0.050973
0.159155 0.267386 0.049897
0.193764 0.268604 0.048716
0.228749 0.269739 0.047434
0.264113 0.270790 0.046052
0.299858 0.271756 0.044573
0.335984 0.272635 0.043003
0.372491 0.273429 0.041344
0.409374 0.274137 0.039601
0.446630 0.274760 0.037780
0.484251 0.275300 0.035885
0.522229 0.275757 0.033923
0.560553 0.276135 0.031900
0.599213 0.276436 0.029824
0.638195 0.276663 0.027701
0.677483 0.276175 0.025539
0.717060 0.275620 0.023347
0.756908 0.275004 0.021133
0.797007 0.274330 0.018907
0.837334 0.273606 0.016679
0.877866 0.272836 0.014458
0.918577 0.272028 0.012255
0.959440 0.271187 0.010082
1.000000 0.270398 0.008206
1.000000 0.276973 0.030145
1.000000 0.283732 0.050847
1.000000 0.290650 0.070478
1.000000 0.297709 0.089177
0.017765 0.289157 0.051603
0.045225 0.290726 0.050594
0.073039 0.292218 0.049479
0.101217 0.293633 0.048261
0.129764 0.294966 0.046942
0.158685 0.296216 0.045524
0.193790 0.297382 0.044012
0.229275 0.298462 0.042409
0.265138 0.299457 0.040719
0.301377 0.300366 0.038947
0.337990 0.301189 0.037098
0.374971 0.301928 0.035178
0.412312 0.302583 0.033193
0.450005 0.303158 0.031150
0.488039 0.303653 0.029056
0.526401 0.304071 0.026918
0.565079 0.304417 0.024744
0.604056 0.304693 0.022543
0.643314 0.304903 0.020324
0.682835 0.305053 0.018096
0.722597 0.305148 0.015869
0.762579 0.304547 0.013653
0.802755 0.303902 0.011460
0.843100 0.303220 0.009301
0.883586 0.302507 0.007186
0.924183 0.301771 0.005129
0.964861 0.301019 0.003143
1.000000 0.301227 0.004983
1.000000 0.307643 0.029454
1.000000 0.314266 0.052402
1.000000 0.321067 0.074039
1.000000 0.328025 0.094539
0.016871 0.318816 0.047792
0.044782 0.320348 0.046437
0.073064 0.321799 0.044985
0.101721 0.323166 0.043439
0.130756 0.324447 0.041803
0.160169 0.325643 0.040083
0.192863 0.326752 0.038282
0.228836 0.327774 0.036407
0.265180 0.328711 0.034463
0.301889 0.329563 0.032456
0.338955 0.330332 0.030393
0.376370 0.331019 0.028282
0.414122 0.331626 0.026130
0.452198 0.332158 0.023945
0.490584 0.332616 0.021737
0.529263 0.333005 0.019513
0.568219 0.333330 0.017284
0.607430 0.333593 0.015060
0.646876 0.333802 0.012852
0.686533 0.333962 0.010670
0.726377 0.334078 0.008525
0.766381 0.334157 0.006430
0.806517 0.334206 0.004397
0.846755 0.333588 0.002439
0.887063 0.332956 0.000569
0.925924 0.332553 0.000000
0.964070 0.332281 0.000000
1.000000 0.332398 0.001626
1.000000 0.338618 0.028856
1.000000 0.345073 0.054232
1.000000 0.351730 0.078020
1.000000 0.358562 0.100437
0.014940 0.349107 0.042853
0.043331 0.350590 0.041187
0.072102 0.351986 0.039436
0.101252 0.353294 0.037608
0.130781 0.354515 0.035707
0.160686 0.355649 0.033739
0.190962 0.356696 0.031711
0.227408 0.357657 0.029630
0.264211 0.358533 0.027503
0.301361 0.359327 0.025338
0.338845 0.360042 0.023144
0.376651 0.360679 0.020928
0.414764 0.361243 0.018702
0.453167 0.361738 0.016474
0.491841 0.362167 0.014254
0.530766 0.362535 0.012054
0.569921 0.362848 0.009884
0.609282 0.363112 0.007756
0.648822 0.363333 0.005682
0.688517 0.363517 0.003675
0.728336 0.363671 0.001748
0.768173 0.363813 0.000000
0.806522 0.364149 0.000000
0.844817 0.364508 0.000000
0.883068 0.364891 0.000000
0.921287 0.364661 0.000000
0.959484 0.364457 0.000000
0.997671 0.364278 0.000000
1.000000 0.369894 0.028336
1.000000 0.376145 0.056346
1.000000 0.382625 0.082445
1.000000 0.389282 0.106883
0.012030 0.379993 0.036924
0.040926 0.381412 0.034998
0.070202 0.382740 0.033007
0.099857 0.383980 0.030959
0.129884 0.385131 0.028860
0.160277 0.386195 0.026719
0.191027 0.387172 0.024542
0.225027 0.388066 0.022339
0.262265 0.388879 0.020119
0.299823 0.389614 0.017890
0.337687 0.390275 0.015664
0.375839 0.390864 0.013450
0.414260 0.391388 0.011260
0.452929 0.391850 0.009104
0.491824 0.392256 0.006994
0.530921 0.392612 0.004943
0.570194 0.392924 0.002963
0.609616 0.393199 0.001068
0.648737 0.393476 0.000000
0.687237 0.393809 0.000000
0.725668 0.394167 0.000000
0.764042 0.394549 0.000000
0.802371 0.394955 0.000000
0.840665 0.395384 0.000000
0.878936 0.395836 0.000000
0.917195 0.396311 0.000000
0.955453 0.396810 0.000000
0.993712 0.396695 0.000000
1.000000 0.401429 0.027817
1.000000 0.407379 0.058626
1.000000 0.413571 0.087124
1.000000 0.419968 0.113647
0.008256 0.411415 0.030200
0.037678 0.412753 0.028085
0.067477 0.414001 0.025930
0.097643 0.415160 0.023742
0.128170 0.416230 0.021532
0.159045 0.417215 0.019308
0.190256 0.418117 0.017079
0.221788 0.418938 0.014856
0.259433 0.419684 0.012649
0.297366 0.420357 0.010470
0.335567 0.420962 0.008329
0.374016 0.421505 0.006240
0.412689 0.421990 0.004213
0.451561 0.422424 0.002263
0.490608 0.422813 0.000402
0.529422 0.423134 0.000000
0.568061 0.423466 0.000000
0.606617 0.423823 0.000000
0.645104 0.424204 0.000000
0.683531 0.424609 0.000000
0.721911 0.425038 0.000000
0.760256 0.425490 0.000000
0.798575 0.425965 0.000000
0.836880 0.426465 0.000000
0.875172 0.426974 0.000000
0.913442 0.427483 0.000000
0.951691 0.427993 0.000000
0.989918 0.428502 0.000000
1.000000 0.432989 0.026966
1.000000 0.438569 0.060807
1.000000 0.444455 0.091904
1.000000 0.450607 0.120673
0.003796 0.443287 0.022940
0.033763 0.444530 0.020723
0.064095 0.445683 0.018496
0.094778 0.446747 0.016269
0.125801 0.447726 0.014050
0.157149 0.448622 0.011852
0.188804 0.449440 0.009686
0.220749 0.450183 0.007562
0.255868 0.450856 0.005494
0.294137 0.451465 0.003494
0.332631 0.452013 0.001574
0.371348 0.452483 0.000000
0.410221 0.452787 0.000000
0.448987 0.453118 0.000000
0.487658 0.453474 0.000000
0.526245 0.453855 0.000000
0.564761 0.454260 0.000000
0.603216 0.454688 0.000000
0.641623 0.455141 0.000000
0.679991 0.455617 0.000000
0.718334 0.456114 0.000000
0.756656 0.456615 0.000000
0.794956 0.457116 0.000000
0.833235 0.457617 0.000000
0.871492 0.458117 0.000000
0.909725 0.458616 0.000000
0.947935 0.459119 0.000000
0.986126 0.459646 0.000000
1.000000 0.463418 0.025670
1.000000 0.469297 0.062867
1.000000 0.475447 0.096807
1.000000 0.481339 0.128005
0.000000 0.475137 0.016524
0.029413 0.476635 0.013247
0.060286 0.477677 0.011059
0.091489 0.478634 0.008907
0.123003 0.479509 0.006802
0.154811 0.480306 0.004757
0.186891 0.481031 0.002785
0.219222 0.481688 0.000898
0.252126 0.482133 0.000000
0.291128 0.482437 0.000000
0.330010 0.482766 0.000000
0.368784 0.483122 0.000000
0.407462 0.483503 0.000000
0.446054 0.483907 0.000000
0.484574 0.484336 0.000000
0.523032 0.484789 0.000000
0.561439 0.485265 0.000000
0.599813 0.485757 0.000000
0.638164 0.486249 0.000000
0.676495 0.486742 0.000000
0.714804 0.487234 0.000000
0.753090 0.487726 0.000000
0.791352 0.488216 0.000000
0.829597 0.488716 0.000000
0.867830 0.489239 0.000000
0.906046 0.489786 0.000000
0.944239 0.490355 0.000000
0.982408 0.490948 0.000000
1.000000 0.494071 0.023930
1.000000 0.499630 0.064845
1.000000 0.505502 0.101895
1.000000 0.511630 0.135719
0.000000 0.505900 0.014089
0.024920 0.508936 0.006050
0.056341 0.509852 0.004030
0.088061 0.510686 0.002087
0.120059 0.511445 0.000235
0.153265 0.511779 0.000000
0.186545 0.512082 0.000000
0.219740 0.512411 0.000000
0.252853 0.512767 0.000000
0.288746 0.513147 0.000000
0.327405 0.513552 0.000000
0.365978 0.513981 0.000000
0.404476 0.514434 0.000000
0.442912 0.514909 0.000000
0.481316 0.515393 0.000000
0.519698 0.515878 0.000000
0.558058 0.516362 0.000000
0.596397 0.516846 0.000000
0.634712 0.517328 0.000000
0.673005 0.517810 0.000000
0.711291 0.518308 0.000000
0.749569 0.518826 0.000000
0.787834 0.519365 0.000000
0.826081 0.519924 0.000000
0.864307 0.520505 0.000000
0.902506 0.521106 0.000000
0.940676 0.521729 0.000000
0.978813 0.522373 0.000000
1.000000 0.524893 0.021733
1.000000 0.530057 0.066774
1.000000 0.535589 0.107227
1.000000 0.541419 0.143892
0.000000 0.536781 0.012121
0.021029 0.541147 0.000000
0.054452 0.541421 0.000000
0.087777 0.541723 0.000000
0.121011 0.542052 0.000000
0.154157 0.542408 0.000000
0.187221 0.542789 0.000000
0.220205 0.543194 0.000000
0.253114 0.543623 0.000000
0.285951 0.544076 0.000000
0.324410 0.544548 0.000000
0.362844 0.545024 0.000000
0.401256 0.545500 0.000000
0.439646 0.545976 0.000000
0.478014 0.546451 0.000000
0.516359 0.546924 0.000000
0.554688 0.547401 0.000000
0.593018 0.547894 0.000000
0.631345 0.548405 0.000000
0.669663 0.548934 0.000000
0.707968 0.549482 0.000000
0.746253 0.550048 0.000000
0.784517 0.550634 0.000000
0.822753 0.551239 0.000000
0.860959 0.551863 0.000000
0.899132 0.552506 0.000000
0.937268 0.553168 0.000000
0.975363 0.553849 0.000000
1.000000 0.555829 0.019040
1.000000 0.560516 0.068676
1.000000 0.565642 0.112863
1.000000 0.571120 0.152602
0.000000 0.567741 0.010677
0.022317 0.571690 0.000000
0.055492 0.572046 0.000000
0.088580 0.572427 0.000000
0.121583 0.572833 0.000000
0.154506 0.573262 0.000000
0.187352 0.573715 0.000000
0.220147 0.574181 0.000000
0.252922 0.574649 0.000000
0.285680 0.575116 0.000000
0.321259 0.575583 0.000000
0.359656 0.576049 0.000000
0.398031 0.576514 0.000000
0.436403 0.576986 0.000000
0.474782 0.577473 0.000000
0.513161 0.577974 0.000000
0.551536 0.578493 0.000000
0.589900 0.579027 0.000000
0.628249 0.579578 0.000000
0.666579 0.580147 0.000000
0.704885 0.580732 0.000000
0.743163 0.581335 0.000000
0.781410 0.581956 0.000000
0.819622 0.582593 0.000000
0.857796 0.583248 0.000000
0.895929 0.583919 0.000000
0.934018 0.584608 0.000000
0.972061 0.585312 0.000000
1.000000 0.586825 0.015787
1.000000 0.590947 0.070559
1.000000 0.595597 0.118856
1.000000 0.600668 0.161927
0.000000 0.598739 0.009817
0.022983 0.602468 0.000000
0.055916 0.602898 0.000000
0.088770 0.603350 0.000000
0.121589 0.603808 0.000000
0.154390 0.604267 0.000000
0.187172 0.604726 0.000000
0.219935 0.605185 0.000000
0.252679 0.605642 0.000000
0.285408 0.606098 0.000000
0.318152 0.606564 0.000000
0.356583 0.607043 0.000000
0.395019 0.607534 0.000000
0.433453 0.608039 0.000000
0.471881 0.608559 0.000000
0.510296 0.609093 0.000000
0.548695 0.609643 0.000000
0.587073 0.610208 0.000000
0.625425 0.610789 0.000000
0.663748 0.611385 0.000000
0.702039 0.611997 0.000000
0.740293 0.612624 0.000000
0.778508 0.613267 0.000000
0.816681 0.613925 0.000000
0.854809 0.614598 0.000000
0.892889 0.615285 0.000000
0.930919 0.615986 0.000000
0.968897 0.616701 0.000000
1.000000 0.617836 0.011869
1.000000 0.621292 0.072418
1.000000 0.625392 0.125252
1.000000 0.629998 0.171943
0.000000 0.629729 0.009593
0.023052 0.633429 0.000000
0.055878 0.633880 0.000000
0.088684 0.634330 0.000000
0.121472 0.634780 0.000000
0.154241 0.635228 0.000000
0.187008 0.635677 0.000000
0.219800 0.636135 0.000000
0.252611 0.636604 0.000000
0.285432 0.637083 0.000000
0.318255 0.637574 0.000000
0.353911 0.638077 0.000000
0.392396 0.638593 0.000000
0.430866 0.639122 0.000000
0.469318 0.639666 0.000000
0.507746 0.640223 0.000000
0.546148 0.640794 0.000000
0.584519 0.641379 0.000000
0.622855 0.641978 0.000000
0.661154 0.642591 0.000000
0.699411 0.643218 0.000000
0.737626 0.643858 0.000000
0.775793 0.644512 0.000000
0.813912 0.645178 0.000000
0.851979 0.645856 0.000000
0.889992 0.646547 0.000000
0.927949 0.647248 0.000000
0.965848 0.647960 0.000000
1.000000 0.648821 0.007131
1.000000 0.651499 0.074224
1.000000 0.654966 0.132095
1.000000 0.659046 0.182732
0.000000 0.660676 0.009593
0.023030 0.664368 0.000000
0.055825 0.664807 0.000000
0.088639 0.665249 0.000000
0.121485 0.665698 0.000000
0.154354 0.666154 0.000000
0.187238 0.666620 0.000000
0.220128 0.667094 0.000000
0.253018 0.667580 0.000000
0.285901 0.668076 0.000000
0.318771 0.668584 0.000000
0.351622 0.669104 0.000000
0.390128 0.669637 0.000000
0.428610 0.670181 0.000000
0.467063 0.670739 0.000000
0.505483 0.671308 0.000000
0.543866 0.671891 0.000000
0.582211 0.672486 0.000000
0.620512 0.673093 0.000000
0.658769 0.673712 0.000000
0.696977 0.674342 0.000000
0.735134 0.674984 0.000000
0.773238 0.675636 0.000000
0.811287 0.676299 0.000000
0.849278 0.676970 0.000000
0.887209 0.677651 0.000000
0.925078 0.678340 0.000000
0.962883 0.679036 0.000000
1.000000 0.679747 0.001342
1.000000 0.681516 0.075917
1.000000 0.684260 0.139417
1.000000 0.687750 0.194375
0.000000 0.691585 0.009517
0.023210 0.695251 0.000000
0.056141 0.695694 0.000000
0.089092 0.696144 0.000000
0.122053 0.696601 0.000000
0.155018 0.697067 0.000000
0.187979 0.697543 0.000000
0.220931 0.698028 0.000000
0.253865 0.698524 0.000000
0.286778 0.699030 0.000000
0.319664 0.699547 0.000000
0.352516 0.700075 0.000000
0.388177 0.700615 0.000000
0.426647 0.701166 0.000000
0.465079 0.701728 0.000000
0.503469 0.702300 0.000000
0.541815 0.702884 0.000000
0.580114 0.703478 0.000000
0.618363 0.704082 0.000000
0.656559 0.704696 0.000000
0.694700 0.705319 0.000000
0.732783 0.705950 0.000000
0.770807 0.706590 0.000000
0.808770 0.707236 0.000000
0.846669 0.707890 0.000000
0.884502 0.708548 0.000000
0.922267 0.709212 0.000000
0.959963 0.709880 0.000000
0.997587 0.710550 0.000000
1.000000 0.711298 0.077395
1.000000 0.713217 0.147237
1.000000 0.716046 0.206953
0.000000 0.722647 0.008857
0.024032 0.726093 0.000000
0.057075 0.726538 0.000000
0.090118 0.726991 0.000000
0.123154 0.727453 0.000000
0.156176 0.727923 0.000000
0.189179 0.728402 0.000000
0.222157 0.728890 0.000000
0.255105 0.729389 0.000000
0.288018 0.729897 0.000000
0.320890 0.730415 0.000000
0.353718 0.730943 0.000000
0.386498 0.731481 0.000000
0.424934 0.732029 0.000000
0.463324 0.732585 0.000000
0.501665 0.733151 0.000000
0.539953 0.733726 0.000000
0.578187 0.734309 0.000000
0.616364 0.734899 0.000000
0.654482 0.735497 0.000000
0.692539 0.736101 0.000000
0.730531 0.736710 0.000000
0.768458 0.737325 0.000000
0.806318 0.737944 0.000000
0.844107 0.738566 0.000000
0.881825 0.739190 0.000000
0.919470 0.739816 0.000000
0.957040 0.740442 0.000000
0.994533 0.741067 0.000000
1.000000 0.740808 0.078497
1.000000 0.741783 0.155560
1.000000 0.743874 0.220554
0.000000 0.753845 0.007578
0.025442 0.756858 0.000000
0.058555 0.757301 0.000000
0.091651 0.757752 0.000000
0.124724 0.758211 0.000000
0.157769 0.758678 0.000000
0.190781 0.759154 0.000000
0.223755 0.759639 0.000000
0.256687 0.760132 0.000000
0.289571 0.760634 0.000000
0.322404 0.761145 0.000000
0.355182 0.761664 0.000000
0.387902 0.762191 0.000000
0.423423 0.762726 0.000000
0.461751 0.763268 0.000000
0.500022 0.763817 0.000000
0.538234 0.764372 0.000000
0.576384 0.764933 0.000000
0.614471 0.765499 0.000000
0.652493 0.766069 0.000000
0.690446 0.766642 0.000000
0.728330 0.767219 0.000000
0.766142 0.767796 0.000000
0.803880 0.768375 0.000000
0.841543 0.768954 0.000000
0.879129 0.769531 0.000000
0.916622 0.770103 0.000056
0.953817 0.770644 0.000857
0.990867 0.771193 0.001657
1.000000 0.770018 0.078975
1.000000 0.769907 0.164366
1.000000 0.771174 0.235269
0.000000 0.785123 0.005748
0.027366 0.787508 0.000000
0.060511 0.787943 0.000000
0.093624 0.788386 0.000000
0.126701 0.788836 0.000000
0.159737 0.789294 0.000000
0.192728 0.789760 0.000000
0.225669 0.790233 0.000000
0.258556 0.790713 0.000000
0.291386 0.791201 0.000000
0.324154 0.791695 0.000000
0.356859 0.792196 0.000000
0.389495 0.792703 0.000000
0.422062 0.793215 0.000000
0.460307 0.793732 0.000000
0.498488 0.794254 0.000000
0.536604 0.794779 0.000000
0.574652 0.795307 0.000000
0.612630 0.795837 0.000000
0.650536 0.796368 0.000000
0.688369 0.796900 0.000000
0.726125 0.797431 0.000000
0.763804 0.797960 0.000000
0.801373 0.798458 0.000348
0.838775 0.798925 0.001148
0.876030 0.799399 0.001947
0.913139 0.799881 0.002738
0.950103 0.800368 0.003521
0.986925 0.800858 0.004289
1.000000 0.798913 0.078452
1.000000 0.797543 0.173605
1.000000 0.797886 0.251203
0.000000 0.816422 0.003434
0.029729 0.818007 0.000000
0.062872 0.818429 0.000000
0.095970 0.818857 0.000000
0.129020 0.819291 0.000000
0.162017 0.819733 0.000000
0.194958 0.820180 0.000000
0.227838 0.820633 0.000000
0.260655 0.821092 0.000000
0.293405 0.821557 0.000000
0.326085 0.822026 0.000000
0.358693 0.822499 0.000000
0.391224 0.822976 0.000000
0.423677 0.823456 0.000000
0.458936 0.823938 0.000000
0.497009 0.824421 0.000000
0.535009 0.824906 0.000000
0.572935 0.825390 0.000000
0.610785 0.825873 0.000000
