omv/luts/16_vegas_after_dark.cube
# Original OMV LUT; redistribution permitted with OMV.
TITLE "Vegas After Dark"
LUT_3D_SIZE 8
DOMAIN_MIN 0.000000 0.000000 0.000000
DOMAIN_MAX 0.903226 0.903226 0.903226
0.000000 0.020588 0.037059
0.119965 0.023675 0.043675
0.243848 0.026267 0.046267
0.368350 0.029464 0.049465
0.495582 0.032420 0.052593
0.628252 0.034238 0.054848
0.767595 0.034566 0.055834
0.914406 0.033172 0.055277
0.005771 0.123647 0.050674
0.120180 0.129716 0.053539
0.249392 0.135322 0.055371
0.383337 0.137435 0.055820
0.523125 0.138310 0.054658
0.669427 0.137744 0.051777
0.822475 0.135652 0.047192
0.982060 0.132072 0.041037
0.016517 0.231769 0.055592
0.125000 0.237807 0.053810
0.262192 0.242707 0.050301
0.405408 0.246287 0.045122
0.554753 0.248488 0.038451
0.709889 0.246790 0.030585
0.870040 0.243953 0.021941
1.000000 0.246617 0.030940
0.014940 0.349107 0.042853
0.130781 0.354515 0.035707
0.264211 0.358533 0.027503
0.414764 0.361243 0.018702
0.569921 0.362848 0.009884
0.728336 0.363671 0.001748
0.883068 0.364891 0.000000
1.000000 0.369894 0.028336
0.000000 0.475137 0.016524
0.123003 0.479509 0.006802
0.252126 0.482133 0.000000
0.407462 0.483503 0.000000
0.561439 0.485265 0.000000
0.714804 0.487234 0.000000
0.867830 0.489239 0.000000
1.000000 0.494071 0.023930
0.000000 0.598739 0.009817
0.121589 0.603808 0.000000
0.252679 0.605642 0.000000
0.395019 0.607534 0.000000
0.548695 0.609643 0.000000
0.702039 0.611997 0.000000
0.854809 0.614598 0.000000
1.000000 0.617836 0.011869
0.000000 0.722647 0.008857
0.123154 0.727453 0.000000
0.255105 0.729389 0.000000
0.386498 0.731481 0.000000
0.539953 0.733726 0.000000
0.692539 0.736101 0.000000
0.844107 0.738566 0.000000
0.994533 0.741067 0.000000
0.000000 0.847686 0.000701
0.131613 0.849541 0.000000
0.262924 0.851233 0.000000
0.393029 0.852972 0.000000
0.533424 0.854693 0.000130
0.684361 0.855986 0.003309
0.832879 0.857380 0.006282
0.979116 0.858762 0.008778
0.000000 0.022296 0.146004
0.109156 0.024478 0.152865
0.233259 0.027291 0.145356
0.358209 0.030568 0.148749
0.486825 0.033185 0.152509
0.621069 0.034531 0.156068
0.762073 0.034293 0.158931
0.910534 0.032284 0.160728
0.007031 0.127431 0.160427
0.110306 0.133401 0.153857
0.240307 0.136161 0.157213
0.375255 0.137884 0.159725
0.516156 0.138286 0.161065
0.663580 0.137205 0.161028
0.817656 0.134598 0.159529
0.978076 0.130541 0.156603
0.017075 0.235635 0.160362
0.126237 0.241315 0.161218
0.252627 0.245780 0.160653
0.396684 0.248893 0.158624
0.546798 0.248053 0.155209
0.702530 0.245942 0.150607
0.863002 0.242780 0.145136
1.000000 0.244489 0.148921
0.013878 0.352804 0.157533
0.130526 0.357738 0.153657
0.253099 0.361297 0.148696
0.404255 0.363603 0.143009
0.559760 0.364900 0.137079
0.718167 0.365551 0.131505
0.877588 0.363458 0.127005
1.000000 0.368371 0.145875
0.000000 0.477767 0.142781
0.121814 0.482278 0.134973
0.251214 0.484708 0.129701
0.395073 0.486397 0.125794
0.551419 0.487839 0.124000
0.707665 0.489245 0.122826
0.863765 0.490732 0.121694
1.000000 0.495366 0.139089
0.000000 0.601238 0.138371
0.113580 0.608709 0.123580
0.246596 0.610092 0.122386
0.380045 0.611494 0.121355
0.536730 0.613070 0.120683
0.692698 0.614924 0.120446
0.847354 0.617126 0.120685
1.000000 0.619728 0.121767
0.000000 0.725215 0.137202
0.113767 0.733091 0.120543
0.248813 0.734258 0.120477
0.382958 0.735611 0.120892
0.527264 0.737216 0.121780
0.681313 0.739098 0.123096
0.833214 0.741246 0.124757
0.982823 0.743617 0.126645
0.000000 0.850307 0.128648
0.126577 0.853909 0.122213
0.260782 0.854661 0.123666
0.392875 0.855636 0.125425
0.522618 0.856819 0.127360
0.673132 0.858157 0.129303
0.821225 0.859562 0.131050
0.967068 0.860907 0.132361
0.000000 0.023395 0.264292
0.098427 0.025363 0.272460
0.222736 0.028381 0.265155
0.348444 0.031575 0.258686
0.478420 0.033803 0.253289
0.614194 0.034640 0.258604
0.756800 0.033816 0.263717
0.906831 0.031183 0.268159
0.008307 0.131203 0.281037
0.112083 0.134432 0.275858
0.231268 0.136879 0.270839
0.367204 0.138179 0.265433
0.509187 0.138090 0.269537
0.657683 0.136490 0.272525
0.812721 0.133375 0.274211
0.973890 0.128866 0.274532
0.017485 0.239391 0.287685
0.127342 0.244681 0.281089
0.242928 0.248696 0.273295
0.387806 0.248759 0.274485
0.538651 0.247470 0.274316
0.694921 0.244972 0.272886
0.855638 0.241524 0.270413
1.000000 0.241963 0.270784
0.012661 0.356341 0.284901
0.130125 0.360802 0.273932
0.253444 0.363915 0.272091
0.393562 0.365845 0.269317
0.549369 0.366876 0.265990
0.707703 0.364831 0.262611
0.866573 0.362813 0.259801
1.000000 0.366366 0.267638
0.000000 0.480337 0.269622
0.120621 0.484917 0.264735
0.250626 0.487046 0.261486
0.383124 0.488593 0.259060
0.539415 0.490028 0.257802
0.695637 0.491417 0.256603
0.851658 0.493030 0.255352
1.000000 0.493682 0.259073
0.000000 0.603728 0.267065
0.113181 0.610891 0.257375
0.246307 0.612261 0.256148
0.379958 0.613708 0.254908
0.525060 0.615368 0.253794
0.680915 0.617334 0.252912
0.835348 0.619664 0.252335
0.987935 0.622377 0.252097
0.000000 0.727806 0.265510
0.114532 0.735176 0.253442
0.249638 0.736397 0.252664
0.383697 0.737831 0.252209
0.516187 0.739528 0.252095
0.669948 0.741503 0.252310
0.821508 0.743734 0.252802
0.970755 0.746163 0.253485
0.000000 0.852923 0.256609
0.128401 0.855844 0.252137
0.262347 0.856671 0.252461
0.394091 0.857721 0.253034
0.523424 0.858964 0.253757
0.661888 0.860337 0.254493
0.809549 0.861737 0.255067
0.954994 0.863027 0.255272
0.000000 0.024161 0.387670
0.099386 0.026322 0.392128
0.212286 0.029527 0.385028
0.339012 0.032466 0.379571
0.470323 0.034259 0.375829
0.607585 0.034556 0.372987
0.751730 0.033128 0.370356
0.903253 0.029870 0.377690
0.009575 0.132360 0.402459
0.113875 0.135372 0.399132
0.222247 0.137464 0.396441
0.359160 0.138313 0.393739
0.502192 0.137719 0.390502
0.651710 0.135598 0.386328
0.807640 0.131991 0.391255
0.969470 0.127055 0.394798
0.017739 0.243023 0.417049
0.128307 0.247899 0.413512
0.244699 0.248873 0.408920
0.378764 0.248468 0.403033
0.530299 0.246747 0.395731
0.687050 0.243891 0.397336
0.847935 0.240202 0.397645
1.000000 0.238999 0.396822
0.011299 0.359717 0.424944
0.129585 0.363708 0.417121
0.253640 0.366395 0.407911
0.382691 0.367983 0.397478
0.538752 0.366214 0.396426
0.696947 0.364113 0.394834
0.855183 0.362245 0.393222
1.000000 0.363782 0.394094
0.000000 0.482855 0.417234
0.119449 0.487439 0.406207
0.250040 0.489316 0.394218
0.382751 0.490784 0.392752
0.527404 0.492210 0.391597
0.683613 0.493624 0.390329
0.839539 0.492799 0.388775
0.994521 0.492449 0.387079
0.000000 0.606214 0.405711
0.112774 0.613064 0.391161
0.246134 0.614440 0.389791
0.379958 0.615947 0.388166
0.513451 0.617702 0.386457
0.669174 0.619787 0.384804
0.823372 0.622246 0.383308
0.975649 0.625088 0.382036
0.000000 0.730415 0.393795
0.115429 0.737275 0.385843
0.250564 0.738561 0.384237
0.384508 0.740080 0.382817
0.516772 0.741872 0.381635
0.658617 0.743939 0.380707
0.809826 0.746245 0.380013
0.958705 0.748721 0.379497
0.000000 0.855530 0.384582
0.130291 0.857804 0.381268
0.263947 0.858708 0.380429
0.395316 0.859828 0.379808
0.524221 0.861125 0.379336
0.650622 0.862519 0.378906
0.797842 0.863899 0.378376
0.942889 0.865114 0.377567
0.000000 0.024738 0.514393
0.100414 0.027350 0.511866
0.202075 0.030626 0.505240
0.329875 0.033223 0.501357
0.462494 0.034542 0.499716
0.601200 0.034272 0.499406
0.746823 0.032229 0.499638
0.899756 0.028346 0.499745
0.010813 0.133461 0.524954
0.115659 0.136204 0.523896
0.224836 0.137904 0.523868
0.351096 0.138280 0.524126
0.495145 0.137170 0.524045
0.645634 0.134535 0.523125
0.802387 0.130452 0.520983
0.964790 0.125123 0.517355
0.017831 0.246523 0.548568
0.129126 0.248383 0.548234
0.246320 0.248889 0.546907
0.369549 0.248024 0.544247
0.521734 0.245891 0.540036
0.678907 0.242713 0.534174
0.839882 0.238831 0.526680
1.000000 0.235553 0.527381
0.009801 0.362931 0.567305
0.128917 0.366464 0.562498
0.253696 0.368748 0.556033
0.383262 0.367449 0.547974
0.527917 0.365512 0.538502
0.685905 0.363421 0.527920
0.843421 0.361780 0.526972
0.999691 0.360626 0.525820
0.000000 0.485330 0.565099
0.118321 0.489858 0.559162
0.249480 0.491538 0.548274
0.382366 0.492979 0.536882
0.515384 0.494384 0.525384
0.671597 0.493295 0.523904
0.827414 0.492624 0.521876
0.982162 0.492449 0.519511
0.000000 0.608692 0.554257
0.112391 0.615230 0.545566
0.246078 0.616634 0.533541
0.380043 0.618214 0.521044
0.513517 0.620074 0.518603
0.657477 0.622284 0.516065
0.811425 0.624873 0.513562
0.963387 0.625260 0.511192
0.000000 0.733040 0.542044
0.116455 0.739394 0.528005
0.251584 0.740752 0.515144
0.385386 0.742361 0.512680
0.517404 0.744248 0.510375
0.647316 0.746402 0.508275
0.798163 0.748776 0.506391
0.946670 0.751287 0.504698
0.000000 0.858128 0.522834
0.132238 0.859790 0.509585
0.265574 0.860770 0.507565
0.396543 0.861956 0.505755
0.525000 0.863296 0.504118
0.650938 0.864701 0.502578
0.786097 0.866043 0.501024
0.930743 0.867162 0.499307
0.000414 0.025414 0.638963
0.101508 0.028443 0.631669
0.203740 0.031627 0.626124
0.320991 0.033833 0.624298
0.454893 0.034640 0.625162
0.594998 0.033783 0.627705
0.742036 0.031116 0.631041
0.896299 0.026615 0.634404
0.012001 0.134487 0.648760
0.117414 0.136915 0.650346
0.227398 0.138191 0.653274
0.342992 0.138074 0.656702
0.488024 0.136445 0.659909
0.639432 0.133303 0.662292
0.796937 0.128769 0.663370
0.959825 0.123082 0.662781
0.017757 0.247301 0.682332
0.129792 0.248710 0.685303
0.247784 0.248747 0.687260
0.371767 0.247434 0.687767
0.512949 0.244915 0.686505
0.670483 0.241453 0.683275
0.831470 0.237431 0.677996
0.994185 0.233350 0.670709
0.008177 0.365985 0.711929
0.128130 0.369074 0.709967
0.253620 0.368404 0.705994
0.383672 0.366841 0.699973
0.516870 0.364791 0.691989
0.674584 0.362780 0.682243
0.831426 0.361394 0.671103
0.987672 0.360220 0.659607
0.000000 0.487772 0.713169
0.117264 0.492192 0.713033
0.248969 0.493733 0.702720
0.381974 0.495167 0.691329
0.514976 0.493976 0.679787
0.659597 0.493015 0.667558
0.815288 0.492506 0.654572
0.969793 0.492510 0.651404
0.000000 0.611161 0.702793
0.112152 0.617399 0.699843
0.246138 0.618850 0.687307
0.380216 0.620515 0.674111
0.513645 0.622487 0.660490
0.645824 0.624824 0.646644
0.799511 0.624964 0.643060
0.951150 0.625471 0.639543
0.000000 0.735679 0.690379
0.117604 0.741534 0.679869
0.252695 0.742972 0.665984
0.386328 0.744675 0.652089
0.518077 0.746656 0.638298
0.647653 0.748891 0.635011
0.786516 0.751323 0.631947
0.934648 0.753855 0.629112
0.000000 0.860714 0.671462
0.134233 0.861802 0.657722
0.267218 0.862856 0.644191
0.397762 0.864102 0.630889
0.525753 0.865476 0.628131
0.651214 0.866875 0.625550
0.774305 0.868162 0.623066
0.918548 0.869161 0.620560
0.001377 0.026377 0.758635
0.102672 0.029590 0.751573
0.205631 0.032511 0.747958
0.312325 0.034280 0.748630
0.447482 0.034546 0.752357
0.588942 0.033084 0.758032
0.737332 0.029791 0.764670
0.892842 0.024683 0.771406
0.013119 0.135421 0.774097
0.119120 0.137492 0.778655
0.229914 0.138316 0.784789
0.346438 0.137693 0.791556
0.480807 0.135544 0.798136
0.633080 0.131910 0.803828
0.791267 0.126951 0.808052
0.954549 0.120949 0.810346
0.017514 0.247930 0.818416
0.130302 0.248878 0.824748
0.249086 0.248447 0.829966
0.373801 0.246703 0.833535
0.503936 0.243828 0.835035
0.661771 0.240127 0.834168
0.822692 0.236023 0.830756
0.984870 0.232058 0.824739
0.006442 0.368883 0.858742
0.127236 0.368967 0.859408
0.253425 0.367955 0.857629
0.383931 0.366176 0.853270
0.517235 0.364074 0.846313
0.662994 0.362216 0.836863
0.819422 0.361002 0.825551
0.975635 0.359816 0.814010
0.000000 0.490188 0.861405
0.116305 0.494459 0.867555
0.248537 0.495924 0.857246
0.381575 0.494769 0.845769
0.514605 0.493605 0.834033
0.647617 0.492788 0.821199
0.803168 0.492448 0.807434
0.957420 0.492634 0.793019
0.000000 0.613620 0.851312
0.112063 0.619579 0.853891
0.246314 0.621090 0.840683
0.380475 0.622851 0.826651
0.513836 0.624943 0.812061
0.645828 0.624828 0.797144
0.787629 0.625096 0.782095
0.938939 0.625718 0.767071
0.000000 0.738331 0.838818
0.118871 0.743700 0.831060
0.253891 0.745224 0.816075
0.387327 0.747021 0.801018
0.518787 0.749093 0.786036
0.648013 0.751403 0.771238
0.774881 0.753881 0.756695
0.922634 0.753839 0.752765
0.001368 0.862932 0.819952
0.136264 0.863840 0.805026
0.268868 0.864964 0.790314
0.398964 0.866263 0.775875
0.526470 0.867659 0.761731
0.651442 0.869037 0.747869
0.774070 0.870247 0.744562
0.906296 0.871103 0.741401
0.002409 0.027409 0.878376
0.103990 0.030684 0.872104
0.207714 0.033261 0.871000
0.315454 0.034552 0.874566
0.440226 0.034251 0.881473
0.582994 0.032173 0.890515
0.732671 0.028255 0.900608
0.889347 0.022556 0.910789
0.014150 0.136247 0.901164
0.120760 0.137924 0.908981
0.232365 0.138273 0.918525
0.349803 0.137135 0.928755
0.473472 0.134471 0.938752
0.626558 0.130363 0.947715
0.785354 0.125012 0.954965
0.948941 0.118741 0.959942
0.017101 0.248406 0.956869
0.130653 0.248886 0.966576
0.250225 0.247995 0.974988
0.375646 0.245840 0.981469
0.506306 0.242645 0.985502
0.652767 0.238754 0.986688
0.813541 0.234630 0.984750
0.975085 0.230857 0.979529
0.008293 0.368617 1.000000
0.130043 0.368556 1.000000
0.255397 0.367725 1.000000
0.384418 0.366079 1.000000
0.517244 0.363549 1.000000
0.651144 0.361758 0.991466
0.807410 0.360604 0.979991
0.963534 0.359479 0.968231
0.007034 0.491427 1.000000
0.128597 0.494853 1.000000
0.253175 0.495144 1.000000
0.381218 0.494365 1.000000
0.514278 0.493278 0.988020
0.647275 0.492616 0.974424
0.791058 0.492450 0.959747
0.945048 0.492821 0.944300
0.000000 0.616079 0.999805
0.119162 0.620470 1.000000
0.246606 0.623359 0.993592
0.380819 0.625225 0.978600
0.514090 0.624861 0.962943
0.645877 0.624877 0.946882
0.775779 0.625271 0.930642
0.926753 0.625999 0.914413
0.000000 0.740992 0.987374
0.120250 0.745893 0.981533
0.255166 0.747507 0.965383
0.388380 0.749399 0.949127
0.519529 0.751558 0.932941
0.648388 0.753935 0.916965
0.774866 0.753866 0.901301
0.910623 0.753813 0.886018
0.003742 0.864919 0.967621
0.138321 0.865903 0.951497
0.270515 0.867093 0.935625
0.400138 0.868435 0.920094
0.527141 0.869840 0.904958
0.651611 0.871180 0.890234
0.773770 0.872292 0.875903
0.893978 0.872978 0.861910
