omv/luts/17_rain_on_freeside.cube
# Original OMV LUT; redistribution permitted with OMV.
TITLE "Rain on Freeside"
LUT_3D_SIZE 32
DOMAIN_MIN 0.0 0.0 0.0
DOMAIN_MAX 1.0 1.0 1.0
0.000000 0.031429 0.049524
0.022396 0.033783 0.052783
0.045997 0.035772 0.054772
0.069691 0.037852 0.056852
0.093451 0.039999 0.058999
0.117266 0.042201 0.061201
0.141128 0.044451 0.063451
0.165033 0.046743 0.065743
0.188977 0.049074 0.068074
0.212958 0.051442 0.070442
0.236972 0.053843 0.072843
0.261019 0.056277 0.075277
0.285102 0.058740 0.077739
0.309305 0.061210 0.080191
0.333669 0.063675 0.082619
0.358211 0.066129 0.085016
0.382947 0.068567 0.087378
0.407893 0.070982 0.089699
0.433063 0.073370 0.091976
0.458470 0.075725 0.094204
0.484127 0.078045 0.096380
0.510045 0.080323 0.098499
0.536234 0.082557 0.100561
0.562702 0.084744 0.102561
0.589458 0.086880 0.104497
0.616509 0.088962 0.106367
0.643859 0.090988 0.108170
0.671515 0.092956 0.109904
0.699479 0.094864 0.111568
0.727754 0.096711 0.113161
0.756341 0.098495 0.114683
0.785240 0.100215 0.116133
0.005627 0.052820 0.057627
0.026988 0.056279 0.059795
0.050821 0.059789 0.062015
0.074700 0.062055 0.064280
0.098619 0.064361 0.066587
0.122577 0.066706 0.068932
0.146570 0.069086 0.071312
0.170597 0.071500 0.073726
0.194655 0.073945 0.076171
0.218761 0.076416 0.078634
0.242980 0.078897 0.081078
0.267334 0.081381 0.083495
0.291841 0.083860 0.085880
0.316517 0.086330 0.088228
0.341380 0.088784 0.090533
0.366444 0.091218 0.092793
0.391724 0.093625 0.095002
0.417232 0.096002 0.097158
0.442980 0.098344 0.099257
0.468980 0.100648 0.101296
0.495240 0.102909 0.103273
0.521771 0.105124 0.105185
0.548578 0.107291 0.107031
0.575669 0.109406 0.108809
0.603049 0.111468 0.110518
0.630723 0.113473 0.112156
0.658694 0.115421 0.113723
0.686963 0.117310 0.115219
0.715533 0.119139 0.116644
0.744402 0.120907 0.117997
0.773570 0.122614 0.119280
0.803035 0.124259 0.120493
0.013116 0.074503 0.065116
0.032211 0.078114 0.067437
0.056182 0.081762 0.069795
0.080187 0.085445 0.072187
0.104225 0.089161 0.074612
0.128294 0.091617 0.077068
0.152418 0.094098 0.079527
0.176632 0.096597 0.081962
0.200955 0.099105 0.084368
0.225406 0.101616 0.086740
0.250004 0.104124 0.089072
0.274765 0.106622 0.091362
0.299706 0.109107 0.093603
0.324840 0.111571 0.095793
0.350183 0.114010 0.097929
0.375746 0.116421 0.100006
0.401541 0.118798 0.102023
0.427580 0.121137 0.103977
0.453871 0.123436 0.105865
0.480422 0.125691 0.107686
0.507242 0.127899 0.109439
0.534335 0.130057 0.111122
0.561708 0.132163 0.112735
0.589365 0.134216 0.114276
0.617307 0.136213 0.115746
0.645538 0.138153 0.117145
0.674058 0.140035 0.118472
0.702866 0.141858 0.119730
0.731961 0.143623 0.120918
0.761341 0.145327 0.122038
0.791002 0.146973 0.123092
0.820938 0.148561 0.124081
0.021066 0.096647 0.073066
0.040277 0.100374 0.075503
0.061938 0.104132 0.077966
0.086061 0.107920 0.080416
0.110248 0.111732 0.082841
0.134520 0.115560 0.085235
0.158896 0.119399 0.087594
0.183396 0.121950 0.089911
0.208038 0.124499 0.092183
0.232837 0.127039 0.094407
0.257810 0.129565 0.096577
0.282971 0.132072 0.098692
0.308333 0.134555 0.100748
0.333910 0.137010 0.102742
0.359713 0.139432 0.104672
0.385751 0.141818 0.106536
0.412034 0.144165 0.108333
0.438570 0.146468 0.110060
0.465366 0.148727 0.111718
0.492428 0.150937 0.113304
0.519761 0.153096 0.114819
0.547368 0.155203 0.116263
0.575252 0.157257 0.117636
0.603414 0.159255 0.118938
0.631856 0.161197 0.120170
0.660576 0.163082 0.121333
0.689572 0.164910 0.122429
0.718842 0.166681 0.123459
0.748381 0.168394 0.124426
0.778186 0.170051 0.125330
0.808248 0.171652 0.126176
0.838561 0.173199 0.126967
0.029355 0.119174 0.081302
0.048656 0.123016 0.083717
0.068018 0.126880 0.086098
0.092300 0.130761 0.088442
0.116684 0.134652 0.090744
0.141188 0.138546 0.092999
0.165829 0.142437 0.095203
0.190623 0.146320 0.097354
0.215587 0.150189 0.099447
0.240735 0.152749 0.101481
0.266079 0.155286 0.103452
0.291632 0.157795 0.105358
0.317404 0.160272 0.107198
0.343407 0.162714 0.108970
0.369648 0.165117 0.110672
0.396136 0.167478 0.112303
0.422877 0.169794 0.113864
0.449877 0.172063 0.115353
0.477140 0.174283 0.116771
0.504669 0.176452 0.118118
0.532468 0.178569 0.119395
0.560536 0.180631 0.120602
0.588875 0.182639 0.121740
0.617483 0.184591 0.122812
0.646358 0.186487 0.123818
0.675497 0.188328 0.124762
0.704896 0.190113 0.125645
0.734549 0.191844 0.126470
0.764449 0.193520 0.127241
0.794590 0.195144 0.127960
0.824962 0.196716 0.128632
0.855556 0.198239 0.129260
0.037704 0.142158 0.089285
0.057115 0.146103 0.091570
0.076625 0.150057 0.093807
0.098671 0.154014 0.095993
0.123272 0.157967 0.098123
0.148024 0.161913 0.100195
0.172941 0.165844 0.102206
0.198039 0.169757 0.104154
0.223329 0.173647 0.106036
0.248824 0.177509 0.107851
0.274535 0.181340 0.109597
0.300471 0.183845 0.111274
0.326640 0.186312 0.112880
0.353050 0.188738 0.114415
0.379708 0.191119 0.115878
0.406619 0.193454 0.117270
0.433787 0.195741 0.118591
0.461214 0.197977 0.119842
0.488904 0.200161 0.121024
0.516857 0.202293 0.122138
0.545072 0.204370 0.123186
0.573549 0.206394 0.124169
0.602284 0.208362 0.125090
0.631275 0.210276 0.125952
0.660517 0.212136 0.126757
0.690004 0.213943 0.127509
0.719729 0.215697 0.128210
0.749684 0.217399 0.128865
0.779861 0.219052 0.129478
0.810248 0.220657 0.130053
0.840836 0.222216 0.130594
0.871611 0.223732 0.131108
0.045872 0.165642 0.096775
0.065425 0.169671 0.098884
0.085111 0.173697 0.100934
0.104946 0.177714 0.102922
0.129783 0.181717 0.104846
0.154798 0.185700 0.106705
0.180004 0.189660 0.108495
0.205411 0.193593 0.110216
0.231031 0.197494 0.111867
0.256872 0.201360 0.113447
0.282943 0.205188 0.114956
0.309251 0.208974 0.116393
0.335802 0.212717 0.117759
0.362601 0.215123 0.119055
0.389651 0.217481 0.120280
0.416957 0.219789 0.121437
0.444518 0.222045 0.122527
0.472337 0.224249 0.123551
0.500412 0.226400 0.124511
0.528741 0.228498 0.125411
0.557322 0.230541 0.126252
0.586152 0.232531 0.127037
0.615224 0.234467 0.127770
0.644534 0.236351 0.128454
0.674073 0.238183 0.129093
0.703834 0.239965 0.129691
0.733808 0.241698 0.130254
0.763983 0.243384 0.130784
0.794349 0.245026 0.131288
0.824892 0.246627 0.131771
0.855600 0.248187 0.132239
0.886456 0.249712 0.132697
0.053675 0.189651 0.103630
0.073401 0.193747 0.105531
0.093290 0.197828 0.107364
0.113356 0.201890 0.109129
0.136030 0.205927 0.110825
0.161323 0.209937 0.112450
0.186827 0.213914 0.114004
0.212550 0.217856 0.115487
0.238500 0.221759 0.116899
0.264683 0.225621 0.118239
0.291107 0.229439 0.119509
0.317775 0.233210 0.120709
0.344691 0.236933 0.121842
0.371857 0.240606 0.122907
0.399276 0.244229 0.123908
0.426945 0.246508 0.124846
0.454867 0.248734 0.125724
0.483037 0.250907 0.126544
0.511453 0.253027 0.127310
0.540111 0.255093 0.128024
0.569006 0.257106 0.128692
0.598131 0.259067 0.129315
0.627479 0.260977 0.129900
0.657041 0.262838 0.130450
0.686808 0.264650 0.130971
0.716768 0.266417 0.131466
0.746910 0.268140 0.131943
0.777221 0.269822 0.132407
0.807687 0.271466 0.132863
0.838293 0.273074 0.133318
0.869022 0.274652 0.133779
0.899856 0.276201 0.134254
0.060971 0.214198 0.109755
0.080901 0.218344 0.111425
0.101020 0.222464 0.113024
0.121339 0.226555 0.114552
0.141866 0.230614 0.116009
0.167451 0.234636 0.117395
0.193261 0.238619 0.118709
0.219303 0.242560 0.119954
0.245583 0.246456 0.121129
0.272105 0.250305 0.122237
0.298872 0.254106 0.123279
0.325886 0.257856 0.124257
0.353149 0.261555 0.125172
0.380660 0.265202 0.126029
0.408418 0.268795 0.126829
0.436421 0.272334 0.127575
0.464665 0.275820 0.128272
0.493146 0.277963 0.128923
0.521858 0.280052 0.129533
0.550795 0.282089 0.130104
0.579949 0.284076 0.130643
0.609311 0.286013 0.131154
0.638871 0.287903 0.131642
0.668617 0.289747 0.132113
0.698538 0.291548 0.132573
0.728621 0.293308 0.133028
0.758850 0.295031 0.133485
0.789211 0.296719 0.133950
0.819687 0.298377 0.134431
0.850259 0.300007 0.134934
0.880910 0.301615 0.135468
0.911619 0.303204 0.136041
0.067660 0.239286 0.115091
0.087824 0.243463 0.116522
0.108197 0.247607 0.117882
0.128788 0.251712 0.119171
0.149605 0.255778 0.120390
0.173072 0.259800 0.121541
0.199196 0.263777 0.122624
0.225560 0.267706 0.123642
0.252168 0.271585 0.124597
0.279022 0.275413 0.125491
0.306121 0.279190 0.126326
0.333466 0.282913 0.127107
0.361055 0.286582 0.127835
0.388886 0.290197 0.128515
0.416955 0.293758 0.129150
0.445257 0.297265 0.129745
0.473786 0.300720 0.130304
0.502535 0.304121 0.130832
0.531497 0.307472 0.131334
0.560661 0.309483 0.131815
0.590017 0.311447 0.132282
0.619555 0.313364 0.132739
0.649261 0.315239 0.133194
0.679122 0.317073 0.133653
0.709123 0.318869 0.134123
0.739249 0.320632 0.134611
0.769482 0.322363 0.135125
0.799805 0.324069 0.135672
0.830197 0.325751 0.136260
0.860640 0.327416 0.136899
0.891111 0.329068 0.137596
0.921588 0.330712 0.138361
0.073682 0.264902 0.119622
0.094106 0.269093 0.120817
0.114757 0.273243 0.121943
0.135640 0.277348 0.123002
0.156759 0.281406 0.123997
0.178120 0.285415 0.124929
0.204562 0.289373 0.125802
0.231249 0.293279 0.126617
0.258181 0.297132 0.127378
0.285357 0.300931 0.128088
0.312776 0.304674 0.128751
0.340434 0.308363 0.129371
0.368329 0.311997 0.129952
0.396453 0.315577 0.130499
0.424802 0.319102 0.131017
0.453367 0.322575 0.131511
0.482141 0.325996 0.131986
0.511114 0.329366 0.132449
0.540275 0.332689 0.132905
0.569612 0.335966 0.133360
0.599114 0.339198 0.133823
0.628764 0.341100 0.134298
0.658550 0.342965 0.134795
0.688454 0.344794 0.135319
0.718459 0.346593 0.135881
0.748547 0.348366 0.136486
0.778698 0.350116 0.137145
0.808892 0.351848 0.137866
0.839107 0.353567 0.138658
0.869320 0.355279 0.139530
0.899508 0.356988 0.140492
0.929645 0.358700 0.141554
0.079014 0.291019 0.123372
0.099725 0.295207 0.124343
0.120675 0.299346 0.125254
0.141866 0.303434 0.126105
0.163301 0.307471 0.126900
0.184982 0.311453 0.127642
0.209327 0.315380 0.128334
0.236335 0.319252 0.128981
0.263586 0.323068 0.129587
0.291075 0.326828 0.130155
0.318798 0.330531 0.130691
0.346751 0.334179 0.131199
0.374926 0.337771 0.131686
0.403316 0.341310 0.132156
0.431911 0.344796 0.132615
0.460703 0.348230 0.133070
0.489680 0.351616 0.133527
0.518830 0.354955 0.133994
0.548140 0.358250 0.134476
0.577595 0.361503 0.134982
0.607181 0.364717 0.135519
0.636880 0.367897 0.136096
0.666676 0.371046 0.136720
0.696548 0.372877 0.137400
0.726479 0.374685 0.138145
0.756447 0.376475 0.138965
0.786428 0.378252 0.139869
0.816402 0.380020 0.140867
0.846343 0.381787 0.141968
0.876226 0.383556 0.143184
0.906025 0.385335 0.144525
0.935712 0.387131 0.146001
0.083676 0.317598 0.126401
0.104698 0.321764 0.127176
0.125966 0.325875 0.127899
0.147481 0.329931 0.128575
0.169242 0.333930 0.129206
0.191249 0.337872 0.129798
0.213498 0.341756 0.130354
0.240825 0.345582 0.130879
0.268386 0.349350 0.131379
0.296176 0.353061 0.131859
0.324188 0.356715 0.132324
0.352413 0.360313 0.132781
0.380843 0.363858 0.133236
0.409468 0.367350 0.133696
0.438276 0.370792 0.134167
0.467255 0.374186 0.134657
0.496391 0.377534 0.135173
0.525669 0.380840 0.135724
0.555075 0.384106 0.136317
0.584591 0.387337 0.136960
0.614199 0.390535 0.137663
0.643880 0.393705 0.138435
0.673615 0.396851 0.139284
0.703381 0.399979 0.140221
0.733157 0.403093 0.141255
0.762919 0.404907 0.142397
0.792643 0.406719 0.143657
0.822303 0.408533 0.145046
0.851871 0.410357 0.146575
0.881321 0.412196 0.148256
0.910636 0.414055 0.150087
0.939917 0.415917 0.151949
0.087725 0.344582 0.128810
0.109080 0.348708 0.129426
0.130684 0.352774 0.130004
0.152536 0.356781 0.130548
0.174632 0.360728 0.131064
0.196968 0.364615 0.131556
0.219541 0.368442 0.132029
0.244762 0.372209 0.132491
0.272624 0.375919 0.132947
0.300701 0.379571 0.133403
0.328983 0.383166 0.133866
0.357458 0.386708 0.134343
0.386116 0.390198 0.134842
0.414943 0.393638 0.135369
0.443927 0.397031 0.135935
0.473051 0.400380 0.136545
0.502301 0.403688 0.137209
0.531658 0.406959 0.137936
0.561105 0.410196 0.138735
0.590622 0.413404 0.139614
0.620188 0.416587 0.140586
0.649783 0.419750 0.141658
0.679384 0.422898 0.142841
0.708966 0.426036 0.144147
0.738505 0.429170 0.145586
0.767975 0.432306 0.147169
0.797349 0.435451 0.148908
0.826636 0.437314 0.150765
0.855916 0.439174 0.152626
0.885193 0.441031 0.154483
0.914465 0.442884 0.156336
0.943733 0.444733 0.158185
0.091255 0.371903 0.130739
0.112964 0.375969 0.131245
0.134920 0.379973 0.131730
0.157120 0.383914 0.132199
0.179558 0.387793 0.132657
0.202227 0.391610 0.133112
0.225120 0.395366 0.133570
0.248229 0.399063 0.134037
0.276382 0.402702 0.134522
0.304729 0.406284 0.135030
0.333260 0.409812 0.135570
0.361960 0.413289 0.136151
0.390816 0.416716 0.136780
0.419813 0.420098 0.137466
0.448933 0.423436 0.138218
0.478160 0.426736 0.139045
0.507475 0.430000 0.139957
0.536859 0.433234 0.140964
0.566290 0.436441 0.142075
0.595747 0.439626 0.143302
0.625206 0.442795 0.144655
0.654644 0.445953 0.146145
0.684036 0.449105 0.147783
0.713355 0.452258 0.149581
0.742637 0.455411 0.151443
0.771915 0.458560 0.153302
0.801190 0.461706 0.155158
0.830461 0.464848 0.157010
0.859728 0.467986 0.158857
0.888990 0.469828 0.160699
0.918259 0.471672 0.162531
0.947534 0.473518 0.164353
0.094402 0.399475 0.132366
0.116483 0.403463 0.132823
0.138806 0.407385 0.133278
0.161363 0.411243 0.133739
0.184147 0.415038 0.134211
0.207150 0.418770 0.134704
0.230360 0.422442 0.135223
0.253766 0.426054 0.135777
0.279777 0.429610 0.136374
0.308378 0.433112 0.137023
0.337135 0.436563 0.137731
0.366034 0.439965 0.138510
0.395056 0.443322 0.139367
0.424186 0.446638 0.140312
0.453403 0.449917 0.141356
0.482688 0.453162 0.142508
0.512019 0.456380 0.143779
0.541374 0.459573 0.145181
0.570731 0.462748 0.146723
0.600064 0.465910 0.148419
0.629356 0.469066 0.150259
0.658637 0.472217 0.152120
0.687914 0.475365 0.153978
0.717187 0.478510 0.155833
0.746457 0.481650 0.157683
0.775722 0.484786 0.159528
0.804986 0.487918 0.161367
0.834266 0.491050 0.163196
0.863557 0.494184 0.165014
0.892853 0.497320 0.166823
0.922148 0.500459 0.168624
0.951438 0.502311 0.170418
0.097339 0.427200 0.133909
0.119809 0.431089 0.134388
0.142510 0.434912 0.134889
0.165433 0.438669 0.135420
0.188566 0.442362 0.135989
0.211900 0.445994 0.136604
0.235421 0.449566 0.137273
0.259115 0.453081 0.138006
0.282968 0.456542 0.138812
0.311802 0.459952 0.139700
0.340762 0.463314 0.140680
0.369830 0.466633 0.141762
0.398987 0.469911 0.142956
0.428211 0.473155 0.144274
0.457482 0.476367 0.145725
0.486778 0.479553 0.147322
0.516073 0.482719 0.149076
0.545356 0.485873 0.150937
0.574636 0.489023 0.152797
0.603912 0.492170 0.154654
0.633184 0.495313 0.156507
0.662452 0.498452 0.158355
0.691715 0.501586 0.160199
0.720988 0.504717 0.162034
0.750283 0.507846 0.163859
0.779592 0.510976 0.165674
0.808912 0.514106 0.167480
0.838235 0.517237 0.169278
0.867557 0.520370 0.171070
0.896872 0.523505 0.172856
0.926175 0.526643 0.174636
0.955462 0.529783 0.176412
0.100278 0.454964 0.135622
0.123152 0.458734 0.136207
0.146241 0.462437 0.136841
0.169534 0.466075 0.137532
0.193019 0.469650 0.138291
0.216680 0.473165 0.139125
0.240504 0.476622 0.140046
0.264473 0.480026 0.141062
0.288571 0.483379 0.142183
0.315198 0.486685 0.143421
0.344334 0.489948 0.144786
0.373541 0.493173 0.146289
0.402795 0.496364 0.147942
0.432075 0.499527 0.149752
0.461357 0.502679 0.151615
0.490635 0.505828 0.153474
0.519910 0.508974 0.155329
0.549180 0.512116 0.157180
0.578446 0.515253 0.159027
0.607710 0.518385 0.160868
0.636998 0.521513 0.162700
0.666311 0.524639 0.164520
0.695644 0.527763 0.166332
0.724990 0.530886 0.168135
0.754345 0.534009 0.169931
0.783701 0.537132 0.171721
0.813055 0.540255 0.173504
0.842401 0.543380 0.175283
0.871734 0.546506 0.177058
0.901049 0.549634 0.178828
0.930342 0.552764 0.180596
0.959608 0.555897 0.182361
0.103469 0.482636 0.137800
0.126759 0.486266 0.138585
0.150245 0.489830 0.139450
0.173913 0.493330 0.140404
0.197747 0.496769 0.141457
0.221731 0.500151 0.142620
0.245848 0.503478 0.143903
0.270078 0.506756 0.145317
0.294401 0.509987 0.146873
0.318797 0.513176 0.148583
0.348076 0.516334 0.150431
0.377356 0.519485 0.152292
0.406633 0.522633 0.154149
0.435907 0.525778 0.156003
0.465175 0.528917 0.157853
0.494440 0.532053 0.159698
0.523711 0.535183 0.161536
0.553017 0.538308 0.163364
0.582353 0.541429 0.165181
0.611713 0.544546 0.166990
0.641090 0.547661 0.168790
0.670480 0.550773 0.170584
0.699875 0.553885 0.172371
0.729270 0.556995 0.174152
0.758661 0.560106 0.175930
0.788042 0.563216 0.177703
0.817409 0.566327 0.179472
0.846757 0.569440 0.181239
0.876081 0.572554 0.183003
0.905377 0.575669 0.184766
0.934642 0.578787 0.186527
0.963871 0.581906 0.188287
0.107200 0.510073 0.140775
0.130917 0.513542 0.141867
0.154807 0.516947 0.143073
0.178851 0.520290 0.144402
0.203033 0.523575 0.145866
0.227332 0.526806 0.147477
0.251730 0.529987 0.149246
0.276173 0.533141 0.151109
0.300614 0.536291 0.152969
0.325051 0.539438 0.154825
0.351903 0.542580 0.156677
0.381170 0.545719 0.158525
0.410433 0.548852 0.160368
0.439721 0.551979 0.162203
0.469049 0.555099 0.164026
0.498412 0.558214 0.165840
0.527802 0.561323 0.167646
0.557214 0.564428 0.169444
0.586641 0.567530 0.171235
0.616078 0.570628 0.173020
0.645519 0.573725 0.174800
0.674958 0.576820 0.176575
0.704391 0.579914 0.178347
0.733812 0.583008 0.180116
0.763217 0.586102 0.181881
0.792600 0.589195 0.183645
0.821959 0.592290 0.185407
0.851288 0.595385 0.187168
0.880585 0.598481 0.188927
0.909844 0.601578 0.190686
0.939063 0.604677 0.192445
0.968238 0.607776 0.194203
0.111800 0.537115 0.144919
0.135953 0.540402 0.146435
0.160250 0.543627 0.148102
0.184666 0.546795 0.149924
0.209109 0.549948 0.151786
0.233548 0.553096 0.153645
0.257984 0.556242 0.155500
0.282415 0.559383 0.157351
0.306842 0.562519 0.159197
0.331270 0.565650 0.161037
0.355741 0.568773 0.162868
0.385096 0.571887 0.164688
0.414489 0.574993 0.166499
0.443914 0.578093 0.168301
0.473364 0.581188 0.170097
0.502832 0.584277 0.171885
0.532314 0.587363 0.173669
0.561803 0.590444 0.175447
0.591293 0.593523 0.177221
0.620780 0.596600 0.178991
0.650258 0.599675 0.180759
0.679723 0.602749 0.182524
0.709169 0.605821 0.184287
0.738592 0.608894 0.186048
0.767988 0.611966 0.187808
0.797354 0.615038 0.189568
0.826684 0.618111 0.191326
0.855975 0.621183 0.193085
0.885224 0.624256 0.194843
0.914429 0.627330 0.196600
0.943585 0.630404 0.198357
0.972690 0.633478 0.200115
0.117603 0.563603 0.150603
0.142044 0.566754 0.152463
0.166482 0.569901 0.154321
0.190916 0.573045 0.156174
0.215346 0.576185 0.158023
0.239771 0.579319 0.159868
0.264213 0.582447 0.161705
0.288711 0.585564 0.163532
0.313257 0.588670 0.165348
0.337845 0.591768 0.167156
0.362469 0.594857 0.168956
0.389541 0.597940 0.170749
0.419054 0.601016 0.172535
0.448584 0.604086 0.174316
0.478124 0.607152 0.176093
0.507668 0.610214 0.177866
0.537212 0.613272 0.179635
0.566750 0.616328 0.181402
0.596277 0.619381 0.183166
0.625787 0.622432 0.184928
0.655278 0.625481 0.186689
0.684743 0.628530 0.188449
0.714179 0.631577 0.190208
0.743581 0.634624 0.191967
0.772947 0.637671 0.193725
0.802272 0.640717 0.195482
0.831553 0.643762 0.197240
0.860788 0.646808 0.198997
0.889972 0.649853 0.200754
0.919104 0.652898 0.202511
0.948181 0.655942 0.204267
0.977201 0.658985 0.206022
0.123848 0.589848 0.156848
0.148276 0.592986 0.158695
0.172701 0.596118 0.160538
0.197168 0.599241 0.162371
0.221695 0.602350 0.164194
0.246275 0.605448 0.166007
0.270901 0.608535 0.167812
0.295566 0.611613 0.169609
0.320263 0.614683 0.171400
0.344986 0.617744 0.173184
0.369728 0.620799 0.174964
0.394484 0.623848 0.176739
0.424085 0.626892 0.178510
0.453689 0.629931 0.180279
0.483289 0.632966 0.182044
0.512880 0.635997 0.183808
0.542457 0.639026 0.185569
0.572016 0.642052 0.187330
0.601552 0.645076 0.189090
0.631061 0.648098 0.190848
0.660538 0.651119 0.192607
0.689979 0.654138 0.194365
0.719382 0.657157 0.196122
0.748741 0.660174 0.197880
0.778055 0.663190 0.199637
0.807320 0.666206 0.201394
0.836533 0.669221 0.203150
0.865691 0.672234 0.204906
0.894793 0.675246 0.206661
0.923835 0.678257 0.208415
0.952817 0.681266 0.210167
0.981735 0.684273 0.211918
0.130136 0.616031 0.163036
0.154697 0.619132 0.164855
0.179315 0.622220 0.166665
0.203982 0.625296 0.168467
0.228692 0.628361 0.170262
0.253437 0.631416 0.172050
0.278211 0.634463 0.173833
0.303007 0.637501 0.175611
0.327819 0.640532 0.177384
0.352642 0.643556 0.179154
0.377469 0.646575 0.180922
0.402295 0.649589 0.182686
0.429533 0.652598 0.184449
0.459180 0.655603 0.186210
0.488810 0.658605 0.187971
0.518419 0.661604 0.189730
0.548002 0.664600 0.191489
0.577554 0.667594 0.193247
0.607073 0.670586 0.195005
0.636554 0.673576 0.196762
0.665993 0.676565 0.198519
0.695388 0.679552 0.200277
0.724734 0.682537 0.202033
0.754029 0.685521 0.203790
0.783269 0.688504 0.205545
0.812454 0.691485 0.207300
0.841579 0.694464 0.209053
0.870643 0.697440 0.210805
0.899644 0.700415 0.212554
0.928581 0.703387 0.214301
0.957451 0.706355 0.216045
0.986254 0.709321 0.217786
0.137090 0.642049 0.169121
0.161848 0.645100 0.170914
0.186644 0.648140 0.172700
0.211472 0.651170 0.174480
0.236325 0.654190 0.176257
0.261197 0.657202 0.178029
0.286082 0.660207 0.179798
0.310974 0.663204 0.181564
0.335867 0.666196 0.183328
0.360755 0.669182 0.185091
0.385634 0.672163 0.186851
0.410498 0.675140 0.188611
0.435342 0.678113 0.190370
0.465002 0.681083 0.192129
0.494632 0.684050 0.193887
0.524229 0.687013 0.195644
0.553790 0.689975 0.197402
0.583310 0.692934 0.199159
0.612786 0.695891 0.200916
0.642214 0.698846 0.202673
0.671591 0.701800 0.204429
0.700915 0.704751 0.206184
0.730183 0.707700 0.207938
0.759391 0.710647 0.209691
0.788538 0.713592 0.211442
0.817622 0.716534 0.213191
0.846641 0.719473 0.214937
0.875593 0.722409 0.216679
0.904477 0.725341 0.218418
0.933291 0.728269 0.220152
0.962035 0.731192 0.221881
0.990708 0.734111 0.223604
0.144771 0.667865 0.175128
0.169684 0.670867 0.176902
0.194619 0.673860 0.178674
0.219568 0.676843 0.180441
0.244527 0.679819 0.182207
0.269489 0.682787 0.183970
0.294449 0.685750 0.185732
0.319401 0.688706 0.187492
0.344340 0.691657 0.189252
0.369261 0.694604 0.191010
0.394159 0.697546 0.192769
0.419029 0.700485 0.194527
0.443868 0.703420 0.196284
0.471090 0.706353 0.198042
0.500692 0.709282 0.199799
0.530250 0.712209 0.201556
0.559761 0.715133 0.203312
0.589222 0.718056 0.205068
0.618629 0.720975 0.206823
0.647980 0.723892 0.208577
0.677272 0.726807 0.210329
0.706502 0.729719 0.212079
0.735669 0.732629 0.213827
0.764770 0.735535 0.215572
0.793803 0.738438 0.217313
0.822768 0.741338 0.219050
0.851662 0.744233 0.220782
0.880484 0.747124 0.222509
0.909234 0.750009 0.224229
0.937911 0.752889 0.225942
0.966514 0.755762 0.227647
0.995042 0.758629 0.229343
0.153103 0.693464 0.181084
0.178131 0.696417 0.182849
0.203164 0.699362 0.184612
0.228197 0.702300 0.186373
0.253224 0.705231 0.188133
0.278240 0.708156 0.189892
0.303238 0.711075 0.191651
0.328216 0.713990 0.193409
0.353166 0.716900 0.195167
0.378087 0.719807 0.196924
0.402971 0.722709 0.198681
0.427817 0.725609 0.200439
0.452620 0.728505 0.202195
0.477376 0.731398 0.203951
0.506920 0.734289 0.205707
0.536411 0.737177 0.207461
0.565846 0.740062 0.209215
0.595221 0.742944 0.210966
0.624535 0.745824 0.212716
0.653784 0.748701 0.214462
0.682967 0.751574 0.216206
0.712082 0.754445 0.217946
0.741126 0.757311 0.219681
0.770099 0.760173 0.221412
0.798999 0.763031 0.223136
0.827825 0.765884 0.224854
0.856576 0.768732 0.226564
0.885252 0.771573 0.228266
0.913852 0.774408 0.229958
0.942376 0.777235 0.231639
0.970823 0.780053 0.233309
0.999194 0.782863 0.234966
0.162001 0.718832 0.187014
0.187105 0.721737 0.188774
0.212199 0.724635 0.190532
0.237277 0.727527 0.192291
0.262335 0.730414 0.194049
0.287367 0.733295 0.195807
0.312370 0.736172 0.197564
0.337338 0.739044 0.199321
0.362267 0.741913 0.201078
0.387153 0.744778 0.202835
0.411994 0.747640 0.204591
0.436783 0.750499 0.206346
0.461520 0.753355 0.208100
0.486200 0.756208 0.209853
0.513239 0.759058 0.211603
0.542636 0.761905 0.213352
0.571968 0.764749 0.215098
0.601232 0.767590 0.216840
0.630427 0.770428 0.218578
