omv/luts/17_rain_on_freeside.cube
# Original OMV LUT; redistribution permitted with OMV.
TITLE "Rain on Freeside"
LUT_3D_SIZE 5
DOMAIN_MIN 0.000000 0.000000 0.000000
DOMAIN_MAX 0.903226 0.903226 0.903226
0.000000 0.031429 0.049524
0.165033 0.046743 0.065743
0.333669 0.063675 0.082619
0.510045 0.080323 0.098499
0.699479 0.094864 0.111568
0.053675 0.189651 0.103630
0.212550 0.217856 0.115487
0.399276 0.244229 0.123908
0.598131 0.259067 0.129315
0.807687 0.271466 0.132863
0.091255 0.371903 0.130739
0.248229 0.399063 0.134037
0.448933 0.423436 0.138218
0.654644 0.445953 0.146145
0.859728 0.467986 0.158857
0.117603 0.563603 0.150603
0.288711 0.585564 0.163532
0.478124 0.607152 0.176093
0.684743 0.628530 0.188449
0.889972 0.649853 0.200754
0.171377 0.743959 0.192931
0.346680 0.763860 0.205230
0.519566 0.783582 0.217473
0.722915 0.803128 0.229499
0.922379 0.822363 0.241010
0.003547 0.036547 0.191031
0.153699 0.052344 0.197795
0.323762 0.069481 0.206431
0.503000 0.085556 0.224976
0.695541 0.099151 0.242524
0.058890 0.205328 0.240591
0.202143 0.233031 0.248410
0.390568 0.249560 0.262839
0.590897 0.263527 0.274673
0.801089 0.275239 0.284469
0.093509 0.387432 0.278423
0.252169 0.413586 0.287757
0.436914 0.437189 0.296981
0.642284 0.459413 0.308348
0.847191 0.472368 0.321265
0.122020 0.577053 0.313085
0.293492 0.598899 0.325779
0.466509 0.620390 0.337571
0.673198 0.641738 0.348775
0.878148 0.663055 0.359665
0.178237 0.756708 0.352766
0.353363 0.776540 0.363581
0.525700 0.796209 0.374235
0.711314 0.815670 0.384680
0.909845 0.834746 0.394736
0.008656 0.041656 0.331623
0.142553 0.058133 0.339069
0.314456 0.075150 0.349876
0.496432 0.090496 0.363543
0.691849 0.103078 0.377543
0.063814 0.220885 0.390064
0.208438 0.238921 0.403706
0.381574 0.254591 0.415451
0.583213 0.267721 0.424531
0.793767 0.278866 0.439938
0.095630 0.402608 0.448497
0.255989 0.427809 0.454019
0.424675 0.450776 0.457948
0.629767 0.463832 0.470832
0.834737 0.476767 0.483432
0.126415 0.590480 0.484577
0.298574 0.612191 0.487646
0.472014 0.633613 0.498355
0.661745 0.654944 0.508190
0.866345 0.676252 0.517538
0.185250 0.769429 0.511634
0.360073 0.789202 0.520875
0.531759 0.808812 0.529942
0.699554 0.828170 0.538906
0.897091 0.847050 0.547701
0.014048 0.047048 0.472499
0.148667 0.063999 0.480992
0.305617 0.080620 0.495755
0.490203 0.095111 0.514806
0.688261 0.106642 0.535033
0.068419 0.227234 0.543526
0.214467 0.244532 0.563557
0.372257 0.259322 0.581727
0.575038 0.271679 0.596674
0.785675 0.282405 0.607759
0.097687 0.417440 0.622521
0.259753 0.441768 0.632184
0.429212 0.455231 0.638283
0.617229 0.468229 0.642325
0.822371 0.481193 0.645158
0.130930 0.603868 0.664981
0.303936 0.625450 0.667017
0.477687 0.646826 0.667348
0.650368 0.668149 0.666613
0.854549 0.680407 0.674348
0.192378 0.782127 0.687536
0.366774 0.801847 0.686132
0.537705 0.821388 0.684637
0.704536 0.840615 0.692269
0.884085 0.859258 0.700047
0.019660 0.052660 0.613595
0.155150 0.069799 0.624646
0.297120 0.085837 0.644814
0.484186 0.099378 0.670214
0.684647 0.109850 0.697149
0.072687 0.233364 0.701367
0.220208 0.249847 0.728089
0.379525 0.263766 0.752498
0.566342 0.275443 0.772636
0.776777 0.285925 0.787268
0.099758 0.431946 0.799996
0.263534 0.446477 0.812458
0.433658 0.459658 0.818916
0.604718 0.472611 0.822724
0.810093 0.485651 0.824330
0.135831 0.617200 0.844976
0.309558 0.638687 0.845669
0.483507 0.660034 0.844443
0.655983 0.672318 0.842053
0.842740 0.684546 0.839118
0.199581 0.794806 0.862372
0.373426 0.814472 0.859367
0.543500 0.833928 0.856447
0.709288 0.852994 0.853915
0.870791 0.871354 0.851939
