omv/luts/17_rain_on_freeside.cube
# Original OMV LUT; redistribution permitted with OMV.
TITLE "Rain on Freeside"
LUT_3D_SIZE 8
DOMAIN_MIN 0.000000 0.000000 0.000000
DOMAIN_MAX 0.903226 0.903226 0.903226
0.000000 0.031429 0.049524
0.093451 0.039999 0.058999
0.188977 0.049074 0.068074
0.285102 0.058740 0.077739
0.382947 0.068567 0.087378
0.484127 0.078045 0.096380
0.589458 0.086880 0.104497
0.699479 0.094864 0.111568
0.029355 0.119174 0.081302
0.116684 0.134652 0.090744
0.215587 0.150189 0.099447
0.317404 0.160272 0.107198
0.422877 0.169794 0.113864
0.532468 0.178569 0.119395
0.646358 0.186487 0.123818
0.764449 0.193520 0.127241
0.060971 0.214198 0.109755
0.141866 0.230614 0.116009
0.245583 0.246456 0.121129
0.353149 0.261555 0.125172
0.464665 0.275820 0.128272
0.579949 0.284076 0.130643
0.698538 0.291548 0.132573
0.819687 0.298377 0.134431
0.083676 0.317598 0.126401
0.169242 0.333930 0.129206
0.268386 0.349350 0.131379
0.380843 0.363858 0.133236
0.496391 0.377534 0.135173
0.614199 0.390535 0.137663
0.733157 0.403093 0.141255
0.851871 0.410357 0.146575
0.097339 0.427200 0.133909
0.188566 0.442362 0.135989
0.282968 0.456542 0.138812
0.398987 0.469911 0.142956
0.516073 0.482719 0.149076
0.633184 0.495313 0.156507
0.750283 0.507846 0.163859
0.867557 0.520370 0.171070
0.111800 0.537115 0.144919
0.209109 0.549948 0.151786
0.306842 0.562519 0.159197
0.414489 0.574993 0.166499
0.532314 0.587363 0.173669
0.650258 0.599675 0.180759
0.767988 0.611966 0.187808
0.885224 0.624256 0.194843
0.137090 0.642049 0.169121
0.236325 0.654190 0.176257
0.335867 0.666196 0.183328
0.435342 0.678113 0.190370
0.553790 0.689975 0.197402
0.671591 0.701800 0.204429
0.788538 0.713592 0.211442
0.904477 0.725341 0.218418
0.171377 0.743959 0.192931
0.271770 0.755358 0.199961
0.371554 0.766687 0.206985
0.470484 0.777963 0.213988
0.578044 0.789188 0.220942
0.694097 0.800350 0.227804
0.808885 0.811422 0.234517
0.922379 0.822363 0.241010
0.001482 0.034482 0.130902
0.086776 0.043002 0.134260
0.182524 0.052299 0.138395
0.278962 0.062094 0.148219
0.377640 0.071841 0.158238
0.479782 0.081129 0.168053
0.586140 0.089695 0.177357
0.697190 0.097357 0.185927
0.032735 0.127807 0.157028
0.110639 0.143350 0.161853
0.210004 0.153661 0.171513
0.312428 0.163579 0.180571
0.418589 0.172865 0.188834
0.528884 0.181357 0.196186
0.643432 0.188974 0.202594
0.762067 0.195713 0.208101
0.063750 0.223232 0.183679
0.145058 0.239477 0.191619
0.239607 0.255082 0.198628
0.347713 0.269904 0.204699
0.459735 0.278717 0.209903
0.575426 0.286696 0.214390
0.694257 0.293930 0.218386
0.815417 0.300586 0.222193
0.085380 0.326652 0.206688
0.171481 0.342679 0.211609
0.261461 0.357785 0.215887
0.374346 0.371998 0.219775
0.490170 0.385424 0.223605
0.608039 0.398244 0.227786
0.726774 0.405557 0.232803
0.844918 0.412860 0.239218
0.098513 0.435875 0.221156
0.190347 0.450689 0.225063
0.285219 0.464571 0.229488
0.391827 0.477718 0.234945
0.508927 0.490411 0.241927
0.626016 0.502984 0.249339
0.743191 0.515506 0.256600
0.860522 0.528038 0.263611
0.113985 0.544973 0.237301
0.211633 0.557633 0.244633
0.309362 0.570179 0.252015
0.407573 0.582612 0.259177
0.525547 0.594957 0.266116
0.643553 0.607259 0.272895
0.761270 0.619548 0.279567
0.878430 0.631840 0.286169
0.140109 0.649599 0.261726
0.239573 0.661689 0.268599
0.339241 0.673660 0.275334
0.438753 0.685555 0.281977
0.547482 0.697403 0.288560
0.665178 0.709217 0.295101
0.781968 0.720996 0.301603
0.897710 0.732726 0.308055
0.175276 0.751248 0.284379
0.275650 0.762620 0.290946
0.375336 0.773930 0.297473
0.474100 0.785190 0.303959
0.571763 0.796395 0.310387
0.687556 0.807530 0.316728
0.802054 0.818563 0.322937
0.915242 0.829448 0.328954
0.004255 0.037255 0.211094
0.080186 0.046090 0.214767
0.176133 0.055585 0.219101
0.273044 0.065436 0.224064
0.372541 0.075062 0.229645
0.475620 0.084130 0.240566
0.582970 0.092405 0.251297
0.695002 0.099734 0.261554
0.036106 0.136478 0.238250
0.114281 0.146877 0.243944
0.204435 0.157087 0.249673
0.307461 0.166813 0.255099
0.414294 0.175843 0.265128
0.525266 0.184044 0.274421
0.640431 0.191359 0.282880
0.759559 0.197813 0.290484
0.066424 0.232217 0.269148
0.148160 0.248265 0.273764
0.233543 0.263617 0.277600
0.342181 0.272993 0.285746
0.454688 0.281518 0.293049
0.570752 0.289229 0.299596
0.689780 0.296244 0.305547
0.810895 0.302756 0.311144
0.086989 0.335605 0.293661
0.173634 0.351321 0.295513
0.264126 0.366117 0.301820
0.367748 0.380047 0.307611
0.483822 0.393242 0.313153
0.601713 0.400751 0.318792
0.720177 0.408019 0.324950
0.837777 0.415390 0.332067
0.099701 0.444428 0.309641
0.192149 0.458908 0.315175
0.287483 0.472514 0.320949
0.384661 0.485470 0.327415
0.501774 0.498096 0.334774
0.618849 0.510647 0.342156
0.736142 0.523167 0.349241
0.853515 0.530550 0.355987
0.116396 0.552719 0.330042
0.214149 0.565311 0.337472
0.311976 0.577823 0.344780
0.410415 0.590220 0.351731
0.518841 0.602546 0.358375
0.636891 0.614841 0.364792
0.754579 0.627130 0.371044
0.871651 0.639425 0.377182
0.143240 0.657130 0.354181
0.242908 0.669173 0.360734
0.342680 0.681115 0.367084
0.442208 0.692991 0.373290
0.541200 0.704827 0.379396
0.658774 0.716630 0.385432
0.775393 0.728395 0.391415
0.890927 0.740102 0.397345
0.179230 0.758527 0.375522
0.279562 0.769876 0.381600
0.379127 0.781168 0.387616
0.477706 0.792410 0.393580
0.575132 0.803595 0.399489
0.680971 0.814699 0.405325
0.795166 0.825688 0.411054
0.908037 0.836509 0.416632
0.007163 0.040163 0.291421
0.083348 0.049251 0.295348
0.169805 0.058926 0.299870
0.267321 0.068749 0.305463
0.367624 0.078218 0.312082
0.471615 0.087038 0.319212
0.579920 0.095005 0.326424
0.692887 0.101993 0.338529
0.039453 0.140009 0.319985
0.117915 0.150382 0.326845
0.198866 0.160457 0.334050
0.302489 0.169967 0.341200
0.409976 0.178726 0.347977
0.521598 0.186628 0.354139
0.637340 0.193644 0.364687
0.756907 0.199824 0.374375
0.068990 0.241143 0.355927
0.151168 0.256973 0.362503
0.237065 0.266896 0.368397
0.336546 0.275983 0.373477
0.449517 0.284224 0.377685
0.565922 0.291682 0.386206
0.685103 0.298500 0.393976
0.806116 0.304898 0.401173
0.088510 0.344454 0.387312
0.175708 0.359857 0.391205
0.266709 0.374348 0.394275
0.361053 0.388010 0.396651
0.477352 0.395838 0.403698
0.595226 0.403229 0.410534
0.713368 0.410495 0.417519
0.830624 0.417915 0.424915
0.100922 0.452863 0.409583
0.193987 0.467026 0.411355
0.289776 0.480382 0.413039
0.387182 0.493182 0.420182
0.494614 0.505775 0.427614
0.611732 0.518307 0.434911
0.729135 0.525670 0.441745
0.846537 0.533067 0.448165
0.118926 0.560410 0.428055
0.216658 0.572981 0.430303
0.314690 0.585453 0.437454
0.413334 0.597820 0.444125
0.512192 0.610132 0.450419
0.630269 0.622423 0.456426
0.747914 0.634713 0.462222
0.864885 0.647010 0.467869
0.146481 0.664643 0.446455
0.246327 0.676646 0.452635
0.346179 0.688562 0.458557
0.445702 0.700423 0.464292
0.544616 0.712247 0.469898
0.652375 0.724038 0.475417
0.768808 0.735787 0.480878
0.884123 0.747467 0.486294
0.183233 0.765797 0.466346
0.283497 0.777125 0.471916
0.382920 0.788400 0.477411
0.481294 0.799624 0.482855
0.578466 0.810785 0.488255
0.674336 0.821855 0.493606
0.788215 0.832793 0.498888
0.900759 0.843544 0.504066
0.010171 0.043171 0.371848
0.086576 0.052479 0.375995
0.163618 0.062280 0.380853
0.261768 0.072021 0.387432
0.362863 0.081298 0.395378
0.467741 0.089848 0.404115
0.576965 0.097492 0.413153
0.690819 0.104134 0.422079
0.042764 0.143546 0.402401
0.121530 0.153852 0.410697
0.202961 0.163761 0.419596
0.297497 0.173032 0.428636
0.405622 0.181508 0.437435
0.517863 0.189109 0.445690
0.634141 0.195832 0.453176
0.754097 0.201753 0.459745
0.071446 0.250002 0.444086
0.154078 0.260432 0.452719
0.240491 0.270078 0.460716
0.330807 0.278875 0.467881
0.444219 0.286839 0.474094
0.560931 0.294060 0.479315
0.680218 0.300707 0.483578
0.801072 0.307026 0.492157
0.089950 0.353197 0.482458
0.177710 0.368286 0.488311
0.269216 0.382483 0.493175
0.363945 0.390734 0.497113
0.470764 0.398383 0.500266
0.588583 0.405693 0.502850
0.706352 0.413000 0.510322
0.823465 0.420433 0.517755
0.102194 0.461184 0.510544
0.195878 0.475050 0.513460
0.292114 0.488185 0.515907
0.389712 0.500873 0.518196
0.487445 0.513445 0.520445
0.604673 0.520806 0.527561
0.722169 0.528177 0.534080
0.839586 0.535591 0.540118
0.121450 0.568095 0.531224
0.219185 0.580640 0.533432
0.317499 0.593070 0.535158
0.416327 0.605414 0.536328
0.515277 0.617715 0.542220
0.623686 0.630004 0.547775
0.741273 0.642297 0.553084
0.858130 0.649433 0.558220
0.149825 0.672140 0.548840
0.249824 0.684110 0.549437
0.349733 0.696004 0.549732
0.449230 0.707851 0.554970
0.548049 0.719664 0.560059
0.645976 0.731443 0.565054
0.762211 0.743171 0.569995
0.877294 0.754821 0.574909
0.187277 0.773059 0.561998
0.287449 0.784368 0.561886
0.386708 0.795626 0.566857
0.484858 0.806831 0.571786
0.581758 0.817965 0.576694
0.677322 0.828995 0.581587
0.781196 0.839877 0.586458
0.893403 0.850549 0.591285
0.013263 0.046263 0.452360
0.089865 0.055768 0.456704
0.167258 0.065620 0.462260
0.256361 0.075239 0.470136
0.358233 0.084293 0.479668
0.463973 0.092552 0.490222
0.574080 0.099863 0.501242
0.688772 0.106155 0.512255
0.046025 0.147072 0.485651
0.125112 0.157275 0.495625
0.207028 0.166990 0.506408
0.292471 0.176006 0.517476
0.401217 0.184189 0.528385
0.514048 0.191488 0.538767
0.630821 0.197927 0.548333
0.751112 0.203607 0.556874
0.073790 0.253625 0.533689
0.156889 0.263801 0.544444
0.243819 0.273161 0.554558
0.334635 0.281670 0.563772
0.438790 0.289367 0.571902
0.555774 0.296371 0.578843
0.675121 0.302875 0.584566
0.795758 0.309152 0.589120
0.091318 0.361834 0.579066
0.179648 0.376612 0.586771
0.271656 0.385365 0.593268
0.366753 0.393388 0.598556
0.464065 0.400889 0.602711
0.581790 0.408156 0.605888
0.699207 0.415530 0.608336
0.816297 0.422942 0.610588
0.103534 0.469397 0.612395
0.197842 0.482989 0.616172
0.294516 0.495935 0.619046
0.392236 0.508559 0.621365
0.489960 0.515947 0.623576
0.597669 0.523306 0.625230
0.715243 0.530689 0.626213
0.832663 0.538123 0.631821
0.123966 0.575773 0.634385
0.221822 0.588283 0.636466
0.320402 0.600678 0.637859
0.419392 0.613003 0.638632
0.518413 0.625298 0.638915
0.617138 0.637587 0.638823
0.734651 0.644720 0.643618
0.851383 0.651856 0.648227
0.153267 0.679624 0.650987
0.253394 0.691564 0.651121
0.353337 0.703440 0.650918
0.452788 0.715275 0.650475
0.551492 0.727077 0.649873
0.649250 0.738841 0.654341
0.755594 0.750547 0.658771
0.870436 0.762160 0.663201
0.191355 0.780314 0.662472
0.291411 0.791605 0.661830
0.390484 0.802847 0.661117
0.488390 0.814030 0.660382
0.585001 0.825133 0.664819
0.680244 0.836119 0.669286
0.774100 0.846936 0.673788
0.885960 0.857521 0.678315
0.016428 0.049428 0.532944
0.093215 0.059112 0.537493
0.171025 0.068932 0.544269
0.251077 0.078390 0.553725
0.353712 0.087197 0.565077
0.460289 0.095146 0.577627
0.571241 0.102115 0.590759
0.686723 0.108060 0.603936
0.049225 0.150576 0.569878
0.128650 0.160642 0.581743
0.211056 0.170139 0.594572
0.297078 0.178882 0.607779
0.396748 0.186768 0.620854
0.510140 0.193768 0.633369
0.627366 0.199933 0.644971
0.747938 0.205393 0.655386
0.076020 0.257167 0.624780
0.159600 0.267074 0.637697
0.247048 0.276146 0.649917
0.338354 0.284371 0.661114
0.433227 0.291815 0.671043
0.550449 0.298624 0.679535
0.669810 0.305016 0.686496
0.790171 0.311292 0.691913
0.092623 0.370363 0.677088
0.181531 0.379677 0.686509
0.274037 0.388163 0.694450
0.369487 0.395981 0.700847
0.466941 0.403366 0.705713
0.574855 0.410632 0.709137
0.692054 0.418054 0.711506
0.809126 0.425446 0.713720
0.104962 0.477509 0.714995
0.199896 0.490853 0.719321
0.297000 0.503645 0.722258
0.394753 0.511075 0.724527
0.492540 0.518446 0.726601
0.590720 0.525809 0.727884
0.708356 0.533207 0.728437
0.825764 0.540661 0.728410
0.126474 0.583442 0.737539
0.224572 0.595911 0.739364
0.323394 0.608278 0.740363
0.422525 0.620589 0.740689
0.521597 0.632879 0.740483
0.620298 0.640009 0.739874
0.728047 0.647144 0.738974
0.844640 0.654277 0.737884
0.156801 0.687097 0.752870
0.257031 0.699012 0.752503
0.356986 0.710871 0.751776
0.456370 0.722695 0.750797
0.554941 0.734485 0.749659
0.652513 0.746233 0.748442
0.748955 0.757912 0.747213
0.863543 0.764322 0.751183
0.195458 0.787563 0.762598
0.295376 0.798837 0.761423
0.394241 0.810060 0.760195
0.491884 0.821220 0.758974
0.588189 0.832287 0.757807
0.683097 0.843223 0.756724
0.776600 0.853969 0.760904
0.878425 0.864457 0.765188
0.019660 0.052660 0.613595
0.096651 0.062465 0.618682
0.174897 0.072201 0.627046
0.255571 0.081466 0.638337
0.349278 0.090000 0.651713
0.456665 0.097627 0.666413
0.568424 0.104249 0.681759
0.684647 0.109850 0.697149
0.052355 0.154043 0.655209
0.132134 0.163942 0.669151
0.215035 0.173199 0.684160
0.301628 0.181660 0.699587
0.392204 0.189243 0.714861
0.506126 0.195950 0.729487
0.623764 0.201858 0.743050
0.744562 0.207121 0.755212
0.078139 0.260621 0.717395
0.162211 0.270251 0.732485
0.250176 0.279032 0.746769
0.341960 0.286981 0.759857
0.437206 0.294189 0.771440
0.544954 0.300828 0.781285
0.664281 0.307144 0.789235
0.784307 0.313461 0.795213
0.093877 0.373625 0.776463
0.183369 0.382645 0.787437
0.276369 0.390883 0.796606
0.372155 0.398523 0.803843
0.469722 0.405829 0.809098
0.567784 0.413140 0.812397
0.684894 0.420572 0.814669
0.801978 0.427960 0.816738
0.106501 0.485528 0.818188
0.202063 0.498652 0.822724
0.299529 0.506175 0.825433
0.397262 0.513584 0.827681
0.495191 0.520944 0.829477
0.593502 0.528316 0.830330
0.701507 0.535731 0.830406
0.818890 0.543208 0.829864
0.129010 0.591100 0.840653
0.227432 0.603529 0.842090
0.326472 0.615871 0.842640
0.425723 0.628172 0.842474
0.524828 0.635300 0.841745
0.623487 0.642431 0.840593
0.721457 0.649568 0.839145
0.837900 0.656696 0.837512
0.160421 0.694559 0.854467
0.260729 0.706453 0.853569
0.360673 0.718299 0.852296
0.459970 0.730111 0.850768
0.558391 0.741889 0.849093
0.655762 0.753617 0.847363
0.751964 0.760103 0.845655
0.856611 0.766466 0.844032
0.199581 0.794806 0.862372
0.299335 0.806063 0.860667
0.397971 0.817267 0.858936
0.495332 0.828399 0.857253
0.591315 0.839427 0.855674
0.685872 0.850305 0.854245
0.779010 0.860972 0.852995
0.870791 0.871354 0.851939
