omv/luts/18_sierra_madre_gilded.cube
# Original OMV LUT; redistribution permitted with OMV.
TITLE "Sierra Madre Gilded"
LUT_3D_SIZE 32
DOMAIN_MIN 0.0 0.0 0.0
DOMAIN_MAX 1.0 1.0 1.0
0.029000 0.040000 0.030000
0.054938 0.042067 0.032067
0.080870 0.044128 0.034128
0.106821 0.046208 0.036208
0.132796 0.048312 0.038312
0.158795 0.050440 0.040440
0.184821 0.052595 0.042595
0.210873 0.054776 0.044776
0.236952 0.056984 0.046984
0.263057 0.059218 0.049218
0.289187 0.061478 0.051478
0.315344 0.063763 0.053763
0.341534 0.066073 0.056070
0.367866 0.068381 0.058348
0.394390 0.070676 0.060578
0.421127 0.072951 0.062753
0.448093 0.075201 0.064870
0.475307 0.077420 0.066926
0.502783 0.079604 0.068914
0.530536 0.081746 0.070833
0.558579 0.083843 0.072679
0.586924 0.085891 0.074450
0.615582 0.087886 0.076142
0.644562 0.089824 0.077753
0.673872 0.091702 0.079282
0.703520 0.093517 0.080726
0.733511 0.095267 0.082085
0.763850 0.096950 0.083358
0.794540 0.098563 0.084544
0.825583 0.100106 0.085643
0.856980 0.101576 0.086655
0.888731 0.102974 0.087581
0.035971 0.063100 0.036971
0.059051 0.066181 0.039084
0.085061 0.069286 0.041222
0.111096 0.071451 0.043386
0.137158 0.073642 0.045577
0.163246 0.075859 0.047794
0.189360 0.078102 0.050038
0.215500 0.080371 0.052307
0.241666 0.082666 0.054602
0.267883 0.084981 0.056905
0.294238 0.087299 0.059166
0.320757 0.089612 0.061376
0.347459 0.091913 0.063531
0.374365 0.094196 0.065626
0.401491 0.096457 0.067657
0.428854 0.098689 0.069621
0.456470 0.100887 0.071514
0.484352 0.103047 0.073333
0.512513 0.105164 0.075075
0.540965 0.107234 0.076738
0.569718 0.109254 0.078319
0.598781 0.111219 0.079817
0.628163 0.113127 0.081231
0.657869 0.114975 0.082559
0.687905 0.116761 0.083800
0.718276 0.118481 0.084955
0.748983 0.120136 0.086022
0.780030 0.121722 0.087002
0.811416 0.123240 0.087896
0.843141 0.124687 0.088705
0.875202 0.126065 0.089429
0.907597 0.127372 0.090070
0.043181 0.086439 0.044181
0.063446 0.089607 0.046381
0.089543 0.092802 0.048608
0.115667 0.096022 0.050861
0.141817 0.099268 0.053139
0.167992 0.101573 0.055443
0.194233 0.103896 0.057734
0.220586 0.106230 0.059977
0.247076 0.108567 0.062167
0.273722 0.110901 0.064301
0.300545 0.113224 0.066373
0.327563 0.115532 0.068380
0.354793 0.117819 0.070319
0.382253 0.120079 0.072185
0.409955 0.122307 0.073976
0.437915 0.124498 0.075690
0.466144 0.126649 0.077323
0.494655 0.128754 0.078874
0.523456 0.130811 0.080342
0.552556 0.132816 0.081724
0.581964 0.134766 0.083021
0.611685 0.136658 0.084231
0.641724 0.138489 0.085353
0.672085 0.140259 0.086389
0.702771 0.141964 0.087338
0.733782 0.143604 0.088200
0.765120 0.145178 0.088978
0.796783 0.146684 0.089672
0.828769 0.148123 0.090283
0.861074 0.149494 0.090815
0.893693 0.150798 0.091268
0.926621 0.152035 0.091646
0.050687 0.110075 0.051687
0.071040 0.113330 0.053975
0.094323 0.116611 0.056282
0.120568 0.119918 0.058556
0.146897 0.123242 0.060781
0.173335 0.126578 0.062951
0.199903 0.129918 0.065063
0.226622 0.132288 0.067112
0.253512 0.134650 0.069094
0.280590 0.136997 0.071007
0.307874 0.139323 0.072846
0.335380 0.141625 0.074609
0.363121 0.143895 0.076294
0.391111 0.146131 0.077897
0.419363 0.148327 0.079418
0.447887 0.150480 0.080855
0.476693 0.152586 0.082206
0.505789 0.154641 0.083471
0.535182 0.156643 0.084649
0.564878 0.158589 0.085740
0.594882 0.160477 0.086744
0.625197 0.162304 0.087662
0.655825 0.164069 0.088493
0.686768 0.165771 0.089240
0.718025 0.167408 0.089904
0.749595 0.168981 0.090486
0.781475 0.170488 0.090989
0.813661 0.171930 0.091414
0.846148 0.173306 0.091766
0.878929 0.174618 0.092047
0.911998 0.175867 0.092260
0.945344 0.177054 0.092409
0.058488 0.134018 0.059372
0.078964 0.137372 0.061577
0.099521 0.140746 0.063727
0.125990 0.144131 0.065816
0.152585 0.147521 0.067841
0.179326 0.150910 0.069799
0.206234 0.154290 0.071685
0.233324 0.157657 0.073497
0.260615 0.161004 0.075232
0.288121 0.163359 0.076887
0.315857 0.165684 0.078461
0.343836 0.167975 0.079951
0.372068 0.170228 0.081357
0.400566 0.172439 0.082677
0.429337 0.174603 0.083910
0.458390 0.176719 0.085057
0.487732 0.178782 0.086116
0.517369 0.180791 0.087088
0.547304 0.182743 0.087974
0.577540 0.184636 0.088775
0.608080 0.186468 0.089491
0.638924 0.188238 0.090125
0.670072 0.189946 0.090678
0.701521 0.191591 0.091152
0.733269 0.193172 0.091551
0.765311 0.194689 0.091876
0.797642 0.196143 0.092132
0.830255 0.197535 0.092321
0.863142 0.198866 0.092448
0.896294 0.200136 0.092516
0.929701 0.201348 0.092531
0.963350 0.202504 0.092498
0.066487 0.158381 0.066561
0.087131 0.161829 0.068562
0.107899 0.165282 0.070494
0.131713 0.168734 0.072353
0.158593 0.172178 0.074137
0.185652 0.175609 0.075844
0.212907 0.179020 0.077469
0.240373 0.182408 0.079013
0.268063 0.185766 0.080473
0.295991 0.189090 0.081848
0.324167 0.192377 0.083136
0.352602 0.194655 0.084338
0.381304 0.196887 0.085452
0.410281 0.199071 0.086480
0.439540 0.201203 0.087421
0.469086 0.203282 0.088276
0.498922 0.205305 0.089045
0.529052 0.207270 0.089731
0.559476 0.209175 0.090336
0.590195 0.211020 0.090860
0.621209 0.212803 0.091306
0.652515 0.214525 0.091678
0.684109 0.216184 0.091977
0.715987 0.217780 0.092208
0.748143 0.219316 0.092374
0.780569 0.220790 0.092479
0.813259 0.222204 0.092528
0.846201 0.223560 0.092525
0.879386 0.224860 0.092474
0.912800 0.226105 0.092382
0.946432 0.227299 0.092255
0.980266 0.228443 0.092097
0.074438 0.183235 0.073012
0.095283 0.186762 0.074768
0.116287 0.190281 0.076445
0.137469 0.193786 0.078041
0.164650 0.197271 0.079554
0.192038 0.200733 0.080983
0.219647 0.204165 0.082327
0.247490 0.207564 0.083584
0.275576 0.210926 0.084754
0.303917 0.214246 0.085836
0.332519 0.217520 0.086832
0.361391 0.220747 0.087742
0.390539 0.223923 0.088566
0.419967 0.226078 0.089305
0.449679 0.228177 0.089961
0.479678 0.230219 0.090535
0.509964 0.232203 0.091031
0.540537 0.234126 0.091450
0.571397 0.235989 0.091795
0.602540 0.237790 0.092069
0.633962 0.239530 0.092276
0.665660 0.241209 0.092419
0.697625 0.242827 0.092503
0.729852 0.244385 0.092532
0.762331 0.245885 0.092511
0.795053 0.247327 0.092445
0.828005 0.248715 0.092340
0.861177 0.250049 0.092200
0.894553 0.251333 0.092034
0.928120 0.252569 0.091846
0.961862 0.253760 0.091643
0.995760 0.254910 0.091434
0.082122 0.208625 0.078602
0.103197 0.212214 0.080084
0.124463 0.215782 0.081482
0.145934 0.219326 0.082794
0.170528 0.222841 0.084020
0.198255 0.226322 0.085158
0.226222 0.229764 0.086209
0.254440 0.233165 0.087173
0.282917 0.236521 0.088052
0.311659 0.239829 0.088844
0.340672 0.243086 0.089553
0.369960 0.246289 0.090179
0.399527 0.249437 0.090725
0.429374 0.252528 0.091192
0.459503 0.255560 0.091584
0.489913 0.257564 0.091903
0.520602 0.259509 0.092152
0.551568 0.261392 0.092335
0.582806 0.263215 0.092457
0.614310 0.264977 0.092520
0.646075 0.266678 0.092530
0.678092 0.268321 0.092492
0.710353 0.269906 0.092411
0.742847 0.271434 0.092293
0.775562 0.272908 0.092143
0.808486 0.274329 0.091967
0.841604 0.275701 0.091773
0.874903 0.277027 0.091567
0.908364 0.278309 0.091357
0.941971 0.279551 0.091150
0.975705 0.280757 0.090953
1.000000 0.283355 0.095081
0.089361 0.234575 0.083250
0.110693 0.238209 0.084444
0.132243 0.241812 0.085551
0.154022 0.245380 0.086570
0.176040 0.248910 0.087503
0.204112 0.252397 0.088350
0.232441 0.255839 0.089112
0.261031 0.259232 0.089791
0.289890 0.262573 0.090387
0.319020 0.265860 0.090904
0.348424 0.269092 0.091343
0.378105 0.272266 0.091708
0.408063 0.275381 0.092001
0.438296 0.278437 0.092226
0.468804 0.281432 0.092386
0.499581 0.284366 0.092486
0.530625 0.287239 0.092530
0.561929 0.289083 0.092522
0.593486 0.290868 0.092467
0.625289 0.292594 0.092372
0.657327 0.294262 0.092241
0.689590 0.295874 0.092081
0.722066 0.297432 0.091898
0.754742 0.298938 0.091699
0.787604 0.300395 0.091491
0.820636 0.301806 0.091281
0.853821 0.303175 0.091076
0.887142 0.304504 0.090886
0.920579 0.305798 0.090718
0.954112 0.307061 0.090581
0.987718 0.308298 0.090484
1.000000 0.312589 0.101036
0.096020 0.261095 0.086920
0.117636 0.264756 0.087821
0.139490 0.268377 0.088637
0.161591 0.271954 0.089369
0.183946 0.275485 0.090017
0.209466 0.278965 0.090584
0.238154 0.282394 0.091073
0.267112 0.285767 0.091485
0.296342 0.289084 0.091823
0.325845 0.292343 0.092091
0.355621 0.295542 0.092292
0.385669 0.298681 0.092430
0.415986 0.301758 0.092508
0.446570 0.304774 0.092533
0.477414 0.307729 0.092507
0.508514 0.310623 0.092437
0.539861 0.313456 0.092328
0.571448 0.316230 0.092186
0.603263 0.318947 0.092017
0.635297 0.320639 0.091827
0.667537 0.322277 0.091624
0.699970 0.323864 0.091414
0.732580 0.325402 0.091205
0.765353 0.326893 0.091005
0.798270 0.328342 0.090822
0.831314 0.329753 0.090664
0.864464 0.331128 0.090541
0.897701 0.332473 0.090460
0.931002 0.333792 0.090433
0.964343 0.335090 0.090469
0.997701 0.336374 0.090577
1.000000 0.341933 0.107636
0.102008 0.288176 0.089614
0.123929 0.291846 0.090233
0.146105 0.295467 0.090771
0.168541 0.299038 0.091232
0.191242 0.302554 0.091616
0.214211 0.306014 0.091929
0.243257 0.309417 0.092172
0.272575 0.312760 0.092349
0.302163 0.316042 0.092465
0.332021 0.319263 0.092523
0.362146 0.322421 0.092529
0.392533 0.325518 0.092487
0.423178 0.328552 0.092402
0.454073 0.331524 0.092280
0.485212 0.334435 0.092127
0.516586 0.337286 0.091950
0.548184 0.340079 0.091755
0.579994 0.342815 0.091548
0.612005 0.345496 0.091338
0.644202 0.348125 0.091131
0.676571 0.350705 0.090936
0.709095 0.352271 0.090761
0.741756 0.353794 0.090615
0.774536 0.355278 0.090506
0.807415 0.356727 0.090444
0.840372 0.358145 0.090438
0.873384 0.359538 0.090499
0.906428 0.360910 0.090637
0.939479 0.362267 0.090862
0.972510 0.363615 0.091185
1.000000 0.365663 0.094967
1.000000 0.371360 0.114951
0.107274 0.315793 0.091380
0.129522 0.319453 0.091738
0.152035 0.323057 0.092025
0.174816 0.326604 0.092244
0.197868 0.330091 0.092398
0.221190 0.333516 0.092492
0.247686 0.336880 0.092531
0.277354 0.340180 0.092519
0.307286 0.343417 0.092460
0.337479 0.346590 0.092361
0.367928 0.349699 0.092228
0.398624 0.352746 0.092065
0.429561 0.355730 0.091881
0.460729 0.358653 0.091680
0.492117 0.361516 0.091471
0.523714 0.364322 0.091261
0.555507 0.367072 0.091058
0.587482 0.369769 0.090870
0.619622 0.372416 0.090704
0.651912 0.375016 0.090570
0.684334 0.377573 0.090477
0.716869 0.380089 0.090435
0.749495 0.382571 0.090452
0.782193 0.384053 0.090540
0.814938 0.385509 0.090708
0.847707 0.386945 0.090968
0.880475 0.388365 0.091329
0.913215 0.389775 0.091805
0.945900 0.391182 0.092406
0.978500 0.392592 0.093144
1.000000 0.395336 0.101343
1.000000 0.400839 0.123060
0.111811 0.343903 0.092307
0.134403 0.347534 0.092439
0.157267 0.351103 0.092513
0.180402 0.354609 0.092532
0.203808 0.358050 0.092502
0.227482 0.361426 0.092429
0.251421 0.364737 0.092316
0.281427 0.367982 0.092172
0.311686 0.371162 0.092000
0.342192 0.374277 0.091809
0.372937 0.377328 0.091605
0.403911 0.380316 0.091395
0.435103 0.383244 0.091186
0.466501 0.386112 0.090987
0.498091 0.388923 0.090806
0.529859 0.391680 0.090651
0.561790 0.394386 0.090531
0.593866 0.397043 0.090456
0.626069 0.399655 0.090434
0.658379 0.402227 0.090476
0.690776 0.404762 0.090591
0.723239 0.407266 0.090791
0.755743 0.409742 0.091087
0.788264 0.412197 0.091489
0.820778 0.414635 0.092008
0.853256 0.416095 0.092658
0.885672 0.417552 0.093449
0.917995 0.419010 0.094396
0.950196 0.420479 0.095509
0.982242 0.421964 0.096803
1.000000 0.425054 0.108504
1.000000 0.430330 0.132000
0.115654 0.372449 0.092527
0.138608 0.376030 0.092480
0.161833 0.379545 0.092392
0.185328 0.382992 0.092267
0.209089 0.386371 0.092112
0.233111 0.389682 0.091933
0.257387 0.392926 0.091736
0.284813 0.396103 0.091529
0.315381 0.399213 0.091318
0.346176 0.402260 0.091112
0.377189 0.405243 0.090919
0.408405 0.408165 0.090746
0.439813 0.411028 0.090603
0.471396 0.413835 0.090498
0.503138 0.416589 0.090441
0.535023 0.419293 0.090441
0.567032 0.421951 0.090509
0.599145 0.424566 0.090654
0.631340 0.427144 0.090887
0.663596 0.429688 0.091220
0.695889 0.432204 0.091664
0.728195 0.434697 0.092229
0.760486 0.437173 0.092929
0.792737 0.439637 0.093775
0.824919 0.442096 0.094781
0.857002 0.444557 0.095959
0.888955 0.447026 0.097322
0.920794 0.448536 0.098826
0.952622 0.450041 0.100331
0.984443 0.451540 0.101830
1.000000 0.454707 0.116131
1.000000 0.459703 0.141368
0.118881 0.401353 0.092214
0.142210 0.404865 0.092049
0.165806 0.408305 0.091863
0.189665 0.411676 0.091661
0.213781 0.414975 0.091452
0.238144 0.418206 0.091242
0.262746 0.421368 0.091040
0.287577 0.424462 0.090853
0.318431 0.427492 0.090690
0.349489 0.430457 0.090560
0.380737 0.433362 0.090471
0.412160 0.436209 0.090434
0.443742 0.439000 0.090457
0.475464 0.441739 0.090552
0.507307 0.444430 0.090728
0.539252 0.447076 0.090996
0.571278 0.449683 0.091368
0.603360 0.452255 0.091855
0.635476 0.454797 0.092468
0.667601 0.457314 0.093220
0.699708 0.459811 0.094122
0.731769 0.462296 0.095189
0.763756 0.464775 0.096433
0.795640 0.467253 0.097866
0.827471 0.469730 0.099375
0.859297 0.472200 0.100878
0.891116 0.474665 0.102374
0.922928 0.477122 0.103864
0.954733 0.479572 0.105346
0.986529 0.481046 0.106822
1.000000 0.484231 0.123994
1.000000 0.488955 0.151122
0.121612 0.430525 0.091586
0.145328 0.433945 0.091375
0.169303 0.437292 0.091167
0.193528 0.440566 0.090970
0.217994 0.443769 0.090791
0.242690 0.446902 0.090638
0.267605 0.449967 0.090522
0.292725 0.452965 0.090451
0.320939 0.455899 0.090435
0.352232 0.458773 0.090483
0.383682 0.461588 0.090606
0.415273 0.464350 0.090815
0.446985 0.467060 0.091119
0.478797 0.469724 0.091531
0.510688 0.472346 0.092063
0.542634 0.474930 0.092725
0.574612 0.477482 0.093530
0.606595 0.480007 0.094491
0.638558 0.482511 0.095621
0.670472 0.485000 0.096932
0.702319 0.487480 0.098416
0.734148 0.489955 0.099923
0.765972 0.492423 0.101423
0.797788 0.494885 0.102917
0.829598 0.497340 0.104404
0.861400 0.499787 0.105883
0.893190 0.502229 0.107365
0.924955 0.504681 0.108886
0.956683 0.507144 0.110449
0.988366 0.509620 0.112056
1.000000 0.513746 0.132311
1.000000 0.518185 0.161472
0.124011 0.459854 0.090902
0.148124 0.463161 0.090732
0.172481 0.466394 0.090591
0.197072 0.469553 0.090491
0.221884 0.472641 0.090438
0.246903 0.475659 0.090444
0.272115 0.478610 0.090519
0.297504 0.481497 0.090672
0.323052 0.484323 0.090914
0.354548 0.487092 0.091256
0.386165 0.489807 0.091710
0.417883 0.492473 0.092288
0.449680 0.495094 0.093001
0.481531 0.497674 0.093861
0.513413 0.500220 0.094882
0.545299 0.502736 0.096076
0.577164 0.505229 0.097458
0.608997 0.507707 0.098965
0.640825 0.510179 0.100470
0.672645 0.512645 0.101968
0.704459 0.515105 0.103459
0.736266 0.517556 0.104944
0.768065 0.520001 0.106420
0.799855 0.522443 0.107914
0.831627 0.524893 0.109450
0.863374 0.527351 0.111029
0.895084 0.529818 0.112652
0.926750 0.532297 0.114318
0.958362 0.534787 0.116027
0.989914 0.537291 0.117780
1.000000 0.541383 0.141194
1.000000 0.546476 0.172499
0.126284 0.489214 0.090466
0.150801 0.492387 0.090433
0.175544 0.495484 0.090463
0.200497 0.498508 0.090565
0.225647 0.501462 0.090749
0.250977 0.504347 0.091026
0.276468 0.507169 0.091408
0.302103 0.509929 0.091906
0.327861 0.512633 0.092531
0.356625 0.515284 0.093296
0.388371 0.517887 0.094214
0.420173 0.520446 0.095296
0.452006 0.522967 0.096557
0.483844 0.525457 0.098005
0.515675 0.527933 0.099514
0.547500 0.530403 0.101016
0.579318 0.532867 0.102512
0.611130 0.535323 0.104001
0.642934 0.537772 0.105482
0.674731 0.540214 0.106959
0.706527 0.542656 0.108468
0.738316 0.545101 0.110020
0.770088 0.547550 0.111615
0.801834 0.550007 0.113254
0.833543 0.552471 0.114935
0.865208 0.554945 0.116661
0.896821 0.557428 0.118429
0.928373 0.559924 0.120240
0.959857 0.562432 0.122094
0.991266 0.564953 0.123990
1.000000 0.568938 0.150706
1.000000 0.573781 0.184268
0.128679 0.518464 0.090622
0.153606 0.521479 0.090838
0.178734 0.524419 0.091153
0.204046 0.527287 0.091575
0.229524 0.530087 0.092118
0.255149 0.532823 0.092793
0.280901 0.535497 0.093612
0.306757 0.538115 0.094588
0.332695 0.540682 0.095734
0.358691 0.543201 0.097063
0.390523 0.545684 0.098555
0.422352 0.548158 0.100061
0.454174 0.550626 0.101561
0.485990 0.553087 0.103055
0.517799 0.555541 0.104541
0.549600 0.557987 0.106019
0.581400 0.560427 0.107503
0.613212 0.562864 0.109028
0.645026 0.565302 0.110596
0.676832 0.567741 0.112207
0.708620 0.570184 0.113861
0.740380 0.572632 0.115558
0.772105 0.575086 0.117299
0.803785 0.577548 0.119083
0.835411 0.580018 0.120910
0.866978 0.582498 0.122779
0.898477 0.584989 0.124690
0.929901 0.587492 0.126643
0.961244 0.590007 0.128635
0.992500 0.592534 0.130667
1.000000 0.596347 0.160908
1.000000 0.600905 0.196846
0.131487 0.547444 0.091758
0.156828 0.550278 0.092348
0.182340 0.553038 0.093074
0.208004 0.555730 0.093948
0.233798 0.558357 0.094985
0.259702 0.560923 0.096196
0.285691 0.563433 0.097595
0.311717 0.565911 0.099104
0.337737 0.568382 0.100608
0.363751 0.570848 0.102106
0.392661 0.573306 0.103597
0.424467 0.575758 0.105080
0.456266 0.578201 0.106556
0.488079 0.580637 0.108053
0.519914 0.583068 0.109594
0.551760 0.585496 0.111177
0.583608 0.587922 0.112804
0.615446 0.590349 0.114474
0.647265 0.592778 0.116187
0.679056 0.595211 0.117944
0.710810 0.597648 0.119743
0.742518 0.600091 0.121586
0.774173 0.602542 0.123470
0.805767 0.605001 0.125396
0.837293 0.607469 0.127363
0.868744 0.609947 0.129370
0.900114 0.612436 0.131417
0.931398 0.614936 0.133501
0.962588 0.617448 0.135622
0.993682 0.619973 0.137780
1.000000 0.623548 0.171860
1.000000 0.627785 0.210297
0.135043 0.575978 0.094306
0.160799 0.578606 0.095405
0.186691 0.581165 0.096683
0.212693 0.583661 0.098145
0.238717 0.586136 0.099652
0.264735 0.588606 0.101154
0.290746 0.591069 0.102649
0.316750 0.593525 0.104138
0.342747 0.595973 0.105618
0.368742 0.598413 0.107096
0.394771 0.600843 0.108609
0.426638 0.603265 0.110165
0.458525 0.605681 0.111764
0.490422 0.608092 0.113407
0.522317 0.610501 0.115093
0.554202 0.612908 0.116822
0.586066 0.615317 0.118594
0.617900 0.617728 0.120409
0.649696 0.620142 0.122267
0.681446 0.622561 0.124167
0.713141 0.624986 0.126108
0.744774 0.627418 0.128089
0.776338 0.629858 0.130111
0.807827 0.632306 0.132171
0.839234 0.634764 0.134269
0.870554 0.637232 0.136404
0.901781 0.639710 0.138573
0.932911 0.642199 0.140777
0.963939 0.644699 0.143013
0.994861 0.647210 0.145280
1.000000 0.650480 0.183616
1.000000 0.654364 0.224685
0.139694 0.603888 0.098694
0.165716 0.606361 0.100200
0.191732 0.608828 0.101699
0.217740 0.611289 0.103192
0.243742 0.613742 0.104677
0.269736 0.616188 0.106155
0.295744 0.618623 0.107642
0.321804 0.621044 0.109171
0.347904 0.623454 0.110742
0.374033 0.625855 0.112357
0.400180 0.628249 0.114016
0.429237 0.630637 0.115717
0.461194 0.633021 0.117462
0.493138 0.635404 0.119250
0.525059 0.637786 0.121081
0.556949 0.640169 0.122954
0.588798 0.642555 0.124869
0.620600 0.644944 0.126825
0.652345 0.647338 0.128821
0.684028 0.649738 0.130857
0.715640 0.652145 0.132931
0.747175 0.654559 0.135042
0.778628 0.656981 0.137190
0.809993 0.659412 0.139372
0.841265 0.661852 0.141587
0.872438 0.664301 0.143835
0.903510 0.666760 0.146112
0.934475 0.669229 0.148418
0.965330 0.671708 0.150750
0.996073 0.674196 0.153106
1.000000 0.677088 0.196229
1.000000 0.680583 0.240074
0.144734 0.631508 0.103734
0.170732 0.633958 0.105216
0.196725 0.636401 0.106692
0.222762 0.638828 0.108194
0.248861 0.641238 0.109738
0.275009 0.643634 0.111325
0.301193 0.646018 0.112956
0.327404 0.648391 0.114630
0.353629 0.650756 0.116347
0.379859 0.653116 0.118108
0.406082 0.655470 0.119912
0.432290 0.657822 0.121758
0.464280 0.660172 0.123646
0.496235 0.662522 0.125576
0.528148 0.664874 0.127547
0.560011 0.667229 0.129557
0.591816 0.669587 0.131607
0.623556 0.671951 0.133695
0.655225 0.674319 0.135820
0.686815 0.676695 0.137980
0.718321 0.679077 0.140175
0.749738 0.681466 0.142402
0.781060 0.683864 0.144661
0.812283 0.686270 0.146949
0.843403 0.688685 0.149264
0.874416 0.691108 0.151605
0.905319 0.693539 0.153970
0.936109 0.695979 0.156356
0.966783 0.698427 0.158761
0.997339 0.700883 0.161183
1.000000 0.703316 0.209749
1.000000 0.706389 0.256525
0.149800 0.659028 0.108751
0.175945 0.661424 0.110311
0.202148 0.663803 0.111914
0.228396 0.666167 0.113560
0.254678 0.668518 0.115250
0.280981 0.670859 0.116983
0.307297 0.673190 0.118760
0.333613 0.675515 0.120579
0.359919 0.677834 0.122440
0.386208 0.680149 0.124344
0.412468 0.682463 0.126289
0.438692 0.684776 0.128274
0.467774 0.687089 0.130299
0.499706 0.689404 0.132363
0.531579 0.691723 0.134464
0.563384 0.694045 0.136602
0.595115 0.696372 0.138775
0.626766 0.698704 0.140982
0.658331 0.701043 0.143221
0.689805 0.703387 0.145490
0.721183 0.705740 0.147788
0.752461 0.708099 0.150113
0.783634 0.710466 0.152463
0.814698 0.712840 0.154836
0.845652 0.715222 0.157230
0.876491 0.717611 0.159641
0.907214 0.720007 0.162069
0.937818 0.722410 0.164509
0.968302 0.724819 0.166961
0.998666 0.727233 0.169420
1.000000 0.729113 0.224218
1.000000 0.731729 0.274103
0.155646 0.686303 0.114171
0.182005 0.688629 0.115876
0.208394 0.690942 0.117625
0.234801 0.693244 0.119417
0.261216 0.695536 0.121252
0.287628 0.697821 0.123129
0.314027 0.700100 0.125047
0.340404 0.702375 0.127007
0.366750 0.704647 0.129007
0.393056 0.706918 0.131046
0.419314 0.709188 0.133124
0.445516 0.711461 0.135239
0.471655 0.713735 0.137389
0.503531 0.716012 0.139575
0.535330 0.718293 0.141793
0.567047 0.720579 0.144044
0.598676 0.722871 0.146324
0.630211 0.725168 0.148632
0.661648 0.727471 0.150966
0.692983 0.729781 0.153325
0.724211 0.732098 0.155705
0.755330 0.734421 0.158106
0.786336 0.736750 0.160523
0.817226 0.739087 0.162956
0.847998 0.741429 0.165401
0.878651 0.743777 0.167855
0.909183 0.746130 0.170317
0.939593 0.748488 0.172782
0.969880 0.750849 0.175248
1.000000 0.753211 0.177809
1.000000 0.754430 0.239678
1.000000 0.756555 0.292874
0.162377 0.713276 0.120080
0.188896 0.715534 0.121930
0.215419 0.717783 0.123822
0.241934 0.720023 0.125756
0.268433 0.722258 0.127730
0.294906 0.724488 0.129745
0.321343 0.726714 0.131798
0.347737 0.728939 0.133889
0.374080 0.731163 0.136017
0.400364 0.733388 0.138181
0.426581 0.735615 0.140379
0.452726 0.737844 0.142609
0.478790 0.740076 0.144870
0.507673 0.742313 0.147161
0.539368 0.744555 0.149479
0.570967 0.746801 0.151822
0.602466 0.749054 0.154189
0.633859 0.751312 0.156577
0.665144 0.753576 0.158984
0.696318 0.755845 0.161407
0.727376 0.758121 0.163845
0.758317 0.760403 0.166294
0.789138 0.762689 0.168751
0.819838 0.764981 0.171214
0.850416 0.767277 0.173680
0.880870 0.769577 0.176145
0.911201 0.771880 0.178608
0.941409 0.774185 0.181063
0.971493 0.776490 0.183508
1.000000 0.778678 0.189381
1.000000 0.779220 0.256164
1.000000 0.780819 0.312909
0.169932 0.739918 0.126470
0.196557 0.742111 0.128459
0.223162 0.744296 0.130488
0.249736 0.746477 0.132555
0.276270 0.748655 0.134660
0.302758 0.750830 0.136801
0.329189 0.753004 0.138977
0.355558 0.755179 0.141187
0.381857 0.757355 0.143429
0.408079 0.759533 0.145701
0.434218 0.761715 0.148002
0.460269 0.763900 0.150329
0.486225 0.766089 0.152681
0.512083 0.768283 0.155056
0.543643 0.770482 0.157451
0.575096 0.772686 0.159864
0.606437 0.774896 0.162293
0.637664 0.777111 0.164735
0.668774 0.779331 0.167187
0.699764 0.781556 0.169647
0.730632 0.783787 0.172112
0.761377 0.786021 0.174578
0.791998 0.788259 0.177042
0.822494 0.790501 0.179502
0.852865 0.792744 0.181954
0.883110 0.794989 0.184395
0.913231 0.797234 0.186820
0.943229 0.799479 0.189227
0.973104 0.801721 0.191611
1.000000 0.803645 0.201456
1.000000 0.803442 0.273708
1.000000 0.804475 0.334292
0.178235 0.766206 0.133317
0.204915 0.768335 0.135435
0.231550 0.770460 0.137589
0.258133 0.772583 0.139778
0.284657 0.774705 0.142000
0.311113 0.776827 0.144253
0.337495 0.778950 0.146535
0.363796 0.781075 0.148846
0.390011 0.783202 0.151183
0.416133 0.785333 0.153543
0.442157 0.787468 0.155926
0.468079 0.789608 0.158328
0.493894 0.791752 0.160747
0.519598 0.793901 0.163181
0.548091 0.796055 0.165627
0.579370 0.798214 0.168082
0.610528 0.800378 0.170544
0.641565 0.802547 0.173009
0.672476 0.804720 0.175475
