omv/luts/18_sierra_madre_gilded.cube
# Original OMV LUT; redistribution permitted with OMV.
TITLE "Sierra Madre Gilded"
LUT_3D_SIZE 8
DOMAIN_MIN 0.000000 0.000000 0.000000
DOMAIN_MAX 0.903226 0.903226 0.903226
0.029000 0.040000 0.030000
0.132796 0.048312 0.038312
0.236952 0.056984 0.046984
0.341534 0.066073 0.056070
0.448093 0.075201 0.064870
0.558579 0.083843 0.072679
0.673872 0.091702 0.079282
0.794540 0.098563 0.084544
0.058488 0.134018 0.059372
0.152585 0.147521 0.067841
0.260615 0.161004 0.075232
0.372068 0.170228 0.081357
0.487732 0.178782 0.086116
0.608080 0.186468 0.089491
0.733269 0.193172 0.091551
0.863142 0.198866 0.092448
0.089361 0.234575 0.083250
0.176040 0.248910 0.087503
0.289890 0.262573 0.090387
0.408063 0.275381 0.092001
0.530625 0.287239 0.092530
0.657327 0.294262 0.092241
0.787604 0.300395 0.091491
0.920579 0.305798 0.090718
0.111811 0.343903 0.092307
0.203808 0.358050 0.092502
0.311686 0.371162 0.092000
0.435103 0.383244 0.091186
0.561790 0.394386 0.090531
0.690776 0.404762 0.090591
0.820778 0.414635 0.092008
0.950196 0.420479 0.095509
0.124011 0.459854 0.090902
0.221884 0.472641 0.090438
0.323052 0.484323 0.090914
0.449680 0.495094 0.093001
0.577164 0.505229 0.097458
0.704459 0.515105 0.103459
0.831627 0.524893 0.109450
0.958362 0.534787 0.116027
0.135043 0.575978 0.094306
0.238717 0.586136 0.099652
0.342747 0.595973 0.105618
0.458525 0.605681 0.111764
0.586066 0.615317 0.118594
0.713141 0.624986 0.126108
0.839234 0.634764 0.134269
0.963939 0.644699 0.143013
0.155646 0.686303 0.114171
0.261216 0.695536 0.121252
0.366750 0.704647 0.129007
0.471655 0.713735 0.137389
0.598676 0.722871 0.146324
0.724211 0.732098 0.155705
0.847998 0.741429 0.165401
0.969880 0.750849 0.175248
0.187198 0.792123 0.140583
0.293506 0.800393 0.149694
0.398459 0.808690 0.159207
0.501718 0.817052 0.168978
0.614663 0.825489 0.178834
0.737172 0.833979 0.188575
0.857618 0.842474 0.197968
0.976097 0.850896 0.206755
0.031804 0.042804 0.099901
0.124081 0.051210 0.110887
0.228380 0.060025 0.122283
0.333288 0.069205 0.131475
0.440850 0.078207 0.140594
0.552474 0.086613 0.149225
0.668968 0.094152 0.157081
0.790826 0.100641 0.163958
0.061708 0.141136 0.132249
0.144548 0.154679 0.143809
0.253157 0.164196 0.152187
0.365340 0.173220 0.159706
0.481810 0.181497 0.166193
0.602968 0.188858 0.171559
0.728898 0.195218 0.175803
0.859370 0.200577 0.179006
0.092126 0.242060 0.162193
0.179301 0.256193 0.168278
0.282124 0.269581 0.173232
0.400903 0.282074 0.177083
0.524017 0.289730 0.179943
0.651143 0.296438 0.182012
0.781645 0.302301 0.183572
0.914573 0.307507 0.184994
0.113443 0.351377 0.178230
0.206017 0.365177 0.180775
0.302820 0.377934 0.182621
0.426662 0.389682 0.184084
0.553590 0.400540 0.185563
0.682559 0.410713 0.187543
0.812213 0.416617 0.190596
0.940881 0.422501 0.195377
0.124931 0.466885 0.184597
0.223406 0.479280 0.186197
0.325007 0.490627 0.188498
0.440211 0.501147 0.192099
0.567602 0.511150 0.197570
0.694861 0.520990 0.203538
0.821971 0.530790 0.209581
0.948543 0.540749 0.216072
0.136775 0.582088 0.193865
0.240755 0.592046 0.199755
0.344765 0.601842 0.205693
0.449112 0.611512 0.211889
0.576695 0.621149 0.218555
0.703688 0.630848 0.225707
0.829601 0.640676 0.233334
0.954054 0.650669 0.241397
0.158261 0.692016 0.214260
0.264051 0.701195 0.221102
0.369652 0.710288 0.228430
0.474497 0.719386 0.236222
0.589740 0.728549 0.244427
0.715034 0.737811 0.252965
0.838527 0.747176 0.261728
0.960089 0.756618 0.270578
0.190980 0.797488 0.239165
0.297187 0.805761 0.247502
0.401932 0.814078 0.256136
0.504900 0.822466 0.264948
0.605884 0.830925 0.273790
0.728013 0.839424 0.282484
0.848072 0.847904 0.290826
0.966184 0.856277 0.298579
0.034617 0.045617 0.169811
0.115414 0.054156 0.180930
0.219856 0.063114 0.192468
0.325315 0.072309 0.204487
0.433862 0.081144 0.216894
0.546594 0.089281 0.226678
0.664245 0.096480 0.236061
0.787236 0.102586 0.244767
0.064945 0.148284 0.202882
0.148157 0.157947 0.215321
0.245736 0.167330 0.227576
0.358638 0.176125 0.239320
0.475891 0.184106 0.247729
0.597822 0.191132 0.255222
0.724444 0.197147 0.261728
0.855453 0.202182 0.267255
0.094789 0.249486 0.237318
0.182470 0.263389 0.247988
0.274265 0.276486 0.257706
0.393634 0.284783 0.263850
0.517271 0.292111 0.269041
0.644779 0.298517 0.273408
0.775451 0.304131 0.277162
0.908262 0.309171 0.280601
0.114966 0.358735 0.263265
0.208122 0.372183 0.270717
0.305454 0.384589 0.274831
0.418088 0.396018 0.278432
0.545222 0.406615 0.281848
0.674127 0.412745 0.285494
0.803372 0.418597 0.289869
0.931325 0.424551 0.295487
0.125845 0.473778 0.279677
0.224922 0.485799 0.283124
0.326942 0.496835 0.286973
0.430696 0.507139 0.291755
0.558028 0.517061 0.297673
0.685250 0.526864 0.303607
0.812299 0.536706 0.309622
0.938698 0.542866 0.315882
0.138716 0.588071 0.293846
0.242781 0.597943 0.299846
0.346869 0.607693 0.305773
0.451380 0.617339 0.311869
0.567370 0.626988 0.318233
0.694264 0.636725 0.324907
0.819985 0.646606 0.331903
0.944177 0.656660 0.339207
0.161016 0.697706 0.314152
0.266994 0.706844 0.320626
0.372633 0.715930 0.327417
0.477393 0.725044 0.334528
0.580840 0.734239 0.341934
0.705877 0.743537 0.349579
0.829066 0.752932 0.357379
0.950301 0.762390 0.365222
0.194846 0.802852 0.337193
0.300921 0.811135 0.344693
0.405431 0.819474 0.352406
0.508085 0.827888 0.360237
0.608703 0.836365 0.368061
0.718826 0.844866 0.375728
0.838492 0.853321 0.383055
0.956232 0.861633 0.389832
0.037471 0.048471 0.239761
0.118409 0.057151 0.251022
0.211386 0.066247 0.262707
0.317585 0.075369 0.275321
0.427100 0.083999 0.288793
0.540908 0.091841 0.302610
0.659672 0.098682 0.316341
0.783739 0.104395 0.327060
0.068180 0.151574 0.274054
0.151782 0.161182 0.287707
0.238333 0.170396 0.301538
0.351944 0.178935 0.315148
0.469956 0.186603 0.328221
0.592624 0.193288 0.340527
0.719887 0.198963 0.349340
0.851370 0.203687 0.357181
0.097345 0.256843 0.313883
0.185542 0.270491 0.326698
0.277919 0.279412 0.338684
0.386249 0.287380 0.349727
0.510379 0.294385 0.359796
0.638227 0.300503 0.366369
0.769012 0.305894 0.372168
0.901639 0.310803 0.377419
0.116384 0.365975 0.347403
0.210127 0.379068 0.357129
0.307981 0.391131 0.365979
0.409384 0.402256 0.374128
0.536689 0.408750 0.379254
0.665481 0.414745 0.384279
0.794257 0.420590 0.389633
0.921753 0.426591 0.395591
0.126771 0.480539 0.370868
0.226448 0.492203 0.378493
0.328873 0.502958 0.386165
0.432762 0.513085 0.391762
0.548442 0.522959 0.397765
0.675642 0.532747 0.403656
0.802618 0.538773 0.409497
0.928835 0.545012 0.415392
0.140766 0.593991 0.391379
0.244794 0.603826 0.399923
0.349067 0.613531 0.405783
0.453716 0.623167 0.411632
0.558091 0.632838 0.417568
0.684869 0.642619 0.423656
0.810386 0.652557 0.429935
0.934310 0.662670 0.436413
0.163908 0.703378 0.413779
0.270040 0.712487 0.419764
0.375689 0.721575 0.425919
0.480339 0.730712 0.432270
0.583583 0.739941 0.438818
0.696737 0.749274 0.445531
0.819611 0.758696 0.452350
0.940514 0.768161 0.459187
0.198787 0.808217 0.434632
0.304699 0.816515 0.441245
0.408946 0.824879 0.448005
0.511266 0.833317 0.454843
0.611502 0.841808 0.461659
0.709606 0.850303 0.468326
0.828869 0.858722 0.474688
0.946236 0.866958 0.480558
0.040372 0.051372 0.309759
0.121453 0.060195 0.321162
0.203091 0.069378 0.333149
0.310070 0.078372 0.346755
0.420534 0.086763 0.361620
0.535387 0.094284 0.377158
0.655219 0.100752 0.392867
0.780303 0.106068 0.408332
0.071399 0.154860 0.345953
0.155405 0.164371 0.361126
0.242544 0.173383 0.376780
0.345240 0.181645 0.392444
0.463987 0.188987 0.407732
0.587355 0.195327 0.422342
0.715209 0.200669 0.436059
0.847101 0.205098 0.448751
0.099788 0.264121 0.391970
0.188512 0.273623 0.407042
0.281466 0.282227 0.421347
0.378741 0.289865 0.434702
0.503333 0.296556 0.447005
0.631479 0.302405 0.458244
0.762321 0.307600 0.468487
0.894693 0.312417 0.475312
0.117706 0.373096 0.433205
0.212039 0.385833 0.445117
0.310404 0.397563 0.455981
0.412168 0.404535 0.465897
0.527995 0.410826 0.475053
0.656625 0.416727 0.483721
0.784870 0.422615 0.489679
0.912168 0.428619 0.495684
0.127725 0.487172 0.463205
0.228002 0.498501 0.472147
0.330816 0.509008 0.480722
0.434812 0.519006 0.489296
0.538843 0.528843 0.497843
0.666043 0.534774 0.503611
0.792932 0.540865 0.509133
0.918956 0.547189 0.514540
0.142803 0.599900 0.486320
0.246822 0.609694 0.494818
0.351359 0.619362 0.503062
0.456120 0.628999 0.511109
0.560472 0.638701 0.516501
0.675505 0.648531 0.521908
0.800805 0.658528 0.527393
0.924454 0.664829 0.532991
0.166932 0.709036 0.507914
0.273185 0.718128 0.515883
0.378816 0.727226 0.523893
0.483333 0.736392 0.529417
0.586355 0.745656 0.535058
0.687609 0.755022 0.540811
0.810160 0.764465 0.546641
0.930726 0.773930 0.552484
0.202795 0.813586 0.528876
0.308512 0.821904 0.537141
0.412472 0.830293 0.542927
0.514435 0.838753 0.548771
0.614271 0.847253 0.554598
0.711958 0.855732 0.560306
0.819198 0.864102 0.565761
0.936187 0.872247 0.570805
0.043321 0.054321 0.379805
0.124544 0.063286 0.391351
0.206600 0.072480 0.404024
0.302741 0.081304 0.418975
0.414135 0.089426 0.435528
0.530002 0.096606 0.453024
0.650855 0.102689 0.470891
0.776898 0.107606 0.488641
0.074587 0.158127 0.418752
0.159013 0.167502 0.435719
0.246741 0.176283 0.453412
0.338510 0.184247 0.471289
0.457968 0.191254 0.488892
0.581997 0.197251 0.505848
0.710390 0.202268 0.521872
0.842627 0.206423 0.536760
0.102115 0.267441 0.471650
0.191374 0.276651 0.489056
0.284903 0.284930 0.505701
0.382717 0.292240 0.521331
0.496129 0.298629 0.535773
0.624528 0.304231 0.548942
0.755371 0.309262 0.560839
0.887418 0.314028 0.571549
0.118937 0.380095 0.520631
0.213865 0.392482 0.534615
0.312732 0.400022 0.547317
0.414832 0.406735 0.558768
0.519146 0.412857 0.569083
0.647565 0.418707 0.578465
0.775310 0.424665 0.587213
0.902569 0.430634 0.595763
0.128727 0.493684 0.556545
0.229601 0.504704 0.566493
0.332789 0.514997 0.575602
0.436851 0.524915 0.584238
0.540850 0.530846 0.592735
0.656457 0.536820 0.600811
0.783244 0.542984 0.608464
0.909067 0.549397 0.613270
0.144829 0.605797 0.581248
0.248965 0.615544 0.589634
0.353744 0.625190 0.597536
0.458591 0.634839 0.605076
0.562899 0.644578 0.612399
0.666171 0.654463 0.619620
0.791242 0.660649 0.624247
0.914608 0.667006 0.628919
0.170083 0.714684 0.601659
0.276425 0.723770 0.608933
0.382009 0.732885 0.616141
0.486369 0.742082 0.623360
0.589150 0.751382 0.630638
0.690105 0.760779 0.635414
0.800708 0.770237 0.640257
0.920932 0.779692 0.645130
0.206861 0.818960 0.619901
0.312353 0.827301 0.627206
0.415999 0.835716 0.634590
0.517585 0.844194 0.642031
0.617004 0.852695 0.646899
0.714261 0.861148 0.651697
0.809471 0.869457 0.656318
0.926079 0.877492 0.660624
0.046319 0.057319 0.449899
0.127688 0.066421 0.461610
0.210276 0.075537 0.475532
0.295572 0.084155 0.492152
0.407878 0.091979 0.510656
0.524724 0.098800 0.530316
0.646554 0.104491 0.550489
0.773495 0.109011 0.570614
0.077731 0.161360 0.492609
0.162590 0.170564 0.511615
0.250909 0.179088 0.531531
0.343352 0.186738 0.551747
0.451881 0.193404 0.571733
0.576532 0.199061 0.591047
0.705413 0.203768 0.609330
0.837930 0.207671 0.626309
0.104324 0.270667 0.552974
0.194127 0.279570 0.572762
0.288225 0.287520 0.591738
0.386561 0.294508 0.609573
0.488762 0.300611 0.626027
0.617369 0.305990 0.640944
0.748155 0.310893 0.654251
0.879806 0.315653 0.665965
0.120088 0.386973 0.609632
0.215612 0.395146 0.625540
0.314971 0.402385 0.639875
0.417385 0.408866 0.652596
0.521762 0.414855 0.663749
0.638307 0.420701 0.673466
0.765736 0.426704 0.682156
0.892951 0.432641 0.690654
0.129797 0.500082 0.650732
0.231265 0.510823 0.661343
0.334811 0.520940 0.670586
0.438877 0.526941 0.679167
0.542888 0.532859 0.687525
0.646887 0.538889 0.695184
0.773559 0.545132 0.702265
0.899171 0.551639 0.708950
0.146840 0.611679 0.676163
0.251230 0.621382 0.684292
0.356221 0.631018 0.691718
0.461129 0.640690 0.698635
0.565373 0.650473 0.705214
0.668479 0.656544 0.711596
0.781697 0.662789 0.717891
0.904774 0.669199 0.724185
0.173356 0.720327 0.694961
0.279754 0.729415 0.701453
0.385263 0.738554 0.707792
0.489444 0.747785 0.714078
0.591965 0.757120 0.720386
0.692605 0.766543 0.726758
0.791253 0.776009 0.733210
0.911129 0.781571 0.737145
0.210975 0.824341 0.710269
0.316213 0.832707 0.716596
0.419520 0.841146 0.722997
0.520706 0.849638 0.729475
0.619692 0.858131 0.736006
0.716508 0.866548 0.742537
0.811292 0.874780 0.746403
0.915905 0.882689 0.750075
0.049365 0.060365 0.520042
0.130946 0.069551 0.532278
0.214093 0.078536 0.547862
0.300152 0.086913 0.566440
0.401735 0.094416 0.587129
0.519528 0.100863 0.609128
0.642287 0.106157 0.631722
0.770067 0.110285 0.654282
0.080817 0.164546 0.567671
0.166123 0.173546 0.588925
0.255033 0.181792 0.611219
0.348137 0.189116 0.633869
0.445713 0.195437 0.656276
0.570947 0.200760 0.677926
0.700263 0.205174 0.698390
0.832994 0.208852 0.717324
0.106414 0.273794 0.635983
0.196768 0.282379 0.658170
0.291430 0.289999 0.679433
0.390269 0.296673 0.699375
0.492840 0.302508 0.717683
0.609998 0.307693 0.734131
0.740669 0.312506 0.748576
0.871853 0.317309 0.760961
0.121168 0.389861 0.700142
0.217291 0.397702 0.717795
0.317131 0.404659 0.733526
0.419834 0.410940 0.747223
0.524236 0.416837 0.758861
0.628856 0.422728 0.768501
0.756151 0.428731 0.777086
0.883283 0.434683 0.785423
0.130956 0.506375 0.745596
0.233015 0.516868 0.756496
0.336861 0.522990 0.765538
0.440890 0.528954 0.774083
0.544963 0.534887 0.782132
0.648950 0.540982 0.789243
0.763880 0.547310 0.795642
0.889272 0.553914 0.801533
0.148880 0.617546 0.771033
0.253617 0.627212 0.778717
0.358789 0.636850 0.785543
0.463733 0.646553 0.791734
0.567891 0.652516 0.797486
0.670816 0.658645 0.802964
0.772170 0.664949 0.808304
0.894950 0.671406 0.813615
0.176746 0.725968 0.787769
0.283167 0.735067 0.793404
0.388574 0.744234 0.798817
0.492551 0.753500 0.804136
0.594794 0.762868 0.809457
0.695107 0.772312 0.814849
0.793402 0.777906 0.820352
0.901314 0.783436 0.825976
0.215130 0.829730 0.799968
0.320082 0.838121 0.805308
0.423024 0.846582 0.810738
0.523790 0.855082 0.816285
0.622327 0.863560 0.821951
0.718689 0.871927 0.827705
0.813041 0.880066 0.833490
0.905656 0.887829 0.839219
