omv/luts/18_sierra_madre_gilded.cube
# Original OMV LUT; redistribution permitted with OMV.
TITLE "Sierra Madre Gilded"
LUT_3D_SIZE 5
DOMAIN_MIN 0.000000 0.000000 0.000000
DOMAIN_MAX 0.903226 0.903226 0.903226
0.029000 0.040000 0.030000
0.210873 0.054776 0.044776
0.394390 0.070676 0.060578
0.586924 0.085891 0.074450
0.794540 0.098563 0.084544
0.082122 0.208625 0.078602
0.254440 0.233165 0.087173
0.459503 0.255560 0.091584
0.678092 0.268321 0.092492
0.908364 0.278309 0.091357
0.118881 0.401353 0.092214
0.287577 0.424462 0.090853
0.507307 0.444430 0.090728
0.731769 0.462296 0.095189
0.954733 0.479572 0.105346
0.139694 0.603888 0.098694
0.321804 0.621044 0.109171
0.525059 0.637786 0.121081
0.747175 0.654559 0.135042
0.965330 0.671708 0.150750
0.187198 0.792123 0.140583
0.372368 0.806610 0.156798
0.552635 0.821262 0.173907
0.767475 0.836105 0.190965
0.976097 0.850896 0.206755
0.033910 0.044910 0.152330
0.195842 0.060067 0.172003
0.380976 0.076042 0.192942
0.576903 0.090540 0.209523
0.788124 0.102112 0.224429
0.087292 0.221596 0.210702
0.240874 0.245537 0.229200
0.447869 0.260226 0.240213
0.668054 0.271996 0.248251
0.898903 0.281204 0.254106
0.120854 0.414059 0.250568
0.291261 0.436034 0.255982
0.491500 0.455131 0.261585
0.715242 0.472662 0.270049
0.937871 0.483093 0.280480
0.143263 0.614231 0.273876
0.325697 0.631232 0.284347
0.508935 0.647929 0.295623
0.730698 0.664805 0.307979
0.948079 0.682111 0.321342
0.193873 0.801511 0.312740
0.378574 0.816034 0.326398
0.557905 0.830762 0.340527
0.751258 0.845628 0.354413
0.958724 0.860297 0.367070
0.038915 0.049915 0.274754
0.180957 0.065504 0.294860
0.368307 0.081224 0.317919
0.567472 0.094844 0.343412
0.782015 0.105248 0.368787
0.092190 0.234418 0.342097
0.247394 0.250842 0.366950
0.435912 0.264550 0.389481
0.657482 0.275369 0.409019
0.888572 0.283930 0.421175
0.122633 0.426366 0.404713
0.294735 0.447267 0.420530
0.475343 0.465645 0.434947
0.698491 0.476233 0.445233
0.920863 0.486696 0.455473
0.146793 0.624535 0.444503
0.329897 0.641383 0.459095
0.513306 0.658096 0.469039
0.714302 0.675103 0.479281
0.930861 0.692564 0.489979
0.200783 0.810901 0.483123
0.384858 0.825484 0.493974
0.563139 0.840279 0.505060
0.734934 0.855130 0.515899
0.941218 0.869608 0.525738
0.044066 0.055066 0.397324
0.186773 0.070977 0.418348
0.356229 0.086157 0.445516
0.558469 0.098770 0.476800
0.776048 0.107970 0.508977
0.096775 0.240257 0.477879
0.253634 0.255827 0.509737
0.423582 0.268533 0.539377
0.646320 0.278475 0.565461
0.877311 0.286553 0.587454
0.124286 0.438286 0.563269
0.298061 0.458202 0.583794
0.479213 0.469270 0.600786
0.681702 0.479766 0.615863
0.903737 0.490402 0.629914
0.150453 0.634783 0.610504
0.334397 0.651521 0.623995
0.517845 0.668298 0.636528
0.697985 0.685456 0.648765
0.913676 0.696286 0.656580
0.207885 0.820305 0.642555
0.391178 0.834961 0.654964
0.568298 0.849806 0.667562
0.738789 0.864592 0.675582
0.923542 0.878796 0.683019
0.049365 0.060365 0.520042
0.193080 0.076335 0.543649
0.344598 0.090787 0.576573
0.549744 0.102297 0.614747
0.770067 0.110285 0.654282
0.101021 0.245839 0.618486
0.259559 0.260475 0.657707
0.431161 0.272191 0.694269
0.634523 0.281359 0.726170
0.865070 0.289152 0.752208
0.125889 0.449838 0.725690
0.301309 0.462117 0.749451
0.482860 0.472860 0.767022
0.664878 0.483290 0.781833
0.886523 0.494222 0.794395
0.154567 0.644969 0.776034
0.339186 0.661665 0.787741
0.522542 0.678547 0.797852
0.702062 0.689088 0.807262
0.896519 0.700037 0.816593
0.215130 0.829730 0.799968
0.397488 0.844462 0.809370
0.573336 0.859328 0.819104
0.742457 0.873989 0.829151
0.905656 0.887829 0.839219
