omv/luts/19_dead_money_poison.cube
# Original OMV LUT; redistribution permitted with OMV.
TITLE "Dead Money Poison"
LUT_3D_SIZE 32
DOMAIN_MIN 0.0 0.0 0.0
DOMAIN_MAX 1.0 1.0 1.0
0.000000 0.036750 0.016625
0.022524 0.041943 0.018943
0.047227 0.044066 0.021066
0.072023 0.046281 0.023281
0.096893 0.048570 0.025570
0.121827 0.050924 0.027924
0.146821 0.053337 0.030337
0.171869 0.055805 0.032805
0.196970 0.058325 0.035325
0.222120 0.060894 0.037894
0.247318 0.063512 0.040512
0.272562 0.066175 0.043175
0.297857 0.068881 0.045881
0.323294 0.071600 0.048594
0.348917 0.074318 0.051300
0.374746 0.077029 0.053991
0.400799 0.079726 0.056663
0.427094 0.082403 0.059308
0.453646 0.085054 0.061923
0.480471 0.087676 0.064502
0.507582 0.090262 0.067041
0.534990 0.092810 0.069535
0.562709 0.095314 0.071981
0.590746 0.097771 0.074376
0.619112 0.100178 0.076717
0.647814 0.102531 0.079000
0.676858 0.104829 0.081223
0.706249 0.107069 0.083385
0.735991 0.109249 0.085483
0.766088 0.111367 0.087517
0.796539 0.113423 0.089485
0.827346 0.115414 0.091387
0.005107 0.063236 0.024107
0.026130 0.064904 0.026420
0.051086 0.066635 0.028796
0.076100 0.069068 0.031229
0.101168 0.071555 0.033716
0.126287 0.074093 0.036254
0.151455 0.076680 0.038842
0.176670 0.079315 0.041476
0.201930 0.081994 0.044156
0.227255 0.084712 0.046869
0.252712 0.087445 0.049580
0.278327 0.090185 0.052282
0.304120 0.092926 0.054966
0.330110 0.095660 0.057629
0.356315 0.098383 0.060264
0.382753 0.101087 0.062866
0.409439 0.103768 0.065431
0.436387 0.106421 0.067954
0.463611 0.109041 0.070432
0.491122 0.111624 0.072860
0.518932 0.114166 0.075235
0.547050 0.116664 0.077555
0.575485 0.119114 0.079816
0.604244 0.121513 0.082017
0.633332 0.123859 0.084156
0.662755 0.126150 0.086231
0.692516 0.128383 0.088241
0.722618 0.130558 0.090185
0.753061 0.132673 0.092063
0.783846 0.134727 0.093874
0.814971 0.136720 0.095618
0.846434 0.138652 0.097296
0.013129 0.087387 0.032129
0.030473 0.089247 0.034635
0.055610 0.091159 0.037191
0.080795 0.093118 0.039795
0.106027 0.095124 0.042446
0.131304 0.097820 0.045142
0.156651 0.100551 0.047857
0.182105 0.103305 0.050565
0.207688 0.106074 0.053261
0.233423 0.108851 0.055939
0.259329 0.111629 0.058592
0.285424 0.114403 0.061215
0.311728 0.117166 0.063805
0.338255 0.119912 0.066355
0.365023 0.122637 0.068862
0.392044 0.125335 0.071321
0.419331 0.128002 0.073731
0.446898 0.130633 0.076086
0.474753 0.133226 0.078385
0.502907 0.135776 0.080625
0.531366 0.138281 0.082803
0.560139 0.140737 0.084919
0.589231 0.143142 0.086971
0.618647 0.145494 0.088957
0.648388 0.147791 0.090877
0.678458 0.150031 0.092730
0.708858 0.152215 0.094516
0.739586 0.154340 0.096236
0.770641 0.156407 0.097891
0.802020 0.158415 0.099480
0.833719 0.160364 0.101006
0.865732 0.162256 0.102470
0.021755 0.112142 0.040755
0.039261 0.114165 0.043423
0.060684 0.116231 0.046131
0.086032 0.118337 0.048844
0.111459 0.120473 0.051549
0.136989 0.122632 0.054238
0.162644 0.124807 0.056908
0.188444 0.127636 0.059551
0.214409 0.130467 0.062162
0.240559 0.133294 0.064738
0.266910 0.136110 0.067273
0.293478 0.138912 0.069763
0.320280 0.141693 0.072204
0.347328 0.144449 0.074594
0.374635 0.147175 0.076930
0.402213 0.149867 0.079207
0.430071 0.152521 0.081425
0.458219 0.155135 0.083581
0.486665 0.157704 0.085674
0.515414 0.160227 0.087701
0.544473 0.162700 0.089663
0.573844 0.165122 0.091559
0.603532 0.167492 0.093388
0.633538 0.169806 0.095150
0.663861 0.172066 0.096846
0.694502 0.174270 0.098477
0.725458 0.176417 0.100043
0.756726 0.178508 0.101546
0.788301 0.180543 0.102987
0.820178 0.182522 0.104370
0.852350 0.184447 0.105695
0.884808 0.186319 0.106966
0.030869 0.137429 0.049830
0.048505 0.139599 0.052530
0.066217 0.141800 0.055213
0.091770 0.144024 0.057873
0.117443 0.146264 0.060505
0.143259 0.148513 0.063104
0.169236 0.150764 0.065666
0.195392 0.153012 0.068185
0.221745 0.155250 0.070657
0.248310 0.158119 0.073081
0.275103 0.160968 0.075451
0.302136 0.163792 0.077766
0.329422 0.166588 0.080022
0.356972 0.169350 0.082217
0.384796 0.172077 0.084350
0.412902 0.174763 0.086419
0.441297 0.177406 0.088423
0.469989 0.180004 0.090361
0.498981 0.182554 0.092233
0.528278 0.185054 0.094037
0.557882 0.187503 0.095775
0.587794 0.189899 0.097447
0.618014 0.192241 0.099054
0.648542 0.194529 0.100597
0.679374 0.196763 0.102078
0.710507 0.198942 0.103497
0.741937 0.201066 0.104859
0.773656 0.203137 0.106164
0.805658 0.205156 0.107416
0.837935 0.207124 0.108619
0.870476 0.209042 0.109774
0.903270 0.210913 0.110888
0.040144 0.163280 0.058835
0.057930 0.165582 0.061456
0.075834 0.167899 0.064041
0.097749 0.170226 0.066588
0.123693 0.172555 0.069090
0.149813 0.174880 0.071546
0.176126 0.177196 0.073950
0.202647 0.179497 0.076300
0.229392 0.181779 0.078594
0.256373 0.184037 0.080828
0.283601 0.186266 0.083001
0.311088 0.189109 0.085111
0.338844 0.191915 0.087157
0.366875 0.194682 0.089136
0.395190 0.197407 0.091050
0.423794 0.200088 0.092897
0.452692 0.202721 0.094678
0.481887 0.205306 0.096392
0.511381 0.207840 0.098040
0.541175 0.210323 0.099623
0.571269 0.212753 0.101143
0.601661 0.215130 0.102602
0.632349 0.217453 0.104000
0.663328 0.219724 0.105340
0.694593 0.221941 0.106626
0.726139 0.224107 0.107860
0.757956 0.226222 0.109045
0.790036 0.228288 0.110184
0.822370 0.230306 0.111283
0.854945 0.232278 0.112346
0.887750 0.234207 0.113376
0.920770 0.236097 0.114379
0.049313 0.189746 0.067504
0.067285 0.192161 0.069990
0.085414 0.194578 0.072427
0.103717 0.196991 0.074812
0.129953 0.199394 0.077142
0.156395 0.201783 0.079414
0.183057 0.204152 0.081626
0.209952 0.206497 0.083777
0.237091 0.208814 0.085863
0.264485 0.211098 0.087885
0.292142 0.213347 0.089841
0.320071 0.215556 0.091730
0.348278 0.217724 0.093553
0.376769 0.220493 0.095309
0.405548 0.223216 0.096999
0.434618 0.225890 0.098624
0.463981 0.228514 0.100184
0.493637 0.231087 0.101681
0.523585 0.233609 0.103117
0.553824 0.236078 0.104494
0.584351 0.238495 0.105815
0.615161 0.240860 0.107081
0.646249 0.243172 0.108296
0.677607 0.245434 0.109465
0.709228 0.247647 0.110589
0.741103 0.249811 0.111674
0.773221 0.251929 0.112724
0.805570 0.254002 0.113744
0.838137 0.256034 0.114738
0.870909 0.258027 0.115713
0.903870 0.259985 0.116673
0.937002 0.261910 0.117626
0.058173 0.216861 0.075667
0.076367 0.219370 0.077976
0.094751 0.221870 0.080227
0.113340 0.224354 0.082417
0.136018 0.226818 0.084544
0.162797 0.229257 0.086607
0.189819 0.231668 0.088605
0.217093 0.234046 0.090537
0.244627 0.236388 0.092402
0.272429 0.238691 0.094200
0.300506 0.240952 0.095932
0.328863 0.243169 0.097598
0.357503 0.245339 0.099199
0.386429 0.247461 0.100736
0.415643 0.249534 0.102211
0.445145 0.252201 0.103625
0.474933 0.254816 0.104981
0.505006 0.257380 0.106282
0.535360 0.259892 0.107529
0.565989 0.262351 0.108727
0.596890 0.264760 0.109879
0.628053 0.267119 0.110988
0.659471 0.269428 0.112060
0.691134 0.271690 0.113098
0.723032 0.273906 0.114108
0.755151 0.276080 0.115095
0.787480 0.278212 0.116064
0.820003 0.280307 0.117021
0.852704 0.282367 0.117972
0.885567 0.284397 0.118925
0.918574 0.286399 0.119885
0.951705 0.288379 0.120860
0.066568 0.244645 0.083198
0.085018 0.247232 0.085302
0.103685 0.249797 0.087342
0.122583 0.252336 0.089316
0.141722 0.254847 0.091223
0.168853 0.257323 0.093064
0.196243 0.259763 0.094839
0.223899 0.262164 0.096546
0.251828 0.264522 0.098189
0.280033 0.266835 0.099766
0.308519 0.269101 0.101280
0.337287 0.271319 0.102733
0.366339 0.273487 0.104126
0.395674 0.275604 0.105461
0.425292 0.277669 0.106742
0.455188 0.279683 0.107971
0.485361 0.281644 0.109151
0.515804 0.284199 0.110287
0.546512 0.286703 0.111383
0.577476 0.289156 0.112442
0.608688 0.291562 0.113469
0.640138 0.293919 0.114470
0.671815 0.296232 0.115449
0.703706 0.298502 0.116413
0.735798 0.300732 0.117367
0.768076 0.302925 0.118318
0.800523 0.305084 0.119273
0.833123 0.307212 0.120238
0.865857 0.309315 0.121221
0.898705 0.311395 0.122229
0.931645 0.313459 0.123271
0.964657 0.315510 0.124354
0.074385 0.273105 0.090018
0.093122 0.275749 0.091901
0.112100 0.278363 0.093718
0.131329 0.280942 0.095468
0.150816 0.283484 0.097152
0.174440 0.285984 0.098770
0.202205 0.288442 0.100325
0.230246 0.290853 0.101816
0.258566 0.293217 0.103247
0.287165 0.295532 0.104618
0.316046 0.297796 0.105934
0.345208 0.300008 0.107195
0.374648 0.302168 0.108406
0.404364 0.304276 0.109570
0.434352 0.306331 0.110691
0.464606 0.308334 0.111772
0.495119 0.310286 0.112819
0.525884 0.312187 0.113836
0.556892 0.314040 0.114829
0.588132 0.316491 0.115802
0.619592 0.318896 0.116761
0.651261 0.321258 0.117714
0.683123 0.323581 0.118665
0.715163 0.325866 0.119623
0.747366 0.328118 0.120593
0.779713 0.330340 0.121584
0.812186 0.332536 0.122604
0.844764 0.334711 0.123660
0.877425 0.336869 0.124761
0.910148 0.339015 0.125916
0.942909 0.341155 0.127133
0.975682 0.343294 0.128424
0.081553 0.302229 0.096089
0.100608 0.304913 0.097749
0.119922 0.307558 0.099344
0.139501 0.310160 0.100875
0.159352 0.312718 0.102344
0.179478 0.315229 0.103753
0.207624 0.317690 0.105104
0.236049 0.320101 0.106399
0.264755 0.322461 0.107642
0.293739 0.324767 0.108835
0.323000 0.327021 0.109983
0.352534 0.329221 0.111089
0.382338 0.331367 0.112157
0.412404 0.333461 0.113193
0.442727 0.335503 0.114200
0.473297 0.337493 0.115185
0.504106 0.339434 0.116152
0.535142 0.341328 0.117109
0.566394 0.343175 0.118060
0.597849 0.344980 0.119013
0.629492 0.346744 0.119974
0.661308 0.349116 0.120951
0.693279 0.351453 0.121952
0.725388 0.353761 0.122984
0.757616 0.356043 0.124055
0.789941 0.358304 0.125174
0.822343 0.360548 0.126351
0.854797 0.362780 0.127594
0.887281 0.365006 0.128913
0.919768 0.367231 0.130318
0.952233 0.369463 0.131819
0.984646 0.371706 0.133427
0.088048 0.331991 0.101417
0.107448 0.334696 0.102864
0.127120 0.337354 0.104251
0.147069 0.339963 0.105581
0.167296 0.342521 0.106857
0.187803 0.345027 0.108082
0.212461 0.347479 0.109258
0.241269 0.349878 0.110390
0.270353 0.352222 0.111482
0.299709 0.354511 0.112538
0.329332 0.356745 0.113562
0.359217 0.358925 0.114561
0.389356 0.361052 0.115539
0.419741 0.363127 0.116501
0.450360 0.365151 0.117455
0.481205 0.367126 0.118406
0.512261 0.369055 0.119361
0.543516 0.370939 0.120328
0.574955 0.372783 0.121312
0.606562 0.374588 0.122323
0.638320 0.376359 0.123369
0.670210 0.378099 0.124456
0.702212 0.379812 0.125596
0.734307 0.382149 0.126796
0.766471 0.384469 0.128065
0.798681 0.386776 0.129414
0.830914 0.389077 0.130853
0.863142 0.391378 0.132391
0.895339 0.393684 0.134041
0.927478 0.396003 0.135812
0.959527 0.398340 0.137716
0.991457 0.400704 0.139765
0.093887 0.362349 0.106052
0.113658 0.365054 0.107309
0.133709 0.367707 0.108515
0.154043 0.370305 0.109675
0.174657 0.372847 0.110792
0.195551 0.375334 0.111870
0.216722 0.377764 0.112914
0.245907 0.380137 0.113929
0.275360 0.382454 0.114919
0.305074 0.384715 0.115891
0.335040 0.386921 0.116849
0.365251 0.389073 0.117801
0.395696 0.391173 0.118753
0.426364 0.393223 0.119711
0.457241 0.395225 0.120683
0.488314 0.397182 0.121677
0.519568 0.399096 0.122699
0.550987 0.400971 0.123759
0.582553 0.402810 0.124865
0.614247 0.404617 0.126025
0.646049 0.406397 0.127249
0.677939 0.408154 0.128546
0.709892 0.409893 0.129927
0.741887 0.411620 0.131401
0.773898 0.413339 0.132978
0.805898 0.415702 0.134671
0.837861 0.418070 0.136489
0.869757 0.420450 0.138444
0.901558 0.422848 0.140549
0.933231 0.425272 0.142815
0.964758 0.427726 0.145242
0.996250 0.430186 0.147702
0.099129 0.393242 0.110086
0.119295 0.395928 0.111189
0.139745 0.398557 0.112254
0.160476 0.401126 0.113287
0.181487 0.403637 0.114292
0.202771 0.406088 0.115275
0.224324 0.408481 0.116241
0.250010 0.410816 0.117196
0.279820 0.413094 0.118147
0.309875 0.415316 0.119101
0.340163 0.417484 0.120063
0.370673 0.419600 0.121042
0.401392 0.421666 0.122045
0.432306 0.423685 0.123081
0.463399 0.425660 0.124156
0.494654 0.427594 0.125280
0.526054 0.429491 0.126463
0.557580 0.431354 0.127712
0.589210 0.433189 0.129039
0.620924 0.434999 0.130452
0.652699 0.436790 0.131963
0.684510 0.438567 0.133581
0.716333 0.440336 0.135318
0.748141 0.442102 0.137184
0.779905 0.443873 0.139193
0.811598 0.445653 0.141355
0.843188 0.447452 0.143683
0.874686 0.449912 0.146138
0.906178 0.452371 0.148597
0.937666 0.454827 0.151053
0.969151 0.457280 0.153506
1.000000 0.459779 0.156388
0.103878 0.424596 0.113655
0.124461 0.427242 0.114652
0.145325 0.429827 0.115628
0.166467 0.432349 0.116590
0.187879 0.434811 0.117543
0.209555 0.437211 0.118494
0.231487 0.439552 0.119450
0.253665 0.441835 0.120417
0.283819 0.444062 0.121404
0.314195 0.446234 0.122418
0.344781 0.448354 0.123467
0.375562 0.450424 0.124559
0.406521 0.452449 0.125704
0.437642 0.454430 0.126909
0.468907 0.456372 0.128186
0.500295 0.458279 0.129543
0.531787 0.460155 0.130990
0.563360 0.462005 0.132539
0.594991 0.463834 0.134199
0.626656 0.465648 0.135982
0.658329 0.467451 0.137899
0.689983 0.469250 0.139962
0.721590 0.471052 0.142183
0.753122 0.472863 0.144573
0.784614 0.474679 0.147034
0.816105 0.476492 0.149492
0.847592 0.478301 0.151947
0.879076 0.480108 0.154398
0.910555 0.481910 0.156845
0.942032 0.484352 0.159285
0.973551 0.486784 0.161681
1.000000 0.489561 0.167834
0.108280 0.456318 0.116937
0.129298 0.458903 0.117889
0.150592 0.461423 0.118841
0.172153 0.463880 0.119800
0.193972 0.466275 0.120774
0.216040 0.468608 0.121770
0.238344 0.470882 0.122795
0.260874 0.473099 0.123859
0.287485 0.475261 0.124969
0.318163 0.477371 0.126135
0.349020 0.479432 0.127365
0.380040 0.481448 0.128670
0.411204 0.483422 0.130059
0.442491 0.485358 0.131542
0.473881 0.487261 0.133129
0.505352 0.489136 0.134833
0.536879 0.490988 0.136663
0.568438 0.492822 0.138632
0.600004 0.494644 0.140751
0.631548 0.496460 0.143033
0.663050 0.498276 0.145469
0.694542 0.500090 0.147929
0.726031 0.501902 0.150386
0.757517 0.503711 0.152840
0.788999 0.505515 0.155290
0.820477 0.507316 0.157735
0.851961 0.509110 0.160164
0.883495 0.510896 0.162539
0.915084 0.512671 0.164856
0.946732 0.514433 0.167114
0.978438 0.516181 0.169314
1.000000 0.519162 0.179689
0.112523 0.488298 0.120153
0.133995 0.490801 0.121134
0.155730 0.493237 0.122139
0.177718 0.495609 0.123178
0.199946 0.497918 0.124257
0.222402 0.500167 0.125387
0.245072 0.502358 0.126575
0.267940 0.504494 0.127831
0.290990 0.506578 0.129165
0.321946 0.508614 0.130587
0.353048 0.510605 0.132107
0.384274 0.512555 0.133736
0.415603 0.514470 0.135484
0.447014 0.516353 0.137363
0.478481 0.518211 0.139386
0.509980 0.520049 0.141562
0.541484 0.521872 0.143906
0.572978 0.523687 0.146365
0.604469 0.525501 0.148824
0.635957 0.527312 0.151280
0.667442 0.529119 0.153732
0.698922 0.530922 0.156180
0.730398 0.532721 0.158624
0.761894 0.534513 0.161036
0.793438 0.536298 0.163389
0.825032 0.538074 0.165685
0.856677 0.539838 0.167922
0.888376 0.541589 0.170100
0.920131 0.543325 0.172220
0.951942 0.545045 0.174282
0.983811 0.546747 0.176286
1.000000 0.549163 0.192014
0.116838 0.520412 0.123566
0.138780 0.522809 0.124662
0.160966 0.525141 0.125812
0.183386 0.527408 0.127024
0.206023 0.529613 0.128307
0.228863 0.531760 0.129672
0.251887 0.533852 0.131129
0.275080 0.535891 0.132687
0.298420 0.537883 0.134358
0.325758 0.539831 0.136152
0.357073 0.541740 0.138083
0.388470 0.543615 0.140160
0.419925 0.545461 0.142396
0.451413 0.547284 0.144800
0.482905 0.549099 0.147260
0.514396 0.550912 0.149718
0.545883 0.552721 0.152173
0.577366 0.554527 0.154624
0.608845 0.556329 0.157071
0.640322 0.558125 0.159509
0.671829 0.559917 0.161899
0.703378 0.561702 0.164232
0.734971 0.563480 0.166506
0.766611 0.565247 0.168722
0.798299 0.567002 0.170879
0.830037 0.568743 0.172978
0.861827 0.570470 0.175018
0.893670 0.572179 0.177001
0.925567 0.573870 0.178925
0.957519 0.575540 0.180792
0.989527 0.577190 0.182601
1.000000 0.579497 0.204876
0.121502 0.552517 0.127483
0.143925 0.554786 0.128794
0.166571 0.556991 0.130191
0.189425 0.559133 0.131684
0.212469 0.561215 0.133282
0.235685 0.563242 0.134996
0.259053 0.565217 0.136839
0.282552 0.567145 0.138821
0.306160 0.569030 0.140955
0.329853 0.570877 0.143252
0.361341 0.572696 0.145696
0.392833 0.574510 0.148155
0.424322 0.576322 0.150612
0.455808 0.578130 0.153066
0.487289 0.579935 0.155515
0.518766 0.581734 0.157960
0.550248 0.583530 0.160386
0.581762 0.585322 0.162755
0.613312 0.587109 0.165067
0.644901 0.588889 0.167319
0.676531 0.590660 0.169514
0.708204 0.592420 0.171650
0.739921 0.594168 0.173727
0.771686 0.595901 0.175747
0.803499 0.597619 0.177708
0.835362 0.599319 0.179611
0.867275 0.600999 0.181457
0.899240 0.602660 0.183245
0.931257 0.604298 0.184977
0.963327 0.605912 0.186652
0.995449 0.607502 0.188272
1.000000 0.609485 0.218345
0.126829 0.584453 0.132253
0.149745 0.586572 0.133892
0.172857 0.588628 0.135652
0.196147 0.590623 0.137544
0.219594 0.592563 0.139580
0.243177 0.594451 0.141771
0.266873 0.596292 0.144131
0.290624 0.598108 0.146592
0.314373 0.599921 0.149050
0.338119 0.601732 0.151506
0.365732 0.603539 0.153958
0.397212 0.605341 0.156406
0.428688 0.607139 0.158849
0.460176 0.608935 0.161255
0.491692 0.610729 0.163603
0.523238 0.612518 0.165893
0.554818 0.614303 0.168125
0.586434 0.616079 0.170298
0.618088 0.617845 0.172413
0.649782 0.619600 0.174469
0.681518 0.621341 0.176467
0.713297 0.623068 0.178407
0.745122 0.624778 0.180290
0.776993 0.626469 0.182115
0.808912 0.628141 0.183882
0.840879 0.629791 0.185594
0.872894 0.631418 0.187248
0.904959 0.633022 0.188848
0.937073 0.634600 0.190392
0.969236 0.636152 0.191882
1.000000 0.637651 0.195034
1.000000 0.639080 0.232488
0.133180 0.616046 0.138268
0.156597 0.617990 0.140359
0.180179 0.619874 0.142610
0.203898 0.621704 0.145027
0.227648 0.623519 0.147487
0.251396 0.625332 0.149945
0.275141 0.627141 0.152399
0.298882 0.628946 0.154850
0.322618 0.630747 0.157296
0.346352 0.632544 0.159732
0.370102 0.634341 0.162117
0.401615 0.636138 0.164444
0.433154 0.637932 0.166713
0.464721 0.639721 0.168923
0.496319 0.641503 0.171075
0.527950 0.643276 0.173168
0.559616 0.645039 0.175203
0.591319 0.646790 0.177180
0.623062 0.648526 0.179099
0.654846 0.650247 0.180961
0.686672 0.651950 0.182765
0.718541 0.653633 0.184512
0.750454 0.655297 0.186202
0.782413 0.656938 0.187837
0.814417 0.658556 0.189416
0.846467 0.660149 0.190941
0.878564 0.661715 0.192411
0.910706 0.663255 0.193828
0.942894 0.664766 0.195193
0.975128 0.666247 0.196506
1.000000 0.667411 0.207329
1.000000 0.668236 0.247377
0.140923 0.647116 0.145923
0.164672 0.648930 0.148382
0.188419 0.650742 0.150838
0.212163 0.652550 0.153292
0.235902 0.654354 0.155741
0.259637 0.656153 0.158185
0.283372 0.657950 0.160607
0.307120 0.659750 0.162971
0.330885 0.661550 0.165277
0.354670 0.663349 0.167524
0.378478 0.665144 0.169713
0.406183 0.666933 0.171844
0.437787 0.668715 0.173916
0.469422 0.670487 0.175930
0.501090 0.672247 0.177886
0.532792 0.673994 0.179784
0.564531 0.675726 0.181624
0.596309 0.677442 0.183407
0.628126 0.679138 0.185134
0.659983 0.680815 0.186804
0.691882 0.682471 0.188419
0.723823 0.684103 0.189978
0.755807 0.685712 0.191482
0.787834 0.687294 0.192933
0.819904 0.688850 0.194331
0.852017 0.690378 0.195677
0.884172 0.691876 0.196971
0.916369 0.693344 0.198215
0.948608 0.694781 0.199410
0.980886 0.696185 0.200556
1.000000 0.696729 0.220273
1.000000 0.696906 0.263086
0.149184 0.677958 0.154184
0.172922 0.679760 0.156631
0.196655 0.681558 0.159073
0.220389 0.683358 0.161474
0.244132 0.685161 0.163817
0.267886 0.686967 0.166102
0.291655 0.688771 0.168328
0.315442 0.690574 0.170496
0.339250 0.692371 0.172605
0.363082 0.694161 0.174656
0.386940 0.695943 0.176649
0.410826 0.697714 0.178583
0.442485 0.699473 0.180460
0.474177 0.701217 0.182280
0.505903 0.702945 0.184043
0.537665 0.704656 0.185748
0.569464 0.706347 0.187398
0.601300 0.708018 0.188993
0.633176 0.709666 0.190532
0.665091 0.711290 0.192017
0.697046 0.712889 0.193448
0.729042 0.714461 0.194827
0.761077 0.716006 0.196154
0.793153 0.717522 0.197430
0.825268 0.719007 0.198656
0.857422 0.720462 0.199833
0.889614 0.721884 0.200962
0.921843 0.723273 0.202045
0.954108 0.724628 0.203081
0.986407 0.725949 0.204074
1.000000 0.725560 0.233923
1.000000 0.725043 0.279694
0.157402 0.708767 0.162334
0.181134 0.710576 0.164656
0.204873 0.712387 0.166919
0.228622 0.714199 0.169124
0.252385 0.716009 0.171270
0.276163 0.717816 0.173358
0.299961 0.719616 0.175388
0.323780 0.721409 0.177360
0.347624 0.723191 0.179273
0.371495 0.724962 0.181129
0.395394 0.726720 0.182928
0.419323 0.728462 0.184670
0.447156 0.730187 0.186356
0.478894 0.731893 0.187985
0.510666 0.733579 0.189559
0.542473 0.735242 0.191079
0.574318 0.736883 0.192544
0.606199 0.738499 0.193956
0.638118 0.740088 0.195316
0.670075 0.741651 0.196625
0.702069 0.743184 0.197882
0.734100 0.744688 0.199090
0.766168 0.746160 0.200250
0.798273 0.747601 0.201362
0.830412 0.749008 0.202427
0.862586 0.750382 0.203448
0.894792 0.751720 0.204425
0.927030 0.753023 0.205359
0.959297 0.754289 0.206252
0.991592 0.755518 0.207106
1.000000 0.753862 0.248340
1.000000 0.752599 0.297286
0.165570 0.739633 0.169912
0.189304 0.741452 0.172037
0.213049 0.743269 0.174104
0.236809 0.745080 0.176113
0.260587 0.746884 0.178063
0.284385 0.748679 0.179956
0.308206 0.750463 0.181791
0.332051 0.752234 0.183569
0.355924 0.753991 0.185290
0.379825 0.755731 0.186955
0.403756 0.757452 0.188564
0.427719 0.759154 0.190119
0.451715 0.760834 0.191619
0.483486 0.762492 0.193065
0.515292 0.764125 0.194458
0.547132 0.765732 0.195798
0.579008 0.767312 0.197088
0.610919 0.768863 0.198328
0.642865 0.770385 0.199518
0.674846 0.771876 0.200660
0.706861 0.773335 0.201755
0.738910 0.774761 0.202804
0.770992 0.776152 0.203808
0.803105 0.777509 0.204770
0.835247 0.778830 0.205689
0.867419 0.780114 0.206568
0.899617 0.781361 0.207407
0.931840 0.782570 0.208210
0.964085 0.783740 0.208976
0.996350 0.784871 0.209708
1.000000 0.781592 0.263583
1.000000 0.779525 0.315957
0.173625 0.770553 0.176829
0.197358 0.772370 0.178759
0.221107 0.774178 0.180631
0.244875 0.775976 0.182445
0.268664 0.777761 0.184202
0.292476 0.779533 0.185903
0.316314 0.781288 0.187548
0.340179 0.783026 0.189137
0.364072 0.784744 0.190671
0.387995 0.786442 0.192151
0.411950 0.788116 0.193578
0.435935 0.789767 0.194952
0.459954 0.791392 0.196274
0.487876 0.792990 0.197545
0.519702 0.794560 0.198767
0.551562 0.796100 0.199939
0.583455 0.797609 0.201064
0.615380 0.799087 0.202142
0.647337 0.800531 0.203175
0.679326 0.801942 0.204163
0.711344 0.803317 0.205109
0.743392 0.804656 0.206013
0.775467 0.805958 0.206878
0.807568 0.807223 0.207704
0.839693 0.808449 0.208493
0.871840 0.809636 0.209246
0.904006 0.810784 0.209967
0.936190 0.811891 0.210655
0.968388 0.812957 0.211313
1.000000 0.813843 0.213283
1.000000 0.808705 0.279721
1.000000 0.805768 0.335819
0.181500 0.801501 0.183091
0.205230 0.803301 0.184828
0.228979 0.805088 0.186508
0.252751 0.806860 0.188132
0.276547 0.808614 0.189702
0.300369 0.810350 0.191216
0.324217 0.812065 0.192677
0.348094 0.813757 0.194084
0.372001 0.815426 0.195439
0.395937 0.817069 0.196743
0.419904 0.818686 0.197996
0.443903 0.820274 0.199199
0.467932 0.821833 0.200354
0.491994 0.823361 0.201462
0.523827 0.824857 0.202523
0.555692 0.826320 0.203540
0.587587 0.827748 0.204512
0.619511 0.829142 0.205443
0.651462 0.830500 0.206333
0.683441 0.831820 0.207183
0.715444 0.833102 0.207995
0.747471 0.834346 0.208771
0.779520 0.835550 0.209512
0.811588 0.836714 0.210221
0.843674 0.837837 0.210898
0.875774 0.838919 0.211546
0.907885 0.839959 0.212166
0.940006 0.840957 0.212761
0.972132 0.841912 0.213332
1.000000 0.841610 0.224532
1.000000 0.835157 0.296830
1.000000 0.831271 0.357003
0.189136 0.832446 0.188710
0.212860 0.834218 0.190259
0.236608 0.835971 0.191754
0.260380 0.837704 0.193195
0.284178 0.839414 0.194583
0.308003 0.841101 0.195920
0.331855 0.842763 0.197205
0.355737 0.844398 0.198439
0.379648 0.846005 0.199625
0.403589 0.847583 0.200763
0.427559 0.849130 0.201853
0.451559 0.850645 0.202898
0.475588 0.852126 0.203899
0.499646 0.853574 0.204856
0.527604 0.854986 0.205771
0.559459 0.856361 0.206647
0.591340 0.857699 0.207483
0.623247 0.858999 0.208282
0.655176 0.860260 0.209045
