omv/luts/19_dead_money_poison.cube
# Original OMV LUT; redistribution permitted with OMV.
TITLE "Dead Money Poison"
LUT_3D_SIZE 5
DOMAIN_MIN 0.000000 0.000000 0.000000
DOMAIN_MAX 0.903226 0.903226 0.903226
0.000000 0.036750 0.016625
0.171869 0.055805 0.032805
0.348917 0.074318 0.051300
0.534990 0.092810 0.069535
0.735991 0.109249 0.085483
0.058173 0.216861 0.075667
0.217093 0.234046 0.090537
0.415643 0.249534 0.102211
0.628053 0.267119 0.110988
0.852704 0.282367 0.117972
0.103878 0.424596 0.113655
0.253665 0.441835 0.120417
0.468907 0.456372 0.128186
0.689983 0.469250 0.139962
0.910555 0.481910 0.156845
0.140923 0.647116 0.145923
0.307120 0.659750 0.162971
0.501090 0.672247 0.177886
0.723823 0.684103 0.189978
0.948608 0.694781 0.199410
0.196481 0.863359 0.193707
0.363053 0.874917 0.202239
0.530975 0.884914 0.208564
0.754172 0.892987 0.213179
0.977678 0.898913 0.216726
0.002892 0.044892 0.107698
0.150844 0.061876 0.133715
0.329629 0.080738 0.162372
0.519025 0.098685 0.183869
0.723620 0.114181 0.205044
0.064162 0.219827 0.182678
0.197584 0.236567 0.212360
0.398155 0.255790 0.230882
0.612325 0.272531 0.246913
0.837795 0.287149 0.260892
0.107014 0.427803 0.252192
0.258782 0.444057 0.265690
0.448108 0.457873 0.279029
0.668889 0.470566 0.294534
0.889337 0.487699 0.311622
0.146764 0.648442 0.300797
0.312995 0.661044 0.317511
0.480131 0.673393 0.332132
0.703162 0.684902 0.344418
0.928161 0.695082 0.354420
0.201473 0.864448 0.348317
0.368001 0.875526 0.357527
0.535822 0.884903 0.364749
0.731648 0.892265 0.370369
0.954590 0.897437 0.374913
0.008341 0.050341 0.198953
0.130085 0.068214 0.225860
0.311057 0.087035 0.257229
0.503637 0.104270 0.292658
0.711568 0.118753 0.329191
0.069874 0.222696 0.284608
0.204958 0.243362 0.320971
0.380391 0.261752 0.355732
0.596137 0.277692 0.387863
0.822116 0.291812 0.408107
0.110040 0.430663 0.377486
0.263800 0.445991 0.405825
0.427095 0.459239 0.432296
0.647635 0.476409 0.449409
0.868391 0.493418 0.466269
0.152586 0.649747 0.446618
0.318891 0.662314 0.472057
0.486257 0.674441 0.486734
0.682434 0.685546 0.499470
0.907573 0.695189 0.510204
0.206285 0.865393 0.503609
0.372749 0.875938 0.513625
0.540429 0.884659 0.521780
0.708822 0.891289 0.528344
0.931116 0.895703 0.533732
0.014134 0.056134 0.290553
0.136835 0.074676 0.318813
0.293051 0.093142 0.354893
0.488675 0.109531 0.396570
0.699679 0.122961 0.440235
0.075280 0.229925 0.391049
0.212082 0.249888 0.434702
0.362310 0.267425 0.476734
0.579440 0.282636 0.515455
0.805616 0.296423 0.549976
0.113031 0.433185 0.507178
0.268788 0.447678 0.540106
0.433030 0.465056 0.568914
0.626361 0.482232 0.595232
0.847681 0.499042 0.620984
0.158385 0.651040 0.583359
0.324778 0.663531 0.608740
0.492339 0.675369 0.632802
0.661608 0.686021 0.655227
0.886810 0.699608 0.666804
0.210906 0.866174 0.641592
0.377285 0.876138 0.661524
0.544781 0.884171 0.679628
0.712776 0.890056 0.687028
0.907242 0.893714 0.693056
0.020220 0.062220 0.382446
0.144040 0.081091 0.413802
0.275475 0.099002 0.456186
0.473996 0.114444 0.505168
0.687805 0.126814 0.556479
0.080359 0.236950 0.502425
0.218930 0.256128 0.553684
0.370978 0.272824 0.602762
0.562201 0.287409 0.647302
0.788254 0.301060 0.685751
0.116074 0.435389 0.640709
0.273826 0.453686 0.676713
0.438890 0.470890 0.705826
0.605133 0.488018 0.732001
0.827157 0.504552 0.757890
0.164160 0.652333 0.720130
0.330626 0.664672 0.745792
0.498348 0.676160 0.770457
0.667749 0.690828 0.793692
0.865842 0.703814 0.815206
0.215326 0.866772 0.780382
0.381599 0.876114 0.801225
0.548869 0.883435 0.820179
0.716402 0.888566 0.837287
0.882955 0.891474 0.852734
