omv/luts/19_dead_money_poison.cube
# Original OMV LUT; redistribution permitted with OMV.
TITLE "Dead Money Poison"
LUT_3D_SIZE 8
DOMAIN_MIN 0.000000 0.000000 0.000000
DOMAIN_MAX 0.903226 0.903226 0.903226
0.000000 0.036750 0.016625
0.096893 0.048570 0.025570
0.196970 0.058325 0.035325
0.297857 0.068881 0.045881
0.400799 0.079726 0.056663
0.507582 0.090262 0.067041
0.619112 0.100178 0.076717
0.735991 0.109249 0.085483
0.030869 0.137429 0.049830
0.117443 0.146264 0.060505
0.221745 0.155250 0.070657
0.329422 0.166588 0.080022
0.441297 0.177406 0.088423
0.557882 0.187503 0.095775
0.679374 0.196763 0.102078
0.805658 0.205156 0.107416
0.066568 0.244645 0.083198
0.141722 0.254847 0.091223
0.251828 0.264522 0.098189
0.366339 0.273487 0.104126
0.485361 0.281644 0.109151
0.608688 0.291562 0.113469
0.735798 0.300732 0.117367
0.865857 0.309315 0.121221
0.093887 0.362349 0.106052
0.174657 0.372847 0.110792
0.275360 0.382454 0.114919
0.395696 0.391173 0.118753
0.519568 0.399096 0.122699
0.646049 0.406397 0.127249
0.773898 0.413339 0.132978
0.901558 0.422848 0.140549
0.112523 0.488298 0.120153
0.199946 0.497918 0.124257
0.290990 0.506578 0.129165
0.415603 0.514470 0.135484
0.541484 0.521872 0.143906
0.667442 0.529119 0.153732
0.793438 0.536298 0.163389
0.920131 0.543325 0.172220
0.133180 0.616046 0.138268
0.227648 0.623519 0.147487
0.322618 0.630747 0.157296
0.433154 0.637932 0.166713
0.559616 0.645039 0.175203
0.686672 0.651950 0.182765
0.814417 0.658556 0.189416
0.942894 0.664766 0.195193
0.165570 0.739633 0.169912
0.260587 0.746884 0.178063
0.355924 0.753991 0.185290
0.451715 0.760834 0.191619
0.579008 0.767312 0.197088
0.706861 0.773335 0.201755
0.835247 0.778830 0.205689
0.964085 0.783740 0.208976
0.196481 0.863359 0.193707
0.291502 0.870128 0.198877
0.386960 0.876451 0.203268
0.482866 0.882241 0.206955
0.594659 0.887430 0.210031
0.722244 0.891962 0.212602
0.849985 0.895798 0.214788
0.977678 0.898913 0.216726
0.000691 0.042691 0.068724
0.084621 0.051782 0.082976
0.184988 0.061827 0.098182
0.286276 0.072575 0.108984
0.390189 0.083356 0.120294
0.498085 0.093712 0.131674
0.610804 0.103361 0.142758
0.728873 0.112111 0.153269
0.034612 0.138681 0.107905
0.106030 0.147616 0.124450
0.210890 0.159143 0.135760
0.319288 0.170332 0.146663
0.431974 0.180924 0.156913
0.549386 0.190745 0.166355
0.671651 0.199709 0.174916
0.798581 0.207817 0.182613
0.069799 0.246449 0.150480
0.145457 0.256498 0.160450
0.240689 0.265948 0.169574
0.355843 0.274646 0.177815
0.475468 0.285102 0.185217
0.599285 0.294753 0.191914
0.726700 0.303702 0.198123
0.856806 0.312137 0.204147
0.096070 0.364307 0.180602
0.177475 0.374507 0.187727
0.263302 0.383808 0.194217
0.384150 0.392242 0.200319
0.508363 0.399930 0.206368
0.634941 0.407075 0.212785
0.762572 0.416550 0.220075
0.889625 0.426148 0.228829
0.114242 0.489977 0.202507
0.202373 0.499255 0.208637
0.293970 0.507628 0.215309
0.403424 0.515318 0.223059
0.529343 0.522633 0.232408
0.655283 0.529863 0.242218
0.781431 0.537003 0.251699
0.908366 0.543953 0.260374
0.136125 0.616968 0.226267
0.230986 0.624276 0.235986
0.325940 0.631484 0.245757
0.421090 0.638656 0.254953
0.547672 0.645710 0.263326
0.674854 0.652528 0.270869
0.802720 0.659009 0.277589
0.931300 0.665067 0.283509
0.168840 0.740400 0.258097
0.263867 0.747616 0.266168
0.359236 0.754646 0.273410
0.455069 0.761376 0.279835
0.566916 0.767708 0.285473
0.694792 0.773559 0.290365
0.823173 0.778861 0.294571
0.951964 0.783562 0.298164
0.199355 0.863998 0.281977
0.294363 0.870626 0.287337
0.389807 0.876776 0.291972
0.485686 0.882369 0.295946
0.581944 0.887340 0.299337
0.709440 0.891640 0.302240
0.837041 0.895233 0.304764
0.964531 0.898101 0.307034
0.003646 0.045646 0.120710
0.072455 0.055101 0.135326
0.173094 0.065416 0.150803
0.274956 0.076263 0.167188
0.379825 0.086937 0.184566
0.488809 0.097080 0.197270
0.602676 0.106441 0.210027
0.721882 0.114857 0.222488
0.038361 0.139984 0.161226
0.110125 0.151548 0.178837
0.200068 0.162995 0.196767
0.309181 0.174006 0.214613
0.422658 0.184351 0.226898
0.540867 0.193887 0.238557
0.663861 0.202556 0.249447
0.791378 0.210388 0.259514
0.072930 0.248212 0.208823
0.149108 0.258080 0.226063
0.229468 0.267288 0.242615
0.345254 0.278290 0.253208
0.465458 0.288467 0.262977
0.589728 0.297864 0.271986
0.717398 0.306612 0.280380
0.847488 0.314930 0.288393
0.098162 0.366166 0.251697
0.180210 0.376062 0.266339
0.266643 0.385061 0.275102
0.372502 0.393224 0.283327
0.497026 0.400700 0.291275
0.623660 0.410304 0.299297
0.751016 0.419774 0.307827
0.877490 0.429490 0.317328
0.115990 0.491535 0.286236
0.204834 0.500486 0.294166
0.296975 0.508598 0.302318
0.391247 0.516122 0.311158
0.517197 0.523391 0.320907
0.643126 0.530598 0.330686
0.769492 0.537686 0.339986
0.896655 0.547128 0.348577
0.139330 0.617782 0.314653
0.234317 0.625027 0.324479
0.329285 0.632221 0.334152
0.424530 0.639367 0.343198
0.535740 0.646353 0.351522
0.663039 0.653067 0.359105
0.791013 0.659413 0.365943
0.919680 0.665310 0.372045
0.172087 0.741159 0.346313
0.267123 0.748326 0.354369
0.362520 0.755266 0.361681
0.458387 0.761871 0.368249
0.554780 0.768049 0.374089
0.682668 0.773720 0.379232
0.811030 0.778823 0.383725
0.939760 0.783310 0.387630
0.202172 0.864592 0.370458
0.297164 0.871068 0.376040
0.392589 0.877038 0.380940
0.488435 0.882426 0.385211
0.584631 0.887173 0.388920
0.696541 0.891236 0.392147
0.823989 0.894585 0.394992
0.951260 0.897205 0.397565
0.006745 0.048745 0.172842
0.075871 0.058516 0.187774
0.161288 0.069085 0.203516
0.263868 0.079928 0.220704
0.369678 0.090456 0.239337
0.479722 0.100357 0.258817
0.594698 0.109410 0.278640
0.714988 0.117484 0.293228
0.042099 0.143901 0.215152
0.114228 0.155467 0.234158
0.189261 0.166797 0.253817
0.299083 0.177603 0.273656
0.413333 0.187685 0.293292
0.532306 0.196929 0.312426
0.655983 0.205306 0.325683
0.784029 0.212875 0.338100
0.075956 0.249921 0.268645
0.152669 0.259585 0.288128
0.233643 0.271116 0.307021
0.334565 0.281838 0.325144
0.455324 0.291741 0.342402
0.580010 0.300898 0.353624
0.707884 0.309472 0.364047
0.837893 0.317708 0.373834
0.100170 0.367924 0.319328
0.182870 0.377513 0.336264
0.269906 0.386217 0.352343
0.360758 0.394126 0.367673
0.485563 0.403998 0.377285
0.612209 0.413517 0.386618
0.739235 0.423029 0.396037
0.865344 0.432828 0.405828
0.117785 0.492977 0.360901
0.207345 0.501620 0.375536
0.300021 0.509500 0.390016
0.394573 0.516896 0.399573
0.505045 0.524142 0.409400
0.631031 0.531319 0.419100
0.757612 0.540923 0.428289
0.884991 0.550264 0.436862
0.142672 0.618543 0.397995
0.237641 0.625770 0.412964
0.332648 0.632954 0.422514
0.427984 0.640059 0.431483
0.523814 0.646964 0.439823
0.651219 0.653564 0.447500
0.779289 0.659766 0.454498
0.908029 0.665494 0.460816
0.175307 0.741907 0.434594
0.270349 0.749010 0.442696
0.365769 0.755847 0.450127
0.461664 0.762317 0.456877
0.558078 0.768331 0.462950
0.670483 0.773815 0.468364
0.798813 0.778714 0.473155
0.927466 0.782983 0.477370
0.204929 0.865139 0.459165
0.299902 0.871452 0.464995
0.395304 0.877232 0.470178
0.491108 0.882408 0.474753
0.587234 0.886928 0.478775
0.683547 0.890750 0.482314
0.810827 0.893852 0.485454
0.937863 0.896225 0.488297
0.009963 0.051963 0.225093
0.079378 0.062024 0.240314
0.149656 0.072780 0.256499
0.252984 0.083556 0.274889
0.359720 0.093901 0.295093
0.470798 0.103535 0.316448
0.586840 0.112266 0.338379
0.708161 0.119993 0.360399
0.045811 0.147834 0.269870
0.118326 0.159357 0.290565
0.193938 0.170537 0.312192
0.288978 0.181116 0.334207
0.403982 0.190922 0.356155
0.523686 0.199870 0.377667
0.648000 0.207961 0.398461
0.776516 0.215284 0.418340
0.078874 0.251569 0.330025
0.156137 0.263587 0.351852
0.237726 0.274850 0.373132
0.323773 0.285291 0.393611
0.445061 0.294928 0.413124
0.570124 0.303865 0.431591
0.698151 0.312292 0.449017
0.828015 0.320484 0.460332
0.102101 0.369578 0.388631
0.185463 0.378861 0.407768
0.273096 0.387280 0.425851
0.364409 0.397536 0.442916
0.473981 0.407255 0.459086
0.600595 0.416728 0.474568
0.727233 0.426333 0.484493
0.853193 0.436161 0.494322
0.119647 0.494307 0.436696
0.209927 0.502665 0.452587
0.303126 0.510345 0.467887
0.397915 0.517657 0.482915
0.492886 0.524886 0.497886
0.618998 0.534604 0.507495
0.745783 0.544130 0.516642
0.873363 0.553360 0.525261
0.146009 0.619300 0.476171
0.240960 0.626507 0.491109
0.336025 0.633678 0.505721
0.431444 0.640728 0.519844
0.527371 0.647540 0.528256
0.639388 0.654014 0.536076
0.767542 0.660063 0.543273
0.896340 0.668197 0.549835
0.178495 0.742637 0.512650
0.273541 0.749663 0.526012
0.368980 0.756386 0.538769
0.464897 0.762710 0.545736
0.561323 0.768551 0.552066
0.658233 0.773843 0.557766
0.786518 0.778531 0.562859
0.915079 0.782580 0.567380
0.207625 0.865634 0.542953
0.302576 0.871774 0.554213
0.397949 0.877356 0.559689
0.493704 0.882315 0.564568
0.589750 0.886601 0.568895
0.685938 0.890181 0.572726
0.797551 0.893035 0.576134
0.924336 0.895161 0.579208
0.013287 0.055287 0.277449
0.082972 0.065618 0.292940
0.153688 0.076466 0.309990
0.242279 0.087134 0.329923
0.349925 0.097264 0.351986
0.462007 0.106608 0.375444
0.579076 0.115005 0.399654
0.701373 0.122382 0.424058
0.049485 0.151766 0.325548
0.122403 0.163207 0.348199
0.198600 0.174208 0.372001
0.278852 0.184539 0.396341
0.394589 0.194058 0.420694
0.514992 0.202711 0.444620
0.639895 0.210528 0.467765
0.768822 0.217624 0.489862
0.081683 0.255728 0.393029
0.159509 0.267502 0.417273
0.241715 0.278489 0.440951
0.328357 0.288650 0.463740
0.434665 0.298034 0.485406
0.560066 0.306772 0.505796
0.688193 0.315084 0.524845
0.817847 0.323275 0.542573
0.103964 0.371127 0.459567
0.187997 0.380109 0.480781
0.276223 0.390838 0.500685
0.367978 0.400884 0.519247
0.462286 0.410482 0.536515
0.588823 0.419954 0.552628
0.715094 0.429675 0.567836
0.841034 0.439485 0.582808
0.121596 0.495533 0.513476
0.212598 0.503631 0.530304
0.306312 0.511147 0.546047
0.401253 0.518414 0.561092
0.496213 0.528201 0.576036
0.607019 0.537866 0.590747
0.733997 0.547303 0.605081
0.861763 0.556410 0.613801
0.149340 0.620050 0.554341
0.244289 0.627243 0.569228
0.339409 0.634387 0.583812
0.434906 0.641369 0.597989
0.530921 0.648077 0.611689
0.627540 0.654416 0.624854
0.755764 0.662884 0.632283
0.884606 0.670836 0.639112
0.181647 0.743346 0.590834
0.276695 0.750281 0.604344
0.372149 0.756879 0.617304
0.468081 0.763047 0.629678
0.564510 0.768709 0.641446
0.661398 0.773801 0.647441
0.774141 0.778275 0.652835
0.902593 0.782101 0.657652
0.210258 0.866073 0.621832
0.305184 0.872032 0.633377
0.400522 0.877409 0.644312
0.496221 0.882144 0.654653
0.592176 0.886193 0.659270
0.688227 0.889528 0.663369
0.784160 0.892134 0.667010
0.910677 0.894014 0.670270
0.016708 0.058708 0.329902
0.086652 0.069290 0.345676
0.157877 0.080130 0.364185
0.231725 0.090648 0.385975
0.340266 0.100535 0.410151
0.453324 0.109572 0.435910
0.571378 0.117626 0.462539
0.694597 0.124655 0.489408
0.053107 0.155683 0.382343
0.126447 0.167006 0.407184
0.203235 0.177800 0.433338
0.284175 0.187867 0.460122
0.385140 0.197094 0.486940
0.506207 0.205455 0.513282
0.631654 0.213010 0.538723
0.760932 0.219904 0.562926
0.084382 0.259809 0.457709
0.162784 0.271325 0.484408
0.245606 0.282032 0.510467
0.332832 0.291919 0.535491
0.424133 0.301064 0.559175
0.549833 0.309629 0.581296
0.678008 0.317862 0.601718
0.807386 0.326095 0.620389
0.105771 0.372572 0.532081
0.190482 0.383840 0.555217
0.279295 0.394316 0.576730
0.371474 0.404180 0.596516
0.465970 0.413694 0.614555
0.576902 0.423211 0.630912
0.702948 0.433013 0.646013
0.828881 0.442799 0.660962
0.123653 0.496662 0.591083
0.215380 0.504530 0.608497
0.309597 0.511920 0.624274
0.404585 0.521746 0.639262
0.499589 0.531502 0.654173
0.595087 0.541102 0.668893
0.722244 0.550437 0.683314
0.850183 0.559413 0.697347
0.152664 0.620793 0.632502
0.247622 0.627976 0.647359
0.342795 0.635078 0.661981
0.438364 0.641979 0.676270
0.534458 0.648572 0.690143
0.631152 0.657346 0.703530
0.743950 0.665646 0.716380
0.872821 0.673410 0.728654
0.184760 0.744028 0.669171
0.279808 0.750860 0.682874
0.375272 0.757322 0.696072
0.471212 0.763326 0.708715
0.567634 0.768800 0.720773
0.664490 0.773687 0.732229
0.761676 0.777944 0.743078
0.890005 0.784125 0.748174
0.212825 0.866453 0.700973
0.307723 0.872222 0.712812
0.403022 0.877387 0.724047
0.498657 0.881893 0.734679
0.594511 0.885703 0.744727
0.690413 0.888791 0.754224
0.786136 0.891150 0.758059
0.896884 0.892785 0.761456
0.020220 0.062220 0.382446
0.090444 0.072984 0.398890
0.162197 0.083756 0.419269
0.236784 0.094090 0.443196
0.330720 0.103708 0.469710
0.444724 0.112421 0.497937
0.563720 0.120128 0.527093
0.687805 0.126814 0.556479
0.056667 0.159572 0.440396
0.130446 0.170743 0.467630
0.207830 0.181308 0.496281
0.289450 0.191098 0.525597
0.375622 0.200030 0.554910
0.497318 0.208106 0.583640
0.623262 0.215416 0.611292
0.752829 0.222133 0.637455
0.086970 0.263807 0.524100
0.165962 0.275054 0.553264
0.249399 0.285480 0.581654
0.337195 0.295102 0.608806
0.428946 0.304027 0.634343
0.539422 0.312447 0.657972
0.667592 0.320638 0.679485
0.796628 0.328963 0.698761
0.107534 0.376495 0.606106
0.192930 0.387480 0.630978
0.282324 0.397723 0.653856
0.374908 0.407434 0.674564
0.469558 0.416906 0.693012
0.564840 0.426518 0.709194
0.690797 0.436345 0.724184
0.816814 0.446086 0.739115
0.125842 0.497702 0.669342
0.218295 0.505372 0.686961
0.312939 0.515262 0.702455
0.407908 0.525070 0.717425
0.503013 0.534785 0.732334
0.598676 0.544307 0.747129
0.710518 0.553530 0.761691
0.838616 0.562365 0.775922
0.155979 0.621529 0.710657
0.250955 0.628699 0.725539
0.346175 0.635746 0.740261
0.441810 0.642553 0.754714
0.537976 0.651600 0.768802
0.634734 0.660221 0.782443
0.732095 0.668345 0.795575
0.860978 0.675916 0.808145
0.187831 0.744680 0.747688
0.282875 0.751396 0.761622
0.378345 0.757712 0.775084
0.474286 0.763544 0.788017
0.570693 0.768824 0.800373
0.667505 0.773501 0.812125
0.764605 0.780118 0.823259
0.877310 0.786072 0.833774
0.215326 0.866772 0.780382
0.310193 0.872343 0.792521
0.405446 0.877289 0.804049
0.501010 0.881562 0.814956
0.596754 0.885129 0.825249
0.692494 0.887970 0.834950
0.787992 0.890081 0.844095
0.882955 0.891474 0.852734
