omv/luts/20_mojave_blue_hour.cube
# Original OMV LUT; redistribution permitted with OMV.
TITLE "Mojave Blue Hour"
LUT_3D_SIZE 32
DOMAIN_MIN 0.0 0.0 0.0
DOMAIN_MAX 1.0 1.0 1.0
0.000000 0.012091 0.037545
0.023448 0.012770 0.052770
0.054679 0.014324 0.054324
0.085844 0.015811 0.055811
0.116973 0.017263 0.057263
0.148081 0.018694 0.058694
0.179175 0.020110 0.060110
0.210260 0.021518 0.061518
0.241340 0.022921 0.062921
0.272417 0.024320 0.064320
0.303493 0.025718 0.065718
0.334569 0.027117 0.067117
0.365651 0.028516 0.068514
0.396815 0.029902 0.069877
0.428095 0.031268 0.071194
0.459506 0.032612 0.072461
0.491062 0.033928 0.073676
0.522775 0.035214 0.074837
0.554657 0.036467 0.075941
0.586718 0.037682 0.076987
0.618968 0.038859 0.077972
0.651415 0.039993 0.078894
0.684069 0.041082 0.079753
0.716935 0.042124 0.080546
0.750020 0.043116 0.081272
0.783329 0.044058 0.081931
0.816867 0.044947 0.082522
0.850636 0.045781 0.083045
0.884641 0.046560 0.083498
0.918882 0.047282 0.083882
0.953360 0.047947 0.084198
0.988076 0.048554 0.084445
0.000000 0.039388 0.055035
0.025883 0.041657 0.057786
0.056985 0.043727 0.059211
0.088075 0.045140 0.060624
0.119158 0.046545 0.062029
0.150237 0.047946 0.063430
0.181313 0.049345 0.064829
0.212389 0.050744 0.066228
0.243465 0.052142 0.067626
0.274560 0.053540 0.069016
0.305733 0.054929 0.070362
0.337003 0.056305 0.071661
0.368384 0.057662 0.072909
0.399892 0.058999 0.074105
0.431538 0.060311 0.075246
0.463335 0.061595 0.076329
0.495295 0.062847 0.077353
0.527427 0.064064 0.078315
0.559741 0.065244 0.079214
0.592246 0.066383 0.080049
0.624948 0.067479 0.080818
0.657856 0.068530 0.081520
0.690974 0.069534 0.082154
0.724308 0.070489 0.082721
0.757862 0.071393 0.083218
0.791639 0.072244 0.083646
0.825642 0.073042 0.084005
0.859871 0.073786 0.084295
0.894328 0.074474 0.084518
0.929013 0.075106 0.084672
0.963923 0.075682 0.084760
0.999058 0.076201 0.084782
0.002136 0.067588 0.061136
0.028056 0.069636 0.062540
0.059133 0.071682 0.063940
0.090209 0.073725 0.065338
0.121285 0.075769 0.066737
0.152362 0.077168 0.068136
0.183466 0.078568 0.069511
0.214632 0.079964 0.070840
0.245875 0.081353 0.072121
0.277211 0.082731 0.073351
0.308655 0.084092 0.074527
0.340220 0.085434 0.075647
0.371919 0.086753 0.076709
0.403764 0.088045 0.077710
0.435766 0.089307 0.078650
0.467934 0.090536 0.079526
0.500278 0.091729 0.080337
0.532806 0.092883 0.081081
0.565526 0.093996 0.081759
0.598444 0.095065 0.082369
0.631564 0.096088 0.082910
0.664894 0.097064 0.083382
0.698435 0.097991 0.083785
0.732191 0.098866 0.084119
0.766164 0.099691 0.084384
0.800356 0.100462 0.084582
0.834766 0.101180 0.084712
0.869394 0.101843 0.084775
0.904239 0.102452 0.084774
0.939299 0.103007 0.084708
0.974570 0.103507 0.084581
1.000000 0.106129 0.086832
0.006847 0.095525 0.065847
0.032762 0.097569 0.067246
0.061260 0.099614 0.068642
0.092361 0.101666 0.070000
0.123503 0.103720 0.071312
0.154704 0.105772 0.072575
0.185979 0.107819 0.073785
0.217345 0.109209 0.074941
0.248815 0.110586 0.076040
0.280402 0.111944 0.077080
0.312119 0.113280 0.078059
0.343978 0.114591 0.078976
0.375988 0.115872 0.079829
0.408161 0.117122 0.080615
0.440503 0.118337 0.081336
0.473025 0.119514 0.081989
0.505732 0.120651 0.082573
0.538630 0.121746 0.083089
0.571726 0.122796 0.083536
0.605023 0.123800 0.083914
0.638526 0.124756 0.084223
0.672236 0.125663 0.084464
0.706155 0.126519 0.084637
0.740285 0.127324 0.084742
0.774626 0.128077 0.084782
0.809177 0.128777 0.084757
0.843936 0.129425 0.084669
0.878901 0.130019 0.084520
0.914068 0.130560 0.084311
0.949433 0.131050 0.084044
0.984991 0.131487 0.083723
1.000000 0.136279 0.089128
0.011556 0.123481 0.070484
0.037497 0.125553 0.071778
0.063479 0.127628 0.073022
0.094679 0.129703 0.074213
0.125952 0.131773 0.075348
0.157313 0.133833 0.076426
0.188775 0.135879 0.077444
0.220352 0.137908 0.078400
0.252055 0.139916 0.079294
0.283897 0.141254 0.080123
0.315886 0.142564 0.080886
0.348033 0.143842 0.081581
0.380346 0.145087 0.082210
0.412833 0.146295 0.082769
0.445501 0.147463 0.083260
0.478355 0.148591 0.083682
0.511401 0.149674 0.084035
0.544642 0.150712 0.084319
0.578082 0.151704 0.084535
0.611724 0.152647 0.084683
0.645569 0.153541 0.084764
0.679617 0.154384 0.084780
0.713869 0.155176 0.084732
0.748323 0.155917 0.084622
0.782978 0.156606 0.084450
0.817831 0.157244 0.084220
0.852878 0.157830 0.083934
0.888115 0.158365 0.083594
0.923537 0.158849 0.083202
0.959136 0.159285 0.082763
0.994906 0.159671 0.082278
1.000000 0.166432 0.091521
0.016206 0.151612 0.074632
0.042211 0.153720 0.075747
0.068288 0.155822 0.076803
0.097032 0.157916 0.077799
0.128456 0.159996 0.078733
0.159992 0.162059 0.079603
0.191653 0.164102 0.080408
0.223449 0.166120 0.081147
0.255390 0.168111 0.081818
0.287486 0.170071 0.082421
0.319744 0.171997 0.082956
0.352172 0.173242 0.083422
0.384776 0.174449 0.083818
0.417563 0.175614 0.084146
0.450536 0.176736 0.084405
0.483700 0.177814 0.084596
0.517058 0.178846 0.084720
0.550612 0.179830 0.084778
0.584364 0.180765 0.084770
0.618313 0.181650 0.084699
0.652459 0.182486 0.084566
0.686802 0.183271 0.084373
0.721338 0.184005 0.084122
0.756065 0.184688 0.083816
0.790979 0.185320 0.083457
0.826076 0.185903 0.083048
0.861348 0.186436 0.082591
0.896791 0.186921 0.082091
0.932397 0.187359 0.081551
0.968158 0.187751 0.080975
1.000000 0.188924 0.081837
1.000000 0.196572 0.094055
0.020649 0.179991 0.078147
0.046747 0.182127 0.079057
0.072944 0.184249 0.079904
0.099252 0.186354 0.080685
0.130844 0.188439 0.081399
0.162569 0.190499 0.082046
0.194437 0.192532 0.082624
0.226458 0.194534 0.083133
0.258638 0.196503 0.083574
0.290985 0.198436 0.083946
0.323505 0.200330 0.084248
0.356205 0.202184 0.084483
0.389087 0.203995 0.084649
0.422156 0.205116 0.084749
0.455414 0.206192 0.084782
0.488864 0.207220 0.084752
0.522507 0.208200 0.084658
0.556342 0.209131 0.084503
0.590369 0.210012 0.084288
0.624587 0.210843 0.084017
0.658992 0.211623 0.083691
0.693583 0.212354 0.083314
0.728354 0.213034 0.082887
0.763300 0.213666 0.082414
0.798416 0.214248 0.081899
0.833696 0.214783 0.081346
0.869130 0.215272 0.080757
0.904712 0.215716 0.080137
0.940431 0.216116 0.079491
0.976278 0.216476 0.078822
1.000000 0.219219 0.083116
1.000000 0.226681 0.096768
0.024751 0.208657 0.080953
0.050967 0.210811 0.081642
0.077306 0.212944 0.082264
0.103777 0.215052 0.082817
0.132971 0.217133 0.083302
0.164895 0.219183 0.083717
0.196978 0.221199 0.084064
0.229225 0.223179 0.084342
0.261644 0.225120 0.084551
0.294239 0.227021 0.084693
0.327013 0.228879 0.084769
0.359972 0.230692 0.084779
0.393117 0.232460 0.084725
0.426449 0.234180 0.084608
0.459970 0.235852 0.084431
0.493680 0.236830 0.084196
0.527577 0.237758 0.083905
0.561660 0.238637 0.083560
0.595926 0.239465 0.083164
0.630371 0.240244 0.082720
0.664992 0.240973 0.082231
0.699782 0.241653 0.081702
0.734737 0.242284 0.081135
0.769848 0.242869 0.080534
0.805108 0.243407 0.079904
0.840508 0.243902 0.079249
0.876039 0.244354 0.078574
0.911690 0.244764 0.077883
0.947450 0.245137 0.077182
0.983306 0.245474 0.076475
1.000000 0.249481 0.084518
1.000000 0.256743 0.099698
0.028403 0.237633 0.083002
0.054762 0.239794 0.083461
0.081262 0.241927 0.083851
0.107912 0.244029 0.084173
0.134719 0.246097 0.084426
0.166851 0.248127 0.084611
0.199153 0.250119 0.084728
0.231629 0.252070 0.084780
0.264283 0.253977 0.084766
0.297119 0.255840 0.084689
0.330138 0.257656 0.084551
0.363342 0.259425 0.084352
0.396732 0.261145 0.084096
0.430308 0.262816 0.083785
0.464067 0.264438 0.083421
0.498008 0.266009 0.083007
0.532129 0.267531 0.082547
0.566424 0.268357 0.082043
0.600890 0.269134 0.081500
0.635521 0.269861 0.080920
0.670311 0.270541 0.080308
0.705253 0.271173 0.079669
0.740337 0.271760 0.079006
0.775556 0.272303 0.078324
0.810900 0.272803 0.077629
0.846357 0.273263 0.076925
0.881917 0.273685 0.076218
0.917567 0.274071 0.075513
0.953293 0.274424 0.074816
0.989082 0.274748 0.074134
1.000000 0.279693 0.086070
1.000000 0.286740 0.102876
0.031525 0.266927 0.084273
0.058047 0.269084 0.084501
0.084726 0.271206 0.084661
0.111568 0.273290 0.084755
0.138580 0.275334 0.084782
0.168345 0.277337 0.084746
0.200869 0.279295 0.084646
0.233572 0.281208 0.084485
0.266458 0.283075 0.084266
0.299527 0.284893 0.083989
0.332779 0.286662 0.083659
0.366214 0.288381 0.083276
0.399830 0.290051 0.082845
0.433626 0.291669 0.082369
0.467598 0.293238 0.081850
0.501741 0.294755 0.081293
0.536051 0.296224 0.080701
0.570523 0.297642 0.080078
0.605149 0.299013 0.079430
0.639922 0.299691 0.078759
0.674833 0.300323 0.078072
0.709875 0.300911 0.077373
0.745035 0.301457 0.076667
0.780304 0.301962 0.075960
0.815669 0.302429 0.075258
0.851119 0.302860 0.074566
0.886639 0.303259 0.073891
0.922215 0.303628 0.073239
0.957832 0.303970 0.072616
0.993474 0.304289 0.072030
1.000000 0.309836 0.087794
1.000000 0.316652 0.106335
0.034064 0.296535 0.084772
0.060768 0.298674 0.084776
0.087641 0.300772 0.084716
0.114688 0.302828 0.084595
0.141911 0.304838 0.084412
0.169315 0.306802 0.084172
0.202061 0.308718 0.083875
0.234990 0.310586 0.083525
0.268100 0.312403 0.083125
0.301393 0.314170 0.082677
0.334865 0.315885 0.082184
0.368513 0.317550 0.081651
0.402336 0.319163 0.081081
0.436328 0.320725 0.080477
0.470484 0.322237 0.079845
0.504799 0.323699 0.079188
0.539264 0.325112 0.078511
0.573873 0.326478 0.077819
0.608617 0.327797 0.077117
0.643486 0.329071 0.076410
0.678471 0.330303 0.075704
0.713559 0.330848 0.075005
0.748740 0.331356 0.074318
0.783999 0.331827 0.073651
0.819323 0.332266 0.073008
0.854698 0.332674 0.072398
0.890108 0.333056 0.071828
0.925536 0.333415 0.071303
0.960966 0.333753 0.070832
0.996380 0.334077 0.070423
1.000000 0.339894 0.089711
1.000000 0.346461 0.110104
0.035993 0.326437 0.084535
0.062897 0.328545 0.084331
0.089978 0.330607 0.084070
0.117239 0.332622 0.083754
0.144682 0.334587 0.083385
0.172307 0.336502 0.082967
0.202695 0.338366 0.082502
0.235845 0.340178 0.081995
0.269173 0.341938 0.081448
0.302677 0.343646 0.080865
0.336353 0.345302 0.080250
0.370198 0.346905 0.079608
0.404204 0.348457 0.078944
0.438367 0.349959 0.078260
0.472678 0.351411 0.077564
0.507131 0.352814 0.076860
0.541715 0.354170 0.076152
0.576422 0.355481 0.075448
0.611241 0.356748 0.074753
0.646160 0.357974 0.074073
0.681166 0.359161 0.073413
0.716248 0.360311 0.072782
0.751390 0.361428 0.072186
0.786578 0.361869 0.071631
0.821797 0.362284 0.071125
0.857029 0.362674 0.070676
0.892256 0.363045 0.070291
0.927462 0.363400 0.069978
0.962626 0.363743 0.069746
0.997729 0.364079 0.069602
1.000000 0.369847 0.091837
1.000000 0.376147 0.114212
0.037318 0.356603 0.083625
0.064437 0.358666 0.083238
0.091738 0.360679 0.082803
0.119223 0.362640 0.082322
0.146890 0.364548 0.081800
0.174738 0.366403 0.081239
0.202765 0.368204 0.080645
0.236129 0.369952 0.080020
0.269665 0.371646 0.079369
0.303369 0.373287 0.078697
0.337233 0.374875 0.078008
0.371253 0.376411 0.077308
0.405420 0.377897 0.076602
0.439726 0.379333 0.075895
0.474162 0.380720 0.075194
0.508718 0.382061 0.074503
0.543384 0.383358 0.073830
0.578147 0.384612 0.073180
0.612995 0.385827 0.072561
0.647915 0.387004 0.071979
0.682891 0.388147 0.071441
0.717911 0.389258 0.070955
0.752956 0.390342 0.070528
0.788010 0.391401 0.070168
0.823056 0.392440 0.069884
0.858075 0.392817 0.069683
0.893048 0.393182 0.069574
0.927954 0.393540 0.069566
0.962772 0.393894 0.069667
0.997480 0.394251 0.069888
1.000000 0.399678 0.094185
1.000000 0.405693 0.118658
0.038073 0.386990 0.082137
0.065421 0.388994 0.081600
0.092952 0.390943 0.081027
0.120667 0.392837 0.080420
0.148561 0.394675 0.079785
0.176632 0.396459 0.079126
0.204875 0.398187 0.078448
0.235866 0.399860 0.077754
0.269599 0.401479 0.077052
0.303487 0.403045 0.076345
0.337521 0.404558 0.075639
0.371694 0.406020 0.074941
0.405996 0.407432 0.074256
0.440417 0.408797 0.073590
0.474946 0.410116 0.072951
0.509570 0.411391 0.072344
0.544277 0.412625 0.071777
0.579053 0.413821 0.071257
0.613885 0.414981 0.070792
0.648755 0.416109 0.070389
0.683648 0.417208 0.070056
0.718548 0.418282 0.069800
0.753435 0.419334 0.069632
0.788292 0.420369 0.069559
0.823098 0.421391 0.069589
0.857832 0.422405 0.069733
0.892475 0.423414 0.069999
0.927035 0.423776 0.070357
0.961582 0.424130 0.070711
0.996119 0.424474 0.071055
1.000000 0.429383 0.096511
1.000000 0.435094 0.123158
0.038320 0.417543 0.080192
0.065909 0.419471 0.079548
0.093680 0.421342 0.078881
0.121629 0.423156 0.078197
0.149752 0.424913 0.077499
0.178044 0.426612 0.076794
0.206498 0.428256 0.076087
0.235107 0.429844 0.075384
0.269024 0.431378 0.074689
0.303080 0.432859 0.074011
0.337265 0.434289 0.073354
0.371568 0.435670 0.072726
0.405979 0.437003 0.072133
0.440484 0.438291 0.071582
0.475071 0.439536 0.071081
0.509725 0.440741 0.070638
0.544433 0.441910 0.070259
0.579178 0.443045 0.069953
0.613944 0.444149 0.069729
0.648714 0.445227 0.069594
0.683469 0.446282 0.069557
0.718190 0.447318 0.069628
0.752857 0.448341 0.069815
0.787450 0.449353 0.070128
0.822003 0.450358 0.070487
0.856547 0.451353 0.070837
0.891081 0.452339 0.071178
0.925606 0.453316 0.071509
0.960121 0.454282 0.071831
0.994628 0.454594 0.072140
1.000000 0.458981 0.098624
1.000000 0.464394 0.127645
0.038151 0.448194 0.077944
0.065993 0.450032 0.077243
0.094010 0.451810 0.076537
0.122198 0.453529 0.075830
0.150550 0.455190 0.075130
0.179059 0.456794 0.074440
0.207717 0.458341 0.073769
0.236513 0.459833 0.073122
0.268021 0.461272 0.072505
0.302227 0.462660 0.071927
0.336541 0.463998 0.071394
0.370950 0.465289 0.070913
0.405440 0.466536 0.070492
0.439998 0.467741 0.070139
0.474608 0.468908 0.069862
0.509254 0.470038 0.069669
0.543920 0.471137 0.069569
0.578588 0.472208 0.069570
0.613239 0.473254 0.069682
0.647854 0.474281 0.069914
0.682421 0.475292 0.070259
0.716970 0.476293 0.070616
0.751511 0.477285 0.070962
0.786042 0.478268 0.071300
0.820563 0.479240 0.071627
0.855074 0.480203 0.071945
0.889588 0.481158 0.072242
0.924151 0.482116 0.072480
0.958768 0.483077 0.072658
0.993438 0.484038 0.072775
1.000000 0.488627 0.100585
1.000000 0.493725 0.132198
0.037690 0.478864 0.075574
0.065793 0.480595 0.074877
0.094062 0.482265 0.074193
0.122491 0.483876 0.073530
0.151071 0.485427 0.072893
0.179792 0.486922 0.072290
0.208644 0.488361 0.071727
0.237617 0.489746 0.071212
0.266698 0.491079 0.070752
0.301036 0.492363 0.070355
0.335456 0.493601 0.070029
0.369944 0.494795 0.069781
0.404485 0.495948 0.069621
0.439061 0.497063 0.069557
0.473657 0.498145 0.069598
0.508254 0.499196 0.069752
0.542834 0.500222 0.070030
0.577390 0.501229 0.070390
0.611936 0.502227 0.070743
0.646473 0.503215 0.071086
0.681001 0.504194 0.071420
0.715518 0.505164 0.071744
0.750026 0.506123 0.072058
0.784553 0.507079 0.072336
0.819131 0.508039 0.072552
0.853759 0.509003 0.072708
0.888437 0.509967 0.072803
0.923165 0.510931 0.072840
0.957943 0.511894 0.072819
0.992770 0.512855 0.072741
1.000000 0.517108 0.102473
1.000000 0.522485 0.136899
0.037087 0.509462 0.073295
0.065459 0.511070 0.072670
0.093985 0.512616 0.072080
0.122655 0.514103 0.071534
0.151459 0.515531 0.071038
0.180386 0.516903 0.070600
0.209423 0.518221 0.070228
0.238558 0.519487 0.069929
0.267777 0.520704 0.069712
0.299645 0.521875 0.069586
0.334147 0.523002 0.069559
0.368686 0.524090 0.069640
0.403245 0.525142 0.069839
0.437806 0.526161 0.070161
0.472358 0.527165 0.070520
0.506901 0.528159 0.070869
0.541435 0.529145 0.071209
0.575959 0.530120 0.071539
0.610473 0.531086 0.071860
0.644980 0.532042 0.072166
0.679523 0.533001 0.072422
0.714113 0.533964 0.072616
0.748749 0.534931 0.072749
0.783433 0.535899 0.072824
0.818164 0.536868 0.072839
0.852941 0.537835 0.072797
0.887765 0.538801 0.072698
0.922634 0.539762 0.072544
0.957550 0.540719 0.072334
0.992510 0.541670 0.072071
1.000000 0.545593 0.104344
1.000000 0.550631 0.141826
0.036525 0.539885 0.071347
0.065173 0.541352 0.070871
0.093957 0.542759 0.070456
0.122868 0.544106 0.070110
0.151892 0.545397 0.069840
0.181016 0.546632 0.069655
0.210226 0.547816 0.069564
0.239508 0.548951 0.069576
0.268845 0.550040 0.069699
0.298221 0.551087 0.069942
0.332776 0.552099 0.070293
0.367325 0.553100 0.070648
0.401865 0.554091 0.070994
0.436395 0.555072 0.071330
0.470915 0.556044 0.071657
0.505425 0.557006 0.071974
0.539940 0.557962 0.072266
0.574495 0.558924 0.072499
0.609095 0.559891 0.072671
0.643738 0.560862 0.072783
0.678425 0.561834 0.072836
0.713156 0.562808 0.072830
0.747931 0.563780 0.072768
0.782749 0.564751 0.072648
0.817611 0.565719 0.072474
0.852515 0.566682 0.072245
0.887462 0.567639 0.071962
0.922450 0.568589 0.071628
0.957480 0.569531 0.071242
0.992549 0.570464 0.070806
1.000000 0.574034 0.106249
1.000000 0.578679 0.147049
0.036215 0.570018 0.070002
0.065142 0.571328 0.069763
0.094187 0.572578 0.069611
0.123335 0.573770 0.069556
0.152573 0.574908 0.069607
0.181885 0.575993 0.069773
0.211256 0.577030 0.070062
0.240649 0.578036 0.070423
0.270033 0.579033 0.070775
0.299408 0.580021 0.071118
0.331354 0.580999 0.071451
0.365870 0.581967 0.071774
0.400377 0.582925 0.072086
0.434903 0.583884 0.072358
0.469469 0.584850 0.072569
0.504076 0.585821 0.072719
0.538723 0.586796 0.072809
0.573412 0.587773 0.072841
0.608141 0.588751 0.072814
0.642911 0.589730 0.072731
0.677723 0.590706 0.072591
0.712574 0.591680 0.072397
0.747466 0.592649 0.072148
0.782398 0.593613 0.071846
0.817368 0.594570 0.071493
0.852377 0.595519 0.071089
0.887424 0.596459 0.070635
0.922507 0.597389 0.070132
0.957627 0.598307 0.069583
0.992780 0.599213 0.068987
1.000000 0.602386 0.108221
1.000000 0.606583 0.152632
0.036399 0.599734 0.069562
0.065609 0.600869 0.069654
0.094912 0.601946 0.069863
0.124291 0.602969 0.070194
0.153681 0.603972 0.070552
0.183062 0.604965 0.070901
0.212433 0.605950 0.071240
0.241795 0.606924 0.071569
0.271147 0.607889 0.071889
0.300493 0.608845 0.072193
0.329869 0.609807 0.072442
0.364443 0.610777 0.072630
0.399055 0.611753 0.072759
0.433704 0.612732 0.072827
0.468392 0.613715 0.072838
0.503118 0.614699 0.072790
0.537881 0.615683 0.072686
0.572683 0.616666 0.072527
0.607523 0.617646 0.072312
0.642401 0.618622 0.072044
0.677315 0.619593 0.071724
0.712267 0.620557 0.071352
0.747254 0.621514 0.070929
0.782277 0.622461 0.070458
0.817334 0.623399 0.069938
0.852425 0.624325 0.069371
0.887549 0.625239 0.068759
0.922704 0.626139 0.068103
0.957889 0.627025 0.067403
0.993103 0.627895 0.066662
1.000000 0.630605 0.110276
1.000000 0.634293 0.158629
0.037326 0.628906 0.070326
0.066712 0.629906 0.070680
0.096090 0.630896 0.071025
0.125458 0.631877 0.071361
0.154816 0.632848 0.071687
0.184164 0.633809 0.072003
0.213516 0.634767 0.072290
0.242901 0.635733 0.072518
0.272320 0.636707 0.072684
0.301773 0.637688 0.072791
0.331261 0.638673 0.072838
0.363365 0.639661 0.072827
0.398085 0.640651 0.072759
0.432840 0.641642 0.072635
0.467631 0.642631 0.072455
0.502457 0.643618 0.072221
0.537318 0.644601 0.071934
0.572214 0.645579 0.071594
0.607144 0.646551 0.071204
0.642109 0.647515 0.070763
0.677106 0.648471 0.070274
0.712136 0.649416 0.069737
0.747197 0.650350 0.069154
0.782289 0.651272 0.068525
0.817411 0.652180 0.067853
0.852561 0.653074 0.067138
0.887738 0.653953 0.066382
0.922941 0.654815 0.065586
0.958169 0.655659 0.064752
0.993419 0.656485 0.063881
1.000000 0.658648 0.112411
1.000000 0.661765 0.165086
0.038481 0.657803 0.071481
0.067835 0.658771 0.071803
0.097180 0.659728 0.072114
0.126541 0.660690 0.072380
0.155933 0.661661 0.072585
0.185355 0.662640 0.072730
0.214809 0.663626 0.072815
0.244295 0.664617 0.072841
0.273813 0.665612 0.072809
0.303364 0.666608 0.072720
0.332947 0.667605 0.072576
0.362564 0.668602 0.072376
0.397375 0.669596 0.072123
0.432218 0.670586 0.071816
0.467093 0.671572 0.071458
0.502001 0.672551 0.071049
0.536941 0.673523 0.070591
0.571911 0.674487 0.070084
0.606912 0.675440 0.069530
0.641943 0.676382 0.068930
0.677002 0.677313 0.068286
0.712089 0.678229 0.067598
0.747203 0.679131 0.066868
0.782342 0.680018 0.066097
0.817505 0.680888 0.065287
0.852692 0.681741 0.064439
0.887899 0.682575 0.063555
0.923126 0.683390 0.062635
0.958371 0.684184 0.061683
0.993633 0.684957 0.060698
1.000000 0.686479 0.114592
1.000000 0.688956 0.172034
0.039568 0.686615 0.072462
0.068964 0.687591 0.072645
0.098387 0.688576 0.072767
0.127840 0.689568 0.072831
0.157321 0.690565 0.072836
0.186832 0.691566 0.072783
0.216373 0.692570 0.072674
0.245944 0.693574 0.072509
0.275546 0.694578 0.072290
0.305178 0.695579 0.072017
0.334841 0.696578 0.071692
0.364533 0.697571 0.071315
0.396836 0.698559 0.070888
0.431749 0.699539 0.070412
0.466692 0.700510 0.069887
0.501662 0.701472 0.069317
0.536661 0.702423 0.068700
0.571686 0.703361 0.068040
0.606737 0.704286 0.067337
0.641814 0.705197 0.066592
0.676914 0.706092 0.065806
0.712037 0.706971 0.064983
0.747181 0.707831 0.064121
0.782345 0.708673 0.063224
0.817528 0.709496 0.062292
0.852727 0.710298 0.061328
0.887941 0.711079 0.060332
0.923168 0.711837 0.059306
0.958407 0.712572 0.058252
0.993655 0.713284 0.057171
1.000000 0.714065 0.116750
1.000000 0.715825 0.179492
0.040863 0.715514 0.072839
0.070338 0.716518 0.072823
0.099840 0.717526 0.072750
0.129370 0.718536 0.072620
0.158927 0.719548 0.072436
0.188512 0.720559 0.072197
0.218125 0.721569 0.071905
0.247766 0.722575 0.071560
0.277435 0.723577 0.071165
0.307132 0.724573 0.070720
0.336857 0.725561 0.070226
0.366608 0.726541 0.069685
0.396386 0.727511 0.069098
0.431351 0.728471 0.068465
0.466341 0.729418 0.067789
0.501356 0.730351 0.067070
0.536393 0.731270 0.066310
0.571454 0.732174 0.065511
0.606535 0.733061 0.064673
0.641637 0.733930 0.063799
0.676757 0.734780 0.062889
0.711894 0.735611 0.061945
0.747047 0.736421 0.060968
0.782213 0.737209 0.059961
0.817392 0.737975 0.058925
0.852581 0.738717 0.057861
0.887778 0.739435 0.056771
0.922982 0.740128 0.055657
0.958189 0.740795 0.054520
0.993398 0.741436 0.053362
1.000000 0.741378 0.118766
1.000000 0.742335 0.187461
0.042353 0.744509 0.072560
0.071894 0.745528 0.072355
0.101461 0.746547 0.072096
0.131053 0.747565 0.071785
0.160671 0.748580 0.071422
0.190315 0.749590 0.071009
0.219985 0.750594 0.070546
0.249681 0.751591 0.070035
0.279401 0.752580 0.069476
0.309146 0.753559 0.068872
0.338915 0.754527 0.068224
0.368708 0.755482 0.067532
0.398523 0.756425 0.066798
0.430941 0.757352 0.066024
0.465961 0.758265 0.065210
0.501000 0.759160 0.064359
0.536058 0.760037 0.063471
0.571133 0.760896 0.062549
0.606224 0.761734 0.061593
0.641330 0.762552 0.060605
0.676448 0.763348 0.059587
0.711578 0.764121 0.058541
0.746717 0.764870 0.057467
0.781864 0.765595 0.056368
0.817016 0.766294 0.055245
0.852171 0.766968 0.054101
0.887328 0.767614 0.052936
0.922483 0.768233 0.051753
0.957634 0.768823 0.050552
0.992780 0.769385 0.049338
1.000000 0.768402 0.120458
1.000000 0.768452 0.195922
0.043961 0.773567 0.071659
0.073555 0.774590 0.071277
0.103173 0.775609 0.070846
0.132814 0.776622 0.070365
0.162479 0.777628 0.069837
0.192167 0.778626 0.069262
0.221878 0.779614 0.068641
0.251612 0.780591 0.067977
0.281367 0.781555 0.067270
0.311144 0.782506 0.066521
0.340940 0.783443 0.065732
0.370757 0.784363 0.064905
0.400592 0.785267 0.064040
0.430444 0.786153 0.063139
0.465474 0.787019 0.062205
0.500518 0.787866 0.061237
0.535577 0.788691 0.060238
0.570647 0.789495 0.059210
0.605727 0.790275 0.058153
0.640816 0.791031 0.057070
0.675911 0.791763 0.055962
0.711012 0.792469 0.054831
0.746115 0.793148 0.053679
0.781219 0.793800 0.052507
0.816321 0.794424 0.051317
0.851419 0.795019 0.050112
0.886511 0.795585 0.048892
0.921594 0.796120 0.047660
0.956664 0.796625 0.046417
0.991721 0.797098 0.045166
1.000000 0.795128 0.121549
1.000000 0.794148 0.204828
0.045618 0.802658 0.070178
0.075251 0.803673 0.069633
0.104906 0.804680 0.069041
0.134582 0.805677 0.068404
0.164278 0.806663 0.067724
0.193995 0.807636 0.067002
0.223732 0.808596 0.066238
0.253488 0.809541 0.065435
0.283261 0.810471 0.064594
0.313053 0.811383 0.063716
0.342860 0.812277 0.062803
0.372682 0.813152 0.061856
0.402518 0.814006 0.060877
0.432367 0.814839 0.059867
0.464808 0.815650 0.058828
0.499838 0.816438 0.057762
0.534877 0.817201 0.056669
0.569921 0.817939 0.055553
0.604970 0.818651 0.054414
