omv/luts/20_mojave_blue_hour.cube
# Original OMV LUT; redistribution permitted with OMV.
TITLE "Mojave Blue Hour"
LUT_3D_SIZE 5
DOMAIN_MIN 0.000000 0.000000 0.000000
DOMAIN_MAX 0.903226 0.903226 0.903226
0.000000 0.012091 0.037545
0.210260 0.021518 0.061518
0.428095 0.031268 0.071194
0.651415 0.039993 0.078894
0.884641 0.046560 0.083498
0.024751 0.208657 0.080953
0.229225 0.223179 0.084342
0.459970 0.235852 0.084431
0.699782 0.241653 0.081702
0.947450 0.245137 0.077182
0.038320 0.417543 0.080192
0.235107 0.429844 0.075384
0.475071 0.439536 0.071081
0.718190 0.447318 0.069628
0.960121 0.454282 0.071831
0.037326 0.628906 0.070326
0.242901 0.635733 0.072518
0.467631 0.642631 0.072455
0.712136 0.649416 0.069737
0.958169 0.655659 0.064752
0.047256 0.831748 0.068162
0.255240 0.838410 0.062462
0.463893 0.844123 0.055141
0.708836 0.848548 0.046756
0.953182 0.851417 0.037937
0.000000 0.016730 0.230890
0.195525 0.024848 0.252267
0.414193 0.034417 0.246319
0.639650 0.042504 0.255753
0.875208 0.048183 0.263585
0.027384 0.216725 0.274646
0.214727 0.230709 0.265881
0.446679 0.238096 0.270467
0.687490 0.243077 0.272605
0.935468 0.245883 0.272856
0.038237 0.425016 0.272868
0.236138 0.436387 0.272680
0.458558 0.445324 0.272265
0.701135 0.452716 0.273490
0.942867 0.455023 0.275719
0.038153 0.634250 0.274379
0.243856 0.641041 0.276102
0.450992 0.647953 0.275435
0.695859 0.654599 0.272462
0.942084 0.660573 0.267513
0.048367 0.837075 0.270869
0.256369 0.843457 0.265298
0.464884 0.848767 0.258320
0.691412 0.852691 0.250436
0.935136 0.854983 0.242220
0.000000 0.018734 0.458924
0.180786 0.028173 0.458818
0.400725 0.037387 0.454150
0.628228 0.044734 0.450702
0.865934 0.049477 0.446761
0.029762 0.224647 0.486766
0.218075 0.233479 0.482319
0.433118 0.240057 0.475875
0.674790 0.244246 0.466973
0.922852 0.246463 0.471513
0.037988 0.432165 0.500490
0.236999 0.442645 0.488495
0.441785 0.450929 0.475160
0.683902 0.453547 0.477547
0.925885 0.455766 0.479369
0.038926 0.639539 0.494184
0.244951 0.646373 0.479523
0.452499 0.653244 0.478462
0.679591 0.659703 0.475397
0.925930 0.665371 0.470601
0.049416 0.842323 0.473834
0.257383 0.848380 0.468492
0.465697 0.853251 0.461910
0.673736 0.856645 0.454533
0.916754 0.858341 0.446879
0.002703 0.021703 0.671380
0.184277 0.031447 0.665729
0.387590 0.040139 0.663760
0.617041 0.046658 0.664220
0.856706 0.050441 0.664909
0.031862 0.227868 0.701912
0.221177 0.235984 0.702240
0.419256 0.241738 0.700648
0.661645 0.245183 0.696207
0.909561 0.246924 0.688543
0.037621 0.438996 0.731160
0.237735 0.448644 0.722338
0.442858 0.451885 0.710682
0.666614 0.454324 0.697356
0.909152 0.456499 0.682885
0.039710 0.644808 0.729680
0.246156 0.651709 0.714502
0.454055 0.658487 0.697426
0.663303 0.664716 0.678600
0.909673 0.665526 0.674049
0.050382 0.847474 0.708719
0.258260 0.853166 0.687873
0.466310 0.857564 0.665908
0.673850 0.860402 0.659020
0.898013 0.861485 0.651862
0.006032 0.025032 0.877935
0.188013 0.034587 0.873842
0.374693 0.042635 0.875739
0.605989 0.048263 0.880885
0.847419 0.051080 0.886596
0.033667 0.230869 0.920390
0.224014 0.238212 0.925747
0.423133 0.243149 0.928877
0.648027 0.245919 0.928386
0.895563 0.247317 0.923432
0.037194 0.445523 0.964494
0.238400 0.449905 0.957815
0.443763 0.452763 0.946441
0.649361 0.455064 0.932877
0.892628 0.457204 0.917987
0.040623 0.650118 0.965016
0.247442 0.657030 0.949523
0.455632 0.663666 0.932398
0.665030 0.665108 0.913730
0.893285 0.665543 0.893684
0.051247 0.852515 0.943949
0.258982 0.857802 0.923454
0.466703 0.861697 0.901915
0.673670 0.863957 0.879665
0.878892 0.864412 0.857105
