omv/luts/20_mojave_blue_hour.cube
# Original OMV LUT; redistribution permitted with OMV.
TITLE "Mojave Blue Hour"
LUT_3D_SIZE 8
DOMAIN_MIN 0.000000 0.000000 0.000000
DOMAIN_MAX 0.903226 0.903226 0.903226
0.000000 0.012091 0.037545
0.116973 0.017263 0.057263
0.241340 0.022921 0.062921
0.365651 0.028516 0.068514
0.491062 0.033928 0.073676
0.618968 0.038859 0.077972
0.750020 0.043116 0.081272
0.884641 0.046560 0.083498
0.011556 0.123481 0.070484
0.125952 0.131773 0.075348
0.252055 0.139916 0.079294
0.380346 0.145087 0.082210
0.511401 0.149674 0.084035
0.645569 0.153541 0.084764
0.782978 0.156606 0.084450
0.923537 0.158849 0.083202
0.028403 0.237633 0.083002
0.134719 0.246097 0.084426
0.264283 0.253977 0.084766
0.396732 0.261145 0.084096
0.532129 0.267531 0.082547
0.670311 0.270541 0.080308
0.810900 0.272803 0.077629
0.953293 0.274424 0.074816
0.037318 0.356603 0.083625
0.146890 0.364548 0.081800
0.269665 0.371646 0.079369
0.405420 0.377897 0.076602
0.543384 0.383358 0.073830
0.682891 0.388147 0.071441
0.823056 0.392440 0.069884
0.962772 0.393894 0.069667
0.037690 0.478864 0.075574
0.151071 0.485427 0.072893
0.266698 0.491079 0.070752
0.404485 0.495948 0.069621
0.542834 0.500222 0.070030
0.681001 0.504194 0.071420
0.819131 0.508039 0.072552
0.957943 0.511894 0.072819
0.036399 0.599734 0.069562
0.153681 0.603972 0.070552
0.271147 0.607889 0.071889
0.399055 0.611753 0.072759
0.537881 0.615683 0.072686
0.677315 0.619593 0.071724
0.817334 0.623399 0.069938
0.957889 0.627025 0.067403
0.040863 0.715514 0.072839
0.158927 0.719548 0.072436
0.277435 0.723577 0.071165
0.396386 0.727511 0.069098
0.536393 0.731270 0.066310
0.676757 0.734780 0.062889
0.817392 0.737975 0.058925
0.958189 0.740795 0.054520
0.047256 0.831748 0.068162
0.166002 0.835649 0.065133
0.285016 0.839293 0.061503
0.404234 0.842609 0.057367
0.533888 0.845532 0.052828
0.673860 0.848006 0.047996
0.813682 0.849981 0.042990
0.953182 0.851417 0.037937
0.000000 0.015301 0.141031
0.108590 0.019203 0.166299
0.232918 0.024821 0.162886
0.357360 0.030394 0.168464
0.483381 0.035667 0.173787
0.612006 0.040388 0.178605
0.743830 0.044383 0.182735
0.879225 0.047527 0.186046
0.013449 0.128001 0.179479
0.117686 0.136272 0.175610
0.244121 0.141727 0.180196
0.372857 0.146718 0.184041
0.504418 0.151073 0.187032
0.639101 0.154674 0.189113
0.776984 0.157460 0.190287
0.917920 0.159429 0.190612
0.029732 0.242267 0.185233
0.136338 0.250550 0.187896
0.255941 0.258200 0.189644
0.388770 0.265108 0.190499
0.524513 0.268641 0.190542
0.662958 0.271389 0.189913
0.803674 0.273419 0.188812
0.946009 0.274857 0.187495
0.037689 0.361098 0.190602
0.147627 0.368759 0.190381
0.260423 0.375567 0.189554
0.396447 0.381540 0.188342
0.534556 0.386756 0.187023
0.674032 0.391354 0.185938
0.813938 0.392949 0.185486
0.953117 0.394380 0.186125
0.037454 0.482905 0.187857
0.151234 0.489148 0.186582
0.267146 0.494516 0.185678
0.394729 0.499159 0.185567
0.533001 0.503292 0.186647
0.671116 0.507213 0.187987
0.809403 0.511052 0.188900
0.948458 0.514902 0.188931
0.036674 0.602966 0.185815
0.154152 0.607023 0.187152
0.271579 0.610893 0.188419
0.389346 0.614789 0.189012
0.528345 0.618722 0.188730
0.667932 0.622605 0.187627
0.808077 0.626358 0.185763
0.948725 0.629907 0.183207
0.041446 0.718583 0.189008
0.159619 0.722626 0.188421
0.278224 0.726632 0.187033
0.397252 0.730516 0.184909
0.526990 0.734198 0.182120
0.667374 0.737608 0.178745
0.807993 0.740681 0.174871
0.948730 0.743363 0.170592
0.047897 0.834801 0.183966
0.166661 0.838623 0.180954
0.285670 0.842163 0.177387
0.404853 0.845352 0.173355
0.524112 0.848129 0.168953
0.663969 0.850439 0.164287
0.803628 0.852236 0.159470
0.942910 0.853480 0.154621
0.000000 0.017106 0.262217
0.100185 0.021120 0.284346
0.224495 0.026721 0.280914
0.349227 0.032234 0.277555
0.475852 0.037342 0.274283
0.605178 0.041834 0.279857
0.737747 0.045551 0.285009
0.873876 0.048388 0.289557
0.015323 0.132524 0.297721
0.119740 0.138163 0.294411
0.236189 0.143484 0.290825
0.365367 0.148276 0.286743
0.497419 0.152385 0.291036
0.632594 0.155713 0.294564
0.770916 0.158218 0.297280
0.912189 0.159920 0.299194
0.030969 0.246846 0.306453
0.137877 0.254930 0.301445
0.247518 0.262337 0.295648
0.380718 0.266397 0.298068
0.516789 0.269660 0.299702
0.655469 0.272154 0.300642
0.796275 0.273965 0.301036
0.938504 0.275242 0.301093
0.037970 0.365498 0.307782
0.148279 0.372871 0.300118
0.261415 0.379390 0.300839
0.387372 0.385095 0.301083
0.525603 0.390083 0.301081
0.665016 0.391931 0.301122
0.804622 0.393439 0.301555
0.943289 0.394870 0.302741
0.037206 0.486834 0.301097
0.151387 0.492767 0.301073
0.267576 0.497870 0.301214
0.384938 0.502310 0.301889
0.523151 0.506345 0.303248
0.661227 0.510216 0.304524
0.799753 0.514067 0.305181
0.939036 0.515321 0.305018
0.037092 0.606092 0.302350
0.154606 0.610058 0.303735
0.272067 0.613910 0.304860
0.390010 0.617829 0.305214
0.518848 0.621755 0.304764
0.658574 0.625602 0.303556
0.798831 0.629294 0.301645
0.939557 0.632759 0.299094
0.042055 0.721659 0.305141
0.160329 0.725699 0.304409
0.279020 0.729673 0.302938
0.398115 0.733497 0.300787
0.517570 0.737094 0.298020
0.657962 0.740396 0.294712
0.798550 0.743343 0.290941
0.939210 0.745880 0.286797
0.048521 0.837830 0.299847
0.167294 0.841565 0.296874
0.286286 0.844993 0.293388
0.405422 0.848049 0.289471
0.524596 0.850673 0.285215
0.654003 0.852813 0.280718
0.793483 0.854426 0.276087
0.932531 0.855476 0.271435
0.000000 0.018284 0.392045
0.102090 0.023026 0.402381
0.216079 0.028621 0.398949
0.341233 0.034026 0.395938
0.468454 0.038945 0.393357
0.598463 0.043189 0.390866
0.731748 0.046616 0.388179
0.868574 0.049141 0.394092
0.017167 0.134460 0.416320
0.121779 0.140018 0.413809
0.228248 0.145179 0.411277
0.357862 0.149754 0.408457
0.490392 0.153606 0.405133
0.626035 0.156656 0.401151
0.764763 0.158884 0.405442
0.906330 0.160327 0.408934
0.032112 0.251364 0.428667
0.139330 0.259231 0.425119
0.249332 0.263805 0.420869
0.372570 0.267595 0.415838
0.508950 0.270590 0.410009
0.647837 0.272839 0.412454
0.788696 0.274450 0.414239
0.930773 0.275588 0.415524
0.038165 0.369802 0.435160
0.148850 0.376884 0.429047
0.262321 0.383119 0.422205
0.378199 0.388566 0.414755
0.516528 0.390763 0.415909
0.655845 0.392469 0.416876
0.795111 0.393921 0.417954
0.933440 0.395344 0.419344
0.036958 0.490655 0.433278
0.151541 0.496290 0.425301
0.267997 0.501146 0.417238
0.385443 0.505411 0.418443
0.513284 0.509380 0.419832
0.651411 0.513225 0.420979
0.790174 0.514499 0.421416
0.929670 0.515729 0.421100
0.037579 0.609159 0.427998
0.155041 0.613074 0.420299
0.272611 0.616939 0.421227
0.390720 0.620870 0.421386
0.509384 0.624779 0.420805
0.649237 0.628582 0.419525
0.789591 0.632204 0.417596
0.930379 0.635577 0.415074
0.042685 0.724737 0.421258
0.161051 0.728765 0.420418
0.279819 0.732697 0.418895
0.398969 0.736452 0.416744
0.518452 0.739956 0.414021
0.648515 0.743144 0.410795
0.789057 0.745957 0.407140
0.929625 0.748345 0.403138
0.049124 0.840832 0.415815
0.167896 0.844471 0.412901
0.286862 0.847780 0.409510
0.405938 0.850695 0.405719
0.525015 0.853160 0.401612
0.643956 0.855126 0.397284
0.783244 0.856552 0.392834
0.922042 0.857403 0.388369
0.000309 0.019309 0.523825
0.103991 0.024927 0.520410
0.207751 0.030497 0.517101
0.333360 0.035762 0.514723
0.461168 0.040471 0.513063
0.591840 0.044450 0.511730
0.725813 0.047578 0.510383
0.863297 0.049786 0.508736
0.018973 0.136378 0.535410
0.123794 0.141826 0.533912
0.230610 0.146807 0.532610
0.350331 0.151148 0.531184
0.483324 0.154734 0.529369
0.619411 0.157504 0.526958
0.758512 0.159458 0.523803
0.900328 0.160653 0.519812
0.033158 0.255813 0.551933
0.140695 0.260869 0.549922
0.251058 0.265181 0.547255
0.364324 0.268700 0.543803
0.500994 0.271433 0.539497
0.640058 0.273451 0.534329
0.780932 0.274879 0.528348
0.922809 0.275906 0.530695
0.038280 0.374008 0.563689
0.149346 0.380799 0.559067
0.263147 0.386757 0.553594
0.379252 0.389380 0.547341
0.507335 0.391387 0.540438
0.646523 0.392977 0.533076
0.785405 0.394407 0.534536
0.923574 0.395800 0.535929
0.036724 0.494370 0.566247
0.151708 0.499723 0.559152
0.268423 0.504353 0.551681
0.385931 0.508480 0.544093
0.503398 0.512398 0.536398
0.641673 0.513657 0.537366
0.780659 0.514926 0.537625
0.920353 0.516124 0.537193
0.038049 0.612210 0.562662
0.155474 0.616078 0.554895
0.273205 0.619975 0.546574
0.391468 0.623909 0.537546
0.510270 0.627790 0.536870
0.639913 0.631540 0.535550
0.780351 0.635085 0.533628
0.921186 0.635779 0.531155
0.043333 0.727814 0.555442
0.161781 0.731819 0.545495
0.280615 0.735700 0.534918
0.399809 0.739378 0.532789
0.519307 0.742782 0.530129
0.639028 0.745848 0.527000
0.779509 0.748522 0.523469
0.919970 0.750755 0.519613
0.049701 0.843805 0.540911
0.168463 0.847339 0.529041
0.287391 0.850521 0.525757
0.406397 0.853290 0.522099
0.525363 0.855590 0.518145
0.644149 0.857377 0.513982
0.772905 0.858611 0.509705
0.911437 0.859261 0.505415
0.002226 0.021226 0.641871
0.105891 0.026826 0.638439
0.209847 0.032334 0.635533
0.325590 0.037433 0.634039
0.453976 0.041911 0.633510
0.585292 0.045612 0.633501
0.719922 0.048432 0.633620
0.858025 0.050323 0.633532
0.020730 0.138267 0.655112
0.125775 0.143579 0.654821
0.232940 0.148360 0.654901
0.342764 0.152455 0.654981
0.476205 0.155767 0.654745
0.612709 0.158258 0.653936
0.752149 0.159945 0.652355
0.894172 0.160906 0.649862
0.034106 0.257608 0.676299
0.141969 0.262421 0.675881
0.252691 0.266466 0.674811
0.366298 0.269714 0.672911
0.492915 0.272194 0.670063
0.632129 0.273994 0.666207
0.772979 0.275262 0.661343
0.914609 0.276205 0.655531
0.038320 0.378114 0.693341
0.149771 0.384618 0.690130
0.263897 0.387727 0.685904
0.380216 0.390122 0.680685
0.498027 0.391962 0.674554
0.637054 0.393466 0.667651
0.775574 0.394897 0.660187
0.913689 0.396238 0.652496
0.036516 0.497983 0.699905
0.151902 0.503071 0.693474
0.268867 0.507501 0.686337
0.386403 0.511532 0.678758
0.503832 0.512820 0.670999
0.632006 0.514091 0.662740
0.771201 0.515344 0.653828
0.911078 0.516501 0.653315
0.038502 0.615244 0.697308
0.155957 0.619096 0.689421
0.273844 0.623016 0.680923
0.392251 0.626941 0.671777
0.511177 0.630786 0.662008
0.630598 0.634474 0.651643
0.771104 0.635354 0.649751
0.911971 0.635943 0.647345
0.043992 0.730888 0.689645
0.162514 0.734860 0.679654
0.281404 0.738680 0.669081
0.400630 0.742272 0.657964
0.520131 0.745568 0.646352
0.639819 0.748507 0.643330
0.769902 0.751037 0.639930
0.910239 0.753110 0.636221
0.050250 0.846745 0.675144
0.168992 0.850167 0.663364
0.287872 0.853215 0.651165
0.406795 0.855830 0.638612
0.525638 0.857961 0.634809
0.644253 0.859564 0.630807
0.762464 0.860603 0.626692
0.900713 0.861049 0.622561
0.004131 0.023131 0.759906
0.107796 0.028725 0.756486
0.212029 0.034124 0.754388
0.317906 0.039032 0.754007
0.446859 0.043261 0.754795
0.578798 0.046672 0.756255
0.714056 0.049179 0.757945
0.852739 0.050754 0.759478
0.022431 0.140119 0.775538
0.127712 0.145271 0.776626
0.235231 0.149833 0.778218
0.345473 0.153671 0.779893
0.469022 0.156706 0.781284
0.605920 0.158918 0.782084
0.745663 0.160347 0.782045
0.887850 0.161090 0.780976
0.034954 0.259324 0.801802
0.143152 0.263883 0.803011
0.254232 0.267658 0.803531
0.368167 0.270639 0.803136
0.484712 0.272875 0.801656
0.624045 0.274475 0.798983
0.764832 0.275606 0.795067
0.906168 0.276497 0.789918
0.038293 0.382122 0.824082
0.150132 0.385761 0.822178
0.264576 0.388613 0.819055
0.381094 0.390799 0.814686
0.498932 0.392498 0.809101
0.627442 0.393948 0.802392
0.765724 0.395369 0.794853
0.903802 0.396660 0.787102
0.036350 0.501501 0.834143
0.152136 0.506343 0.828135
0.269341 0.510599 0.821051
0.386857 0.511986 0.813405
0.504335 0.513249 0.805538
0.622402 0.514523 0.797119
0.761793 0.515752 0.788106
0.901838 0.516859 0.778512
0.038936 0.618258 0.831936
0.156488 0.622125 0.823895
0.274522 0.626057 0.815259
0.393061 0.629964 0.806032
0.512100 0.633764 0.796231
0.631607 0.634802 0.785879
0.761846 0.635589 0.775005
0.902729 0.636067 0.763650
0.044660 0.733953 0.823882
0.163245 0.737882 0.813877
0.282181 0.741633 0.803331
0.401428 0.745132 0.792278
0.520919 0.748313 0.780758
0.640560 0.751119 0.768820
0.760230 0.753498 0.756522
0.900428 0.752828 0.752959
0.050766 0.849649 0.809488
0.169479 0.852951 0.797810
0.288300 0.855859 0.785734
0.407128 0.858315 0.773320
0.525836 0.860271 0.760634
0.644266 0.861686 0.747752
0.762239 0.862526 0.743786
0.889866 0.862766 0.739795
0.006032 0.025032 0.877935
0.109747 0.030600 0.874795
0.214281 0.035856 0.873799
0.320614 0.040553 0.874736
0.439800 0.044517 0.877005
0.572342 0.047628 0.880058
0.708196 0.049818 0.883400
0.847419 0.051080 0.886596
0.024069 0.141924 0.896790
0.129598 0.146895 0.899406
0.237473 0.151223 0.902618
0.348126 0.154794 0.905955
0.461768 0.157549 0.909000
0.599033 0.159488 0.911395
0.739045 0.160669 0.912843
0.881349 0.161212 0.913102
0.035703 0.260958 0.928470
0.144243 0.265255 0.931317
0.255678 0.268758 0.933399
0.369931 0.271478 0.934438
0.486705 0.273482 0.934217
0.615805 0.274901 0.932576
0.756491 0.275923 0.929416
0.897483 0.276794 0.924697
0.038205 0.383451 0.955866
0.150436 0.386813 0.955143
0.265193 0.389423 0.952958
0.381894 0.391420 0.949232
0.499735 0.393005 0.943947
0.617692 0.394435 0.937144
0.755857 0.395825 0.929502
0.894000 0.397080 0.921654
0.036241 0.504929 0.968840
0.152427 0.509548 0.962994
0.269829 0.511087 0.955732
0.387292 0.512421 0.948034
0.504909 0.513681 0.940032
0.623179 0.514949 0.931492
0.752429 0.516145 0.922412
0.892626 0.517195 0.912798
0.039369 0.621264 0.966534
0.157063 0.625162 0.958338
0.275232 0.629095 0.949602
0.393893 0.632975 0.940326
0.513033 0.634141 0.930521
0.632613 0.635100 0.920204
0.752569 0.635789 0.909399
0.893453 0.636149 0.898139
0.045330 0.737006 0.958170
0.163970 0.740884 0.948176
0.282941 0.744557 0.937678
0.402198 0.747955 0.926703
0.521666 0.751015 0.915287
0.641246 0.753681 0.903472
0.760812 0.753325 0.891308
0.890532 0.752487 0.878855
0.051247 0.852515 0.943949
0.169920 0.855690 0.932382
0.288672 0.858450 0.920434
0.407394 0.860742 0.908158
0.525952 0.862518 0.895614
0.644184 0.863741 0.882873
0.761903 0.864381 0.870008
0.878892 0.864412 0.857105
