omv/luts/21_caravan_lantern.cube
# Original OMV LUT; redistribution permitted with OMV.
TITLE "Caravan Lantern"
LUT_3D_SIZE 8
DOMAIN_MIN 0.000000 0.000000 0.000000
DOMAIN_MAX 0.903226 0.903226 0.903226
0.006000 0.016000 0.023000
0.118199 0.024973 0.031973
0.230349 0.033898 0.040898
0.342743 0.043054 0.050051
0.457293 0.052108 0.058651
0.576368 0.060493 0.065885
0.701050 0.067859 0.071517
0.832038 0.073953 0.075404
0.036460 0.116165 0.053321
0.137016 0.129662 0.061457
0.253083 0.143052 0.068131
0.373103 0.152030 0.073138
0.498038 0.160129 0.076374
0.628473 0.167111 0.077834
0.764612 0.172839 0.077613
0.906282 0.177279 0.075907
0.065988 0.222273 0.074524
0.158161 0.236507 0.077109
0.280758 0.249860 0.077940
0.408443 0.262112 0.077150
0.541310 0.273146 0.074972
0.679073 0.279072 0.071742
0.821068 0.283848 0.067897
0.966257 0.287661 0.063976
0.083912 0.338047 0.076502
0.182137 0.351798 0.073897
0.298321 0.364228 0.070387
0.432067 0.375336 0.066447
0.569695 0.385230 0.062652
0.710056 0.394115 0.059682
0.851619 0.402300 0.058318
0.992479 0.406325 0.059441
0.088621 0.460875 0.065015
0.193726 0.472710 0.061437
0.302762 0.483128 0.058956
0.440274 0.492355 0.058389
0.578815 0.500718 0.060658
0.717142 0.508722 0.064787
0.855445 0.516636 0.068693
0.994327 0.524549 0.071696
0.091522 0.582908 0.058835
0.203558 0.591267 0.062171
0.316038 0.599232 0.066264
0.441423 0.607191 0.069903
0.580034 0.615247 0.072542
0.719149 0.623267 0.074200
0.858893 0.631130 0.074920
0.999335 0.638730 0.074757
0.104601 0.697837 0.070979
0.216892 0.706097 0.073257
0.329424 0.714368 0.074568
0.442359 0.722519 0.074959
0.581613 0.730430 0.074492
0.721434 0.737999 0.073245
0.861823 0.745137 0.071310
1.000000 0.751596 0.075560
0.115227 0.814170 0.074885
0.227370 0.822416 0.074124
0.339966 0.830321 0.072615
0.453054 0.837786 0.070455
0.579524 0.844724 0.067756
0.719306 0.851067 0.064648
0.859374 0.856760 0.061272
0.999550 0.861762 0.057786
0.009130 0.019130 0.100969
0.108305 0.027983 0.111112
0.220528 0.036979 0.121398
0.333235 0.046178 0.130602
0.448922 0.055050 0.139522
0.569305 0.063123 0.147688
0.695377 0.070081 0.154775
0.827748 0.075704 0.160556
0.039654 0.123286 0.132622
0.127671 0.136802 0.142601
0.244378 0.146181 0.150407
0.365224 0.154893 0.157040
0.491084 0.162634 0.162309
0.622453 0.169201 0.166122
0.759449 0.174490 0.168489
0.901811 0.178502 0.169523
0.068453 0.229744 0.159123
0.161179 0.243710 0.163867
0.271542 0.256709 0.167147
0.399924 0.268555 0.169011
0.533427 0.275295 0.169606
0.671678 0.280816 0.169183
0.813926 0.285238 0.168093
0.959045 0.288785 0.166791
0.084900 0.345418 0.169363
0.183794 0.358726 0.169553
0.287701 0.370701 0.168841
0.421941 0.381381 0.167617
0.559848 0.390903 0.166370
0.700182 0.399511 0.165695
0.841326 0.403675 0.166288
0.981286 0.407714 0.168946
0.088692 0.467620 0.167136
0.194510 0.478955 0.166024
0.304060 0.488937 0.165725
0.428896 0.497829 0.166971
0.567327 0.506005 0.170456
0.705617 0.513972 0.174552
0.844036 0.521883 0.178258
0.983123 0.529777 0.181082
0.092552 0.588437 0.167969
0.204960 0.596541 0.171960
0.317406 0.604473 0.175998
0.429942 0.612479 0.179389
0.568640 0.620537 0.181890
0.707857 0.628517 0.183518
0.847708 0.636302 0.184301
0.988248 0.643790 0.184284
0.105861 0.703188 0.180402
0.218132 0.711468 0.182583
0.330675 0.719713 0.183899
0.443641 0.727794 0.184384
0.570029 0.735600 0.184090
0.709882 0.743032 0.183081
0.850283 0.750006 0.181438
0.991168 0.756455 0.179255
0.116028 0.819558 0.184364
0.228160 0.827701 0.183802
0.340754 0.835467 0.182552
0.453838 0.842761 0.180700
0.567384 0.849505 0.178347
0.707118 0.855632 0.175609
0.847096 0.861094 0.172616
0.987130 0.865855 0.169513
0.012140 0.022140 0.178817
0.098432 0.031013 0.188980
0.210735 0.040090 0.199348
0.324031 0.049257 0.210066
0.440837 0.057899 0.221066
0.562495 0.065625 0.230563
0.689907 0.072148 0.239435
0.823595 0.077285 0.247370
0.042844 0.130433 0.211015
0.131249 0.140039 0.221991
0.235699 0.149232 0.232594
0.357362 0.157643 0.242446
0.484120 0.165003 0.249981
0.616383 0.171142 0.256312
0.754178 0.175993 0.261363
0.897158 0.179589 0.265161
0.070782 0.237136 0.242739
0.164076 0.250801 0.251141
0.262203 0.263424 0.258300
0.391264 0.270984 0.262886
0.525370 0.277302 0.266254
0.664061 0.282432 0.268567
0.806497 0.286527 0.270093
0.951466 0.289845 0.271200
0.085749 0.352641 0.262957
0.185319 0.365499 0.267206
0.289843 0.377025 0.269196
0.411652 0.387291 0.270522
0.549797 0.396471 0.271588
0.690047 0.400969 0.272904
0.830700 0.405036 0.275080
0.969806 0.409129 0.278742
0.088752 0.474189 0.270915
0.195285 0.485042 0.272009
0.305334 0.494620 0.273562
0.417462 0.503218 0.276222
0.555827 0.511279 0.280247
0.694088 0.519210 0.284293
0.832682 0.527128 0.287791
0.971963 0.531119 0.290511
0.093835 0.593803 0.277609
0.206350 0.601802 0.281737
0.318781 0.609733 0.285656
0.431373 0.617773 0.288871
0.557248 0.625818 0.291307
0.696562 0.633744 0.292965
0.836510 0.641439 0.293863
0.977136 0.648807 0.294034
0.107086 0.708552 0.289849
0.219339 0.716835 0.292000
0.331893 0.725038 0.293379
0.444886 0.733038 0.294007
0.558403 0.740727 0.293924
0.698279 0.748011 0.293181
0.838683 0.754814 0.291847
0.979538 0.761072 0.290006
0.116771 0.824916 0.294057
0.228893 0.832942 0.293726
0.341484 0.840557 0.292760
0.454559 0.847673 0.291231
0.568079 0.854214 0.289228
0.694852 0.860120 0.286854
0.834730 0.865347 0.284227
0.974608 0.869864 0.281481
0.015139 0.025139 0.256655
0.101487 0.034068 0.266874
0.200982 0.043228 0.277334
0.315096 0.052273 0.288701
0.433003 0.060642 0.300922
0.555900 0.067986 0.313402
0.684601 0.074055 0.325642
0.819538 0.078695 0.335952
0.046013 0.133715 0.290034
0.134827 0.143228 0.302414
0.227026 0.152192 0.314859
0.349495 0.160271 0.326907
0.477125 0.167230 0.338195
0.610238 0.172935 0.348461
0.748774 0.177350 0.356253
0.892297 0.180546 0.362802
0.072967 0.244436 0.328070
0.166844 0.257770 0.339011
0.265637 0.266130 0.348859
0.382456 0.273268 0.357490
0.517131 0.279172 0.364882
0.656211 0.283928 0.369824
0.798771 0.287725 0.373788
0.943508 0.290855 0.377058
0.086464 0.359714 0.357273
0.186717 0.372118 0.364228
0.291850 0.383202 0.370078
0.401203 0.393075 0.375041
0.539545 0.398072 0.378149
0.679656 0.402377 0.381114
0.819746 0.406401 0.384461
0.958307 0.410533 0.388533
0.088823 0.480588 0.373637
0.196070 0.490981 0.377929
0.306602 0.500188 0.382257
0.418894 0.508539 0.385894
0.544315 0.516541 0.390025
0.682605 0.524454 0.393972
0.821374 0.528496 0.397332
0.960840 0.532441 0.400017
0.095249 0.599087 0.386120
0.207727 0.607050 0.391501
0.320161 0.615011 0.395271
0.432805 0.623067 0.398388
0.545855 0.631086 0.400824
0.685257 0.638945 0.402569
0.825293 0.646538 0.403628
0.965995 0.653776 0.404022
0.108274 0.713922 0.399355
0.220509 0.722193 0.401539
0.333073 0.730340 0.403033
0.446091 0.738245 0.403847
0.559633 0.745806 0.404006
0.686622 0.752936 0.403552
0.827019 0.759560 0.402541
0.967831 0.765621 0.401043
0.117456 0.830237 0.403979
0.229568 0.838135 0.403909
0.342154 0.845590 0.403245
0.455216 0.852519 0.402048
0.568703 0.858850 0.400393
0.682506 0.864530 0.398372
0.822273 0.869518 0.396091
0.961982 0.873791 0.393672
0.018150 0.028150 0.334505
0.104570 0.037151 0.344796
0.191413 0.046350 0.355542
0.306397 0.055210 0.368037
0.425386 0.063266 0.381874
0.549486 0.070200 0.396371
0.679423 0.075796 0.410942
0.815542 0.079934 0.425103
0.049142 0.136982 0.369906
0.138386 0.146352 0.384058
0.231242 0.155048 0.398644
0.341602 0.162769 0.413117
0.470078 0.169312 0.427027
0.603997 0.174577 0.440026
0.743214 0.178566 0.451869
0.887206 0.181380 0.462409
0.075004 0.251633 0.415216
0.169478 0.260741 0.428830
0.268934 0.268694 0.441431
0.373492 0.275410 0.452811
0.508702 0.280909 0.462861
0.648122 0.285312 0.471578
0.790738 0.288845 0.479055
0.935161 0.291833 0.484203
0.087055 0.366633 0.453576
0.187998 0.378583 0.463136
0.293729 0.389239 0.471385
0.403503 0.394871 0.478456
0.529099 0.399593 0.484585
0.669014 0.403751 0.490109
0.808466 0.407792 0.494179
0.946796 0.411925 0.498312
0.088926 0.486823 0.477730
0.196887 0.496783 0.483594
0.307886 0.505657 0.489003
0.420308 0.513825 0.494405
0.532790 0.521790 0.499790
0.671170 0.525830 0.503621
0.810106 0.529852 0.506917
0.949745 0.533739 0.509633
0.096650 0.604360 0.493328
0.209092 0.612291 0.498661
0.321541 0.620299 0.503595
0.434235 0.628358 0.507975
0.547357 0.636335 0.510471
0.673938 0.644115 0.512353
0.814053 0.651597 0.513614
0.954818 0.654824 0.514262
0.109420 0.719293 0.506373
0.221640 0.727536 0.509938
0.334212 0.735613 0.512884
0.447251 0.743413 0.513920
0.560814 0.750836 0.514349
0.674907 0.757801 0.514201
0.815287 0.764240 0.513519
0.956045 0.770099 0.512362
0.118081 0.835520 0.512855
0.230183 0.843278 0.514360
0.342763 0.850563 0.514012
0.455808 0.857295 0.513149
0.569255 0.863410 0.511836
0.682984 0.868859 0.510152
0.809725 0.873606 0.508190
0.949252 0.877633 0.506061
0.021181 0.031181 0.412375
0.107682 0.040263 0.422747
0.194954 0.049426 0.434246
0.297902 0.058054 0.448296
0.417952 0.065759 0.464106
0.543219 0.072258 0.480906
0.674340 0.077367 0.498026
0.811572 0.081002 0.514893
0.052213 0.140217 0.450840
0.141909 0.149398 0.467095
0.235426 0.157792 0.484084
0.333665 0.165130 0.501172
0.462957 0.171245 0.517825
0.597639 0.176072 0.533610
0.737478 0.179645 0.548194
0.881862 0.182102 0.561349
0.076890 0.254847 0.504260
0.171972 0.263578 0.520642
0.272088 0.271114 0.536022
0.377270 0.277409 0.550108
0.500076 0.282518 0.562704
0.639784 0.286596 0.573721
0.782390 0.289902 0.583170
0.926416 0.292796 0.591165
0.087532 0.373397 0.551822
0.189169 0.384899 0.563849
0.295489 0.391271 0.574289
0.405658 0.396562 0.583190
0.518465 0.401048 0.590702
0.658125 0.405111 0.597080
0.796981 0.409207 0.602691
0.935271 0.413304 0.608078
0.089083 0.492902 0.583024
0.197757 0.502458 0.590089
0.309206 0.511042 0.596135
0.421711 0.519098 0.601614
0.534162 0.523157 0.606954
0.659776 0.527204 0.611990
0.798869 0.531193 0.616582
0.938671 0.535009 0.619386
0.098040 0.609621 0.600524
0.210450 0.617553 0.605784
0.322915 0.625594 0.610666
0.435656 0.633638 0.615082
0.548846 0.641561 0.618985
0.662598 0.649250 0.622340
0.802783 0.652740 0.623838
0.943601 0.655820 0.624765
0.110524 0.724659 0.613514
0.222728 0.732860 0.617221
0.335308 0.740855 0.620371
0.448364 0.748537 0.622951
0.561942 0.755813 0.624963
0.676036 0.762606 0.625132
0.803485 0.768853 0.624781
0.944175 0.774506 0.623956
0.118647 0.840758 0.620698
0.230739 0.848365 0.622506
0.343309 0.855471 0.623772
0.456333 0.862000 0.624533
0.569734 0.867894 0.623549
0.683379 0.873108 0.622180
0.797084 0.877612 0.620505
0.936416 0.881391 0.618623
0.024238 0.034238 0.490270
0.110832 0.043402 0.500757
0.198673 0.052438 0.513690
0.289579 0.060790 0.529685
0.410670 0.068113 0.547786
0.537067 0.074156 0.567139
0.669318 0.078768 0.586985
0.807593 0.081901 0.606668
0.055213 0.143403 0.533028
0.145379 0.152353 0.551679
0.239559 0.160413 0.571294
0.338569 0.167349 0.591151
0.455745 0.173029 0.610631
0.591145 0.177421 0.629216
0.731545 0.180595 0.646487
0.876245 0.182722 0.662130
0.078622 0.257938 0.595266
0.174324 0.266275 0.614475
0.275096 0.273391 0.632624
0.380881 0.279272 0.649334
0.491248 0.284007 0.664325
0.631193 0.287789 0.677424
0.773721 0.290910 0.688554
0.917267 0.293765 0.697745
0.087904 0.380007 0.651951
0.190242 0.387197 0.666269
0.297140 0.393177 0.678654
0.407677 0.398158 0.689070
0.520555 0.402454 0.697582
0.646999 0.406477 0.704357
0.785482 0.410611 0.709901
0.923746 0.414669 0.715247
0.089321 0.498833 0.689332
0.198706 0.508021 0.697187
0.310586 0.516360 0.703392
0.423102 0.520489 0.708811
0.535570 0.524530 0.714097
0.648415 0.528571 0.719116
0.787658 0.532513 0.723777
0.927612 0.536248 0.728014
0.099416 0.614867 0.707706
0.211799 0.622831 0.712911
0.324278 0.630888 0.717808
0.437065 0.638905 0.722321
0.550317 0.646760 0.726390
0.664137 0.650476 0.729968
0.791479 0.653835 0.733023
0.932337 0.656760 0.735540
0.111581 0.730016 0.720807
0.223771 0.738160 0.724701
0.336357 0.746060 0.728091
0.449427 0.753614 0.730951
0.563015 0.760734 0.733271
0.677100 0.767348 0.735055
0.791609 0.773398 0.736321
0.932218 0.774970 0.735815
0.119151 0.845949 0.728808
0.231234 0.853395 0.730932
0.343793 0.860313 0.732524
0.456791 0.866632 0.733610
0.570139 0.872299 0.734230
0.683692 0.877274 0.734438
0.797253 0.881533 0.733013
0.923472 0.885066 0.731332
0.027322 0.037322 0.568193
0.114094 0.046522 0.579234
0.202540 0.055370 0.594099
0.294304 0.063407 0.612390
0.403509 0.070318 0.633065
0.530997 0.075887 0.655181
0.664324 0.079998 0.677896
0.803572 0.082635 0.700467
0.058126 0.146523 0.616642
0.148781 0.155204 0.637946
0.243628 0.162903 0.660372
0.343393 0.169423 0.683115
0.448425 0.174664 0.705469
0.584497 0.178629 0.726830
0.725397 0.181423 0.746695
0.870336 0.183252 0.764664
0.080199 0.260902 0.688282
0.176532 0.268832 0.710339
0.277955 0.275524 0.731208
0.384324 0.281001 0.750424
0.495118 0.285386 0.767623
0.622344 0.288905 0.782545
0.764725 0.291886 0.795030
0.907708 0.294760 0.805021
0.088186 0.382593 0.753884
0.191227 0.389355 0.770280
0.298691 0.394967 0.784327
0.409570 0.399675 0.795905
0.522475 0.403827 0.804994
0.635644 0.407871 0.811676
0.773970 0.412002 0.817099
0.912293 0.416027 0.822406
0.089664 0.504628 0.796450
0.199757 0.513485 0.804647
0.311999 0.517774 0.810612
0.424478 0.521865 0.815995
0.537010 0.525906 0.821254
0.649983 0.529927 0.826325
0.776464 0.533810 0.831113
0.916559 0.537452 0.835540
0.100776 0.620110 0.814874
0.213134 0.628120 0.820077
0.325627 0.636178 0.825055
0.438456 0.644152 0.829720
0.551766 0.648057 0.833999
0.665646 0.651661 0.837834
0.780136 0.654881 0.841181
0.921023 0.657644 0.844011
0.112590 0.735359 0.828276
0.224767 0.743432 0.832399
0.337358 0.751225 0.836060
0.450438 0.758641 0.839221
0.564029 0.765597 0.841860
0.678098 0.772025 0.843969
0.792558 0.774002 0.845554
0.920173 0.775361 0.846637
0.119594 0.851088 0.837193
0.231668 0.858364 0.839639
0.344213 0.865085 0.841555
0.457181 0.871188 0.842954
0.570469 0.876624 0.843864
0.683921 0.881358 0.844326
0.797326 0.885371 0.844400
0.910419 0.888658 0.844156
