omv/luts/21_caravan_lantern.cube
# Original OMV LUT; redistribution permitted with OMV.
TITLE "Caravan Lantern"
LUT_3D_SIZE 5
DOMAIN_MIN 0.000000 0.000000 0.000000
DOMAIN_MAX 0.903226 0.903226 0.903226
0.006000 0.016000 0.023000
0.202292 0.031647 0.038647
0.399535 0.047639 0.054503
0.606979 0.062442 0.067451
0.832038 0.073953 0.075404
0.059347 0.194855 0.070967
0.243704 0.219171 0.076947
0.465190 0.240683 0.077589
0.702631 0.251754 0.073756
0.953889 0.259248 0.067263
0.087512 0.398948 0.071575
0.268435 0.420739 0.064752
0.506881 0.438487 0.059290
0.750964 0.453422 0.059266
0.993271 0.467433 0.066078
0.094510 0.611897 0.061510
0.291323 0.625826 0.068534
0.511081 0.639971 0.073216
0.754842 0.653954 0.074940
1.000000 0.667164 0.075001
0.115227 0.814170 0.074885
0.311771 0.828383 0.073057
0.509781 0.841325 0.069165
0.754302 0.852553 0.063823
0.999550 0.861762 0.057786
0.011390 0.021390 0.159357
0.185087 0.037022 0.177248
0.384040 0.052933 0.195884
0.595380 0.066791 0.211914
0.824622 0.076905 0.225505
0.064116 0.207808 0.214971
0.227664 0.231328 0.229577
0.451367 0.244869 0.238042
0.690646 0.254667 0.242686
0.942544 0.261137 0.244526
0.088111 0.411312 0.243597
0.271044 0.431652 0.244855
0.487886 0.448259 0.246239
0.731106 0.462686 0.251009
0.973144 0.469824 0.258078
0.096966 0.621128 0.253644
0.293724 0.635077 0.260266
0.491063 0.649245 0.264595
0.735073 0.663026 0.266495
0.981010 0.675852 0.266135
0.116591 0.823579 0.266613
0.313113 0.837419 0.265499
0.511097 0.849823 0.262580
0.732888 0.860392 0.258356
0.977748 0.868870 0.253468
0.016642 0.026642 0.295578
0.167970 0.042486 0.313680
0.369376 0.057977 0.334662
0.584437 0.070700 0.358069
0.817535 0.079336 0.380935
0.068510 0.220556 0.361246
0.233884 0.236332 0.383360
0.437127 0.248615 0.402393
0.677999 0.257189 0.417606
0.930142 0.262793 0.426959
0.088461 0.423169 0.416871
0.273392 0.442126 0.427411
0.468469 0.457771 0.436188
0.710984 0.465145 0.443145
0.953242 0.472204 0.449919
0.099384 0.630319 0.443480
0.296105 0.644364 0.451981
0.493592 0.658473 0.456320
0.715233 0.671987 0.458665
0.961331 0.684385 0.459072
0.117776 0.832884 0.459031
0.314275 0.846289 0.458772
0.512208 0.858107 0.456873
0.711226 0.867988 0.453721
0.955631 0.875722 0.449843
0.021943 0.031943 0.431846
0.173813 0.047937 0.450795
0.355361 0.062693 0.476527
0.573959 0.074130 0.506738
0.810579 0.081243 0.537649
0.072485 0.226253 0.512742
0.239733 0.240926 0.543154
0.422413 0.251926 0.570632
0.664627 0.259360 0.593639
0.916615 0.264293 0.611592
0.088645 0.434529 0.595423
0.275555 0.452210 0.611578
0.471279 0.460335 0.623429
0.690824 0.467566 0.632985
0.933536 0.474552 0.641803
0.101752 0.639510 0.630989
0.298443 0.653658 0.639359
0.496060 0.667632 0.646279
0.695295 0.680818 0.651547
0.941497 0.685969 0.652845
0.118778 0.842060 0.647700
0.315250 0.854975 0.650646
0.513109 0.866167 0.652023
0.711887 0.875335 0.649847
0.933190 0.882318 0.646788
0.027322 0.037322 0.568193
0.180174 0.053220 0.590019
0.341826 0.067019 0.622490
0.563772 0.077054 0.660834
0.803572 0.082635 0.700467
0.076011 0.231615 0.669988
0.245172 0.245088 0.709135
0.429761 0.254817 0.744844
0.650479 0.261235 0.774775
0.901904 0.265730 0.797548
0.088755 0.445416 0.778599
0.277620 0.455191 0.798610
0.473824 0.462824 0.811146
0.670683 0.469956 0.820524
0.913982 0.476844 0.829407
0.104050 0.648764 0.818500
0.300714 0.662931 0.827092
0.498445 0.676699 0.834597
0.697817 0.682728 0.840697
0.921481 0.687369 0.845220
0.119594 0.851088 0.837193
0.316034 0.863460 0.841125
0.513793 0.873992 0.843468
0.712286 0.882429 0.844379
0.910419 0.888658 0.844156
