omv/luts/21_caravan_lantern.cube
# Original OMV LUT; redistribution permitted with OMV.
TITLE "Caravan Lantern"
LUT_3D_SIZE 32
DOMAIN_MIN 0.0 0.0 0.0
DOMAIN_MAX 1.0 1.0 1.0
0.006000 0.016000 0.023000
0.034134 0.018328 0.025328
0.062168 0.020555 0.027555
0.090184 0.022765 0.029765
0.118199 0.024973 0.031973
0.146219 0.027187 0.034187
0.174249 0.029411 0.036411
0.202292 0.031647 0.038647
0.230349 0.033898 0.040898
0.258421 0.036163 0.043163
0.286509 0.038445 0.045445
0.314613 0.040742 0.047742
0.342743 0.043054 0.050051
0.371030 0.045358 0.052313
0.399535 0.047639 0.054503
0.428282 0.049891 0.056618
0.457293 0.052108 0.058651
0.486589 0.054282 0.060599
0.516188 0.056408 0.062456
0.546109 0.058480 0.064219
0.576368 0.060493 0.065885
0.606979 0.062442 0.067451
0.637956 0.064321 0.068913
0.669309 0.066129 0.070269
0.701050 0.067859 0.071517
0.733187 0.069510 0.072655
0.765727 0.071077 0.073683
0.798676 0.072559 0.074599
0.832038 0.073953 0.075404
0.865816 0.075258 0.076096
0.900011 0.076472 0.076676
0.934622 0.077593 0.077145
0.013568 0.040988 0.030568
0.038358 0.044165 0.032778
0.066382 0.047350 0.034995
0.094417 0.049578 0.037223
0.122465 0.051820 0.039465
0.150527 0.054076 0.041721
0.178605 0.056347 0.043992
0.206698 0.058634 0.046279
0.234808 0.060937 0.048582
0.262966 0.063253 0.050882
0.291276 0.065565 0.053119
0.319769 0.067866 0.055282
0.348471 0.070147 0.057368
0.377404 0.072402 0.059370
0.406591 0.074624 0.061285
0.436051 0.076807 0.063109
0.465804 0.078944 0.064837
0.495866 0.081030 0.066467
0.526252 0.083060 0.067995
0.556978 0.085029 0.069419
0.588056 0.086932 0.070736
0.619497 0.088766 0.071944
0.651311 0.090526 0.073042
0.683506 0.092209 0.074030
0.716089 0.093813 0.074905
0.749064 0.095334 0.075669
0.782437 0.096771 0.076320
0.816209 0.098122 0.076860
0.850380 0.099386 0.077289
0.884952 0.100561 0.077608
0.919920 0.101647 0.077820
0.955282 0.102644 0.077926
0.021038 0.065877 0.038038
0.042639 0.069091 0.040284
0.070707 0.072320 0.042546
0.098791 0.075565 0.044823
0.126890 0.078825 0.047116
0.155006 0.081135 0.049425
0.183187 0.083458 0.051705
0.211490 0.085788 0.053915
0.239944 0.088116 0.056051
0.268574 0.090434 0.058107
0.297404 0.092735 0.060078
0.326457 0.095012 0.061960
0.355755 0.097258 0.063750
0.385315 0.099467 0.065442
0.415158 0.101633 0.067035
0.445300 0.103751 0.068526
0.475755 0.105814 0.069911
0.506539 0.107819 0.071188
0.537662 0.109761 0.072357
0.569135 0.111636 0.073415
0.600969 0.113439 0.074361
0.633170 0.115169 0.075196
0.665745 0.116822 0.075919
0.698699 0.118396 0.076529
0.732035 0.119888 0.077029
0.765755 0.121297 0.077418
0.799859 0.122621 0.077698
0.834347 0.123860 0.077871
0.869216 0.125014 0.077939
0.904461 0.126081 0.077904
0.940078 0.127063 0.077771
0.976058 0.127960 0.077541
0.028656 0.090914 0.045656
0.050309 0.094180 0.047955
0.075209 0.097465 0.050263
0.103389 0.100771 0.052518
0.131659 0.104094 0.054702
0.160046 0.107425 0.056809
0.188578 0.110756 0.058834
0.217280 0.113110 0.060774
0.246175 0.115450 0.062623
0.275285 0.117767 0.064377
0.304632 0.120054 0.066034
0.334235 0.122306 0.067590
0.364111 0.124517 0.069042
0.394276 0.126681 0.070388
0.424746 0.128793 0.071626
0.455533 0.130848 0.072755
0.486650 0.132842 0.073772
0.518106 0.134771 0.074678
0.549911 0.136631 0.075472
0.582072 0.138420 0.076154
0.614594 0.140133 0.076724
0.647483 0.141770 0.077183
0.680740 0.143327 0.077532
0.714368 0.144804 0.077773
0.748367 0.146199 0.077907
0.782734 0.147511 0.077938
0.817467 0.148740 0.077867
0.852561 0.149885 0.077698
0.888011 0.150948 0.077434
0.923808 0.151929 0.077080
0.959945 0.152828 0.076639
0.996410 0.153649 0.076116
0.036460 0.116165 0.053321
0.058217 0.119522 0.055478
0.080060 0.122896 0.057556
0.108468 0.126279 0.059551
0.137016 0.129662 0.061457
0.165729 0.133038 0.063272
0.194631 0.136400 0.064992
0.223742 0.139740 0.066612
0.253083 0.143052 0.068131
0.282673 0.145363 0.069545
0.312530 0.147632 0.070852
0.342668 0.149857 0.072050
0.373103 0.152030 0.073138
0.403847 0.154148 0.074115
0.434911 0.156207 0.074980
0.466305 0.158201 0.075733
0.498038 0.160129 0.076374
0.530117 0.161986 0.076904
0.562546 0.163770 0.077323
0.595331 0.165479 0.077632
0.628473 0.167111 0.077834
0.661973 0.168663 0.077930
0.695831 0.170136 0.077924
0.730045 0.171528 0.077817
0.764612 0.172839 0.077613
0.799526 0.174069 0.077315
0.834781 0.175218 0.076929
0.870369 0.176288 0.076458
0.906282 0.177279 0.075907
0.942507 0.178193 0.075281
0.979034 0.179032 0.074586
1.000000 0.182578 0.078969
0.044358 0.141845 0.060255
0.066277 0.145297 0.062129
0.088334 0.148749 0.063910
0.113778 0.152194 0.065593
0.142632 0.155626 0.067177
0.171692 0.159036 0.068658
0.200977 0.162419 0.070033
0.230506 0.165768 0.071300
0.260296 0.169077 0.072459
0.290361 0.172342 0.073507
0.320716 0.175556 0.074443
0.351374 0.177748 0.075267
0.382344 0.179881 0.075980
0.413637 0.181951 0.076580
0.445260 0.183956 0.077069
0.477220 0.185891 0.077448
0.509521 0.187754 0.077718
0.542168 0.189543 0.077881
0.575163 0.191256 0.077940
0.608505 0.192891 0.077896
0.642194 0.194448 0.077753
0.676228 0.195925 0.077515
0.710602 0.197324 0.077185
0.745311 0.198642 0.076767
0.780349 0.199882 0.076266
0.815708 0.201044 0.075687
0.851376 0.202129 0.075036
0.887344 0.203139 0.074317
0.923597 0.204076 0.073538
0.960124 0.204943 0.072705
0.996906 0.205742 0.071825
1.000000 0.212290 0.083230
0.052070 0.168057 0.066182
0.074195 0.171585 0.067728
0.096502 0.175100 0.069171
0.119012 0.178593 0.070507
0.148196 0.182058 0.071735
0.177619 0.185490 0.072853
0.207300 0.188882 0.073861
0.237251 0.192229 0.074756
0.267488 0.195527 0.075540
0.298021 0.198770 0.076211
0.328861 0.201954 0.076771
0.360017 0.205076 0.077220
0.391497 0.208133 0.077559
0.423307 0.210152 0.077790
0.455450 0.212101 0.077914
0.487931 0.213976 0.077935
0.520751 0.215776 0.077855
0.553910 0.217499 0.077677
0.587406 0.219145 0.077405
0.621237 0.220712 0.077043
0.655398 0.222200 0.076594
0.689884 0.223611 0.076064
0.724687 0.224943 0.075458
0.759799 0.226199 0.074782
0.795209 0.227380 0.074040
0.830906 0.228487 0.073241
0.866876 0.229522 0.072390
0.903105 0.230489 0.071495
0.939577 0.231390 0.070563
0.976274 0.232228 0.069601
1.000000 0.235185 0.074033
1.000000 0.242120 0.087945
0.059347 0.194855 0.070967
0.081717 0.198442 0.072155
0.104307 0.202001 0.073233
0.127135 0.205525 0.074200
0.153443 0.209009 0.075054
0.183245 0.212448 0.075797
0.213328 0.215837 0.076428
0.243704 0.219171 0.076947
0.274383 0.222446 0.077356
0.305373 0.225659 0.077655
0.336682 0.228806 0.077847
0.368315 0.231884 0.077934
0.400276 0.234891 0.077918
0.432567 0.237824 0.077802
0.465190 0.240683 0.077589
0.498145 0.242497 0.077283
0.531430 0.244234 0.076889
0.565041 0.245893 0.076410
0.598973 0.247474 0.075852
0.633221 0.248977 0.075220
0.667777 0.250403 0.074519
0.702631 0.251754 0.073756
0.737774 0.253029 0.072937
0.773192 0.254232 0.072069
0.808872 0.255364 0.071159
0.844799 0.256429 0.070216
0.880956 0.257429 0.069246
0.917326 0.258367 0.068259
0.953889 0.259248 0.067263
0.990625 0.260076 0.066269
1.000000 0.265260 0.077830
1.000000 0.272041 0.093189
0.065988 0.222273 0.074524
0.088638 0.225898 0.075338
0.111541 0.229482 0.076040
0.134711 0.233020 0.076630
0.158161 0.236507 0.077109
0.188352 0.239938 0.077477
0.218844 0.243310 0.077738
0.249643 0.246618 0.077891
0.280758 0.249860 0.077940
0.312192 0.253033 0.077887
0.343950 0.256134 0.077735
0.376033 0.259161 0.077488
0.408443 0.262112 0.077150
0.441179 0.264987 0.076724
0.474238 0.267785 0.076216
0.507617 0.270504 0.075630
0.541310 0.273146 0.074972
0.575311 0.274741 0.074248
0.609612 0.276260 0.073464
0.644203 0.277703 0.072626
0.679073 0.279072 0.071742
0.714209 0.280368 0.070819
0.749598 0.281594 0.069865
0.785223 0.282753 0.068888
0.821068 0.283848 0.067897
0.857115 0.284882 0.066901
0.893343 0.285859 0.065908
0.929731 0.286784 0.064930
0.966257 0.287661 0.063976
1.000000 0.288936 0.064550
1.000000 0.295413 0.082149
1.000000 0.302025 0.099034
0.071841 0.250322 0.076817
0.094805 0.253964 0.077256
0.118048 0.257554 0.077585
0.141580 0.261087 0.077806
0.165412 0.264559 0.077921
0.192775 0.267966 0.077932
0.223677 0.271306 0.077843
0.254897 0.274576 0.077656
0.286437 0.277772 0.077375
0.318299 0.280894 0.077005
0.350484 0.283940 0.076548
0.382990 0.286908 0.076011
0.415815 0.289798 0.075399
0.448955 0.292609 0.074716
0.482403 0.295342 0.073969
0.516153 0.297996 0.073165
0.550197 0.300573 0.072309
0.584523 0.303073 0.071410
0.619121 0.305499 0.070475
0.653978 0.306885 0.069512
0.689079 0.308200 0.068529
0.724408 0.309448 0.067534
0.759948 0.310632 0.066538
0.795679 0.311755 0.065550
0.831582 0.312822 0.064580
0.867635 0.313836 0.063637
0.903814 0.314803 0.062733
0.940095 0.315728 0.061880
0.976450 0.316616 0.061087
1.000000 0.319346 0.067685
1.000000 0.325615 0.087059
1.000000 0.332042 0.105554
0.076805 0.278991 0.077860
0.100112 0.282628 0.077937
0.123719 0.286203 0.077911
0.147632 0.289712 0.077786
0.171858 0.293151 0.077565
0.196399 0.296518 0.077251
0.227711 0.299811 0.076848
0.259344 0.303027 0.076362
0.291297 0.306166 0.075797
0.323569 0.309226 0.075158
0.356156 0.312206 0.074451
0.389054 0.315107 0.073682
0.422257 0.317927 0.072859
0.455757 0.320669 0.071987
0.489545 0.323332 0.071074
0.523612 0.325918 0.070127
0.557944 0.328428 0.069156
0.592528 0.330865 0.068167
0.627350 0.333231 0.067172
0.662393 0.335529 0.066177
0.697639 0.337763 0.065194
0.733069 0.338968 0.064233
0.768662 0.340115 0.063303
0.804396 0.341210 0.062416
0.840247 0.342258 0.061584
0.876190 0.343263 0.060817
0.912197 0.344232 0.060128
0.948242 0.345170 0.059529
0.984294 0.346083 0.059034
1.000000 0.349794 0.071377
1.000000 0.355835 0.092634
1.000000 0.362059 0.112824
0.080828 0.308250 0.077716
0.104507 0.311859 0.077461
0.128499 0.315397 0.077114
0.152808 0.318861 0.076681
0.177437 0.322249 0.076165
0.202385 0.325558 0.075572
0.230878 0.328787 0.074908
0.262915 0.331936 0.074178
0.295266 0.335003 0.073389
0.327925 0.337989 0.072546
0.360887 0.340893 0.071658
0.394144 0.343717 0.070732
0.427685 0.346460 0.069776
0.461500 0.349125 0.068797
0.495577 0.351713 0.067805
0.529901 0.354227 0.066809
0.564458 0.356668 0.065818
0.599230 0.359040 0.064841
0.634199 0.361347 0.063890
0.669346 0.363591 0.062975
0.704649 0.365778 0.062106
0.740086 0.367911 0.061296
0.775632 0.369996 0.060556
0.811261 0.371070 0.059899
0.846947 0.372107 0.059337
0.882661 0.373112 0.058882
0.918373 0.374094 0.058550
0.954051 0.375057 0.058353
0.989662 0.376010 0.058306
1.000000 0.380249 0.075697
1.000000 0.386042 0.098954
1.000000 0.392045 0.120931
0.083912 0.338047 0.076502
0.107987 0.341605 0.075958
0.132383 0.345084 0.075338
0.157100 0.348482 0.074650
0.182137 0.351798 0.073897
0.207493 0.355031 0.073088
0.233162 0.358181 0.072228
0.265591 0.361246 0.071325
0.298321 0.364228 0.070387
0.331345 0.367126 0.069422
0.364651 0.369943 0.068437
0.398230 0.372679 0.067443
0.432067 0.375336 0.066447
0.466148 0.377917 0.065460
0.500459 0.380425 0.064491
0.534981 0.382861 0.063552
0.569695 0.385230 0.062652
0.604583 0.387535 0.061804
0.639621 0.389782 0.061018
0.674787 0.391973 0.060307
0.710056 0.394115 0.059682
0.745402 0.396212 0.059158
0.780798 0.398271 0.058747
0.816214 0.400298 0.058462
0.851619 0.402300 0.058318
0.886983 0.403315 0.058329
0.922271 0.404319 0.058509
0.957448 0.405319 0.058875
0.992479 0.406325 0.059441
1.000000 0.410680 0.080726
1.000000 0.416200 0.106104
1.000000 0.421961 0.129916
0.086106 0.368311 0.074383
0.110599 0.371793 0.073609
0.135414 0.375190 0.072780
0.160550 0.378501 0.071904
0.186000 0.381725 0.070988
0.211760 0.384862 0.070038
0.237822 0.387914 0.069065
0.267403 0.390879 0.068076
0.300493 0.393760 0.067080
0.333853 0.396558 0.066086
0.367472 0.399275 0.065105
0.401333 0.401913 0.064145
0.435421 0.404475 0.063219
0.469718 0.406964 0.062337
0.504205 0.409383 0.061510
0.538862 0.411737 0.060750
0.573665 0.414030 0.060069
0.608592 0.416266 0.059479
0.643618 0.418450 0.058994
0.678715 0.420589 0.058628
0.713857 0.422687 0.058392
0.749013 0.424752 0.058303
0.784152 0.426789 0.058374
0.819243 0.428807 0.058620
0.854250 0.430812 0.059057
0.889140 0.432812 0.059700
0.923874 0.434816 0.060566
0.958472 0.435859 0.061601
0.993057 0.436896 0.062638
1.000000 0.441042 0.086301
1.000000 0.446256 0.113741
1.000000 0.451745 0.139341
0.087512 0.398948 0.071575
0.112442 0.402329 0.070645
0.137691 0.405620 0.069687
0.163251 0.408821 0.068706
0.189116 0.411933 0.067713
0.215276 0.414955 0.066717
0.241720 0.417890 0.065727
0.268435 0.420739 0.064752
0.301861 0.423504 0.063804
0.335529 0.426187 0.062892
0.369424 0.428791 0.062029
0.403527 0.431319 0.061225
0.437818 0.433775 0.060492
0.472277 0.436163 0.059843
0.506881 0.438487 0.059290
0.541606 0.440753 0.058847
0.576426 0.442964 0.058526
0.611315 0.445127 0.058342
0.646244 0.447248 0.058309
0.681183 0.449333 0.058442
0.716100 0.451388 0.058756
0.750964 0.453422 0.059266
0.785738 0.455441 0.059989
0.820390 0.457454 0.060938
0.854979 0.459463 0.061979
0.889563 0.461466 0.063014
0.924139 0.463462 0.064043
0.958709 0.465451 0.065064
0.993271 0.467433 0.066078
1.000000 0.471293 0.091949
1.000000 0.476183 0.121591
1.000000 0.481399 0.149092
0.088282 0.429848 0.068346
0.113667 0.433101 0.067351
0.139359 0.436262 0.066355
0.165350 0.439330 0.065370
0.191627 0.442307 0.064403
0.218179 0.445194 0.063467
0.244990 0.447993 0.062572
0.272047 0.450707 0.061729
0.302556 0.453339 0.060949
0.336500 0.455892 0.060245
0.370634 0.458370 0.059630
0.404934 0.460776 0.059115
0.439378 0.463115 0.058715
0.473943 0.465393 0.058443
0.508601 0.467614 0.058312
0.543326 0.469783 0.058338
0.578089 0.471908 0.058535
0.612859 0.473994 0.058918
0.647604 0.476048 0.059504
0.682291 0.478078 0.060308
0.716899 0.480092 0.061318
0.751486 0.482099 0.062357
0.786067 0.484099 0.063389
0.820641 0.486093 0.064415
0.855208 0.488079 0.065434
0.889768 0.490058 0.066445
0.924330 0.492031 0.067437
0.958933 0.494007 0.068369
0.993584 0.495983 0.069238
1.000000 0.500593 0.097628
1.000000 0.506066 0.129640
1.000000 0.510993 0.159168
0.088621 0.460875 0.065015
0.114474 0.463976 0.064059
0.140618 0.466980 0.063136
0.167040 0.469891 0.062258
0.193726 0.472710 0.061437
0.220659 0.475441 0.060683
0.247823 0.478085 0.060010
0.275197 0.480646 0.059430
0.302762 0.483128 0.058956
0.336948 0.485535 0.058600
0.371278 0.487872 0.058378
0.405729 0.490144 0.058303
0.440274 0.492355 0.058389
0.474885 0.494511 0.058652
0.509533 0.496620 0.059107
0.544187 0.498687 0.059770
0.578815 0.500718 0.060658
0.613406 0.502729 0.061697
0.647991 0.504733 0.062733
0.682570 0.506731 0.063764
0.717142 0.508722 0.064787
0.751706 0.510706 0.065803
0.786263 0.512682 0.066811
0.820834 0.514657 0.067784
0.855445 0.516636 0.068693
0.890097 0.518616 0.069538
0.924793 0.520597 0.070320
0.959536 0.522575 0.071039
0.994327 0.524549 0.071696
1.000000 0.528987 0.103351
1.000000 0.534208 0.137931
1.000000 0.539704 0.169632
0.088783 0.491879 0.061952
0.115115 0.494798 0.061154
0.141716 0.497621 0.060428
0.168569 0.500350 0.059788
0.195657 0.502989 0.059244
0.222959 0.505540 0.058812
0.250455 0.508009 0.058503
0.278123 0.510398 0.058333
0.305938 0.512712 0.058315
0.337101 0.514957 0.058464
0.371586 0.517138 0.058795
0.406139 0.519261 0.059324
0.440728 0.521331 0.060067
0.475325 0.523357 0.061034
0.509914 0.525365 0.062075
0.544496 0.527367 0.063109
0.579072 0.529363 0.064137
0.613642 0.531351 0.065158
0.648203 0.533332 0.066171
0.682760 0.535307 0.067173
0.717339 0.537285 0.068122
0.751952 0.539268 0.069008
0.786600 0.541255 0.069830
0.821288 0.543242 0.070589
0.856017 0.545228 0.071286
0.890790 0.547211 0.071920
0.925608 0.549189 0.072492
0.960474 0.551160 0.073003
0.995388 0.553123 0.073453
1.000000 0.557351 0.109157
1.000000 0.562277 0.146520
1.000000 0.567515 0.180552
0.089074 0.522684 0.059578
0.115895 0.525394 0.059073
0.142955 0.528009 0.058684
0.170235 0.530531 0.058424
0.197715 0.532965 0.058308
0.225370 0.535315 0.058349
0.253177 0.537587 0.058562
0.281110 0.539784 0.058964
0.309142 0.541912 0.059569
0.337244 0.543978 0.060393
0.371833 0.545995 0.061414
0.406420 0.548001 0.062452
0.441000 0.550000 0.063484
0.475574 0.551993 0.064509
0.510140 0.553979 0.065527
0.544699 0.555957 0.066538
0.579258 0.557932 0.067526
0.613841 0.559915 0.068452
0.648452 0.561904 0.069314
0.683093 0.563898 0.070114
0.717768 0.565893 0.070850
0.752480 0.567888 0.071524
0.787230 0.569881 0.072135
0.822021 0.571870 0.072685
0.856855 0.573853 0.073174
0.891733 0.575828 0.073602
0.926657 0.577794 0.073970
0.961629 0.579749 0.074278
0.996649 0.581690 0.074528
1.000000 0.585646 0.115077
1.000000 0.590232 0.155466
1.000000 0.595174 0.192003
0.089851 0.553098 0.058365
0.117166 0.555570 0.058304
0.144686 0.557949 0.058406
0.172388 0.560238 0.058686
0.200247 0.562443 0.059160
0.228237 0.564569 0.059843
0.256331 0.566621 0.060751
0.284470 0.568631 0.061793
0.312603 0.570635 0.062829
0.340729 0.572632 0.063858
0.372074 0.574623 0.064881
0.406638 0.576606 0.065896
0.441194 0.578581 0.066904
0.475757 0.580560 0.067870
0.510339 0.582549 0.068773
0.544943 0.584545 0.069613
0.579573 0.586546 0.070389
0.614232 0.588550 0.071103
0.648921 0.590555 0.071754
0.683645 0.592559 0.072343
0.718405 0.594560 0.072870
0.753204 0.596556 0.073337
0.788043 0.598544 0.073743
0.822923 0.600524 0.074089
0.857847 0.602494 0.074376
0.892816 0.604451 0.074605
0.927830 0.606394 0.074776
0.962891 0.608322 0.074892
0.998000 0.610232 0.074951
1.000000 0.613832 0.121143
1.000000 0.618029 0.164830
1.000000 0.622639 0.204059
0.091522 0.582908 0.058835
0.119334 0.585112 0.059383
0.147311 0.587227 0.060146
0.175421 0.589260 0.061131
0.203558 0.591267 0.062171
0.231688 0.593269 0.063204
0.259812 0.595264 0.064231
0.287929 0.597251 0.065251
0.316038 0.599232 0.066264
0.344141 0.601206 0.067263
0.372252 0.603191 0.068206
0.406829 0.605187 0.069086
0.441423 0.607191 0.069903
0.476037 0.609201 0.070656
0.510675 0.611215 0.071347
0.545340 0.613231 0.071975
0.580034 0.615247 0.072542
0.614760 0.617260 0.073047
0.649519 0.619269 0.073491
0.684315 0.621272 0.073876
0.719149 0.623267 0.074200
0.754022 0.625252 0.074466
0.788937 0.627225 0.074674
0.823893 0.629185 0.074825
0.858893 0.631130 0.074920
0.893936 0.633058 0.074959
0.929025 0.634969 0.074944
0.964158 0.636860 0.074877
0.999335 0.638730 0.074757
1.000000 0.641868 0.127377
1.000000 0.645626 0.174673
1.000000 0.649864 0.216804
0.094510 0.611897 0.061510
0.122644 0.613902 0.062548
0.150773 0.615902 0.063579
0.178894 0.617894 0.064604
0.207008 0.619879 0.065621
0.235115 0.621856 0.066631
0.263217 0.623834 0.067614
0.291323 0.625826 0.068534
0.319438 0.627829 0.069391
0.347566 0.629842 0.070184
0.375709 0.631862 0.070915
0.407097 0.633887 0.071583
0.441733 0.635915 0.072189
0.476393 0.637944 0.072733
0.511081 0.639971 0.073216
0.545799 0.641994 0.073638
0.580549 0.644012 0.074001
0.615333 0.646022 0.074304
0.650153 0.648023 0.074548
0.685010 0.650014 0.074736
0.719906 0.651991 0.074866
0.754842 0.653954 0.074940
0.789818 0.655901 0.074960
0.824836 0.657830 0.074926
0.859896 0.659739 0.074839
0.894999 0.661629 0.074701
0.930144 0.663496 0.074512
0.965331 0.665340 0.074275
1.000000 0.667164 0.075001
1.000000 0.669715 0.133796
1.000000 0.672978 0.185058
1.000000 0.676804 0.230328
0.097975 0.640523 0.064975
0.126086 0.642506 0.065989
0.154190 0.644481 0.066995
0.182288 0.646465 0.067956
0.210386 0.648464 0.068853
0.238488 0.650477 0.069687
0.266596 0.652500 0.070457
0.294716 0.654531 0.071165
0.322850 0.656568 0.071811
0.351002 0.658609 0.072394
0.379174 0.660651 0.072916
0.407369 0.662692 0.073377
0.442041 0.664730 0.073777
0.476742 0.666764 0.074118
0.511473 0.668791 0.074400
0.546237 0.670809 0.074623
0.581034 0.672816 0.074790
0.615867 0.674812 0.074899
0.650736 0.676793 0.074954
0.685644 0.678758 0.074954
0.720590 0.680707 0.074900
0.755575 0.682636 0.074795
0.790600 0.684545 0.074638
0.825666 0.686432 0.074431
0.860771 0.688296 0.074176
0.895917 0.690136 0.073874
0.931101 0.691950 0.073526
0.966325 0.693737 0.073134
1.000000 0.695477 0.075871
1.000000 0.697334 0.140406
1.000000 0.700043 0.196052
1.000000 0.703414 0.244731
0.101354 0.669099 0.068290
0.129439 0.671108 0.069164
0.157523 0.673130 0.069975
0.185609 0.675164 0.070722
0.213701 0.677208 0.071407
0.241803 0.679257 0.072030
0.269918 0.681312 0.072591
0.298050 0.683368 0.073091
0.326201 0.685424 0.073529
0.354374 0.687479 0.073908
0.382571 0.689529 0.074227
0.410795 0.691573 0.074488
0.442273 0.693608 0.074690
0.477008 0.695634 0.074836
0.511775 0.697648 0.074926
0.546576 0.699648 0.074960
0.581412 0.701633 0.074940
0.616284 0.703601 0.074868
0.651193 0.705550 0.074743
0.686139 0.707479 0.074568
0.721123 0.709386 0.074344
0.756145 0.711271 0.074072
0.791205 0.713131 0.073752
0.826302 0.714965 0.073388
0.861437 0.716772 0.072981
0.896609 0.718552 0.072531
0.931816 0.720302 0.072040
0.967058 0.722021 0.071511
1.000000 0.723626 0.076131
1.000000 0.724690 0.147202
1.000000 0.726777 0.207730
1.000000 0.729646 0.260125
0.104601 0.697837 0.070979
0.132662 0.699893 0.071641
0.160729 0.701956 0.072241
0.188804 0.704025 0.072780
0.216892 0.706097 0.073257
0.244995 0.708169 0.073674
0.273116 0.710240 0.074031
0.301259 0.712307 0.074329
0.329424 0.714368 0.074568
0.357615 0.716422 0.074750
0.385833 0.718467 0.074875
0.414081 0.720500 0.074944
0.442359 0.722519 0.074959
0.477122 0.724524 0.074920
0.511918 0.726511 0.074828
0.546748 0.728481 0.074685
0.581613 0.730430 0.074492
0.616514 0.732358 0.074250
0.651452 0.734263 0.073961
0.686425 0.736144 0.073625
0.721434 0.737999 0.073245
0.756479 0.739827 0.072822
0.791560 0.741627 0.072357
0.826674 0.743397 0.071852
0.861823 0.745137 0.071310
0.897003 0.746845 0.070730
0.932215 0.748521 0.070117
0.967456 0.750163 0.069470
1.000000 0.751596 0.075560
1.000000 0.751746 0.154164
1.000000 0.753134 0.220171
1.000000 0.755454 0.276642
0.107657 0.726749 0.072961
0.135697 0.728837 0.073416
0.163750 0.730926 0.073811
0.191817 0.733014 0.074146
0.219901 0.735099 0.074423
0.248005 0.737179 0.074641
0.276132 0.739251 0.074802
0.304283 0.741315 0.074907
0.332460 0.743367 0.074956
0.360666 0.745407 0.074951
0.388901 0.747431 0.074893
0.417167 0.749439 0.074782
0.445466 0.751429 0.074621
0.477023 0.753400 0.074410
0.511840 0.755348 0.074150
0.546691 0.757274 0.073844
0.581576 0.759176 0.073492
0.616496 0.761051 0.073096
0.651450 0.762900 0.072657
0.686439 0.764720 0.072178
0.721460 0.766511 0.071659
0.756515 0.768271 0.071103
0.791601 0.769999 0.070511
0.826717 0.771694 0.069885
0.861862 0.773356 0.069227
0.897035 0.774982 0.068540
0.932233 0.776573 0.067824
0.967455 0.778127 0.067082
1.000000 0.779382 0.073844
1.000000 0.778471 0.161247
1.000000 0.779072 0.233470
1.000000 0.780786 0.294443
0.110473 0.755801 0.074254
0.138496 0.757905 0.074509
0.166537 0.760003 0.074706
0.194596 0.762095 0.074847
0.222678 0.764179 0.074931
0.250783 0.766251 0.074960
0.278913 0.768311 0.074936
0.307071 0.770356 0.074858
0.335257 0.772385 0.074729
0.363474 0.774396 0.074550
0.391721 0.776387 0.074321
0.420001 0.778357 0.074044
0.448313 0.780303 0.073721
0.476657 0.782226 0.073353
0.511487 0.784123 0.072941
0.546350 0.785992 0.072487
0.581245 0.787833 0.071993
0.616174 0.789644 0.071461
0.651133 0.791424 0.070891
0.686124 0.793172 0.070287
0.721145 0.794886 0.069649
0.756195 0.796567 0.068980
0.791271 0.798212 0.068282
0.826374 0.799821 0.067557
0.861499 0.801392 0.066806
0.896647 0.802926 0.066032
0.931813 0.804422 0.065238
0.966996 0.805878 0.064425
1.000000 0.806995 0.070518
1.000000 0.804836 0.168379
1.000000 0.804543 0.247738
1.000000 0.805592 0.313722
0.113008 0.784955 0.074884
0.141017 0.787059 0.074948
0.169047 0.789151 0.074958
0.197101 0.791232 0.074914
0.225179 0.793298 0.074817
0.253284 0.795348 0.074670
0.281417 0.797380 0.074472
0.309579 0.799392 0.074225
0.337771 0.801383 0.073932
0.365995 0.803351 0.073592
0.394250 0.805295 0.073208
0.422536 0.807212 0.072780
0.450855 0.809103 0.072312
0.479206 0.810964 0.071804
0.510814 0.812795 0.071258
0.545679 0.814595 0.070675
0.580575 0.816363 0.070058
0.615500 0.818097 0.069409
0.650454 0.819796 0.068729
