omv/luts/22_dust_and_blood.cube
# Original OMV LUT; redistribution permitted with OMV.
TITLE "Dust and Blood"
LUT_3D_SIZE 5
DOMAIN_MIN 0.000000 0.000000 0.000000
DOMAIN_MAX 0.903226 0.903226 0.903226
0.009000 0.016000 0.023000
0.197659 0.037562 0.044562
0.388515 0.060819 0.067702
0.588748 0.083990 0.089274
0.804367 0.105156 0.107372
0.086827 0.151051 0.096307
0.249184 0.195540 0.112981
0.462595 0.238251 0.125740
0.689742 0.260286 0.135206
0.928747 0.279681 0.142805
0.151756 0.315444 0.138089
0.293112 0.359268 0.145517
0.521762 0.399924 0.154312
0.755242 0.438337 0.167791
0.987289 0.475999 0.187031
0.202597 0.490662 0.174597
0.357550 0.528264 0.193952
0.550831 0.566123 0.209980
0.784520 0.603507 0.221614
1.000000 0.641178 0.256110
0.258428 0.659292 0.224813
0.410928 0.697397 0.231023
0.566735 0.733499 0.234043
0.802895 0.766996 0.234854
1.000000 0.800811 0.341940
0.016110 0.023110 0.097852
0.167009 0.045300 0.131332
0.359613 0.068819 0.166515
0.563349 0.091469 0.190904
0.782665 0.111689 0.213906
0.094719 0.178204 0.188226
0.220362 0.222232 0.221688
0.435781 0.246045 0.241125
0.664587 0.267147 0.257784
0.904221 0.285779 0.272424
0.156697 0.342636 0.263282
0.299812 0.385331 0.277533
0.490943 0.425081 0.292093
0.723730 0.463084 0.309601
0.955585 0.482583 0.329026
0.209252 0.515381 0.316736
0.363973 0.553034 0.335623
0.518854 0.590855 0.351489
0.752877 0.627849 0.363936
0.990614 0.663173 0.373055
0.262259 0.684338 0.367628
0.414787 0.721848 0.375612
0.570783 0.757118 0.380840
0.768671 0.789643 0.384064
1.000000 0.819613 0.404872
0.023441 0.030441 0.172925
0.136554 0.053231 0.207006
0.331497 0.076706 0.244431
0.538572 0.098661 0.284610
0.761300 0.117853 0.324943
0.102369 0.205259 0.272697
0.229718 0.230605 0.312597
0.408666 0.253520 0.350397
0.638917 0.273716 0.385390
0.878841 0.291706 0.406380
0.161462 0.369437 0.370735
0.306317 0.411047 0.402208
0.459785 0.450029 0.432389
0.691999 0.469741 0.451741
0.924188 0.489099 0.470901
0.215873 0.540066 0.447550
0.370223 0.577837 0.477452
0.525121 0.615489 0.493854
0.721076 0.651997 0.507625
0.959202 0.686610 0.518625
0.265739 0.709215 0.511949
0.418349 0.746038 0.521961
0.574545 0.780419 0.529465
0.734128 0.811945 0.534982
0.972658 0.840484 0.539313
0.030986 0.037986 0.248212
0.144910 0.061264 0.283356
0.304008 0.084412 0.325005
0.514256 0.105528 0.371071
0.740103 0.123640 0.418289
0.109738 0.214088 0.361584
0.238820 0.238691 0.408568
0.381200 0.260675 0.453544
0.612675 0.280024 0.495139
0.852545 0.297523 0.532784
0.166117 0.395850 0.482616
0.312685 0.436453 0.518837
0.466727 0.456773 0.551622
0.660236 0.476365 0.582559
0.893047 0.495510 0.613056
0.222372 0.564762 0.567037
0.376273 0.602624 0.597246
0.531213 0.639989 0.626071
0.689084 0.675923 0.652865
0.927539 0.691707 0.665969
0.268877 0.733886 0.635343
0.421620 0.769944 0.658828
0.578024 0.803387 0.679862
0.737657 0.833900 0.687450
0.937456 0.861444 0.693454
0.038734 0.045734 0.323702
0.153797 0.069259 0.361560
0.277000 0.091876 0.409072
0.490247 0.112041 0.462121
0.718917 0.129053 0.516777
0.116794 0.222703 0.455324
0.247631 0.246468 0.509747
0.391729 0.267518 0.561708
0.585815 0.286111 0.609172
0.825281 0.303303 0.650903
0.170737 0.421892 0.598377
0.318986 0.443532 0.637871
0.473454 0.463454 0.671260
0.628500 0.482946 0.702093
0.862094 0.501778 0.733288
0.228582 0.589536 0.686727
0.382095 0.627351 0.717924
0.537102 0.664321 0.748378
0.695259 0.681542 0.777212
0.895597 0.696519 0.803831
0.271686 0.758323 0.760492
0.424611 0.793546 0.786210
0.581232 0.826016 0.809351
0.740880 0.855510 0.829977
0.901870 0.882086 0.848433
