omv/luts/22_dust_and_blood.cube
# Original OMV LUT; redistribution permitted with OMV.
TITLE "Dust and Blood"
LUT_3D_SIZE 32
DOMAIN_MIN 0.0 0.0 0.0
DOMAIN_MAX 1.0 1.0 1.0
0.009000 0.016000 0.023000
0.035834 0.018963 0.025963
0.062708 0.021966 0.028966
0.089622 0.025009 0.032009
0.116575 0.028091 0.035091
0.143566 0.031211 0.038211
0.170594 0.034368 0.041368
0.197659 0.037562 0.044562
0.224761 0.040793 0.047793
0.251897 0.044059 0.051059
0.279069 0.047359 0.054359
0.306274 0.050694 0.057694
0.333521 0.054060 0.061058
0.360918 0.057439 0.064400
0.388515 0.060819 0.067702
0.416331 0.064193 0.070957
0.444384 0.067555 0.074161
0.472691 0.070899 0.077310
0.501267 0.074219 0.080399
0.530127 0.077511 0.083425
0.559284 0.080770 0.086384
0.588748 0.083990 0.089274
0.618532 0.087169 0.092092
0.648644 0.090301 0.094835
0.679092 0.093383 0.097501
0.709884 0.096412 0.100090
0.741024 0.099386 0.102598
0.772517 0.102301 0.105026
0.804367 0.105156 0.107372
0.836576 0.107949 0.109636
0.869143 0.110677 0.111819
0.902070 0.113340 0.113920
0.019127 0.033869 0.033127
0.040609 0.039545 0.036222
0.067614 0.045259 0.039356
0.094656 0.048430 0.042527
0.121734 0.051638 0.045734
0.148849 0.054881 0.048978
0.175998 0.058159 0.052256
0.203182 0.061472 0.055569
0.230400 0.064819 0.058916
0.257677 0.068196 0.062279
0.285099 0.071589 0.065607
0.312693 0.074992 0.068893
0.340477 0.078396 0.072130
0.368472 0.081797 0.075314
0.396694 0.085187 0.078441
0.425160 0.088561 0.081508
0.453885 0.091913 0.084510
0.482883 0.095238 0.087445
0.512166 0.098532 0.090309
0.541746 0.101789 0.093099
0.571633 0.105007 0.095815
0.601836 0.108180 0.098453
0.632363 0.111305 0.101012
0.663221 0.114380 0.103491
0.694413 0.117402 0.105889
0.725946 0.120367 0.108206
0.757821 0.123274 0.110440
0.790040 0.126122 0.112593
0.822604 0.128907 0.114664
0.855511 0.131631 0.116655
0.888759 0.134290 0.118567
0.922346 0.136886 0.120400
0.029690 0.052174 0.043690
0.045814 0.057976 0.046911
0.072941 0.063812 0.050167
0.100104 0.069684 0.053458
0.127300 0.075590 0.056784
0.154530 0.078949 0.060142
0.181833 0.082339 0.063496
0.209257 0.085754 0.066809
0.236824 0.089186 0.070077
0.264555 0.092628 0.073295
0.292470 0.096073 0.076459
0.320586 0.099515 0.079565
0.348922 0.102948 0.082609
0.377493 0.106366 0.085586
0.406313 0.109763 0.088496
0.435397 0.113135 0.091333
0.464757 0.116477 0.094097
0.494404 0.119784 0.096784
0.524346 0.123052 0.099394
0.554595 0.126278 0.101924
0.585155 0.129458 0.104374
0.616035 0.132590 0.106742
0.647238 0.135669 0.109029
0.678768 0.138694 0.111233
0.710628 0.141663 0.113357
0.742819 0.144574 0.115399
0.775342 0.147426 0.117360
0.808194 0.150217 0.119243
0.841373 0.152947 0.121048
0.874876 0.155616 0.122778
0.908698 0.158222 0.124434
0.942833 0.160767 0.126020
0.040665 0.070891 0.054665
0.056906 0.076809 0.058003
0.078667 0.082762 0.061367
0.105976 0.088753 0.064707
0.133379 0.094776 0.068004
0.160897 0.100825 0.071255
0.188552 0.106891 0.074454
0.216366 0.110387 0.077597
0.244356 0.113887 0.080680
0.272542 0.117385 0.083700
0.300940 0.120874 0.086654
0.329566 0.124348 0.089537
0.358433 0.127804 0.092348
0.387556 0.131234 0.095084
0.416947 0.134636 0.097743
0.446615 0.138004 0.100324
0.476570 0.141334 0.102825
0.506821 0.144623 0.105245
0.537374 0.147867 0.107584
0.568236 0.151064 0.109841
0.599411 0.154210 0.112016
0.630903 0.157303 0.114109
0.662712 0.160342 0.116122
0.694841 0.163325 0.118055
0.727289 0.166249 0.119909
0.760054 0.169115 0.121687
0.793134 0.171922 0.123389
0.826524 0.174668 0.125019
0.860219 0.177355 0.126580
0.894214 0.179983 0.128073
0.928499 0.182551 0.129503
0.963067 0.185062 0.130873
0.052029 0.090021 0.065912
0.068419 0.096079 0.069193
0.084898 0.102171 0.072425
0.112456 0.108287 0.075605
0.140148 0.114420 0.078727
0.167993 0.120564 0.081787
0.196010 0.126713 0.084784
0.224216 0.132859 0.087712
0.252630 0.138996 0.090569
0.281265 0.142540 0.093353
0.310135 0.146064 0.096061
0.339254 0.149564 0.098692
0.368633 0.153035 0.101244
0.398282 0.156474 0.103716
0.428210 0.159875 0.106106
0.458426 0.163236 0.108415
0.488936 0.166553 0.110642
0.519745 0.169823 0.112787
0.550858 0.173044 0.114851
0.582278 0.176213 0.116835
0.614005 0.179328 0.118739
0.646042 0.182388 0.120565
0.678386 0.185392 0.122315
0.711037 0.188338 0.123991
0.743991 0.191226 0.125595
0.777243 0.194055 0.127131
0.810788 0.196826 0.128601
0.844620 0.199539 0.130008
0.878730 0.202195 0.131358
0.913108 0.204794 0.132653
0.947745 0.207339 0.133898
0.982628 0.209830 0.135098
0.063675 0.109721 0.076748
0.080256 0.115917 0.079848
0.096968 0.122131 0.082886
0.119314 0.128354 0.085858
0.147312 0.134582 0.088760
0.175496 0.140807 0.091591
0.203882 0.147024 0.094348
0.232484 0.153226 0.097028
0.261317 0.159410 0.099630
0.290393 0.165569 0.102153
0.319723 0.171700 0.104595
0.349317 0.175217 0.106956
0.379184 0.178698 0.109235
0.409331 0.182138 0.111433
0.439765 0.185535 0.113548
0.470490 0.188886 0.115583
0.501511 0.192187 0.117537
0.532830 0.195438 0.119413
0.564448 0.198635 0.121211
0.596366 0.201777 0.122934
0.628583 0.204864 0.124583
0.661096 0.207894 0.126162
0.693902 0.210867 0.127673
0.726996 0.213782 0.129120
0.760371 0.216640 0.130506
0.794022 0.219441 0.131835
0.827939 0.222186 0.133111
0.862113 0.224876 0.134340
0.896532 0.227512 0.135524
0.931186 0.230096 0.136671
0.966060 0.232631 0.137786
1.000000 0.235259 0.139175
0.075349 0.130055 0.086922
0.092153 0.136369 0.089799
0.109123 0.142686 0.092603
0.126277 0.149000 0.095333
0.154596 0.155305 0.097985
0.183129 0.161595 0.100558
0.211889 0.167866 0.103052
0.240887 0.174112 0.105464
0.270134 0.180329 0.107795
0.299641 0.186513 0.110045
0.329415 0.192660 0.112212
0.359464 0.198767 0.114298
0.389793 0.204830 0.116304
0.420408 0.208266 0.118229
0.451311 0.211654 0.120076
0.482505 0.214990 0.121847
0.513991 0.218273 0.123543
0.545770 0.221502 0.125166
0.577838 0.224675 0.126720
0.610194 0.227792 0.128207
0.642834 0.230852 0.129632
0.675753 0.233855 0.130996
0.708944 0.236801 0.132306
0.742400 0.239691 0.133564
0.776112 0.242525 0.134776
0.810069 0.245305 0.135946
0.844262 0.248032 0.137080
0.878677 0.250709 0.138184
0.913300 0.253336 0.139264
0.948117 0.255917 0.140326
0.983112 0.258455 0.141377
1.000000 0.263156 0.147830
0.086827 0.151051 0.096307
0.103882 0.157462 0.098931
0.121133 0.163863 0.101475
0.138596 0.170249 0.103939
0.161766 0.176614 0.106323
0.190656 0.182954 0.108624
0.219792 0.189264 0.110843
0.249184 0.195540 0.112981
0.278838 0.201778 0.115038
0.308764 0.207976 0.117014
0.338964 0.214129 0.118911
0.369446 0.220235 0.120730
0.400210 0.226293 0.122473
0.431259 0.232298 0.124142
0.462595 0.238251 0.125740
0.494215 0.241568 0.127269
0.526119 0.244829 0.128733
0.558303 0.248034 0.130135
0.590764 0.251182 0.131479
0.623495 0.254274 0.132769
0.656491 0.257308 0.134010
0.689742 0.260286 0.135206
0.723240 0.263209 0.136363
0.756975 0.266079 0.137486
0.790935 0.268895 0.138580
0.825106 0.271661 0.139653
0.859476 0.274379 0.140709
0.894029 0.277051 0.141758
0.928747 0.279681 0.142805
0.963615 0.282270 0.143857
0.998611 0.284824 0.144924
1.000000 0.291301 0.157101
0.097927 0.172722 0.104816
0.115258 0.179209 0.107170
0.132811 0.185674 0.109441
0.150599 0.192113 0.111631
0.168631 0.198520 0.113739
0.197884 0.204893 0.115766
0.227397 0.211226 0.117713
0.257177 0.217518 0.119582
0.287230 0.223765 0.121373
0.317559 0.229963 0.123089
0.348167 0.236112 0.124732
0.379056 0.242208 0.126304
0.410226 0.248251 0.127810
0.441676 0.254238 0.129251
0.473403 0.260169 0.130631
0.505405 0.266043 0.131955
0.537677 0.271859 0.133227
0.570212 0.275038 0.134450
0.603005 0.278159 0.135632
0.636046 0.281224 0.136775
0.669327 0.284234 0.137887
0.702836 0.287189 0.138973
0.736561 0.290092 0.140039
0.770489 0.292945 0.141092
0.804606 0.295749 0.142139
0.838897 0.298507 0.143187
0.873343 0.301223 0.144244
0.907928 0.303900 0.145317
0.942632 0.306541 0.146416
0.977433 0.309151 0.147548
1.000000 0.313107 0.153281
1.000000 0.319654 0.167106
0.108508 0.195061 0.112408
0.126140 0.201603 0.114487
0.144014 0.208111 0.116484
0.162141 0.214583 0.118403
0.180527 0.221015 0.120243
0.204662 0.227403 0.122006
0.234551 0.233745 0.123695
0.264714 0.240038 0.125312
0.295153 0.246279 0.126860
0.325869 0.252466 0.128341
0.356863 0.258599 0.129760
0.388133 0.264675 0.131119
0.419676 0.270693 0.132424
0.451489 0.276654 0.133677
0.483567 0.282557 0.134885
0.515903 0.288401 0.136052
0.548490 0.294188 0.137183
0.581320 0.299917 0.138285
0.614383 0.305590 0.139363
0.647667 0.308628 0.140423
0.681160 0.311613 0.141473
0.714849 0.314547 0.142520
0.748719 0.317432 0.143570
0.782754 0.320271 0.144632
0.816936 0.323068 0.145714
0.851247 0.325825 0.146823
0.885668 0.328546 0.147970
0.920177 0.331236 0.149162
0.954753 0.333898 0.150410
0.989371 0.336537 0.151723
1.000000 0.341730 0.162901
1.000000 0.348171 0.177969
0.118475 0.218048 0.119081
0.136428 0.224621 0.120893
0.154641 0.231152 0.122630
0.173118 0.237638 0.124292
0.191864 0.244075 0.125884
0.210883 0.250462 0.127407
0.241144 0.256795 0.128865
0.271681 0.263072 0.130262
0.302492 0.269294 0.131600
0.333577 0.275457 0.132886
0.364933 0.281561 0.134122
0.396554 0.287607 0.135314
0.428437 0.293592 0.136468
0.460574 0.299518 0.137588
0.492958 0.305385 0.138680
0.525580 0.311194 0.139751
0.558429 0.316945 0.140806
0.591494 0.322641 0.141854
0.624762 0.328282 0.142901
0.658220 0.333872 0.143955
0.691851 0.339412 0.145023
0.725641 0.342325 0.146114
0.759571 0.345195 0.147236
0.793622 0.348024 0.148398
0.827775 0.350817 0.149610
0.862007 0.353578 0.150880
0.896297 0.356311 0.152219
0.930621 0.359021 0.153636
0.964954 0.361713 0.155143
0.999269 0.364393 0.156751
1.000000 0.370485 0.173457
1.000000 0.376804 0.189821
0.127774 0.241643 0.124880
0.146068 0.248226 0.126446
0.164632 0.254758 0.127945
0.183469 0.261236 0.129380
0.202580 0.267660 0.130755
0.221966 0.274026 0.132074
0.247109 0.280333 0.133341
0.278009 0.286580 0.134561
0.309177 0.292767 0.135738
0.340610 0.298893 0.136879
0.372301 0.304957 0.137988
0.404243 0.310959 0.139072
0.436430 0.316901 0.140136
0.468850 0.322784 0.141188
0.501494 0.328607 0.142235
0.534349 0.334373 0.143284
0.567404 0.340084 0.144342
0.600642 0.345742 0.145417
0.634050 0.351348 0.146518
0.667609 0.356907 0.147654
0.701303 0.362422 0.148833
0.735111 0.367895 0.150065
0.769014 0.373330 0.151359
0.802990 0.376152 0.152725
0.837017 0.378945 0.154174
0.871069 0.381715 0.155716
0.905121 0.384465 0.157363
0.939148 0.387203 0.159125
0.973121 0.389933 0.161014
1.000000 0.393317 0.166562
1.000000 0.399323 0.185096
1.000000 0.405503 0.202809
0.136392 0.265792 0.129888
0.155045 0.272360 0.131242
0.173973 0.278871 0.132541
0.193177 0.285321 0.133791
0.212655 0.291711 0.134994
0.232405 0.298038 0.136158
0.252423 0.304302 0.137286
0.283672 0.310502 0.138385
0.315179 0.316639 0.139461
0.346936 0.322713 0.140520
0.378935 0.328723 0.141570
0.411165 0.334672 0.142616
0.443616 0.340560 0.143667
0.476276 0.346389 0.144731
0.509132 0.352160 0.145815
0.542168 0.357877 0.146927
0.575369 0.363541 0.148078
0.608717 0.369155 0.149275
0.642195 0.374724 0.150528
0.675783 0.380249 0.151847
0.709460 0.385736 0.153242
0.743204 0.391188 0.154724
0.776991 0.396610 0.156303
0.810798 0.402007 0.157990
0.844599 0.407384 0.159797
0.878366 0.410166 0.161736
0.912072 0.412940 0.163818
0.945688 0.415712 0.166056
0.979182 0.418488 0.168463
1.000000 0.422361 0.177897
1.000000 0.428189 0.197981
1.000000 0.434205 0.217014
0.144361 0.290421 0.134234
0.163388 0.296952 0.135422
0.182691 0.303418 0.136572
0.202266 0.309819 0.137689
0.222111 0.316155 0.138779
0.242220 0.322423 0.139848
0.262587 0.328626 0.140903
0.288687 0.334763 0.141951
0.320512 0.340834 0.142998
0.352568 0.346840 0.144053
0.384844 0.352784 0.145123
0.417327 0.358666 0.146216
0.450003 0.364489 0.147341
0.482857 0.370254 0.148508
0.515873 0.375965 0.149724
0.549034 0.381624 0.151000
0.582321 0.387234 0.152346
0.615714 0.392801 0.153771
0.649192 0.398326 0.155287
0.682732 0.403815 0.156904
0.716311 0.409272 0.158634
0.749904 0.414702 0.160487
0.783485 0.420111 0.162476
0.817027 0.425504 0.164614
0.850501 0.430887 0.166912
0.883878 0.436266 0.169384
0.917127 0.441649 0.172042
0.950262 0.444455 0.174842
0.983387 0.447258 0.177645
1.000000 0.451366 0.190234
1.000000 0.456970 0.211638
1.000000 0.462784 0.231815
0.151756 0.315444 0.138089
0.171170 0.321912 0.139171
0.190855 0.328311 0.140234
0.210805 0.334640 0.141285
0.231015 0.340900 0.142332
0.251476 0.347091 0.143381
0.272178 0.353213 0.144440
0.293112 0.359268 0.145517
0.325233 0.365258 0.146621
0.357561 0.371182 0.147761
0.390081 0.377045 0.148944
0.422779 0.382847 0.150181
0.455637 0.388593 0.151482
0.488638 0.394284 0.152855
0.521762 0.399924 0.154312
0.554990 0.405518 0.155863
0.588301 0.411068 0.157520
0.621670 0.416579 0.159293
0.655074 0.422057 0.161195
0.688489 0.427505 0.163237
0.721887 0.432930 0.165431
0.755242 0.438337 0.167791
0.788523 0.443733 0.170329
0.821703 0.449122 0.173058
0.854831 0.454509 0.175863
0.887955 0.459890 0.178664
0.921072 0.465266 0.181459
0.954184 0.470636 0.184249
0.987289 0.475999 0.187031
1.000000 0.480233 0.202919
1.000000 0.485597 0.225667
1.000000 0.491201 0.246985
0.158693 0.340754 0.141666
0.178504 0.347134 0.142713
0.198577 0.353442 0.143765
0.218904 0.359677 0.144830
0.239474 0.365840 0.145916
0.260277 0.371932 0.147032
0.281301 0.377955 0.148186
0.302533 0.383911 0.149388
0.329441 0.389801 0.150647
0.362011 0.395628 0.151973
0.394742 0.401395 0.153375
0.427614 0.407104 0.154865
0.460610 0.412760 0.156454
0.493708 0.418366 0.158152
0.526886 0.423926 0.159970
0.560121 0.429445 0.161921
0.593389 0.434927 0.164017
0.626665 0.440377 0.166270
0.659921 0.445802 0.168694
0.693130 0.451206 0.171300
0.726273 0.456596 0.174080
0.759400 0.461980 0.176884
0.792521 0.467360 0.179683
0.825637 0.472734 0.182476
0.858746 0.478101 0.185263
0.891849 0.483462 0.188043
0.924958 0.488816 0.190798
0.958122 0.494165 0.193469
0.991355 0.499506 0.196049
1.000000 0.506519 0.215743
1.000000 0.514083 0.239844
1.000000 0.519461 0.262328
0.165332 0.366229 0.145222
0.185549 0.372496 0.146318
0.206014 0.378688 0.147447
0.226715 0.384806 0.148618
0.247639 0.390850 0.149839
0.268773 0.396823 0.151121
0.290102 0.402727 0.152474
0.311610 0.408564 0.153907
0.333280 0.414338 0.155432
0.366060 0.420051 0.157059
0.398964 0.425707 0.158799
0.431970 0.431309 0.160664
0.465056 0.436863 0.162667
0.498198 0.442372 0.164819
0.531373 0.447841 0.167132
0.564553 0.453276 0.169621
0.597713 0.458681 0.172297
0.630843 0.464069 0.175101
0.663968 0.469452 0.177903
0.697087 0.474829 0.180700
0.730201 0.480201 0.183491
0.763308 0.485566 0.186275
0.796408 0.490924 0.189053
0.829527 0.496278 0.191781
0.862695 0.501631 0.194419
0.895919 0.506978 0.196966
0.929207 0.512317 0.199421
0.962564 0.517644 0.201786
0.995995 0.522956 0.204059
1.000000 0.530318 0.228590
1.000000 0.537903 0.254146
1.000000 0.545434 0.277874
0.171874 0.391731 0.149056
0.192505 0.397859 0.150298
0.213363 0.403910 0.151605
0.234435 0.409886 0.152986
0.255704 0.415789 0.154451
0.277156 0.421621 0.156012
0.298771 0.427386 0.157679
0.320531 0.433086 0.159463
0.342417 0.438725 0.161377
0.369890 0.444307 0.163432
0.402928 0.449836 0.165642
0.436023 0.455317 0.168017
0.469151 0.460755 0.170573
0.502284 0.466155 0.173317
0.535412 0.471541 0.176122
0.568535 0.476922 0.178922
0.601652 0.482298 0.181717
0.634764 0.487667 0.184506
0.667868 0.493029 0.187287
0.700968 0.498386 0.190057
0.734092 0.503743 0.192752
0.767255 0.509102 0.195357
0.800464 0.514458 0.197870
0.833726 0.519807 0.200293
0.867047 0.525148 0.202624
0.900433 0.530476 0.204864
0.933890 0.535790 0.207013
0.967423 0.541085 0.209071
1.000000 0.546435 0.211933
1.000000 0.554101 0.241504
1.000000 0.561694 0.268626
1.000000 0.569219 0.293685
0.178566 0.417104 0.153509
0.199614 0.423066 0.155008
0.220865 0.428952 0.156606
0.242301 0.434762 0.158314
0.263906 0.440500 0.160144
0.285658 0.446169 0.162108
0.307539 0.451773 0.164218
0.329526 0.457316 0.166487
0.351597 0.462802 0.168926
0.373727 0.468236 0.171550
0.406854 0.473629 0.174338
0.439981 0.479013 0.177142
0.473102 0.484392 0.179940
0.506217 0.489765 0.182733
0.539326 0.495132 0.185519
0.572428 0.500492 0.188299
0.605528 0.505849 0.191048
0.638649 0.511212 0.193711
0.671798 0.516579 0.196282
0.704983 0.521946 0.198763
0.738211 0.527309 0.201152
0.771489 0.532665 0.203450
0.804823 0.538011 0.205656
0.838218 0.543345 0.207772
0.871681 0.548662 0.209797
0.905216 0.553961 0.211732
0.938827 0.559238 0.213578
0.972520 0.564491 0.215334
1.000000 0.570186 0.222936
1.000000 0.577857 0.254537
1.000000 0.585440 0.283349
1.000000 0.592946 0.309827
0.185694 0.442176 0.158966
0.207162 0.447946 0.160843
0.228803 0.453639 0.162859
0.250596 0.459258 0.165025
0.272523 0.464808 0.167354
0.294559 0.470292 0.169859
0.316682 0.475714 0.172554
0.338843 0.481102 0.175360
0.361000 0.486484 0.178161
0.383151 0.491861 0.180958
0.410780 0.497232 0.183748
0.443887 0.502596 0.186532
0.476986 0.507954 0.189308
0.510085 0.513316 0.192028
0.543193 0.518687 0.194658
0.576320 0.524064 0.197196
0.609473 0.529444 0.199643
0.642659 0.534823 0.201999
0.675886 0.540196 0.204264
0.709160 0.545563 0.206437
0.742487 0.550918 0.208520
0.775873 0.556259 0.210512
0.809322 0.561584 0.212414
0.842841 0.566889 0.214227
0.876434 0.572171 0.215952
0.910103 0.577429 0.217588
0.943854 0.582660 0.219138
0.977689 0.587861 0.220602
1.000000 0.593910 0.233934
1.000000 0.601567 0.267752
1.000000 0.609123 0.298387
1.000000 0.616593 0.326378
0.193590 0.466758 0.165853
0.215478 0.472308 0.168245
0.237503 0.477782 0.170818
0.259640 0.483188 0.173575
0.281800 0.488574 0.176380
0.303954 0.493954 0.179180
0.326103 0.499329 0.181974
0.348246 0.504698 0.184762
0.370382 0.510060 0.187544
0.392511 0.515417 0.190309
0.414631 0.520787 0.192996
0.447719 0.526168 0.195592
0.480815 0.531559 0.198097
0.513928 0.536954 0.200511
0.547065 0.542350 0.202834
0.580234 0.547743 0.205066
0.613441 0.553131 0.207206
0.646692 0.558510 0.209256
0.679995 0.563878 0.211215
0.713353 0.569230 0.213085
0.746773 0.574564 0.214865
0.780260 0.579877 0.216558
0.813817 0.585168 0.218162
0.847448 0.590432 0.219680
0.881157 0.595668 0.221113
0.914947 0.600874 0.222462
0.948821 0.606047 0.223728
0.982780 0.611185 0.224913
1.000000 0.617584 0.244975
1.000000 0.625206 0.281217
1.000000 0.632718 0.313819
1.000000 0.640134 0.343426
0.202597 0.490662 0.174597
0.224755 0.496045 0.177400
0.246908 0.501424 0.180198
0.269055 0.506797 0.182990
0.291195 0.512163 0.185776
0.313329 0.517522 0.188554
0.335449 0.522884 0.191298
0.357550 0.528264 0.193952
0.379642 0.533658 0.196515
0.401732 0.539063 0.198987
0.423829 0.544476 0.201368
0.451425 0.549891 0.203657
0.484528 0.555307 0.205855
0.517661 0.560719 0.207963
0.550831 0.566123 0.209980
0.584043 0.571518 0.211906
0.617305 0.576899 0.213743
0.650620 0.582265 0.215492
0.683995 0.587611 0.217152
0.717434 0.592935 0.218725
0.750941 0.598234 0.220212
0.784520 0.603507 0.221614
0.818173 0.608751 0.222933
0.851906 0.613962 0.224169
0.885718 0.619140 0.225325
0.919614 0.624282 0.226401
0.953594 0.629387 0.227400
0.987659 0.634452 0.228324
1.000000 0.641178 0.256110
1.000000 0.648746 0.295009
1.000000 0.656194 0.329737
1.000000 0.663540 0.361066
0.212005 0.514263 0.184005
0.234143 0.519627 0.186788
0.256273 0.524984 0.189563
0.278376 0.530355 0.192274
0.300450 0.535748 0.194895
0.322505 0.541157 0.197425
0.344548 0.546580 0.199864
0.366590 0.552012 0.202212
0.388638 0.557449 0.204468
0.410701 0.562888 0.206633
0.432785 0.568325 0.208707
0.454899 0.573758 0.210691
0.488015 0.579181 0.212585
0.521173 0.584594 0.214390
0.554378 0.589991 0.216106
0.587636 0.595371 0.217735
0.620952 0.600730 0.219276
0.654329 0.606067 0.220732
0.687773 0.611377 0.222104
0.721287 0.616659 0.223392
0.754873 0.621911 0.224599
0.788536 0.627130 0.225726
0.822276 0.632314 0.226774
0.856097 0.637460 0.227745
0.889999 0.642568 0.228642
0.923984 0.647635 0.229465
0.958053 0.652660 0.230219
0.992205 0.657641 0.230904
1.000000 0.664659 0.267395
1.000000 0.672152 0.309216
1.000000 0.679518 0.346243
1.000000 0.686777 0.379405
0.221288 0.537833 0.193239
0.243326 0.543240 0.195827
0.265336 0.548667 0.198324
0.287325 0.554109 0.200729
0.309304 0.559563 0.203044
0.331281 0.565023 0.205267
0.353264 0.570488 0.207399
0.375261 0.575953 0.209440
0.397279 0.581414 0.211391
0.419326 0.586869 0.213253
0.441407 0.592313 0.215025
0.463528 0.597745 0.216709
0.491180 0.603160 0.218306
0.524368 0.608556 0.219816
0.557611 0.613930 0.221241
0.590916 0.619279 0.222582
0.624285 0.624602 0.223841
0.657722 0.629894 0.225018
0.691230 0.635154 0.226116
0.724812 0.640381 0.227136
0.758470 0.645570 0.228080
0.792207 0.650722 0.228950
0.826023 0.655833 0.229748
0.859919 0.660902 0.230476
0.893896 0.665928 0.231136
0.927954 0.670908 0.231732
0.962093 0.675842 0.232265
0.996312 0.680728 0.232738
1.000000 0.687989 0.278889
1.000000 0.695387 0.323933
1.000000 0.702652 0.363451
1.000000 0.709808 0.398565
0.230058 0.561653 0.201582
0.251967 0.567130 0.203864
0.273865 0.572616 0.206053
0.295762 0.578108 0.208152
0.317665 0.583602 0.210161
0.339582 0.589094 0.212079
0.361520 0.594581 0.213908
0.383487 0.600060 0.215648
0.405487 0.605526 0.217300
0.427528 0.610978 0.218866
0.449614 0.616412 0.220345
0.471752 0.621825 0.221739
0.493944 0.627214 0.223050
0.527165 0.632577 0.224279
0.560449 0.637911 0.225427
0.593799 0.643214 0.226496
0.627220 0.648484 0.227488
0.660713 0.653717 0.228405
0.694281 0.658913 0.229249
0.727925 0.664069 0.230021
0.761647 0.669183 0.230724
0.795447 0.674254 0.231361
0.829326 0.679279 0.231933
0.863284 0.684259 0.232444
0.897321 0.689190 0.232895
0.931435 0.694072 0.233291
0.965625 0.698903 0.233633
0.999891 0.703684 0.233926
1.000000 0.711125 0.290655
1.000000 0.718408 0.339271
1.000000 0.725557 0.381492
1.000000 0.732594 0.418683
0.238191 0.585749 0.208894
0.259994 0.591274 0.210870
0.281804 0.596798 0.212755
0.303628 0.602319 0.214552
0.325474 0.607833 0.216260
0.347348 0.613336 0.217880
0.369256 0.618826 0.219414
0.391205 0.624299 0.220862
0.413200 0.629752 0.222226
0.435245 0.635182 0.223507
0.457345 0.640587 0.224706
0.479504 0.645964 0.225825
0.501726 0.651310 0.226866
0.529498 0.656623 0.227831
0.562824 0.661902 0.228721
0.596220 0.667142 0.229538
0.629691 0.672343 0.230285
0.663236 0.677502 0.230963
0.696858 0.682618 0.231576
0.730556 0.687690 0.232126
0.764332 0.692714 0.232615
0.798185 0.697690 0.233046
0.832115 0.702618 0.233422
0.866120 0.707494 0.233745
0.900200 0.712318 0.234020
0.934352 0.717090 0.234249
0.968574 0.721808 0.234435
1.000000 0.726704 0.240328
1.000000 0.734023 0.302761
1.000000 0.741173 0.355358
1.000000 0.748189 0.400518
1.000000 0.755095 0.439915
0.245646 0.610084 0.215184
0.267366 0.615634 0.216860
0.289108 0.621176 0.218449
0.310880 0.626705 0.219951
0.332686 0.632218 0.221368
0.354533 0.637712 0.222702
0.376427 0.643184 0.223953
0.398370 0.648632 0.225123
0.420369 0.654052 0.226213
0.442428 0.659443 0.227226
0.464549 0.664800 0.228163
0.486736 0.670123 0.229026
0.508991 0.675409 0.229818
0.531318 0.680655 0.230540
0.564685 0.685861 0.231194
0.598126 0.691022 0.231784
0.631643 0.696139 0.232311
0.665236 0.701209 0.232778
0.698905 0.706231 0.233189
0.732650 0.711202 0.233546
0.766470 0.716123 0.233851
0.800364 0.720991 0.234109
0.834331 0.725806 0.234322
0.868369 0.730567 0.234493
0.902475 0.735272 0.234627
0.936646 0.739921 0.234726
0.970881 0.744514 0.234795
1.000000 0.749467 0.246484
1.000000 0.756637 0.315283
1.000000 0.763638 0.372344
1.000000 0.770506 0.420709
1.000000 0.777268 0.462448
0.252395 0.634615 0.220477
0.274055 0.640169 0.221863
0.295751 0.645705 0.223167
0.317488 0.651221 0.224388
0.339272 0.656712 0.225529
0.361108 0.662177 0.226591
0.382999 0.667612 0.227576
0.404950 0.673015 0.228486
0.426964 0.678383 0.229323
0.449044 0.683715 0.230088
0.471193 0.689007 0.230785
0.493413 0.694258 0.231416
0.515705 0.699466 0.231983
0.538071 0.704628 0.232488
0.565996 0.709743 0.232934
0.599480 0.714810 0.233325
0.633040 0.719827 0.233662
0.666675 0.724792 0.233950
0.700384 0.729704 0.234191
