omv/luts/22_dust_and_blood.cube
# Original OMV LUT; redistribution permitted with OMV.
TITLE "Dust and Blood"
LUT_3D_SIZE 8
DOMAIN_MIN 0.000000 0.000000 0.000000
DOMAIN_MAX 0.903226 0.903226 0.903226
0.009000 0.016000 0.023000
0.116575 0.028091 0.035091
0.224761 0.040793 0.047793
0.333521 0.054060 0.061058
0.444384 0.067555 0.074161
0.559284 0.080770 0.086384
0.679092 0.093383 0.097501
0.804367 0.105156 0.107372
0.052029 0.090021 0.065912
0.140148 0.114420 0.078727
0.252630 0.138996 0.090569
0.368633 0.153035 0.101244
0.488936 0.166553 0.110642
0.614005 0.179328 0.118739
0.743991 0.191226 0.125595
0.878730 0.202195 0.131358
0.097927 0.172722 0.104816
0.168631 0.198520 0.113739
0.287230 0.223765 0.121373
0.410226 0.248251 0.127810
0.537677 0.271859 0.133227
0.669327 0.284234 0.137887
0.804606 0.295749 0.142139
0.942632 0.306541 0.146416
0.136392 0.265792 0.129888
0.212655 0.291711 0.134994
0.315179 0.316639 0.139461
0.443616 0.340560 0.143667
0.575369 0.363541 0.148078
0.709460 0.385736 0.153242
0.844599 0.407384 0.159797
0.979182 0.418488 0.168463
0.165332 0.366229 0.145222
0.247639 0.390850 0.149839
0.333280 0.414338 0.155432
0.465056 0.436863 0.162667
0.597713 0.458681 0.172297
0.730201 0.480201 0.183491
0.862695 0.501631 0.194419
0.995995 0.522956 0.204059
0.193590 0.466758 0.165853
0.281800 0.488574 0.176380
0.370382 0.510060 0.187544
0.480815 0.531559 0.198097
0.613441 0.553131 0.207206
0.746773 0.574564 0.214865
0.881157 0.595668 0.221113
1.000000 0.617584 0.244975
0.230058 0.561653 0.201582
0.317665 0.583602 0.210161
0.405487 0.605526 0.217300
0.493944 0.627214 0.223050
0.627220 0.648484 0.227488
0.761647 0.669183 0.230724
0.897321 0.689190 0.232895
1.000000 0.711125 0.290655
0.258428 0.659292 0.224813
0.345217 0.681267 0.228799
0.432966 0.702694 0.231630
0.521847 0.723429 0.233454
0.633858 0.743355 0.234450
0.768956 0.762385 0.234829
0.905053 0.780464 0.234827
1.000000 0.800811 0.341940
0.013035 0.020035 0.065745
0.098887 0.032338 0.084500
0.207270 0.045238 0.103850
0.316401 0.058651 0.117266
0.428305 0.072092 0.130726
0.544378 0.085135 0.143807
0.665420 0.097485 0.156210
0.791915 0.108934 0.167724
0.056712 0.105076 0.115736
0.123289 0.129585 0.135550
0.236384 0.143805 0.148414
0.353147 0.157697 0.160513
0.474286 0.170983 0.171668
0.600191 0.183471 0.181783
0.730942 0.195055 0.190847
0.866302 0.205712 0.198937
0.102268 0.188346 0.164691
0.173496 0.213984 0.175473
0.270772 0.238990 0.185202
0.394397 0.263187 0.193899
0.522420 0.276163 0.201669
0.654514 0.288236 0.208705
0.790035 0.299486 0.215285
0.928027 0.310079 0.221771
0.139685 0.281517 0.196827
0.216545 0.307107 0.204303
0.297690 0.331691 0.211136
0.426569 0.355281 0.217635
0.558576 0.377973 0.224194
0.692662 0.399951 0.231290
0.827463 0.411161 0.239491
0.961303 0.422278 0.249444
0.167972 0.381541 0.219993
0.250895 0.405764 0.226687
0.336980 0.428901 0.234116
0.447019 0.451153 0.242874
0.579590 0.472816 0.253525
0.712046 0.494304 0.264691
0.844686 0.515710 0.275366
0.978272 0.536962 0.284831
0.197079 0.481095 0.246524
0.285602 0.502698 0.257602
0.374146 0.524157 0.268707
0.462614 0.545705 0.278955
0.595299 0.567253 0.287968
0.728756 0.588593 0.295729
0.863304 0.609549 0.302252
0.999154 0.629971 0.307581
0.233421 0.575912 0.282381
0.320888 0.597878 0.290938
0.408664 0.619745 0.298246
0.497146 0.641309 0.304327
0.608556 0.662401 0.309238
0.743073 0.682877 0.313062
0.878831 0.702626 0.315912
1.000000 0.722679 0.342241
0.260660 0.673623 0.306247
0.347436 0.695430 0.310751
0.435221 0.716637 0.314205
0.524163 0.737108 0.316736
0.614300 0.756738 0.318497
0.749436 0.775450 0.319673
0.885521 0.793198 0.320479
1.000000 0.811446 0.377317
0.017144 0.024144 0.108563
0.081267 0.036654 0.127525
0.189843 0.049746 0.147069
0.299567 0.063238 0.167224
0.412494 0.076583 0.187881
0.529710 0.089419 0.202149
0.651940 0.101482 0.216110
0.779597 0.112593 0.229482
0.061424 0.120187 0.159458
0.128410 0.134430 0.180186
0.220186 0.148576 0.200832
0.337699 0.162289 0.221059
0.459648 0.175321 0.234163
0.586353 0.187510 0.246430
0.717818 0.198777 0.257779
0.853736 0.209130 0.268215
0.106518 0.203926 0.213014
0.178279 0.229375 0.232280
0.254229 0.254121 0.250670
0.378466 0.267697 0.261681
0.507032 0.280362 0.271803
0.639527 0.292142 0.281155
0.775234 0.303146 0.289944
0.913123 0.313569 0.298462
0.142876 0.297135 0.259013
0.220338 0.322387 0.275288
0.302029 0.346628 0.284406
0.409392 0.369897 0.293059
0.541619 0.392323 0.301567
0.675651 0.403792 0.310341
0.810054 0.414927 0.319873
0.943187 0.426090 0.330670
0.170612 0.396715 0.296153
0.254150 0.420552 0.304706
0.340663 0.443362 0.313694
0.428938 0.465374 0.323642
0.561457 0.486941 0.334747
0.693888 0.508396 0.345865
0.826740 0.529771 0.356313
0.960602 0.540605 0.365750
0.200780 0.495296 0.327619
0.289393 0.516812 0.338812
0.377877 0.538277 0.349781
0.466322 0.559850 0.359869
0.577133 0.581350 0.368923
0.710712 0.602578 0.376904
0.845417 0.623368 0.383800
0.981434 0.643580 0.389631
0.236678 0.590186 0.363288
0.324017 0.612143 0.371954
0.411757 0.633928 0.379540
0.500268 0.655350 0.386044
0.589812 0.676247 0.391498
0.724414 0.696487 0.395960
0.860249 0.715969 0.399520
0.997254 0.734621 0.402298
0.262778 0.687903 0.388149
0.349550 0.709524 0.393233
0.437379 0.730495 0.397354
0.526385 0.750691 0.400615
0.616583 0.770016 0.403143
0.729814 0.788404 0.405101
0.865875 0.805820 0.406677
1.000000 0.822387 0.414316
0.021324 0.028324 0.151453
0.085650 0.041037 0.170618
0.172486 0.054314 0.190354
0.282990 0.067807 0.211145
0.396921 0.081014 0.232905
0.515246 0.093613 0.255110
0.638619 0.105369 0.277321
0.767380 0.116130 0.292733
0.066148 0.125011 0.203732
0.133558 0.139264 0.225710
0.204016 0.153295 0.247964
0.322268 0.166801 0.270085
0.445003 0.179561 0.291752
0.572469 0.191441 0.312726
0.704599 0.202392 0.326406
0.841011 0.212452 0.339176
0.110669 0.219452 0.262788
0.182973 0.244684 0.284226
0.259528 0.258832 0.304907
0.362426 0.272101 0.324710
0.491505 0.284458 0.343600
0.624357 0.295958 0.355176
0.760193 0.306739 0.366025
0.897911 0.317024 0.376368
0.145969 0.312640 0.316440
0.224037 0.337549 0.335006
0.306266 0.361451 0.352749
0.392091 0.384416 0.369835
0.524501 0.396276 0.380066
0.658431 0.407594 0.390229
0.792372 0.418697 0.400749
0.925054 0.429893 0.411893
0.173267 0.411753 0.360687
0.257418 0.435221 0.377301
0.344346 0.457730 0.393993
0.432764 0.479538 0.404764
0.543314 0.501056 0.415959
0.675779 0.522484 0.426976
0.808846 0.533484 0.437338
0.942973 0.544203 0.446881
0.204591 0.509430 0.402398
0.293172 0.530914 0.420011
0.381569 0.552415 0.430838
0.469996 0.573987 0.440912
0.558934 0.595416 0.450135
0.692632 0.616512 0.458442
0.827487 0.637120 0.465798
0.963660 0.657110 0.472197
0.239825 0.604466 0.444372
0.327050 0.626388 0.453268
0.414762 0.648070 0.461231
0.503306 0.669330 0.468238
0.592920 0.690017 0.474293
0.705668 0.710010 0.479433
0.841569 0.729216 0.483723
0.978602 0.747574 0.487257
0.264780 0.702126 0.470551
0.351562 0.723542 0.476268
0.439441 0.744263 0.481089
0.528514 0.764172 0.485091
0.618770 0.783185 0.488379
0.710090 0.801246 0.491090
0.846117 0.818328 0.493389
0.982645 0.834435 0.495471
0.025576 0.032576 0.194414
0.090099 0.045486 0.213776
0.155316 0.058905 0.233859
0.266640 0.072342 0.255680
0.381555 0.085374 0.278867
0.500958 0.097709 0.302825
0.625428 0.109140 0.327045
0.755233 0.119545 0.351101
0.070869 0.129853 0.248745
0.138717 0.144071 0.272277
0.209794 0.157954 0.296385
0.306837 0.171226 0.320589
0.430333 0.183698 0.344497
0.558523 0.195264 0.367800
0.691265 0.205904 0.390277
0.828106 0.215685 0.411788
0.114717 0.234912 0.314094
0.187572 0.249582 0.337813
0.264729 0.263440 0.360836
0.346269 0.276399 0.382972
0.475831 0.288455 0.404115
0.608996 0.299690 0.424244
0.744904 0.310273 0.443424
0.882380 0.320457 0.455354
0.148972 0.328030 0.375536
0.227649 0.352595 0.396307
0.310406 0.376166 0.416079
0.396604 0.388521 0.434946
0.507226 0.400165 0.453090
0.641004 0.411370 0.470777
0.774422 0.422489 0.481909
0.906912 0.433686 0.493106
0.175956 0.426660 0.426371
0.260717 0.449778 0.444313
0.348043 0.472016 0.461917
0.436575 0.493672 0.479543
0.525158 0.515158 0.497158
0.657715 0.526240 0.508095
0.790991 0.537165 0.518514
0.925373 0.547750 0.528285
0.208393 0.523554 0.470715
0.296928 0.545012 0.488286
0.385214 0.566562 0.505504
0.473629 0.588108 0.522152
0.562632 0.609443 0.531660
0.674510 0.630390 0.540390
0.809508 0.650800 0.548281
0.945824 0.660235 0.555305
0.242859 0.618742 0.512796
0.329984 0.640605 0.528481
0.417677 0.662162 0.543362
0.506259 0.683243 0.550939
0.595943 0.703707 0.557646
0.686831 0.723441 0.563493
0.822790 0.742365 0.568520
0.959836 0.760426 0.572799
0.266670 0.716286 0.547030
0.353472 0.737480 0.559873
0.441409 0.757937 0.565415
0.530551 0.777550 0.570160
0.620863 0.796244 0.574190
0.712201 0.813974 0.577616
0.826247 0.830723 0.580579
0.962640 0.846505 0.583250
0.029895 0.036895 0.237444
0.094610 0.049998 0.256998
0.160288 0.063492 0.277809
0.250489 0.076830 0.301013
0.366369 0.089653 0.325922
0.486816 0.101700 0.351870
0.612337 0.112792 0.378276
0.743127 0.122836 0.404644
0.075570 0.134699 0.294669
0.143871 0.148838 0.320029
0.215567 0.162541 0.346206
0.291388 0.175558 0.372651
0.415621 0.187730 0.398899
0.544495 0.198980 0.424572
0.677797 0.209317 0.449376
0.815002 0.218835 0.473103
0.118659 0.239976 0.367000
0.192074 0.254385 0.393078
0.269827 0.267943 0.418464
0.351927 0.280592 0.442895
0.460003 0.292356 0.466195
0.593438 0.303347 0.488271
0.729360 0.313762 0.509119
0.866523 0.323882 0.528816
0.151892 0.343304 0.436263
0.231180 0.367525 0.459124
0.314454 0.380455 0.480749
0.401003 0.392543 0.501164
0.489800 0.404004 0.520478
0.623376 0.415135 0.538889
0.756301 0.426301 0.556688
0.888757 0.437467 0.574306
0.178696 0.441441 0.493062
0.264065 0.464234 0.512021
0.351774 0.486233 0.530167
0.440377 0.507797 0.547861
0.528933 0.518928 0.565441
0.639686 0.529977 0.582846
0.773165 0.540806 0.599908
0.907792 0.551240 0.610019
0.212183 0.537667 0.539022
0.300623 0.559134 0.556554
0.388806 0.580707 0.573854
0.477215 0.602203 0.590751
0.566284 0.623425 0.607100
0.656340 0.644205 0.622789
0.791472 0.654083 0.631282
0.927919 0.663274 0.638975
0.245781 0.633006 0.581521
0.332817 0.654786 0.597641
0.420500 0.676199 0.613067
0.509124 0.697085 0.627725
0.598876 0.717312 0.641573
0.689835 0.736779 0.648144
0.803906 0.755414 0.653907
0.940953 0.773176 0.658909
0.268449 0.730376 0.617610
0.355283 0.751333 0.631157
0.443283 0.771513 0.643882
0.532497 0.790821 0.655813
0.622863 0.809192 0.660555
0.714211 0.826589 0.664647
0.806265 0.843007 0.668205
0.942509 0.858469 0.671375
0.034282 0.041282 0.280540
0.099190 0.054568 0.300305
0.165440 0.068059 0.322406
0.234510 0.081257 0.347315
0.351334 0.093842 0.374209
0.472791 0.105581 0.402351
0.599316 0.116323 0.431090
0.731031 0.126005 0.459859
0.080238 0.139531 0.341665
0.149005 0.153555 0.369094
0.221321 0.167048 0.397524
0.297843 0.179792 0.426335
0.400849 0.191655 0.454992
0.530368 0.202590 0.483044
0.664179 0.212634 0.510128
0.801681 0.221911 0.535964
0.122490 0.244958 0.421559
0.196473 0.259090 0.450044
0.274817 0.272341 0.477781
0.357458 0.284682 0.504438
0.444018 0.296167 0.529767
0.577677 0.306936 0.553606
0.713555 0.317215 0.575877
0.850334 0.327315 0.596589
0.154737 0.358459 0.498572
0.234638 0.372020 0.523373
0.318419 0.384646 0.546645
0.405293 0.396493 0.568343
0.494164 0.407804 0.588506
0.605552 0.418906 0.607260
0.738168 0.430104 0.625007
0.870607 0.441233 0.642593
0.181508 0.456103 0.560605
0.267481 0.478597 0.580236
0.355556 0.500394 0.598523
0.444169 0.511588 0.616169
0.532729 0.522693 0.633742
0.621682 0.533689 0.651304
0.755358 0.544401 0.668677
0.890219 0.554667 0.685684
0.215962 0.551768 0.607316
0.304249 0.573272 0.624893
0.392340 0.594844 0.642409
0.480749 0.616267 0.659668
0.569884 0.637356 0.676502
0.660049 0.647630 0.692773
0.773372 0.657286 0.708373
0.909939 0.666225 0.723223
0.248587 0.647250 0.650602
0.335549 0.668925 0.667245
0.423229 0.690176 0.683283
0.511899 0.710851 0.698617
0.601719 0.730830 0.713181
0.692743 0.750021 0.726936
0.784917 0.768362 0.739874
0.921949 0.775501 0.745566
0.270120 0.744390 0.688759
0.356997 0.765096 0.703031
0.445068 0.784989 0.716488
0.534355 0.803985 0.729133
0.624772 0.822027 0.740999
0.716124 0.839091 0.752148
0.808109 0.855180 0.756220
0.922252 0.870328 0.759790
0.038734 0.045734 0.323702
0.103898 0.059160 0.344036
0.170746 0.072592 0.367837
0.240613 0.085613 0.394740
0.336424 0.097933 0.423850
0.458857 0.109345 0.454361
0.586339 0.119730 0.485549
0.718917 0.129053 0.516777
0.084860 0.144336 0.389875
0.154105 0.158210 0.419584
0.227041 0.171469 0.450420
0.304251 0.183924 0.481692
0.386004 0.195473 0.512794
0.516128 0.206096 0.543204
0.650393 0.215862 0.572488
0.788127 0.224922 0.600296
0.126211 0.249850 0.477812
0.200768 0.263692 0.508718
0.279697 0.276634 0.538764
0.362860 0.288673 0.567547
0.449807 0.299895 0.594747
0.561708 0.310468 0.620131
0.697484 0.320647 0.643552
0.833807 0.330773 0.664947
0.157517 0.363176 0.562395
0.238033 0.376407 0.588956
0.322308 0.388746 0.613639
0.409484 0.400379 0.636324
0.498389 0.411579 0.656983
0.587538 0.422700 0.675667
0.720025 0.433896 0.693315
0.852557 0.444968 0.710923
0.184413 0.470655 0.628827
0.270985 0.492879 0.648756
0.359367 0.504205 0.666850
0.447948 0.515367 0.684464
0.536542 0.526448 0.702138
0.625629 0.537367 0.719988
0.737560 0.547945 0.737784
0.872645 0.558027 0.755325
0.219707 0.565867 0.675612
0.307802 0.587419 0.693376
0.395810 0.608963 0.711232
0.484224 0.630292 0.728958
0.573427 0.640907 0.746360
0.663698 0.650984 0.763277
0.755204 0.660406 0.779576
0.891877 0.669085 0.795155
0.251276 0.661465 0.720088
0.338176 0.683015 0.737331
0.425863 0.704085 0.754037
0.514582 0.724536 0.770084
0.604469 0.744256 0.785380
0.695553 0.763164 0.799864
0.787756 0.770886 0.813502
0.902823 0.777723 0.826292
0.271686 0.758323 0.760492
0.358616 0.778765 0.775498
0.446764 0.798361 0.789675
0.536126 0.817038 0.803004
0.626591 0.834749 0.815491
0.717940 0.851480 0.827174
0.809845 0.867244 0.838123
0.901870 0.882086 0.848433
