omv/luts/23_atomic_monochrome.cube
# Original OMV LUT; redistribution permitted with OMV.
TITLE "Atomic Monochrome"
LUT_3D_SIZE 5
DOMAIN_MIN 0.000000 0.000000 0.000000
DOMAIN_MAX 0.903226 0.903226 0.903226
0.011000 0.021000 0.033000
0.090674 0.055513 0.067513
0.173034 0.092522 0.104466
0.260417 0.131060 0.142236
0.354700 0.170233 0.179936
0.136252 0.156017 0.155992
0.212264 0.201980 0.193575
0.307404 0.248375 0.230742
0.408236 0.290193 0.267579
0.513842 0.331745 0.304456
0.272806 0.315766 0.280972
0.344172 0.364253 0.318010
0.446591 0.412026 0.356049
0.550722 0.459218 0.396127
0.654198 0.506165 0.438423
0.410458 0.485974 0.411458
0.486658 0.532891 0.453702
0.576239 0.580162 0.493213
0.680934 0.627077 0.528998
0.788535 0.672689 0.561190
0.543791 0.656936 0.541119
0.617180 0.704361 0.572084
0.693161 0.749795 0.600032
0.799025 0.792583 0.625676
0.906983 0.832318 0.649974
0.022384 0.032384 0.066965
0.089448 0.067835 0.100157
0.173019 0.105492 0.135627
0.262173 0.144326 0.174789
0.358202 0.183573 0.214562
0.149948 0.174518 0.191491
0.213416 0.220700 0.229079
0.309589 0.262599 0.268878
0.411242 0.304337 0.308482
0.517221 0.345801 0.348030
0.286524 0.335292 0.322871
0.358627 0.383539 0.362488
0.447837 0.431085 0.402694
0.551677 0.478161 0.444290
0.655086 0.520526 0.486594
0.424869 0.504901 0.459740
0.500848 0.551897 0.501620
0.576807 0.599169 0.541045
0.681715 0.645736 0.577549
0.789613 0.690732 0.611062
0.555539 0.676197 0.590092
0.628855 0.723034 0.622548
0.704888 0.767631 0.652318
0.797178 0.809415 0.679916
0.904826 0.848064 0.706098
0.034134 0.044134 0.101296
0.088488 0.080424 0.135327
0.173474 0.118594 0.172038
0.264310 0.157637 0.210905
0.361955 0.196906 0.250874
0.163712 0.193122 0.230713
0.228166 0.234929 0.270878
0.311760 0.276803 0.311173
0.414129 0.318446 0.351220
0.520334 0.359842 0.393183
0.300232 0.354740 0.371049
0.373036 0.402741 0.410661
0.448958 0.450087 0.450260
0.552541 0.492573 0.492573
0.656227 0.534849 0.534688
0.439255 0.523803 0.510255
0.514868 0.570949 0.549701
0.590771 0.618094 0.589635
0.682328 0.664212 0.627286
0.790468 0.708520 0.662387
0.566948 0.695291 0.640367
0.640232 0.741447 0.674521
0.716323 0.785140 0.706156
0.795006 0.825884 0.735584
0.902274 0.863437 0.763364
0.046189 0.056189 0.135931
0.101430 0.093236 0.170905
0.174333 0.131794 0.209516
0.266762 0.170972 0.250815
0.365889 0.210222 0.293519
0.177519 0.207282 0.271596
0.242937 0.249163 0.314549
0.313889 0.290978 0.357619
0.416868 0.332524 0.400197
0.523148 0.373884 0.441957
0.313942 0.374106 0.420842
0.387409 0.421865 0.462279
0.463510 0.464534 0.502911
0.553381 0.506962 0.543091
0.657571 0.549096 0.583053
0.453530 0.542724 0.563008
0.528690 0.589998 0.602794
0.604556 0.636898 0.641485
0.682741 0.682477 0.678367
0.791067 0.721520 0.715232
0.578024 0.714184 0.696585
0.651317 0.759573 0.730296
0.727469 0.802307 0.761491
0.806060 0.841982 0.792540
0.899328 0.878439 0.821542
0.058525 0.068525 0.170848
0.114764 0.106215 0.207281
0.175535 0.145062 0.248348
0.269464 0.184312 0.292446
0.369940 0.223514 0.338063
0.191348 0.221488 0.314287
0.257709 0.263387 0.360137
0.329501 0.305119 0.405901
0.419433 0.346579 0.450738
0.525636 0.387943 0.494092
0.327671 0.393387 0.472052
0.401761 0.436405 0.514783
0.477960 0.478960 0.555734
0.554241 0.521321 0.595884
0.659058 0.563232 0.636528
0.467533 0.561734 0.615968
0.542291 0.609002 0.656674
0.618136 0.655547 0.696796
0.696477 0.695990 0.735421
0.791383 0.734232 0.771882
0.588777 0.732844 0.754311
0.662117 0.777391 0.789867
0.738332 0.819119 0.822744
0.816795 0.857707 0.852857
0.895992 0.893079 0.880361
