omv/luts/23_atomic_monochrome.cube
# Original OMV LUT; redistribution permitted with OMV.
TITLE "Atomic Monochrome"
LUT_3D_SIZE 8
DOMAIN_MIN 0.000000 0.000000 0.000000
DOMAIN_MAX 0.903226 0.903226 0.903226
0.011000 0.021000 0.033000
0.056177 0.040371 0.052371
0.102276 0.060663 0.072663
0.149161 0.081738 0.093737
0.197361 0.103424 0.115235
0.247534 0.125499 0.136834
0.299932 0.147810 0.158426
0.354700 0.170233 0.179936
0.079602 0.094763 0.101544
0.119987 0.119416 0.123093
0.169505 0.144602 0.144701
0.220743 0.167564 0.166270
0.273924 0.190736 0.187736
0.329161 0.214002 0.209066
0.386458 0.237278 0.230255
0.445707 0.260509 0.251330
0.155655 0.177512 0.174099
0.191494 0.204083 0.195519
0.244596 0.230801 0.216796
0.299557 0.257557 0.237939
0.356349 0.284272 0.258985
0.414834 0.308316 0.280002
0.474765 0.332253 0.301089
0.535784 0.356094 0.322374
0.233861 0.268180 0.245609
0.272696 0.295791 0.266636
0.320992 0.323272 0.287665
0.378580 0.350580 0.308807
0.437438 0.377703 0.330202
0.497177 0.404660 0.352017
0.557299 0.431499 0.374454
0.617195 0.455718 0.397742
0.311614 0.364291 0.316559
0.353065 0.392032 0.338085
0.395729 0.419472 0.360102
0.454668 0.446636 0.382821
0.513867 0.473577 0.406482
0.572954 0.500406 0.430728
0.632050 0.527174 0.454762
0.691805 0.553903 0.477741
0.390180 0.461921 0.391312
0.433670 0.488863 0.415315
0.477248 0.515667 0.439538
0.528480 0.542512 0.463267
0.587623 0.569474 0.485806
0.647321 0.596341 0.507124
0.707868 0.622925 0.527228
0.769461 0.649065 0.546149
0.470924 0.558003 0.471613
0.513557 0.585307 0.493708
0.556312 0.612609 0.514582
0.599549 0.639700 0.534251
0.659015 0.666396 0.552755
0.719398 0.692542 0.570164
0.780775 0.718007 0.586570
0.843126 0.742685 0.602095
0.543791 0.656936 0.541119
0.585453 0.684233 0.559215
0.627862 0.710992 0.576247
0.671160 0.737060 0.592317
0.723137 0.762312 0.607556
0.783748 0.786651 0.622120
0.845108 0.810001 0.636190
0.906983 0.832318 0.649974
0.017450 0.027450 0.052354
0.055234 0.047169 0.070782
0.101607 0.067736 0.090059
0.148815 0.089048 0.111364
0.197576 0.110886 0.133129
0.248337 0.133056 0.155160
0.301328 0.155417 0.177326
0.356666 0.177856 0.199525
0.087026 0.104768 0.120538
0.119996 0.129623 0.141127
0.169900 0.152368 0.163220
0.221558 0.175416 0.185408
0.275169 0.198632 0.207600
0.330820 0.221909 0.229739
0.388488 0.245174 0.251795
0.448042 0.268383 0.273770
0.163526 0.188215 0.193491
0.199680 0.214850 0.215669
0.245368 0.241592 0.237779
0.300647 0.268341 0.259804
0.357721 0.292449 0.281756
0.416427 0.316457 0.303680
0.476491 0.340359 0.325648
0.537531 0.364176 0.347765
0.241741 0.279272 0.267803
0.280859 0.306846 0.289738
0.321667 0.334271 0.311668
0.379452 0.361516 0.333677
0.438426 0.388579 0.355878
0.498174 0.415489 0.378419
0.558173 0.439723 0.401472
0.617788 0.463952 0.425244
0.319453 0.375450 0.341730
0.361141 0.403088 0.364037
0.403965 0.430430 0.386742
0.455220 0.457511 0.410032
0.514367 0.484399 0.434076
0.573430 0.511205 0.458301
0.632643 0.537967 0.482134
0.692628 0.564647 0.504984
0.398323 0.472814 0.418697
0.441904 0.499678 0.442904
0.485451 0.526463 0.467082
0.528897 0.553371 0.490571
0.588072 0.580323 0.513045
0.647856 0.607114 0.534462
0.708521 0.633564 0.554808
0.770241 0.659520 0.574092
0.478752 0.568966 0.498873
0.521241 0.596294 0.520966
0.563931 0.623547 0.541993
0.607162 0.650523 0.561950
0.658918 0.677049 0.580856
0.719347 0.702976 0.598758
0.780763 0.728184 0.615729
0.843125 0.752577 0.631867
0.550546 0.667961 0.568953
0.592165 0.695093 0.587486
0.634572 0.721633 0.605039
0.677888 0.747437 0.621695
0.722139 0.772389 0.637560
0.782741 0.796399 0.652770
0.844046 0.819402 0.667485
0.905799 0.841361 0.681893
0.024043 0.034043 0.071849
0.054387 0.054064 0.090580
0.101026 0.074897 0.110122
0.148638 0.096417 0.130400
0.197947 0.118386 0.151275
0.249280 0.140635 0.173851
0.302842 0.163033 0.196682
0.358724 0.185479 0.219642
0.094526 0.114849 0.140992
0.127823 0.137304 0.162036
0.170366 0.160169 0.183431
0.222435 0.183287 0.205031
0.276462 0.206534 0.228014
0.332506 0.229815 0.251006
0.390523 0.253064 0.273953
0.450354 0.276248 0.296832
0.171412 0.198946 0.215974
0.207878 0.225630 0.237677
0.246146 0.252384 0.259367
0.301732 0.276538 0.282290
0.359071 0.300614 0.305146
0.417976 0.324586 0.327952
0.478148 0.348455 0.350758
0.539180 0.372253 0.373642
0.249611 0.290354 0.291909
0.289010 0.317882 0.313453
0.330063 0.345249 0.336252
0.380290 0.372431 0.359075
0.439362 0.399437 0.382013
0.499097 0.423726 0.405185
0.558945 0.447947 0.428743
0.618289 0.472193 0.452838
0.327301 0.386574 0.367407
0.369219 0.414110 0.390415
0.412193 0.441358 0.413709
0.455750 0.468363 0.437450
0.514860 0.495214 0.461666
0.573904 0.521996 0.485854
0.633285 0.548751 0.509516
0.693490 0.572779 0.532360
0.406531 0.483660 0.446241
0.450131 0.510486 0.470486
0.493620 0.537286 0.494557
0.537027 0.564234 0.517932
0.588492 0.591153 0.540458
0.648358 0.617847 0.562074
0.709133 0.644145 0.582744
0.770971 0.669903 0.602455
0.486480 0.579946 0.526235
0.528834 0.607273 0.548436
0.571467 0.634452 0.569710
0.614695 0.661294 0.590031
0.658740 0.687632 0.609396
0.719211 0.713327 0.627833
0.780657 0.738268 0.645391
0.843016 0.762367 0.662150
0.557189 0.678936 0.597191
0.598775 0.705885 0.616214
0.641185 0.732189 0.634323
0.684521 0.757716 0.651580
0.728785 0.782356 0.668071
0.781629 0.806030 0.683910
0.842870 0.828682 0.699236
0.904486 0.850283 0.714214
0.030745 0.040745 0.091455
0.061375 0.061052 0.110472
0.100532 0.082141 0.130273
0.148618 0.103837 0.150921
0.198462 0.125917 0.172317
0.250350 0.148231 0.194248
0.304460 0.170655 0.216535
0.360861 0.193098 0.240318
0.102094 0.122418 0.161686
0.135717 0.145032 0.183300
0.170894 0.167999 0.205380
0.223365 0.191173 0.227758
0.277792 0.214441 0.250294
0.334213 0.237716 0.272881
0.392554 0.260945 0.296733
0.452635 0.284105 0.320510
0.179308 0.209697 0.239001
0.216083 0.236417 0.261567
0.254667 0.260592 0.284152
0.302805 0.284725 0.306689
0.360395 0.308768 0.329143
0.419478 0.332703 0.352797
0.479733 0.356542 0.376385
0.540726 0.380330 0.399961
0.257474 0.301422 0.317925
0.297149 0.328900 0.340345
0.338438 0.356205 0.362680
0.381094 0.383325 0.384966
0.440246 0.407698 0.408557
0.499944 0.431955 0.432260
0.559615 0.456174 0.456198
0.618783 0.480428 0.480428
0.335161 0.397664 0.396129
0.377304 0.425098 0.418458
0.420417 0.452257 0.440940
0.464002 0.479195 0.465002
0.515345 0.506022 0.489248
0.574415 0.532790 0.513361
0.633965 0.556936 0.536974
0.694381 0.580874 0.559926
0.414771 0.494481 0.475126
0.458348 0.521283 0.498058
0.501749 0.548132 0.522027
0.545120 0.575094 0.545412
0.588876 0.601957 0.568099
0.648821 0.628534 0.590004
0.709699 0.654664 0.611070
0.771642 0.680211 0.631265
0.494104 0.590934 0.553757
0.536335 0.618234 0.576168
0.578918 0.645319 0.597773
0.622146 0.672006 0.618524
0.666220 0.698141 0.638399
0.718986 0.723591 0.657401
0.780454 0.748254 0.675562
0.842798 0.772052 0.692936
0.563722 0.689855 0.625862
0.605283 0.716602 0.645417
0.647703 0.742656 0.664108
0.691059 0.767892 0.681974
0.735333 0.792212 0.699081
0.780415 0.815544 0.715522
0.841580 0.837840 0.731413
0.903044 0.859082 0.746898
0.037549 0.047549 0.111161
0.068453 0.068130 0.130453
0.100173 0.089455 0.150553
0.148741 0.111300 0.171704
0.199108 0.133476 0.193731
0.251533 0.155839 0.216399
0.306170 0.178278 0.239503
0.363063 0.200713 0.262868
0.109724 0.130048 0.182685
0.143671 0.152800 0.204972
0.179219 0.175852 0.227820
0.224339 0.199069 0.251038
0.279153 0.222347 0.274461
0.335930 0.245612 0.297957
0.394573 0.268819 0.321424
0.454874 0.291954 0.344790
0.187210 0.220466 0.262599
0.224293 0.244628 0.286063
0.263184 0.268795 0.309559
0.303864 0.292902 0.332996
0.361686 0.316908 0.356313
0.420928 0.340808 0.379479
0.481241 0.364623 0.402493
0.542165 0.388408 0.426675
0.265328 0.312476 0.344551
0.305275 0.339898 0.367815
0.346791 0.367140 0.390924
0.389604 0.391619 0.413889
0.441076 0.415945 0.436750
0.500716 0.440179 0.459577
0.560181 0.464408 0.483763
0.619269 0.488656 0.508011
0.343038 0.408718 0.425271
0.385399 0.436054 0.448110
0.428640 0.463131 0.470949
0.472242 0.490016 0.493887
0.515821 0.516821 0.516821
0.574960 0.541002 0.540884
0.634672 0.565098 0.564570
0.695290 0.588926 0.587735
0.423005 0.505295 0.505295
0.466544 0.532080 0.528195
0.509830 0.558991 0.550850
0.553171 0.585942 0.573070
0.596959 0.612728 0.596016
0.649238 0.639170 0.618292
0.710211 0.665116 0.639818
0.772249 0.687857 0.660542
0.501622 0.601921 0.584076
0.543741 0.629170 0.605499
0.586280 0.656139 0.626219
0.629511 0.682655 0.647458
0.673613 0.708570 0.667881
0.718668 0.733764 0.687471
0.780149 0.758141 0.706238
0.842465 0.781631 0.724216
0.570146 0.700711 0.656279
0.611691 0.727238 0.675110
0.654125 0.753027 0.694398
0.697503 0.777962 0.712872
0.741785 0.801953 0.730576
0.786838 0.824938 0.747581
0.840175 0.846877 0.763983
0.901473 0.867761 0.779904
0.044449 0.054449 0.130965
0.075618 0.075296 0.150522
0.107697 0.096827 0.171038
0.148997 0.118802 0.192812
0.199872 0.141056 0.215571
0.252818 0.163456 0.239055
0.307960 0.185901 0.263035
0.365318 0.208321 0.287312
0.117407 0.137731 0.204048
0.151678 0.160602 0.227100
0.187591 0.183724 0.250789
0.225350 0.206972 0.274899
0.280536 0.230252 0.299240
0.337651 0.253501 0.323657
0.396571 0.276683 0.348022
0.457064 0.299797 0.372238
0.195115 0.228665 0.286793
0.232502 0.252838 0.311179
0.271694 0.276991 0.335590
0.312646 0.301066 0.359910
0.362943 0.325036 0.384053
0.422322 0.348903 0.407965
0.482666 0.372701 0.431618
0.543491 0.396492 0.455019
0.273175 0.323512 0.371774
0.313389 0.350874 0.395838
0.355123 0.375472 0.419657
0.398079 0.399895 0.443216
0.441853 0.424182 0.466532
0.501411 0.448402 0.489651
0.560681 0.472649 0.512649
0.619746 0.496875 0.535584
0.350937 0.419738 0.454782
0.393510 0.446980 0.478019
0.436868 0.473982 0.501083
0.480477 0.500832 0.524058
0.524033 0.525031 0.546965
0.575528 0.549205 0.569781
0.635398 0.573229 0.592362
0.696206 0.596928 0.615835
0.431231 0.516102 0.535457
0.474681 0.542905 0.558337
0.517859 0.569854 0.581088
0.561172 0.596771 0.603542
0.604994 0.623459 0.625546
0.649602 0.649748 0.646973
0.710664 0.672914 0.669013
0.772783 0.695420 0.690302
0.509033 0.612899 0.614662
0.551050 0.640074 0.636469
0.593552 0.666907 0.657660
0.636789 0.693234 0.678144
0.680918 0.718917 0.697856
0.725999 0.743842 0.718047
0.779741 0.767924 0.737415
0.842015 0.791103 0.755973
0.576462 0.711499 0.688463
0.618000 0.737790 0.707882
0.660453 0.763300 0.726484
0.703854 0.787924 0.744264
0.748141 0.811579 0.762536
0.793159 0.834211 0.780059
0.838657 0.855792 0.796908
0.899773 0.876319 0.813185
0.051442 0.061442 0.150861
0.082871 0.082545 0.170683
0.115350 0.104249 0.191798
0.149373 0.126336 0.214303
0.200745 0.148652 0.237883
0.254192 0.171077 0.262252
0.309818 0.193520 0.287156
0.367615 0.215922 0.312374
0.125136 0.145461 0.225829
0.159730 0.168433 0.249728
0.196002 0.191610 0.274319
0.234133 0.214879 0.299362
0.281934 0.238154 0.324643
0.339366 0.261382 0.349981
0.398540 0.284540 0.375224
0.459197 0.307635 0.400250
0.203021 0.236872 0.311599
0.240709 0.261047 0.336921
0.280195 0.285178 0.362240
0.321405 0.309219 0.387416
0.364161 0.333152 0.412339
0.423655 0.356990 0.436929
0.484005 0.380777 0.461134
0.544701 0.404586 0.484936
0.281016 0.334528 0.399574
0.321492 0.359249 0.424384
0.363434 0.383785 0.448837
0.406520 0.408155 0.472897
0.450319 0.432410 0.496553
0.502030 0.456630 0.519827
0.561174 0.480884 0.542819
0.620226 0.505081 0.565732
0.358862 0.430724 0.484606
0.401640 0.457878 0.508119
0.445104 0.484813 0.531265
0.488704 0.509059 0.554220
0.532260 0.533245 0.577135
0.576112 0.557389 0.600113
0.636133 0.581321 0.622983
0.697122 0.604875 0.645561
0.439448 0.526900 0.565609
0.482753 0.553752 0.588551
0.525829 0.580713 0.611512
0.569119 0.607573 0.634296
0.612975 0.634143 0.656727
0.657650 0.657683 0.678658
0.711050 0.680636 0.699967
0.773241 0.702895 0.720558
0.516335 0.623859 0.645562
0.558260 0.650938 0.667827
0.600731 0.677616 0.689544
0.643976 0.703739 0.710601
0.688130 0.729175 0.730912
0.733232 0.753823 0.750417
0.779226 0.777604 0.769082
0.841446 0.797886 0.788190
0.582671 0.722211 0.721136
0.624212 0.748251 0.741160
0.666689 0.773471 0.760361
0.710113 0.797773 0.778717
0.754402 0.821085 0.796229
0.799378 0.843363 0.812925
0.844767 0.864585 0.830148
0.897946 0.884758 0.846689
0.058525 0.068525 0.170848
0.090238 0.089862 0.191045
0.123121 0.111715 0.212897
0.157601 0.133895 0.236232
0.201713 0.156261 0.260710
0.255645 0.178701 0.286022
0.311732 0.201135 0.311889
0.369940 0.223514 0.338063
0.132905 0.153231 0.248078
0.167821 0.176288 0.272894
0.204446 0.199507 0.298439
0.242937 0.222785 0.324445
0.283338 0.246049 0.350676
0.341069 0.269255 0.376925
0.400473 0.292389 0.403015
0.461264 0.315469 0.428800
0.210924 0.245082 0.337031
0.248911 0.269250 0.363290
0.288682 0.293354 0.389500
0.330139 0.317359 0.415495
0.373078 0.341257 0.441139
0.424925 0.365071 0.466328
0.485255 0.388856 0.490987
0.545791 0.412694 0.515071
0.288851 0.342944 0.427928
0.329585 0.367602 0.453417
0.371727 0.392078 0.478420
0.414928 0.416402 0.502873
0.458733 0.440634 0.526743
0.502574 0.464865 0.550026
0.561660 0.489111 0.572982
0.620789 0.513269 0.595926
0.366820 0.441679 0.514682
0.409795 0.468751 0.538337
0.453344 0.493053 0.561441
0.496921 0.517276 0.584373
0.540495 0.541457 0.607397
0.584444 0.565549 0.630650
0.636867 0.589370 0.653903
0.698026 0.612762 0.676952
0.447635 0.537697 0.595766
0.490753 0.564611 0.618899
0.533736 0.591560 0.642177
0.577007 0.618342 0.665378
0.620896 0.642195 0.688307
0.665635 0.665549 0.710795
0.711365 0.688278 0.732698
0.773614 0.710281 0.753899
0.523527 0.634793 0.676817
0.565370 0.661755 0.699604
0.607816 0.688261 0.721894
0.651072 0.714164 0.743553
0.695250 0.739343 0.764475
0.740366 0.763704 0.784578
0.786345 0.784597 0.803807
0.840754 0.804561 0.822132
0.588777 0.732844 0.754311
0.630329 0.758617 0.774943
0.672834 0.783535 0.794732
0.716283 0.807508 0.813634
0.760570 0.830473 0.831628
0.805496 0.852393 0.848721
0.850767 0.873256 0.864946
0.895992 0.893079 0.880361
