omv/luts/23_atomic_monochrome.cube
# Original OMV LUT; redistribution permitted with OMV.
TITLE "Atomic Monochrome"
LUT_3D_SIZE 32
DOMAIN_MIN 0.0 0.0 0.0
DOMAIN_MAX 1.0 1.0 1.0
0.011000 0.021000 0.033000
0.022183 0.025731 0.037731
0.033453 0.030550 0.042550
0.044786 0.035431 0.047431
0.056177 0.040371 0.052371
0.067624 0.045366 0.057366
0.079123 0.050414 0.062414
0.090674 0.055513 0.067513
0.102276 0.060663 0.072663
0.113926 0.065861 0.077861
0.125623 0.071107 0.083107
0.137368 0.076400 0.088400
0.149161 0.081738 0.093737
0.161044 0.087113 0.099095
0.173034 0.092522 0.104466
0.185138 0.097960 0.109846
0.197361 0.103424 0.115235
0.209707 0.108913 0.120630
0.222182 0.114424 0.126030
0.234790 0.119953 0.131431
0.247534 0.125499 0.136834
0.260417 0.131060 0.142236
0.273443 0.136633 0.147637
0.286614 0.142217 0.153034
0.299932 0.147810 0.158426
0.313399 0.153409 0.163814
0.327015 0.159013 0.169195
0.340782 0.164622 0.174569
0.354700 0.170233 0.179936
0.368769 0.175844 0.185294
0.382988 0.181456 0.190644
0.397356 0.187067 0.195985
0.027223 0.038513 0.049223
0.036699 0.044119 0.054183
0.048165 0.049778 0.059197
0.059684 0.054845 0.064264
0.071253 0.059963 0.069382
0.082872 0.065130 0.074550
0.094540 0.070346 0.079766
0.106255 0.075609 0.085029
0.118016 0.080919 0.090338
0.129833 0.086273 0.095686
0.141738 0.091665 0.101049
0.153741 0.097093 0.106423
0.165847 0.102553 0.111807
0.178062 0.108042 0.117199
0.190391 0.113558 0.122596
0.202840 0.119098 0.127996
0.215412 0.124659 0.133398
0.228112 0.130239 0.138801
0.240943 0.135835 0.144203
0.253909 0.141446 0.149602
0.267012 0.147069 0.154998
0.280255 0.152703 0.160389
0.293639 0.158345 0.165774
0.307166 0.163993 0.171153
0.320838 0.169648 0.176524
0.334654 0.175305 0.181888
0.348615 0.180966 0.187243
0.362721 0.186627 0.192590
0.376970 0.192289 0.197928
0.391363 0.197950 0.203256
0.405898 0.203609 0.208576
0.420572 0.209265 0.213887
0.044122 0.056702 0.066122
0.051838 0.062484 0.071258
0.063475 0.068314 0.076443
0.075160 0.074192 0.081676
0.086892 0.080118 0.086957
0.098670 0.085444 0.092283
0.110510 0.090814 0.097637
0.122429 0.096226 0.103004
0.134436 0.101676 0.108383
0.146537 0.107160 0.113769
0.158736 0.112676 0.119163
0.171041 0.118221 0.124561
0.183456 0.123792 0.129963
0.195986 0.129386 0.135365
0.208636 0.135002 0.140768
0.221408 0.140635 0.146169
0.234308 0.146285 0.151567
0.247337 0.151949 0.156961
0.260499 0.157625 0.162350
0.273796 0.163312 0.167733
0.287229 0.169006 0.173109
0.300801 0.174707 0.178478
0.314510 0.180413 0.183838
0.328360 0.186123 0.189191
0.342349 0.191835 0.194534
0.356477 0.197548 0.199869
0.370743 0.203262 0.205194
0.385146 0.208974 0.210511
0.399685 0.214684 0.215818
0.414358 0.220392 0.221117
0.429161 0.226097 0.226408
0.444093 0.231798 0.231691
0.061593 0.075464 0.083593
0.069471 0.081406 0.088890
0.079331 0.087395 0.094230
0.091187 0.093429 0.099590
0.103113 0.099508 0.104961
0.115116 0.105626 0.110343
0.127203 0.111782 0.115732
0.139379 0.117327 0.121128
0.151653 0.122903 0.126528
0.164027 0.128507 0.131930
0.176508 0.134137 0.137332
0.189101 0.139789 0.142734
0.201809 0.145462 0.148134
0.214637 0.151153 0.153531
0.227587 0.156859 0.158923
0.240663 0.162579 0.164310
0.253867 0.168311 0.169691
0.267202 0.174052 0.175064
0.280668 0.179801 0.180430
0.294268 0.185557 0.185788
0.308002 0.191317 0.191137
0.321870 0.197080 0.196477
0.335873 0.202846 0.201809
0.350009 0.208612 0.207131
0.364279 0.214379 0.212444
0.378681 0.220144 0.217748
0.393212 0.225907 0.223044
0.407871 0.231667 0.228332
0.422656 0.237424 0.233612
0.437562 0.243178 0.238886
0.452588 0.248927 0.244153
0.467728 0.254672 0.249416
0.079602 0.094763 0.101544
0.087655 0.100866 0.106919
0.095775 0.107011 0.112304
0.107840 0.113195 0.117696
0.119987 0.119416 0.123093
0.132222 0.125670 0.128494
0.144549 0.131954 0.133897
0.156975 0.138266 0.139299
0.169505 0.144602 0.144701
0.182142 0.150316 0.150100
0.194892 0.156049 0.155495
0.207758 0.161799 0.160885
0.220743 0.167564 0.166270
0.233850 0.173342 0.171648
0.247081 0.179132 0.177019
0.260439 0.184930 0.182382
0.273924 0.190736 0.187736
0.287539 0.196548 0.193082
0.301283 0.202363 0.198419
0.315157 0.208182 0.203747
0.329161 0.214002 0.209066
0.343295 0.219823 0.214376
0.357556 0.225643 0.219677
0.371945 0.231462 0.224970
0.386458 0.237278 0.230255
0.401094 0.243092 0.235533
0.415849 0.248902 0.240804
0.430722 0.254707 0.246070
0.445707 0.260509 0.251330
0.460802 0.266306 0.256587
0.476002 0.272098 0.261842
0.491301 0.277886 0.267095
0.098124 0.114626 0.119661
0.106362 0.120879 0.125059
0.114680 0.127168 0.130461
0.125018 0.133489 0.135863
0.137383 0.139840 0.141266
0.149843 0.146216 0.146667
0.162404 0.152617 0.152064
0.175071 0.159039 0.157458
0.187847 0.165479 0.162846
0.200736 0.171936 0.168229
0.213741 0.178408 0.173604
0.226865 0.184246 0.178972
0.240109 0.190095 0.184332
0.253477 0.195952 0.189684
0.266969 0.201816 0.195026
0.280586 0.207685 0.200360
0.294328 0.213557 0.205685
0.308197 0.219432 0.211000
0.322192 0.225308 0.216307
0.336311 0.231184 0.221605
0.350555 0.237058 0.226895
0.364920 0.242931 0.232178
0.379406 0.248801 0.237453
0.394010 0.254667 0.242722
0.408729 0.260529 0.247985
0.423560 0.266387 0.253245
0.438498 0.272241 0.258501
0.453541 0.278089 0.263754
0.468682 0.283932 0.269008
0.483918 0.289771 0.274262
0.499243 0.295605 0.279518
0.514652 0.301434 0.284778
0.117044 0.135048 0.137830
0.125469 0.141439 0.143232
0.133984 0.147858 0.148632
0.142593 0.154302 0.154028
0.155171 0.160769 0.159420
0.167852 0.167256 0.164807
0.180640 0.173761 0.170187
0.193539 0.180281 0.175559
0.206550 0.186815 0.180925
0.219678 0.193360 0.186282
0.232924 0.199915 0.191630
0.246289 0.206477 0.196969
0.259776 0.213045 0.202300
0.273385 0.218972 0.207621
0.287116 0.224902 0.212933
0.300969 0.230833 0.218237
0.314945 0.236765 0.223532
0.329042 0.242696 0.228819
0.343258 0.248625 0.234099
0.357593 0.254551 0.239372
0.372044 0.260474 0.244639
0.386609 0.266393 0.249901
0.401284 0.272307 0.255159
0.416066 0.278217 0.260414
0.430952 0.284121 0.265667
0.445937 0.290019 0.270920
0.461016 0.295913 0.276175
0.476184 0.301801 0.281432
0.491437 0.307684 0.286694
0.506766 0.313561 0.291963
0.522168 0.319435 0.297240
0.537634 0.325305 0.302528
0.136252 0.156017 0.155992
0.144866 0.162530 0.161382
0.153576 0.169065 0.166766
0.162388 0.175619 0.172144
0.173240 0.182190 0.177514
0.186136 0.188775 0.182876
0.199143 0.195372 0.188230
0.212264 0.201980 0.193575
0.225500 0.208596 0.198911
0.238853 0.215218 0.204238
0.252325 0.221846 0.209556
0.265916 0.228476 0.214865
0.279626 0.235109 0.220166
0.293456 0.241742 0.225458
0.307404 0.248375 0.230742
0.321470 0.254360 0.236019
0.335653 0.260343 0.241290
0.349951 0.266323 0.246555
0.364361 0.272298 0.251815
0.378880 0.278269 0.257072
0.393506 0.284234 0.262326
0.408236 0.290193 0.267579
0.423064 0.296147 0.272833
0.437988 0.302095 0.278088
0.453001 0.308036 0.283347
0.468099 0.313972 0.288612
0.483276 0.319901 0.293883
0.498525 0.325826 0.299164
0.513842 0.331745 0.304456
0.529217 0.337660 0.309762
0.544645 0.343571 0.315084
0.560117 0.349480 0.320424
0.155655 0.177512 0.174099
0.164456 0.184134 0.179467
0.173361 0.190771 0.184826
0.182373 0.197421 0.190177
0.191494 0.204083 0.195519
0.204598 0.210754 0.200851
0.217815 0.217431 0.206175
0.231147 0.224114 0.211490
0.244596 0.230801 0.216796
0.258161 0.237490 0.222093
0.271843 0.244180 0.227382
0.285642 0.250869 0.232664
0.299557 0.257557 0.237939
0.313587 0.264242 0.243207
0.327730 0.270923 0.248471
0.341985 0.277600 0.253729
0.356349 0.284272 0.258985
0.370820 0.290292 0.264239
0.385393 0.296307 0.269492
0.400066 0.302315 0.274746
0.414834 0.308316 0.280002
0.429694 0.314311 0.285263
0.444639 0.320298 0.290530
0.459665 0.326279 0.295805
0.474765 0.332253 0.301089
0.489934 0.338221 0.306386
0.505165 0.344184 0.311697
0.520451 0.350141 0.317026
0.535784 0.356094 0.322374
0.551157 0.362044 0.327743
0.566560 0.367991 0.333138
0.581986 0.373937 0.338561
0.175173 0.199508 0.192122
0.184162 0.206225 0.197461
0.193259 0.212950 0.202791
0.202467 0.219684 0.208111
0.211787 0.226423 0.213423
0.223155 0.233167 0.218725
0.236573 0.239912 0.224020
0.250106 0.246659 0.229306
0.263754 0.253405 0.234585
0.277517 0.260150 0.239858
0.291393 0.266892 0.245124
0.305382 0.273630 0.250386
0.319482 0.280363 0.255643
0.333691 0.287090 0.260898
0.348006 0.293811 0.266151
0.362424 0.300526 0.271405
0.376943 0.307233 0.276659
0.391557 0.313932 0.281917
0.406264 0.320624 0.287180
0.421059 0.326663 0.292449
0.435935 0.332694 0.297727
0.450889 0.338717 0.303016
0.465914 0.344733 0.308318
0.481003 0.350742 0.313635
0.496150 0.356744 0.318970
0.511348 0.362741 0.324326
0.526589 0.368732 0.329705
0.541864 0.374719 0.335109
0.557167 0.380703 0.340543
0.572487 0.386685 0.346008
0.587814 0.392666 0.351508
0.603141 0.398647 0.357047
0.194743 0.221977 0.210046
0.203919 0.228773 0.215354
0.213205 0.235573 0.220654
0.222604 0.242376 0.225945
0.232116 0.249180 0.231229
0.241741 0.255983 0.236505
0.255350 0.262785 0.241776
0.269073 0.269583 0.247040
0.282907 0.276377 0.252300
0.296851 0.283166 0.257556
0.310905 0.289950 0.262811
0.325065 0.296726 0.268064
0.339329 0.303494 0.273317
0.353695 0.310255 0.278573
0.368157 0.317007 0.283832
0.382713 0.323750 0.289097
0.397359 0.330485 0.294370
0.412089 0.337210 0.299651
0.426898 0.343927 0.304945
0.441781 0.350634 0.310252
0.456732 0.357334 0.315575
0.471744 0.363380 0.320918
0.486810 0.369419 0.326281
0.501923 0.375450 0.331669
0.517075 0.381476 0.337084
0.532258 0.387497 0.342528
0.547464 0.393513 0.348006
0.562683 0.399526 0.353520
0.577905 0.405537 0.359074
0.593122 0.411548 0.364670
0.608323 0.417560 0.370314
0.623496 0.423575 0.376007
0.214317 0.244881 0.227870
0.223677 0.251742 0.233151
0.233149 0.258603 0.238425
0.242734 0.265461 0.243693
0.252431 0.272317 0.248955
0.262239 0.279167 0.254214
0.274094 0.286012 0.259469
0.287993 0.292850 0.264723
0.301999 0.299681 0.269976
0.316110 0.306503 0.275230
0.330323 0.313316 0.280487
0.344635 0.320120 0.285748
0.359042 0.326914 0.291016
0.373541 0.333699 0.296291
0.388127 0.340472 0.301577
0.402795 0.347236 0.306875
0.417539 0.353989 0.312188
0.432354 0.360733 0.317518
0.447234 0.367467 0.322868
0.462172 0.374191 0.328240
0.477162 0.380907 0.333637
0.492195 0.387615 0.339062
0.507263 0.394316 0.344519
0.522360 0.400365 0.350009
0.537475 0.406409 0.355537
0.552599 0.412449 0.361106
0.567724 0.418486 0.366719
0.582838 0.424522 0.372380
0.597933 0.430557 0.378093
0.612995 0.436595 0.383861
0.628015 0.442635 0.389689
0.642981 0.448681 0.395581
0.233861 0.268180 0.245609
0.243404 0.275092 0.250870
0.253057 0.281998 0.256128
0.262822 0.288898 0.261382
0.272696 0.295791 0.266636
0.282678 0.302676 0.271889
0.292766 0.309551 0.277144
0.306828 0.316417 0.282402
0.320992 0.323272 0.287665
0.335252 0.330116 0.292935
0.349607 0.336949 0.298214
0.364051 0.343771 0.303504
0.378580 0.350580 0.308807
0.393188 0.357378 0.314126
0.407872 0.364164 0.319463
0.422624 0.370939 0.324821
0.437438 0.377703 0.330202
0.452308 0.384457 0.335609
0.467226 0.391200 0.341045
0.482185 0.397934 0.346513
0.497177 0.404660 0.352017
0.512194 0.411378 0.357560
0.527226 0.418090 0.363144
0.542264 0.424796 0.368775
0.557299 0.431499 0.374454
0.572321 0.437554 0.380187
0.587318 0.443607 0.385976
0.602280 0.449661 0.391827
0.617195 0.455718 0.397742
0.632052 0.461778 0.403727
0.646844 0.467844 0.409780
0.661619 0.473910 0.415845
0.253359 0.291826 0.263295
0.263080 0.298773 0.268548
0.272910 0.305711 0.273802
0.282847 0.312639 0.279058
0.292890 0.319556 0.284318
0.303035 0.326462 0.289583
0.313280 0.333355 0.294856
0.325557 0.340236 0.300139
0.339862 0.347104 0.305433
0.354255 0.353958 0.310742
0.368732 0.360800 0.316067
0.383287 0.367628 0.321411
0.397915 0.374442 0.326777
0.412609 0.381244 0.332167
0.427364 0.388034 0.337584
0.442172 0.394811 0.343032
0.457027 0.401577 0.348513
0.471920 0.408332 0.354030
0.486844 0.415078 0.359588
0.501789 0.421814 0.365189
0.516747 0.428543 0.370836
0.531709 0.435265 0.376535
0.546664 0.441981 0.382288
0.561603 0.448694 0.388099
0.576514 0.455404 0.393972
0.591387 0.462114 0.399913
0.606210 0.468825 0.405924
0.620988 0.474892 0.411988
0.635762 0.480956 0.418053
0.650533 0.487017 0.424113
0.665299 0.493073 0.430170
0.680060 0.499125 0.436222
0.272806 0.315766 0.280972
0.282701 0.322734 0.286234
0.292702 0.329689 0.291502
0.302805 0.336631 0.296778
0.313007 0.343558 0.302065
0.323305 0.350472 0.307364
0.333695 0.357370 0.312679
0.344172 0.364253 0.318010
0.358602 0.371122 0.323362
0.373109 0.377975 0.328736
0.387688 0.384813 0.334136
0.402333 0.391637 0.339564
0.417036 0.398447 0.345023
0.431791 0.405243 0.350517
0.446591 0.412026 0.356049
0.461427 0.418796 0.361622
0.476292 0.425555 0.367239
0.491176 0.432304 0.372905
0.506071 0.439043 0.378623
0.520967 0.445775 0.384396
0.535854 0.452499 0.390230
0.550722 0.459218 0.396127
0.565560 0.465933 0.402093
0.580356 0.472647 0.408130
0.595132 0.479358 0.414197
0.609905 0.486066 0.420260
0.624674 0.492771 0.426319
0.639438 0.499471 0.432374
0.654198 0.506165 0.438423
0.668953 0.512209 0.444464
0.683752 0.518249 0.450450
0.698616 0.524284 0.456362
0.292215 0.339943 0.298702
0.302281 0.346916 0.303993
0.312445 0.353873 0.309297
0.322706 0.360814 0.314618
0.333058 0.367739 0.319956
0.343496 0.374646 0.325316
0.354017 0.381536 0.330699
0.364614 0.388409 0.336109
0.377217 0.395266 0.341548
0.391820 0.402106 0.347019
0.406481 0.408930 0.352527
0.421193 0.415739 0.358073
0.435948 0.422533 0.363661
0.450738 0.429313 0.369296
0.465554 0.436080 0.374980
0.480389 0.442834 0.380718
0.495233 0.449578 0.386513
0.510076 0.456311 0.392369
0.524908 0.463037 0.398291
0.539718 0.469755 0.404282
0.554500 0.476468 0.410339
0.569275 0.483178 0.416404
0.584047 0.489885 0.422466
0.598814 0.496588 0.428524
0.613577 0.503286 0.434577
0.628334 0.509979 0.440624
0.643096 0.516667 0.446652
0.657904 0.523355 0.452611
0.672768 0.530039 0.458496
0.687693 0.536718 0.464306
0.702683 0.543387 0.470040
0.717744 0.549399 0.475700
0.311614 0.364291 0.316559
0.321844 0.371255 0.321905
0.332166 0.378199 0.327273
0.342575 0.385125 0.332665
0.353065 0.392032 0.338085
0.363632 0.398920 0.343536
0.374270 0.405789 0.349020
0.384971 0.412639 0.354541
0.395729 0.419472 0.360102
0.410409 0.426287 0.365707
0.425130 0.433086 0.371359
0.439886 0.439868 0.377063
0.454668 0.446636 0.382821
0.469467 0.453389 0.388638
0.484273 0.460130 0.394517
0.499076 0.466859 0.400464
0.513867 0.473577 0.406482
0.528644 0.480290 0.412548
0.543418 0.486999 0.418612
0.558188 0.493704 0.424672
0.572954 0.500406 0.430728
0.587715 0.507102 0.436779
0.602470 0.513792 0.442824
0.617240 0.520482 0.448830
0.632050 0.527174 0.454762
0.646906 0.533865 0.460620
0.661814 0.540552 0.466402
0.676778 0.547233 0.472109
0.691805 0.553903 0.477741
0.706897 0.560560 0.483296
0.722060 0.567202 0.488776
0.737297 0.573825 0.494178
0.331044 0.388741 0.334635
0.341433 0.395680 0.340066
0.351905 0.402597 0.345528
0.362452 0.409493 0.351026
0.373070 0.416368 0.356561
0.383753 0.423223 0.362138
0.394492 0.430057 0.367759
0.405281 0.436872 0.373430
0.416112 0.443668 0.379152
0.428912 0.450446 0.384931
0.443672 0.457207 0.390771
0.458449 0.463952 0.396674
0.473232 0.470683 0.402646
0.488012 0.477399 0.408690
0.502788 0.484111 0.414756
0.517560 0.490818 0.420818
0.532329 0.497522 0.426877
0.547093 0.504222 0.432932
0.561852 0.510916 0.438981
0.576606 0.517605 0.445019
0.591380 0.524299 0.450998
0.606184 0.530998 0.456903
0.621025 0.537698 0.462733
0.635909 0.544396 0.468489
0.650842 0.551089 0.474169
0.665827 0.557774 0.479772
0.680871 0.564448 0.485300
0.695977 0.571108 0.490751
0.711149 0.577751 0.496126
0.726391 0.584375 0.501424
0.741707 0.590977 0.506646
0.757098 0.597554 0.511792
0.350565 0.413218 0.353036
0.361105 0.420116 0.358586
0.371717 0.426990 0.364179
0.382394 0.433842 0.369818
0.393127 0.440671 0.375507
0.403911 0.447479 0.381250
0.414737 0.454265 0.387050
0.425596 0.461031 0.392912
0.436480 0.467778 0.398840
0.447380 0.474507 0.404838
0.462156 0.481221 0.410898
0.476931 0.487931 0.416963
0.491702 0.494638 0.423025
0.506469 0.501340 0.429082
0.521231 0.508038 0.435135
0.535988 0.514730 0.441181
0.550743 0.521421 0.447204
0.565512 0.528121 0.453156
0.580303 0.534828 0.459034
0.595122 0.541539 0.464837
0.609975 0.548250 0.470565
0.624868 0.554958 0.476218
0.639807 0.561659 0.481794
0.654795 0.568351 0.487294
0.669838 0.575031 0.492717
0.684940 0.581696 0.498064
0.700105 0.588343 0.503334
0.715336 0.594969 0.508529
0.730637 0.601572 0.513647
0.746010 0.608150 0.518690
0.761458 0.614701 0.523658
0.776982 0.621221 0.528551
0.370247 0.437641 0.371883
0.380933 0.444482 0.377591
0.391676 0.451298 0.383355
0.402470 0.458091 0.389177
0.413306 0.464859 0.395063
0.424177 0.471606 0.401016
0.435072 0.478330 0.407040
0.445978 0.485042 0.413107
0.456880 0.491751 0.419170
0.467779 0.498456 0.425231
0.480609 0.505157 0.431286
0.495369 0.511853 0.437337
0.510123 0.518543 0.443381
0.524875 0.525239 0.449380
0.539633 0.531948 0.455305
0.554403 0.538666 0.461156
0.569193 0.545390 0.466932
0.584008 0.552115 0.472632
0.598855 0.558839 0.478256
0.613740 0.565559 0.483805
0.628667 0.572271 0.489277
0.643641 0.578972 0.494672
0.658667 0.585660 0.499991
0.673750 0.592331 0.505234
0.688892 0.598983 0.510401
0.704097 0.605614 0.515492
0.719368 0.612220 0.520507
0.734709 0.618800 0.525447
0.750120 0.625351 0.530314
0.765605 0.631871 0.535107
0.781164 0.638357 0.539827
0.796798 0.644808 0.544475
0.390180 0.461921 0.391312
0.401002 0.468690 0.397222
0.411867 0.475433 0.403200
0.422765 0.482152 0.409249
0.433670 0.488863 0.415315
0.444571 0.495571 0.421377
0.455468 0.502274 0.427436
0.466361 0.508973 0.433490
0.477248 0.515667 0.439538
0.488128 0.522357 0.445574
0.498999 0.529062 0.451546
0.513737 0.535782 0.457444
0.528480 0.542512 0.463267
0.543233 0.549250 0.469016
0.558004 0.555992 0.474688
0.572798 0.562734 0.480285
0.587623 0.569474 0.485806
0.602482 0.576207 0.491250
0.617382 0.582932 0.496618
0.632327 0.589644 0.501909
0.647321 0.596341 0.507124
0.662369 0.603020 0.512263
0.677474 0.609679 0.517326
0.692639 0.616315 0.522314
0.707868 0.622925 0.527228
0.723163 0.629508 0.532067
0.738525 0.636060 0.536833
0.753957 0.642580 0.541527
0.769461 0.649065 0.546149
0.785037 0.655514 0.550701
0.800685 0.661924 0.555184
0.816407 0.668295 0.559599
0.410458 0.485974 0.411458
0.421361 0.492684 0.417522
0.432261 0.499390 0.423583
0.443156 0.506092 0.429640
0.454047 0.512789 0.435692
0.464932 0.519481 0.441739
0.475805 0.526176 0.447756
0.486658 0.532891 0.453702
0.497499 0.539623 0.459572
0.508335 0.546368 0.465369
0.519174 0.553122 0.471090
0.531959 0.559882 0.476735
0.546695 0.566644 0.482304
0.561453 0.573405 0.487797
0.576239 0.580162 0.493213
0.591059 0.586910 0.498553
0.605917 0.593648 0.503816
0.620818 0.600373 0.509004
0.635767 0.607081 0.514115
0.650767 0.613769 0.519151
0.665821 0.620436 0.524112
0.680934 0.627077 0.528998
0.696108 0.633692 0.533811
0.711344 0.640278 0.538550
0.726646 0.646832 0.543218
0.742015 0.653352 0.547815
0.757452 0.659836 0.552341
0.772959 0.666282 0.556799
0.788535 0.672689 0.561190
0.804182 0.679054 0.565514
0.819898 0.685376 0.569774
0.835684 0.691654 0.573971
0.430844 0.509909 0.431844
0.441733 0.516604 0.437894
0.452615 0.523294 0.443937
0.463472 0.529999 0.449929
0.474299 0.536727 0.455847
0.485107 0.543473 0.461691
0.495901 0.550234 0.467460
0.506691 0.557007 0.473154
0.517482 0.563786 0.478771
0.528282 0.570570 0.484313
0.539097 0.577354 0.489777
0.549933 0.584135 0.495166
0.564667 0.590910 0.500478
0.579434 0.597675 0.505714
0.594237 0.604428 0.510873
0.609081 0.611165 0.515957
0.623972 0.617884 0.520966
0.638911 0.624582 0.525899
0.653904 0.631257 0.530759
0.668953 0.637905 0.535545
0.684060 0.644525 0.540258
0.699229 0.651113 0.544900
0.714460 0.657669 0.549471
0.729756 0.664189 0.553972
0.745118 0.670671 0.558405
0.760546 0.677115 0.562772
0.776042 0.683517 0.567072
0.791604 0.689876 0.571309
0.807234 0.696191 0.575484
0.822930 0.702460 0.579598
0.838691 0.708682 0.583653
0.854516 0.714854 0.587652
0.451125 0.533828 0.452092
0.461920 0.540570 0.457984
0.472686 0.547333 0.463800
0.483432 0.554112 0.469542
0.494165 0.560905 0.475208
0.504893 0.567706 0.480797
0.515622 0.574512 0.486311
0.526359 0.581321 0.491748
0.537111 0.588128 0.497109
0.547883 0.594930 0.502393
0.558681 0.601724 0.507601
0.569510 0.608506 0.512733
0.582310 0.615274 0.517789
0.597087 0.622025 0.522770
0.611907 0.628756 0.527677
0.626776 0.635464 0.532510
0.641697 0.642147 0.537269
0.656671 0.648801 0.541956
0.671703 0.655425 0.546572
0.686794 0.662017 0.551117
0.701946 0.668573 0.555594
0.717160 0.675093 0.560003
0.732439 0.681574 0.564345
0.747781 0.688013 0.568622
0.763188 0.694410 0.572836
0.778660 0.700762 0.576989
0.794196 0.707069 0.581081
0.809796 0.713327 0.585115
0.825459 0.719537 0.589094
0.841182 0.725697 0.593019
0.856965 0.731805 0.596891
0.872805 0.737860 0.600715
0.470924 0.558003 0.471613
0.481594 0.564817 0.477251
0.492252 0.571641 0.482813
0.502904 0.578472 0.488299
0.513557 0.585307 0.493708
0.524219 0.592141 0.499041
0.534895 0.598972 0.504298
0.545591 0.605795 0.509478
0.556312 0.612609 0.514582
0.567064 0.619409 0.519611
0.577851 0.626193 0.524565
0.588678 0.632957 0.529445
0.599549 0.639700 0.534251
0.614337 0.646417 0.538984
0.629175 0.653107 0.543645
0.644067 0.659768 0.548235
0.659015 0.666396 0.552755
0.674020 0.672990 0.557207
0.689085 0.679547 0.561591
0.704211 0.686065 0.565910
0.719398 0.692542 0.570164
0.734649 0.698977 0.574355
0.749962 0.705367 0.578485
0.765337 0.711711 0.582556
0.780775 0.718007 0.586570
0.796274 0.724253 0.590529
0.811834 0.730450 0.594434
0.827451 0.736594 0.598289
0.843126 0.742685 0.602095
0.858854 0.748722 0.605855
0.874635 0.754705 0.609572
0.890463 0.760631 0.613247
0.490125 0.582451 0.490277
0.500690 0.589313 0.495659
0.511256 0.596176 0.500964
0.521831 0.603037 0.506193
0.532420 0.609891 0.511345
0.543029 0.616737 0.516422
0.553663 0.623570 0.521424
0.564328 0.630387 0.526350
0.575028 0.637186 0.531203
0.585767 0.643964 0.535982
0.596549 0.650717 0.540689
0.607378 0.657444 0.545324
0.618256 0.664142 0.549889
0.631122 0.670807 0.554384
0.645978 0.677438 0.558811
0.660891 0.684033 0.563171
0.675863 0.690589 0.567466
0.690894 0.697104 0.571697
0.705985 0.703577 0.575866
0.721138 0.710005 0.579974
0.736352 0.716386 0.584024
0.751627 0.722719 0.588018
0.766962 0.729003 0.591957
0.782357 0.735236 0.595843
0.797810 0.741417 0.599680
0.813319 0.747543 0.603469
0.828883 0.753615 0.607213
0.844499 0.759631 0.610915
0.860163 0.765590 0.614576
0.875874 0.771492 0.618200
0.891627 0.777335 0.621790
0.907419 0.783119 0.625349
0.508687 0.607125 0.508077
0.519164 0.614012 0.513202
0.529656 0.620890 0.518251
0.540169 0.627757 0.523226
0.550708 0.634609 0.528126
0.561277 0.641444 0.532951
0.571881 0.648258 0.537704
0.582525 0.655048 0.542385
0.593211 0.661812 0.546994
0.603944 0.668547 0.551533
0.614726 0.675250 0.556003
0.625560 0.681919 0.560406
0.636448 0.688552 0.564742
0.647393 0.695147 0.569013
0.662266 0.701700 0.573222
0.677197 0.708210 0.577368
0.692189 0.714676 0.581455
0.707240 0.721095 0.585485
0.722351 0.727466 0.589458
0.737522 0.733787 0.593378
0.752752 0.740056 0.597246
0.768041 0.746272 0.601065
0.783385 0.752434 0.604837
0.798785 0.758540 0.608566
0.814236 0.764590 0.612252
0.829738 0.770582 0.615900
0.845287 0.776515 0.619511
0.860880 0.782389 0.623089
0.876513 0.788202 0.626638
0.892182 0.793955 0.630159
0.907883 0.799646 0.633656
0.923611 0.805276 0.637133
0.526580 0.631972 0.525018
0.536989 0.638860 0.529891
0.547424 0.645731 0.534690
0.557890 0.652582 0.539416
0.568392 0.659409 0.544071
0.578933 0.666211 0.548655
0.589518 0.672984 0.553168
0.600149 0.679726 0.557614
0.610829 0.686433 0.561992
0.621562 0.693105 0.566304
0.632348 0.699737 0.570553
0.643191 0.706329 0.574738
0.654090 0.712878 0.578863
0.665049 0.719381 0.582929
0.678001 0.725838 0.586937
0.692948 0.732246 0.590891
0.707955 0.738604 0.594792
0.723021 0.744909 0.598642
0.738144 0.751160 0.602444
