omv/luts/24_vault_noir.cube
# Original OMV LUT; redistribution permitted with OMV.
TITLE "Vault Noir"
LUT_3D_SIZE 5
DOMAIN_MIN 0.000000 0.000000 0.000000
DOMAIN_MAX 0.903226 0.903226 0.903226
0.000000 0.031333 0.034667
0.167950 0.056886 0.061886
0.346428 0.076839 0.081802
0.533436 0.096392 0.100843
0.734945 0.113585 0.117054
0.056850 0.202688 0.107128
0.216138 0.229553 0.122089
0.414717 0.254439 0.133452
0.626871 0.272127 0.141616
0.851042 0.287232 0.147783
0.102544 0.393451 0.144004
0.251783 0.419492 0.149900
0.466329 0.442605 0.156734
0.686618 0.463847 0.167603
0.906366 0.484721 0.183656
0.137259 0.596259 0.173259
0.302606 0.617109 0.189412
0.495637 0.637893 0.201966
0.718506 0.657860 0.209843
0.945542 0.676257 0.213527
0.185137 0.793480 0.211635
0.350129 0.814002 0.213968
0.518778 0.832615 0.213219
0.745390 0.848901 0.210532
0.974867 0.862715 0.207329
0.000000 0.043571 0.148686
0.147472 0.063504 0.174633
0.327509 0.083655 0.193215
0.517687 0.102557 0.215321
0.722661 0.118708 0.236599
0.063005 0.214938 0.225512
0.196675 0.241261 0.243847
0.397171 0.260759 0.261944
0.611003 0.277518 0.277281
0.835928 0.291910 0.290397
0.105514 0.405638 0.282260
0.256678 0.430616 0.294857
0.445270 0.452934 0.307261
0.665245 0.473923 0.321890
0.884906 0.490218 0.338115
0.142820 0.606336 0.327852
0.308087 0.627183 0.343494
0.474271 0.647791 0.355771
0.697683 0.667296 0.364402
0.925320 0.685037 0.369642
0.188561 0.803608 0.366680
0.353717 0.823546 0.370804
0.522638 0.841402 0.372337
0.722296 0.856851 0.372194
0.951554 0.869843 0.371566
0.003841 0.050841 0.272616
0.127196 0.070324 0.289841
0.309252 0.090312 0.310923
0.502470 0.108397 0.335488
0.710657 0.123437 0.360684
0.068841 0.227059 0.350050
0.204056 0.248179 0.374930
0.379319 0.266755 0.397874
0.594649 0.282629 0.417952
0.820028 0.296445 0.437298
0.108353 0.417451 0.429839
0.261458 0.441426 0.445964
0.423989 0.463104 0.460219
0.643711 0.479485 0.476485
0.863850 0.495590 0.492404
0.148361 0.616393 0.484683
0.313490 0.637235 0.497689
0.479934 0.657560 0.510406
0.676760 0.676526 0.520320
0.904924 0.693567 0.527460
0.191685 0.813563 0.523230
0.357041 0.832848 0.529421
0.526226 0.849909 0.533322
0.698881 0.864515 0.535619
0.927826 0.876712 0.537276
0.010247 0.057247 0.387408
0.134368 0.077220 0.405787
0.291510 0.096742 0.431372
0.487635 0.113879 0.462013
0.698778 0.127771 0.494204
0.074329 0.234474 0.479050
0.211153 0.254798 0.511095
0.361121 0.272433 0.541219
0.577767 0.287496 0.567830
0.803292 0.300902 0.590138
0.111138 0.428899 0.581805
0.266196 0.451964 0.602507
0.429649 0.468671 0.619119
0.622156 0.485027 0.633317
0.843146 0.500803 0.646928
0.153825 0.626448 0.643726
0.318781 0.647226 0.656906
0.485494 0.667170 0.668421
0.655700 0.685532 0.677790
0.884313 0.697323 0.687068
0.194514 0.823319 0.685958
0.360103 0.841892 0.692128
0.529543 0.858131 0.696123
0.702239 0.871899 0.700659
0.903679 0.883339 0.704209
0.016877 0.063877 0.502425
0.141939 0.084029 0.523694
0.274148 0.102889 0.555387
0.473040 0.118980 0.593173
0.686879 0.131718 0.632884
0.079450 0.241651 0.612939
0.217941 0.261099 0.652477
0.369647 0.277808 0.689566
0.560323 0.292165 0.721951
0.785680 0.305360 0.748175
0.113956 0.440004 0.737601
0.270973 0.457767 0.761379
0.435231 0.474231 0.778328
0.600669 0.490519 0.792411
0.822719 0.505826 0.806586
0.159098 0.636523 0.802921
0.323928 0.657118 0.816975
0.490916 0.676595 0.830061
0.661562 0.689782 0.841469
0.863449 0.700819 0.850769
0.197053 0.832850 0.850451
0.362907 0.850663 0.858931
0.532590 0.866065 0.865163
0.705275 0.879012 0.869374
0.879115 0.889743 0.872068
