omv/luts/24_vault_noir.cube
# Original OMV LUT; redistribution permitted with OMV.
TITLE "Vault Noir"
LUT_3D_SIZE 32
DOMAIN_MIN 0.0 0.0 0.0
DOMAIN_MAX 1.0 1.0 1.0
0.000000 0.031333 0.034667
0.016888 0.041308 0.046308
0.041919 0.043758 0.048758
0.067023 0.046281 0.051281
0.092184 0.048861 0.053861
0.117395 0.051492 0.056492
0.142651 0.054168 0.059168
0.167950 0.056886 0.061886
0.193289 0.059644 0.064644
0.218665 0.062440 0.067440
0.244078 0.065272 0.070272
0.269526 0.068139 0.073139
0.295014 0.071038 0.076037
0.320633 0.073942 0.078930
0.346428 0.076839 0.081802
0.372419 0.079721 0.084646
0.398625 0.082582 0.087456
0.425062 0.085417 0.090229
0.451747 0.088221 0.092958
0.478696 0.090987 0.095640
0.505921 0.093713 0.098269
0.533436 0.096392 0.100843
0.561251 0.099022 0.103358
0.589378 0.101599 0.105810
0.617824 0.104120 0.108198
0.646598 0.106581 0.110518
0.675706 0.108981 0.112768
0.705154 0.111316 0.114948
0.734945 0.113585 0.117054
0.765083 0.115788 0.119088
0.795569 0.117921 0.121046
0.826403 0.119985 0.122931
0.000214 0.060762 0.052214
0.021523 0.064007 0.054813
0.046751 0.067300 0.057461
0.072023 0.069991 0.060152
0.097337 0.072724 0.062885
0.122690 0.075496 0.065657
0.148079 0.078305 0.068467
0.173505 0.081150 0.071312
0.198965 0.084030 0.074191
0.224479 0.086937 0.077092
0.250115 0.089853 0.079978
0.275898 0.092769 0.082840
0.301849 0.095679 0.085673
0.327988 0.098575 0.088470
0.354333 0.101453 0.091228
0.380900 0.104307 0.093940
0.407706 0.107131 0.096603
0.434766 0.109920 0.099213
0.462092 0.112670 0.101766
0.489698 0.115377 0.104258
0.517593 0.118037 0.106687
0.545789 0.120646 0.109050
0.574293 0.123201 0.111345
0.603113 0.125700 0.113570
0.632256 0.128139 0.115723
0.661725 0.130518 0.117803
0.691525 0.132833 0.119809
0.721659 0.135083 0.121741
0.752127 0.137268 0.123598
0.782929 0.139387 0.125380
0.814066 0.141439 0.127088
0.845533 0.143424 0.128722
0.009143 0.083240 0.061143
0.026729 0.086632 0.063890
0.052095 0.090063 0.066676
0.077498 0.093531 0.069498
0.102937 0.097033 0.072356
0.128409 0.099925 0.075248
0.153941 0.102843 0.078145
0.179570 0.105777 0.081023
0.205318 0.108720 0.083875
0.231208 0.111663 0.086696
0.257259 0.114602 0.089479
0.283490 0.117529 0.092221
0.309919 0.120438 0.094916
0.336564 0.123325 0.097560
0.363440 0.126184 0.100149
0.390560 0.129010 0.102680
0.417939 0.131798 0.105150
0.445588 0.134545 0.107555
0.473518 0.137247 0.109894
0.501738 0.139901 0.112163
0.530257 0.142502 0.114362
0.559081 0.145049 0.116489
0.588216 0.147540 0.118542
0.617668 0.149971 0.120521
0.647439 0.152342 0.122426
0.677531 0.154651 0.124255
0.707946 0.156897 0.126010
0.738683 0.159079 0.127691
0.769740 0.161197 0.129299
0.801115 0.163251 0.130835
0.832805 0.165241 0.132301
0.864802 0.167167 0.133699
0.018535 0.106180 0.070535
0.036244 0.109695 0.073405
0.057858 0.113244 0.076305
0.083387 0.116825 0.079196
0.108986 0.120429 0.082065
0.134677 0.124049 0.084906
0.160482 0.127679 0.087714
0.186424 0.130665 0.090482
0.212522 0.133647 0.093207
0.238794 0.136618 0.095884
0.265259 0.139573 0.098509
0.291933 0.142506 0.101077
0.318831 0.145413 0.103587
0.345967 0.148288 0.106033
0.373354 0.151127 0.108414
0.401003 0.153926 0.110728
0.428925 0.156681 0.112972
0.457129 0.159390 0.115145
0.485623 0.162049 0.117245
0.514413 0.164654 0.119271
0.543505 0.167205 0.121223
0.572904 0.169699 0.123100
0.602611 0.172135 0.124903
0.632630 0.174510 0.126631
0.662960 0.176825 0.128285
0.693601 0.179077 0.129867
0.724551 0.181268 0.131377
0.755807 0.183398 0.132818
0.787364 0.185465 0.134191
0.819217 0.187472 0.135498
0.851360 0.189419 0.136743
0.883784 0.191308 0.137929
0.028288 0.129531 0.080243
0.046091 0.133166 0.083103
0.063960 0.136826 0.085932
0.089661 0.140502 0.088726
0.115473 0.144188 0.091480
0.141417 0.147875 0.094188
0.167514 0.151559 0.096846
0.193781 0.155233 0.099451
0.220236 0.158891 0.101998
0.246894 0.161883 0.104485
0.273772 0.164849 0.106908
0.300882 0.167784 0.109265
0.328236 0.170685 0.111553
0.355847 0.173546 0.113772
0.383724 0.176365 0.115918
0.411875 0.179138 0.117991
0.440309 0.181863 0.119991
0.469032 0.184536 0.121915
0.498048 0.187156 0.123765
0.527363 0.189720 0.125541
0.556977 0.192227 0.127242
0.586893 0.194676 0.128869
0.617112 0.197066 0.130425
0.647631 0.199395 0.131910
0.678449 0.201665 0.133325
0.709562 0.203875 0.134674
0.740966 0.206025 0.135959
0.772654 0.208116 0.137181
0.804620 0.210150 0.138346
0.836855 0.212128 0.139455
0.869350 0.214051 0.140514
0.902093 0.215922 0.141525
0.038087 0.153364 0.089734
0.056007 0.157109 0.092471
0.074037 0.160863 0.095162
0.096068 0.164619 0.097801
0.122119 0.168372 0.100385
0.148338 0.172114 0.102910
0.174742 0.175842 0.105374
0.201345 0.179548 0.107774
0.228164 0.183229 0.110106
0.255210 0.186880 0.112369
0.282496 0.190497 0.114561
0.310034 0.193430 0.116681
0.337832 0.196321 0.118728
0.365899 0.199167 0.120700
0.394243 0.201966 0.122597
0.422868 0.204713 0.124420
0.451781 0.207409 0.126168
0.480984 0.210050 0.127843
0.510480 0.212635 0.129444
0.540270 0.215163 0.130974
0.570353 0.217632 0.132433
0.600729 0.220044 0.133824
0.631395 0.222396 0.135149
0.662347 0.224691 0.136411
0.693579 0.226927 0.137612
0.725086 0.229106 0.138756
0.756860 0.231229 0.139846
0.788892 0.233297 0.140887
0.821173 0.235313 0.141882
0.853691 0.237278 0.142837
0.886434 0.239195 0.143756
0.919388 0.241067 0.144644
0.047672 0.177737 0.098748
0.065749 0.181573 0.101311
0.083974 0.185405 0.103815
0.102364 0.189227 0.106255
0.128679 0.193034 0.108631
0.155192 0.196819 0.110938
0.181917 0.200579 0.113176
0.208866 0.204309 0.115342
0.236053 0.208005 0.117435
0.263487 0.211662 0.119454
0.291177 0.215278 0.121399
0.319132 0.218850 0.123270
0.347359 0.222373 0.125065
0.375862 0.225202 0.126787
0.404647 0.227979 0.128434
0.433717 0.230702 0.130009
0.463073 0.233369 0.131513
0.492716 0.235980 0.132947
0.522646 0.238534 0.134314
0.552861 0.241031 0.135616
0.583358 0.243469 0.136855
0.614133 0.245850 0.138035
0.645181 0.248174 0.139159
0.676494 0.250443 0.140231
0.708066 0.252656 0.141255
0.739886 0.254816 0.142235
0.771945 0.256925 0.143175
0.804230 0.258984 0.144082
0.836730 0.260997 0.144961
0.869431 0.262967 0.145816
0.902316 0.264896 0.146655
0.935369 0.266788 0.147483
0.056850 0.202688 0.107128
0.075120 0.206598 0.109479
0.093572 0.210492 0.111761
0.112220 0.214365 0.113973
0.134950 0.218212 0.116112
0.161775 0.222028 0.118179
0.188834 0.225809 0.120171
0.216138 0.229553 0.122089
0.243696 0.233254 0.123932
0.271515 0.236911 0.125701
0.299602 0.240520 0.127395
0.327963 0.244080 0.129016
0.356600 0.247587 0.130565
0.385518 0.251041 0.132043
0.414717 0.254439 0.133452
0.444198 0.257137 0.134795
0.473960 0.259777 0.136074
0.504001 0.262361 0.137291
0.534318 0.264887 0.138450
0.564906 0.267356 0.139555
0.595759 0.269769 0.140609
0.626871 0.272127 0.141616
0.658233 0.274430 0.142581
0.689835 0.276682 0.143509
0.721668 0.278882 0.144405
0.753719 0.281035 0.145274
0.785974 0.283142 0.146123
0.818421 0.285206 0.146957
0.851042 0.287232 0.147783
0.883821 0.289221 0.148608
0.916741 0.291179 0.149439
0.949781 0.293110 0.150284
0.065469 0.228239 0.114760
0.083968 0.232206 0.116873
0.102678 0.236146 0.118913
0.121610 0.240054 0.120878
0.140777 0.243927 0.122769
0.167929 0.247762 0.124585
0.195333 0.251553 0.126326
0.222997 0.255300 0.127993
0.250927 0.258998 0.129588
0.279127 0.262647 0.131111
0.307602 0.266243 0.132564
0.336353 0.269785 0.133949
0.365383 0.273271 0.135268
0.394690 0.276702 0.136524
0.424274 0.280075 0.137720
0.454132 0.283392 0.138859
0.484261 0.286651 0.139944
0.514656 0.289208 0.140981
0.545310 0.291710 0.141972
0.576216 0.294156 0.142923
0.607366 0.296548 0.143839
0.638750 0.298888 0.144724
0.670356 0.301179 0.145585
0.702173 0.303421 0.146428
0.734187 0.305619 0.147258
0.766384 0.307775 0.148083
0.798746 0.309892 0.148910
0.831258 0.311975 0.149745
0.863900 0.314026 0.150596
0.896654 0.316052 0.151472
0.929498 0.318055 0.152380
0.962410 0.320042 0.153329
0.073423 0.254398 0.121575
0.092185 0.258404 0.123438
0.111182 0.262373 0.125227
0.130423 0.266302 0.126942
0.149915 0.270187 0.128582
0.173538 0.274026 0.130151
0.201296 0.277817 0.131648
0.229324 0.281556 0.133076
0.257625 0.285242 0.134437
0.286200 0.288873 0.135732
0.315051 0.292449 0.136966
0.344177 0.295968 0.138141
0.373576 0.299429 0.139260
0.403247 0.302833 0.140327
0.433184 0.306179 0.141347
0.463383 0.309468 0.142323
0.493837 0.312700 0.143260
0.524539 0.315878 0.144164
0.555479 0.319001 0.145040
0.586647 0.321428 0.145894
0.618031 0.323804 0.146731
0.649620 0.326133 0.147559
0.681400 0.328417 0.148384
0.713354 0.330659 0.149212
0.745468 0.332863 0.150052
0.777723 0.335032 0.150911
0.810100 0.337171 0.151798
0.842580 0.339284 0.152720
0.875142 0.341376 0.153687
0.907763 0.343452 0.154708
0.940418 0.345517 0.155791
0.973085 0.347577 0.156947
0.080650 0.281157 0.127547
0.099707 0.285183 0.129162
0.119018 0.289164 0.130704
0.138588 0.293098 0.132176
0.158424 0.296981 0.133579
0.178529 0.300812 0.134916
0.206648 0.304589 0.136189
0.235041 0.308309 0.137400
0.263709 0.311973 0.138555
0.292651 0.315579 0.139654
0.321865 0.319127 0.140704
0.351347 0.322616 0.141707
0.381094 0.326046 0.142668
0.411099 0.329419 0.143593
0.441357 0.332735 0.144486
0.471858 0.335995 0.145353
0.502593 0.339200 0.146200
0.533553 0.342353 0.147033
0.564724 0.345455 0.147859
0.596095 0.348510 0.148684
0.627651 0.351519 0.149516
0.659376 0.353841 0.150362
0.691254 0.356125 0.151231
0.723267 0.358374 0.152129
0.755396 0.360593 0.153067
0.787621 0.362786 0.154052
0.819919 0.364957 0.155094
0.852268 0.367113 0.156203
0.884645 0.369258 0.157388
0.917023 0.371399 0.158660
0.949376 0.373541 0.160029
0.981678 0.375691 0.161506
0.087130 0.308491 0.132694
0.106513 0.312519 0.134073
0.126162 0.316495 0.135386
0.146082 0.320417 0.136637
0.166275 0.324283 0.137827
0.186743 0.328092 0.138961
0.211357 0.331842 0.140042
0.240116 0.335532 0.141074
0.269146 0.339164 0.142061
0.298444 0.342735 0.143009
0.328005 0.346246 0.143922
0.357823 0.349699 0.144805
0.387891 0.353093 0.145664
0.418201 0.356430 0.146505
0.448742 0.359712 0.147335
0.479504 0.362940 0.148159
0.510476 0.366117 0.148986
0.541642 0.369245 0.149822
0.572990 0.372328 0.150675
0.604503 0.375368 0.151554
0.636163 0.378368 0.152466
0.667954 0.381334 0.153419
0.699855 0.384268 0.154424
0.731845 0.386531 0.155490
0.763903 0.388773 0.156625
0.796006 0.390998 0.157840
0.828128 0.393213 0.159146
0.860245 0.395422 0.160553
0.892330 0.397634 0.162073
0.924354 0.399853 0.163715
0.956289 0.402087 0.165493
0.988103 0.404343 0.167417
0.092888 0.336359 0.137077
0.112623 0.340370 0.138246
0.132634 0.344323 0.139360
0.152921 0.348217 0.140423
0.173485 0.352050 0.141438
0.194323 0.355822 0.142411
0.215434 0.359532 0.143345
0.244556 0.363181 0.144246
0.273940 0.366768 0.145120
0.303582 0.370295 0.145972
0.333472 0.373762 0.146808
0.363604 0.377170 0.147635
0.393965 0.380521 0.148460
0.424546 0.383818 0.149289
0.455334 0.387062 0.150130
0.486315 0.390256 0.150992
0.517474 0.393403 0.151881
0.548795 0.396506 0.152807
0.580260 0.399569 0.153779
0.611852 0.402596 0.154805
0.643549 0.405591 0.155894
0.675332 0.408558 0.157058
0.707177 0.411504 0.158305
0.739061 0.414432 0.159646
0.770960 0.417349 0.161093
0.802847 0.419615 0.162656
0.834696 0.421883 0.164346
0.866477 0.424157 0.166176
0.898161 0.426447 0.168157
0.929718 0.428757 0.170302
0.961127 0.431095 0.172611
0.992502 0.433437 0.174953
0.097989 0.364703 0.140798
0.118103 0.368678 0.141797
0.138496 0.372590 0.142755
0.159166 0.376438 0.143677
0.180111 0.380222 0.144567
0.201325 0.383942 0.145432
0.222805 0.387599 0.146278
0.248413 0.391193 0.147110
0.278143 0.394725 0.147935
0.308113 0.398197 0.148761
0.338313 0.401610 0.149594
0.368733 0.404966 0.150441
0.399359 0.408268 0.151312
0.430176 0.411519 0.152214
0.461170 0.414720 0.153155
0.492324 0.417876 0.154145
0.523621 0.420991 0.155193
0.555041 0.424068 0.156309
0.586564 0.427111 0.157502
0.618169 0.430126 0.158782
0.649833 0.433118 0.160160
0.681532 0.436091 0.161648
0.713241 0.439052 0.163256
0.744933 0.442006 0.164995
0.776582 0.444960 0.166879
0.808159 0.447921 0.168918
0.839632 0.450896 0.171127
0.871012 0.453238 0.173464
0.902386 0.455579 0.175805
0.933756 0.457917 0.178143
0.965123 0.460252 0.180478
0.996486 0.462583 0.182809
0.102544 0.393451 0.144004
0.123060 0.397369 0.144885
0.143853 0.401220 0.145742
0.164919 0.405005 0.146582
0.186253 0.408724 0.147411
0.207848 0.412377 0.148235
0.229694 0.415966 0.149063
0.251783 0.419492 0.149900
0.281845 0.422957 0.150755
0.312127 0.426363 0.151636
0.342616 0.429713 0.152552
0.373297 0.433008 0.153510
0.404154 0.436253 0.154520
0.435171 0.439451 0.155591
0.466329 0.442605 0.156734
0.497609 0.445719 0.157957
0.528991 0.448798 0.159272
0.560453 0.451847 0.160689
0.591971 0.454871 0.162219
0.623522 0.457875 0.163873
0.655080 0.460865 0.165664
0.686618 0.463847 0.167603
0.718108 0.466827 0.169702
0.749522 0.469813 0.171974
0.780897 0.472801 0.174317
0.812270 0.475786 0.176657
0.843639 0.478768 0.178994
0.875004 0.481746 0.181327
0.906366 0.484721 0.183656
0.937726 0.487045 0.185977
0.969153 0.489353 0.188223
1.000000 0.491688 0.190846
0.106704 0.422510 0.146885
0.127643 0.426351 0.147711
0.148853 0.430122 0.148536
0.170328 0.433826 0.149366
0.192057 0.437462 0.150209
0.214032 0.441032 0.151073
0.236241 0.444538 0.151965
0.258672 0.447983 0.152895
0.285183 0.451368 0.153871
0.315758 0.454697 0.154902
0.346511 0.457973 0.155998
0.377423 0.461199 0.157169
0.408478 0.464379 0.158424
0.439655 0.467517 0.159775
0.470933 0.470618 0.161232
0.502290 0.473686 0.162806
0.533703 0.476727 0.164509
0.565147 0.479746 0.166352
0.596596 0.482748 0.168348
0.628023 0.485741 0.170509
0.659408 0.488730 0.172827
0.690782 0.491717 0.175169
0.722153 0.494701 0.177508
0.753521 0.497682 0.179844
0.784885 0.500659 0.182175
0.816245 0.503632 0.184503
0.847616 0.506598 0.186806
0.879062 0.509548 0.189016
0.910592 0.512480 0.191125
0.942213 0.515390 0.193134
0.973930 0.518276 0.195044
1.000000 0.520851 0.201288
0.110665 0.451775 0.149671
0.132047 0.455517 0.150521
0.153688 0.459189 0.151394
0.175579 0.462791 0.152299
0.197708 0.466327 0.153244
0.220063 0.469797 0.154239
0.242629 0.473206 0.155293
0.265391 0.476555 0.156415
0.288334 0.479847 0.157616
0.319181 0.483087 0.158905
0.350171 0.486278 0.160293
0.381285 0.489425 0.161791
0.412500 0.492531 0.163410
0.443796 0.495603 0.165163
0.475147 0.498644 0.167060
0.506530 0.501661 0.169115
0.537917 0.504659 0.171339
0.569293 0.507648 0.173680
0.600666 0.510634 0.176021
0.632036 0.513617 0.178359
0.663403 0.516596 0.180693
0.694765 0.519572 0.183023
0.726123 0.522543 0.185349
0.757511 0.525506 0.187622
0.788966 0.528456 0.189795
0.820496 0.531390 0.191868
0.852105 0.534305 0.193841
0.883801 0.537199 0.195714
0.915588 0.540069 0.197489
0.947470 0.542914 0.199165
0.979453 0.545730 0.200744
1.000000 0.549132 0.211931
0.114664 0.481120 0.152638
0.136505 0.484742 0.153600
0.158590 0.488293 0.154616
0.180905 0.491776 0.155693
0.203435 0.495193 0.156843
0.226167 0.498547 0.158074
0.249081 0.501841 0.159398
0.272162 0.505080 0.160825
0.295389 0.508266 0.162366
0.322613 0.511404 0.164032
0.353813 0.514499 0.165836
0.385094 0.517556 0.167789
0.416433 0.520580 0.169904
0.447803 0.523577 0.172190
0.479178 0.526565 0.174533
0.510550 0.529550 0.176872
0.541919 0.532532 0.179209
0.573284 0.535510 0.181542
0.604645 0.538484 0.183871
0.636005 0.541453 0.186188
0.667404 0.544415 0.188425
0.698861 0.547367 0.190561
0.730381 0.550305 0.192598
0.761971 0.553228 0.194534
0.793637 0.556132 0.196372
0.825384 0.559016 0.198110
0.857218 0.561875 0.199751
0.889143 0.564709 0.201294
0.921164 0.567515 0.202741
0.953283 0.570292 0.204093
0.985506 0.573036 0.205350
1.000000 0.576545 0.222876
0.118982 0.510405 0.156103
0.141298 0.513885 0.157281
0.163835 0.517295 0.158545
0.186579 0.520638 0.159905
0.209511 0.523917 0.161372
0.232613 0.527137 0.162957
0.255867 0.530301 0.164673
0.279250 0.533413 0.166529
0.302741 0.536479 0.168540
0.326317 0.539503 0.170717
0.357688 0.542495 0.173043
0.389062 0.545482 0.175385
0.420433 0.548465 0.177723
0.451801 0.551446 0.180059
0.483164 0.554422 0.182390
0.514524 0.557395 0.184717
0.545889 0.560363 0.187014
0.577292 0.563326 0.189214
0.608741 0.566283 0.191314
0.640243 0.569229 0.193314
0.671805 0.572161 0.195215
0.703434 0.575078 0.197016
0.735135 0.577976 0.198719
0.766913 0.580853 0.200324
0.798773 0.583706 0.201832
0.830721 0.586534 0.203244
0.862759 0.589334 0.204561
0.894892 0.592104 0.205785
0.927123 0.594842 0.206916
0.959455 0.597546 0.207955
0.991890 0.600215 0.208905
1.000000 0.603718 0.234228
0.123942 0.539473 0.160426
0.146745 0.542788 0.161935
0.169744 0.546035 0.163566
0.192918 0.549218 0.165332
0.216249 0.552340 0.167243
0.239716 0.555407 0.169313
0.263295 0.558424 0.171553
0.286928 0.561412 0.173896
0.310559 0.564398 0.176237
0.334187 0.567380 0.178574
0.361682 0.570360 0.180908
0.393044 0.573335 0.183238
0.424402 0.576305 0.185563
0.455771 0.579275 0.187827
0.487168 0.582242 0.189990
0.518602 0.585205 0.192054
0.550078 0.588161 0.194018
0.581605 0.591105 0.195882
0.613188 0.594036 0.197647
0.644835 0.596951 0.199315
0.676550 0.599847 0.200884
0.708339 0.602722 0.202357
0.740207 0.605574 0.203735
0.772157 0.608399 0.205018
0.804195 0.611196 0.206207
0.836324 0.613963 0.207305
0.868546 0.616699 0.208312
0.900864 0.619401 0.209229
0.933282 0.622067 0.210060
0.965800 0.624696 0.210805
0.998420 0.627287 0.211467
1.000000 0.630636 0.246097
0.129909 0.568150 0.166010
0.153211 0.571276 0.167977
0.176676 0.574338 0.170108
0.200277 0.577342 0.172406
0.223910 0.580329 0.174748
0.247539 0.583314 0.177088
0.271166 0.586295 0.179424
0.294789 0.589273 0.181757
0.318408 0.592246 0.184085
0.342023 0.595216 0.186399
0.365646 0.598189 0.188626
0.397029 0.601163 0.190753
0.428438 0.604136 0.192780
0.459881 0.607103 0.194708
0.491364 0.610061 0.196536
0.522896 0.613009 0.198266
0.554481 0.615943 0.199897
0.586126 0.618860 0.201432
0.617837 0.621758 0.202870
0.649619 0.624635 0.204213
0.681476 0.627487 0.205461
0.713412 0.630314 0.206617
0.745433 0.633112 0.207682
0.777540 0.635880 0.208656
0.809737 0.638615 0.209542
0.842027 0.641317 0.210341
0.874412 0.643983 0.211056
0.906893 0.646612 0.211687
0.939473 0.649203 0.212238
0.972150 0.651754 0.212710
1.000000 0.654282 0.219347
1.000000 0.657282 0.258596
0.137259 0.596259 0.173259
0.160891 0.599246 0.175600
0.184519 0.602229 0.177939
0.208145 0.605209 0.180274
0.231766 0.608186 0.182605
0.255383 0.611158 0.184932
0.278995 0.614129 0.187221
0.302606 0.617109 0.189412
0.326225 0.620091 0.191503
0.349859 0.623075 0.193494
0.373518 0.626056 0.195385
0.401080 0.629031 0.197177
0.432552 0.631998 0.198871
0.464068 0.634952 0.200467
0.495637 0.637893 0.201966
0.527263 0.640816 0.203370
0.558953 0.643719 0.204678
0.590710 0.646601 0.205893
0.622540 0.649458 0.207015
0.654447 0.652288 0.208047
0.686435 0.655089 0.208989
0.718506 0.657860 0.209843
0.750664 0.660599 0.210611
0.782911 0.663303 0.211295
0.815250 0.665971 0.211897
0.847681 0.668602 0.212419
0.880206 0.671194 0.212863
0.912826 0.673746 0.213231
0.945542 0.676257 0.213527
0.978352 0.678725 0.213752
1.000000 0.681038 0.229570
1.000000 0.683635 0.271842
0.145123 0.624123 0.181123
0.168743 0.627098 0.183453
0.192358 0.630068 0.185776
0.215959 0.633046 0.188031
0.239549 0.636033 0.190185
0.263137 0.639028 0.192239
0.286731 0.642025 0.194194
0.310341 0.645022 0.196049
0.333973 0.648016 0.197805
0.357636 0.651003 0.199463
0.381336 0.653980 0.201024
0.405079 0.656945 0.202488
0.436615 0.659895 0.203857
0.468206 0.662827 0.205131
0.499858 0.665739 0.206312
0.531576 0.668628 0.207401
0.563364 0.671492 0.208400
0.595227 0.674329 0.209310
0.627167 0.677136 0.210132
0.659189 0.679913 0.210870
0.691294 0.682656 0.211523
0.723486 0.685364 0.212096
0.755766 0.688036 0.212589
0.788136 0.690670 0.213005
0.820596 0.693265 0.213347
0.853148 0.695820 0.213617
0.885791 0.698333 0.213817
0.918526 0.700803 0.213950
0.951351 0.703230 0.214020
0.984266 0.705612 0.214028
1.000000 0.707508 0.240410
1.000000 0.709670 0.285962
0.152910 0.651967 0.188826
0.176470 0.654966 0.190944
0.200019 0.657973 0.192962
0.223566 0.660987 0.194881
0.247119 0.664002 0.196700
0.270686 0.667016 0.198420
0.294274 0.670026 0.200043
0.317892 0.673028 0.201568
0.341546 0.676020 0.202998
0.365243 0.678998 0.204332
0.388988 0.681960 0.205572
0.412787 0.684904 0.206719
0.440516 0.687827 0.207775
0.472181 0.690726 0.208741
0.503914 0.693599 0.209619
0.535719 0.696444 0.210411
0.567600 0.699259 0.211117
0.599560 0.702042 0.211741
0.631601 0.704792 0.212285
0.663726 0.707506 0.212749
0.695937 0.710183 0.213138
0.728235 0.712822 0.213453
0.760620 0.715420 0.213697
0.793094 0.717978 0.213873
0.825656 0.720494 0.213983
0.858306 0.722966 0.214029
0.891044 0.725395 0.214017
0.923868 0.727779 0.213947
0.956777 0.730117 0.213824
0.989768 0.732410 0.213651
1.000000 0.733669 0.251969
1.000000 0.735358 0.301089
0.160359 0.679961 0.195554
0.183847 0.682997 0.197338
0.207341 0.686033 0.199022
0.230850 0.689068 0.200609
0.254379 0.692096 0.202100
0.277937 0.695116 0.203494
0.301530 0.698125 0.204794
0.325166 0.701119 0.206000
0.348848 0.704096 0.207114
0.372584 0.707054 0.208137
0.396378 0.709989 0.209071
0.420235 0.712900 0.209917
0.444158 0.715784 0.210678
0.475895 0.718639 0.211354
0.507705 0.721463 0.211948
0.539593 0.724255 0.212463
0.571560 0.727012 0.212900
0.603609 0.729733 0.213261
0.635741 0.732416 0.213550
0.667957 0.735059 0.213769
0.700260 0.737662 0.213920
0.732647 0.740224 0.214007
0.765121 0.742743 0.214032
0.797680 0.745217 0.213998
0.830324 0.747648 0.213908
0.863051 0.750032 0.213767
0.895859 0.752371 0.213576
0.928746 0.754663 0.213340
0.961710 0.756909 0.213063
0.994748 0.759107 0.212747
1.000000 0.759494 0.264353
1.000000 0.760666 0.317374
0.167358 0.708129 0.201163
0.190792 0.711186 0.202618
0.214249 0.714236 0.203978
0.237733 0.717277 0.205244
0.261253 0.720304 0.206416
0.284814 0.723316 0.207497
0.308422 0.726310 0.208488
0.332083 0.729283 0.209389
0.355800 0.732233 0.210204
0.379580 0.735157 0.210933
0.403426 0.738053 0.211580
0.427342 0.740919 0.212145
0.451330 0.743754 0.212631
0.479265 0.746554 0.213040
0.511149 0.749320 0.213375
0.543113 0.752047 0.213638
0.575159 0.754737 0.213832
0.607287 0.757386 0.213959
0.639499 0.759993 0.214023
0.671795 0.762558 0.214026
0.704174 0.765080 0.213971
0.736636 0.767556 0.213863
0.769180 0.769987 0.213703
0.801805 0.772373 0.213495
0.834508 0.774711 0.213244
0.867288 0.777002 0.212952
0.900142 0.779246 0.212624
0.933066 0.781441 0.212263
0.966058 0.783589 0.211873
0.999113 0.785689 0.211459
1.000000 0.784953 0.277678
1.000000 0.785557 0.334987
0.173847 0.736454 0.205681
0.197246 0.739517 0.206820
0.220680 0.742565 0.207868
0.244156 0.745597 0.208826
0.267679 0.748608 0.209696
0.291254 0.751598 0.210479
0.314886 0.754563 0.211178
0.338579 0.757502 0.211795
0.362338 0.760411 0.212331
0.386166 0.763289 0.212788
0.410066 0.766134 0.213170
0.434041 0.768944 0.213479
0.458092 0.771718 0.213716
0.482223 0.774453 0.213886
0.514176 0.777148 0.213989
0.546210 0.779802 0.214031
0.578326 0.782414 0.214013
0.610525 0.784982 0.213938
0.642805 0.787505 0.213810
0.675166 0.789982 0.213633
0.707607 0.792414 0.213409
0.740126 0.794798 0.213142
0.772722 0.797135 0.212837
0.805392 0.799423 0.212496
0.838133 0.801663 0.212124
0.870943 0.803855 0.211725
0.903817 0.805997 0.211303
0.936750 0.808091 0.210862
0.969740 0.810136 0.210407
1.000000 0.811725 0.217032
1.000000 0.810009 0.292077
1.000000 0.809985 0.354134
0.179784 0.764914 0.209153
0.203164 0.767966 0.209991
0.226592 0.770997 0.210743
0.250072 0.774004 0.211412
0.273609 0.776985 0.211999
0.297208 0.779938 0.212506
0.320873 0.782861 0.212936
0.344606 0.785751 0.213291
0.368411 0.788607 0.213573
0.392290 0.791426 0.213786
0.416246 0.794208 0.213931
0.440280 0.796949 0.214012
0.464393 0.799650 0.214031
0.488587 0.802309 0.213992
0.516732 0.804923 0.213897
0.548829 0.807493 0.213751
0.581007 0.810017 0.213556
0.613265 0.812495 0.213316
0.645600 0.814925 0.213035
