omv/luts/24_vault_noir.cube
# Original OMV LUT; redistribution permitted with OMV.
TITLE "Vault Noir"
LUT_3D_SIZE 8
DOMAIN_MIN 0.000000 0.000000 0.000000
DOMAIN_MAX 0.903226 0.903226 0.903226
0.000000 0.031333 0.034667
0.092184 0.048861 0.053861
0.193289 0.059644 0.064644
0.295014 0.071038 0.076037
0.398625 0.082582 0.087456
0.505921 0.093713 0.098269
0.617824 0.104120 0.108198
0.734945 0.113585 0.117054
0.028288 0.129531 0.080243
0.115473 0.144188 0.091480
0.220236 0.158891 0.101998
0.328236 0.170685 0.111553
0.440309 0.181863 0.119991
0.556977 0.192227 0.127242
0.678449 0.201665 0.133325
0.804620 0.210150 0.138346
0.065469 0.228239 0.114760
0.140777 0.243927 0.122769
0.250927 0.258998 0.129588
0.365383 0.273271 0.135268
0.484261 0.286651 0.139944
0.607366 0.296548 0.143839
0.734187 0.305619 0.147258
0.863900 0.314026 0.150596
0.092888 0.336359 0.137077
0.173485 0.352050 0.141438
0.273940 0.366768 0.145120
0.393965 0.380521 0.148460
0.517474 0.393403 0.151881
0.643549 0.405591 0.155894
0.770960 0.417349 0.161093
0.898161 0.426447 0.168157
0.110665 0.451775 0.149671
0.197708 0.466327 0.153244
0.288334 0.479847 0.157616
0.412500 0.492531 0.163410
0.537917 0.504659 0.171339
0.663403 0.516596 0.180693
0.788966 0.528456 0.189795
0.915588 0.540069 0.197489
0.129909 0.568150 0.166010
0.223910 0.580329 0.174748
0.318408 0.592246 0.184085
0.428438 0.604136 0.192780
0.554481 0.615943 0.199897
0.681476 0.627487 0.205461
0.809737 0.638615 0.209542
0.939473 0.649203 0.212238
0.160359 0.679961 0.195554
0.254379 0.692096 0.202100
0.348848 0.704096 0.207114
0.444158 0.715784 0.210678
0.571560 0.727012 0.212900
0.700260 0.737662 0.213920
0.830324 0.747648 0.213908
0.961710 0.756909 0.213063
0.185137 0.793480 0.211635
0.279013 0.805406 0.213402
0.373984 0.816791 0.214026
0.470194 0.827522 0.213686
0.583160 0.837517 0.212592
0.712809 0.846725 0.210984
0.843475 0.855122 0.209130
0.974867 0.862715 0.207329
0.000000 0.038984 0.094503
0.080284 0.052446 0.118091
0.181612 0.063451 0.127805
0.283678 0.074982 0.139381
0.388205 0.086426 0.151257
0.496566 0.097341 0.163008
0.609612 0.107448 0.174287
0.727882 0.116560 0.184837
0.032256 0.136180 0.144984
0.104232 0.150901 0.155570
0.209506 0.162949 0.167184
0.318183 0.174562 0.178223
0.431026 0.185481 0.188461
0.548486 0.195539 0.197759
0.670698 0.204652 0.206066
0.797486 0.212823 0.213415
0.068765 0.235325 0.182052
0.144539 0.250830 0.191959
0.239780 0.265646 0.200898
0.354847 0.279622 0.208848
0.474301 0.290111 0.215874
0.597872 0.299715 0.222126
0.724978 0.308538 0.227842
0.854721 0.316772 0.233342
0.095022 0.343498 0.211507
0.176226 0.358863 0.218229
0.261783 0.373248 0.224254
0.382301 0.386691 0.229850
0.506135 0.399312 0.235368
0.632296 0.411321 0.241249
0.759480 0.420428 0.248014
0.886069 0.429592 0.256273
0.112260 0.458545 0.231846
0.199997 0.472730 0.237442
0.291165 0.485941 0.243579
0.400165 0.498400 0.250813
0.525616 0.510423 0.259681
0.651083 0.522341 0.269019
0.776863 0.534141 0.277838
0.903860 0.545631 0.285315
0.132696 0.574085 0.253842
0.227087 0.586087 0.263087
0.321565 0.597986 0.272375
0.416177 0.609868 0.280717
0.542365 0.621606 0.287700
0.669561 0.633024 0.293338
0.798054 0.643981 0.297676
0.928025 0.654362 0.300789
0.163243 0.685789 0.283417
0.257205 0.697900 0.289906
0.351702 0.709813 0.295064
0.447100 0.721359 0.298946
0.559140 0.732403 0.301637
0.687973 0.742836 0.303253
0.818155 0.752580 0.303938
0.949620 0.761588 0.303867
0.187130 0.799287 0.300058
0.281041 0.811043 0.302343
0.376088 0.822217 0.303602
0.472389 0.832706 0.303990
0.569953 0.842439 0.303693
0.699649 0.851372 0.302925
0.830302 0.859494 0.301931
0.961595 0.866821 0.300985
0.000000 0.044922 0.168096
0.068467 0.056112 0.183693
0.170001 0.067324 0.193614
0.272584 0.078907 0.204252
0.378015 0.090208 0.215676
0.487416 0.100875 0.228689
0.601566 0.110661 0.241585
0.720932 0.119408 0.254037
0.036211 0.142869 0.211397
0.108483 0.155022 0.222983
0.198793 0.166956 0.234707
0.308142 0.178358 0.246185
0.421739 0.189000 0.258411
0.539959 0.198742 0.269886
0.662868 0.207530 0.280488
0.790216 0.215397 0.290180
0.071948 0.242359 0.253292
0.148204 0.257652 0.263974
0.228540 0.272196 0.273851
0.344209 0.283286 0.284122
0.464215 0.293468 0.293490
0.588216 0.302791 0.302035
0.715558 0.311388 0.309924
0.845270 0.319480 0.317406
0.097054 0.350529 0.288925
0.178877 0.365562 0.296689
0.265019 0.379619 0.304972
0.370529 0.392765 0.312679
0.494660 0.405151 0.320093
0.620865 0.414432 0.327580
0.747768 0.423512 0.335594
0.873774 0.432774 0.344613
0.113879 0.465187 0.315395
0.202315 0.479021 0.322788
0.294017 0.491947 0.330410
0.387830 0.504217 0.338745
0.513310 0.516181 0.348020
0.638770 0.528076 0.357320
0.764855 0.539790 0.365865
0.892214 0.548559 0.373274
0.135742 0.579904 0.342065
0.230258 0.591839 0.351419
0.324723 0.603730 0.360560
0.419403 0.615584 0.368696
0.530252 0.627231 0.375685
0.657643 0.638508 0.381518
0.786356 0.649280 0.386215
0.916549 0.659445 0.389826
0.166049 0.691617 0.371374
0.259963 0.703681 0.377942
0.354493 0.715487 0.383357
0.449980 0.726876 0.387652
0.546656 0.737723 0.390886
0.675615 0.747930 0.393151
0.805903 0.757428 0.394567
0.937429 0.766179 0.395284
0.189025 0.805041 0.388948
0.282980 0.816613 0.391817
0.378107 0.827565 0.393758
0.474498 0.837803 0.394901
0.572138 0.847268 0.395406
0.686387 0.855925 0.395465
0.817012 0.863774 0.395298
0.948189 0.870840 0.395154
0.002058 0.049058 0.239864
0.072208 0.059853 0.249369
0.158459 0.071257 0.259493
0.261704 0.082797 0.270863
0.368025 0.093916 0.283475
0.478440 0.104307 0.296753
0.593655 0.113754 0.310212
0.714067 0.122126 0.324744
0.040138 0.146997 0.278393
0.112726 0.159117 0.291310
0.188080 0.170901 0.304705
0.298098 0.182066 0.318126
0.412429 0.192414 0.331207
0.531380 0.201833 0.343668
0.654942 0.210301 0.356606
0.782792 0.217877 0.368623
0.075013 0.249330 0.325995
0.151768 0.264387 0.338878
0.232685 0.276064 0.351061
0.333462 0.286846 0.362381
0.453997 0.296726 0.372763
0.578393 0.305783 0.383505
0.705920 0.314180 0.393413
0.835537 0.322165 0.402665
0.098993 0.357449 0.369321
0.181445 0.372148 0.379359
0.268168 0.385884 0.388492
0.358656 0.398750 0.396845
0.483055 0.408347 0.405920
0.609263 0.417520 0.414723
0.735830 0.426620 0.423636
0.861468 0.435952 0.432952
0.115540 0.471703 0.402781
0.204681 0.485206 0.410428
0.296909 0.497876 0.417932
0.390997 0.509997 0.426997
0.500997 0.521933 0.436352
0.626535 0.533790 0.445543
0.752928 0.542816 0.453957
0.880636 0.551428 0.461436
0.138924 0.585666 0.431699
0.233421 0.597583 0.439744
0.327872 0.609472 0.448710
0.422624 0.621276 0.456791
0.518132 0.632814 0.463917
0.645712 0.643933 0.470055
0.774636 0.654509 0.475201
0.905034 0.664450 0.479382
0.168774 0.697437 0.459498
0.262650 0.709432 0.466267
0.357219 0.721112 0.472043
0.452796 0.732331 0.476833
0.549588 0.742969 0.480674
0.663180 0.752941 0.483631
0.793561 0.762189 0.485801
0.925132 0.770683 0.487309
0.190823 0.810738 0.478338
0.284830 0.822112 0.481848
0.380039 0.832829 0.484506
0.476520 0.842811 0.486419
0.574231 0.852003 0.487724
0.673023 0.860385 0.488585
0.803607 0.867963 0.489200
0.934648 0.874775 0.489794
0.005647 0.052647 0.305389
0.076018 0.063663 0.315115
0.147071 0.075200 0.325619
0.251011 0.086637 0.338119
0.358209 0.097539 0.352239
0.469610 0.107629 0.367334
0.585852 0.116721 0.382850
0.707256 0.124715 0.398318
0.044023 0.151129 0.346158
0.116948 0.163173 0.360703
0.192837 0.174774 0.376011
0.288033 0.185679 0.391559
0.403081 0.195720 0.406910
0.522731 0.204815 0.421715
0.646901 0.212968 0.435708
0.775196 0.220271 0.448712
0.077957 0.256228 0.400241
0.155227 0.268449 0.415430
0.236728 0.279828 0.429965
0.322602 0.290300 0.443614
0.443643 0.299888 0.456230
0.568395 0.308698 0.467752
0.696058 0.316923 0.478202
0.825517 0.324841 0.488980
0.100847 0.364255 0.451382
0.183939 0.378623 0.463603
0.271240 0.392048 0.474727
0.362173 0.402075 0.484809
0.471327 0.411494 0.493991
0.597494 0.420598 0.502497
0.723669 0.429768 0.511929
0.849156 0.439124 0.521285
0.117263 0.478100 0.491297
0.207113 0.491294 0.500202
0.299859 0.503742 0.508535
0.394179 0.515760 0.516631
0.488678 0.527678 0.524678
0.614379 0.536892 0.533756
0.741070 0.545795 0.542185
0.869113 0.554235 0.549861
0.142101 0.591424 0.522618
0.236573 0.603322 0.530629
0.331007 0.615204 0.538197
0.425833 0.626937 0.545071
0.521482 0.638348 0.552454
0.633761 0.649295 0.558997
0.762883 0.659664 0.564673
0.893472 0.666792 0.569481
0.171414 0.703240 0.550434
0.265262 0.715146 0.556226
0.359875 0.726685 0.561165
0.455542 0.737718 0.566523
0.552447 0.748138 0.571022
0.650664 0.757869 0.574704
0.781126 0.766863 0.577641
0.912723 0.775100 0.579933
0.192523 0.816372 0.569549
0.286590 0.827534 0.572454
0.381886 0.838009 0.575855
0.478456 0.847727 0.578543
0.576232 0.856645 0.580632
0.675041 0.864752 0.582261
0.790084 0.872064 0.583603
0.920969 0.878630 0.584858
0.009317 0.056317 0.370995
0.079895 0.067540 0.380927
0.151329 0.079123 0.392226
0.240478 0.090415 0.406202
0.348539 0.101068 0.422118
0.460901 0.110836 0.439262
0.578128 0.119562 0.457008
0.700473 0.127176 0.474818
0.047851 0.155249 0.414862
0.121133 0.167177 0.431303
0.197565 0.178566 0.448734
0.277934 0.189192 0.466561
0.393680 0.198916 0.484277
0.513997 0.207686 0.501461
0.638729 0.215537 0.517778
0.767411 0.222586 0.532980
0.080780 0.260465 0.476098
0.158579 0.272413 0.493664
0.240667 0.283486 0.510567
0.327110 0.293652 0.526503
0.433148 0.302959 0.541253
0.558220 0.311545 0.554685
0.685968 0.319630 0.566751
0.815204 0.327522 0.577491
0.102626 0.370949 0.535069
0.186366 0.384987 0.549350
0.274243 0.395536 0.562286
0.365604 0.405329 0.573861
0.459483 0.414604 0.584143
0.585566 0.423684 0.593289
0.711370 0.432950 0.601563
0.836837 0.442289 0.609611
0.119069 0.484384 0.580798
0.209632 0.497295 0.590644
0.302886 0.509557 0.599431
0.397357 0.521518 0.607550
0.491846 0.530831 0.615571
0.602289 0.539959 0.623329
0.729270 0.548719 0.630619
0.857635 0.556974 0.638608
0.145272 0.597175 0.613530
0.239695 0.609066 0.621491
0.334119 0.620919 0.629095
0.429023 0.632560 0.636182
0.524811 0.643828 0.642641
0.621781 0.654590 0.648388
0.751091 0.662162 0.654661
0.881854 0.669052 0.660147
0.173966 0.709019 0.641661
0.267796 0.720818 0.647869
0.362458 0.732199 0.653342
0.458217 0.743034 0.658040
0.555230 0.753228 0.661949
0.653547 0.762712 0.666378
0.768593 0.771449 0.670082
0.900199 0.779431 0.673139
0.194128 0.821938 0.662605
0.288262 0.832877 0.666229
0.383648 0.843101 0.669097
0.480305 0.852551 0.671265
0.578141 0.861193 0.674111
0.676956 0.869027 0.676463
0.776443 0.876078 0.678466
0.907155 0.882406 0.680297
0.013062 0.060062 0.436675
0.083837 0.071475 0.446828
0.155724 0.083011 0.459515
0.230081 0.094119 0.475280
0.338989 0.104494 0.493251
0.452284 0.113921 0.512643
0.570458 0.122273 0.532762
0.693689 0.129509 0.552997
0.051612 0.159343 0.484661
0.125271 0.171118 0.503235
0.202252 0.182269 0.522968
0.283271 0.192600 0.543195
0.384212 0.202001 0.563339
0.505163 0.210451 0.582908
0.630413 0.218012 0.601496
0.759422 0.224832 0.618784
0.083481 0.264615 0.553616
0.161824 0.276275 0.573603
0.244499 0.287040 0.592858
0.331500 0.296904 0.611005
0.422510 0.305946 0.627757
0.547863 0.314333 0.642910
0.675645 0.322314 0.656345
0.804594 0.330225 0.668030
0.104341 0.377528 0.620329
0.188739 0.388666 0.636517
0.277186 0.398937 0.651054
0.368958 0.408522 0.663851
0.463015 0.417690 0.674908
0.573487 0.426793 0.684308
0.699064 0.436128 0.692483
0.824531 0.445440 0.700510
0.120980 0.490564 0.671126
0.212260 0.503221 0.681565
0.306012 0.515335 0.690399
0.400528 0.524689 0.698463
0.495067 0.533962 0.706467
0.590255 0.542983 0.714336
0.717516 0.551585 0.721902
0.846188 0.559641 0.729019
0.148435 0.602919 0.704435
0.242782 0.614808 0.712406
0.337203 0.626609 0.720184
0.432185 0.638140 0.727603
0.528110 0.649250 0.734525
0.625249 0.657234 0.740845
0.739252 0.664582 0.746484
0.870174 0.671228 0.751395
0.176427 0.714768 0.733237
0.270249 0.726441 0.739951
0.364965 0.737649 0.746030
0.460815 0.748276 0.751408
0.557933 0.758235 0.756048
0.656342 0.767468 0.759943
0.755958 0.775948 0.763116
0.887556 0.781097 0.766909
0.195637 0.827432 0.756234
0.289847 0.838137 0.760602
0.385326 0.848104 0.764230
0.482069 0.857281 0.767151
0.579958 0.865648 0.769429
0.678769 0.873211 0.771155
0.778170 0.880009 0.773743
0.893203 0.886110 0.776054
0.016877 0.063877 0.502425
0.087872 0.075418 0.513183
0.160234 0.086848 0.527668
0.235280 0.097737 0.545508
0.329537 0.107810 0.565759
0.443737 0.116882 0.587569
0.562816 0.124855 0.610170
0.686879 0.131718 0.632884
0.055295 0.163396 0.555699
0.129349 0.174986 0.576611
0.206886 0.185876 0.598793
0.288549 0.195900 0.621510
0.374664 0.204977 0.644113
0.496216 0.213113 0.666041
0.621937 0.220401 0.686817
0.751214 0.227019 0.706049
0.086060 0.268671 0.632834
0.164961 0.280033 0.655252
0.248224 0.290488 0.676811
0.335771 0.300060 0.697066
0.427211 0.308857 0.715656
0.537323 0.317074 0.732308
0.665087 0.324989 0.746833
0.793684 0.332968 0.759126
0.106003 0.381416 0.707093
0.191068 0.392244 0.725005
0.280081 0.402257 0.740900
0.372246 0.411667 0.754620
0.466449 0.420769 0.766092
0.561266 0.429944 0.775330
0.686751 0.439300 0.783396
0.812355 0.448542 0.791436
0.123020 0.496647 0.762108
0.215019 0.509084 0.772761
0.309194 0.518517 0.781323
0.403692 0.527853 0.789369
0.498338 0.537063 0.797441
0.593749 0.545958 0.805555
0.705797 0.554388 0.813513
0.834762 0.562235 0.821144
0.151577 0.608659 0.795340
0.245826 0.620539 0.803451
0.340250 0.632268 0.811531
0.435314 0.643671 0.819388
0.531373 0.652028 0.826862
0.628675 0.659805 0.833820
0.727359 0.666920 0.840163
0.858423 0.673319 0.845817
0.178796 0.720480 0.825211
0.272618 0.732010 0.832511
0.367393 0.743033 0.839256
0.463335 0.753441 0.845354
0.560553 0.763158 0.850745
0.659045 0.772137 0.855397
0.758702 0.777780 0.859309
0.874790 0.782679 0.862507
0.197053 0.832850 0.850451
0.291346 0.843312 0.855576
0.386921 0.853015 0.859957
0.483748 0.861918 0.863604
0.581684 0.870009 0.866555
0.680481 0.877307 0.868880
0.779780 0.883859 0.870675
0.879115 0.889743 0.872068
