omv/luts/25_lonesome_road_ash.cube
# Original OMV LUT; redistribution permitted with OMV.
TITLE "Lonesome Road Ash"
LUT_3D_SIZE 8
DOMAIN_MIN 0.000000 0.000000 0.000000
DOMAIN_MAX 0.903226 0.903226 0.903226
0.002000 0.013000 0.027000
0.082449 0.026352 0.040352
0.164099 0.040905 0.054905
0.246576 0.056278 0.070277
0.331088 0.072064 0.085844
0.419285 0.087755 0.100979
0.511950 0.103039 0.115426
0.609587 0.117691 0.129011
0.051043 0.082723 0.075974
0.119364 0.106834 0.091419
0.205403 0.131253 0.106329
0.294661 0.147867 0.120478
0.387844 0.164130 0.133723
0.485377 0.179833 0.145998
0.587403 0.194845 0.157316
0.693785 0.209114 0.167770
0.104642 0.162934 0.125410
0.161723 0.188742 0.138305
0.253457 0.214156 0.150226
0.349220 0.238984 0.161215
0.449073 0.263111 0.171392
0.552798 0.278760 0.180954
0.659891 0.293711 0.190174
0.769569 0.308084 0.199405
0.152210 0.253792 0.165006
0.214544 0.280030 0.174932
0.296349 0.305457 0.184333
0.397324 0.330052 0.193513
0.501399 0.353870 0.202850
0.607708 0.377044 0.212802
0.715100 0.399785 0.223903
0.822143 0.414638 0.236764
0.192174 0.352271 0.196871
0.260311 0.377589 0.206375
0.331580 0.401948 0.216680
0.435999 0.425498 0.228347
0.541367 0.448464 0.242015
0.646671 0.471187 0.256993
0.752008 0.493825 0.271649
0.858382 0.516372 0.284631
0.232898 0.451594 0.233055
0.306831 0.474573 0.247476
0.381133 0.497262 0.262424
0.470840 0.520000 0.276595
0.576381 0.542870 0.288888
0.682839 0.565607 0.299314
0.790644 0.587976 0.307939
0.900096 0.609781 0.314865
0.281965 0.546387 0.281289
0.355116 0.569743 0.292897
0.428568 0.593110 0.302658
0.502851 0.616224 0.310650
0.609323 0.638861 0.316991
0.717277 0.660829 0.321833
0.826833 0.681980 0.325369
0.937981 0.702197 0.327826
0.321133 0.645145 0.313143
0.393385 0.668679 0.318918
0.466877 0.691575 0.323261
0.541830 0.713652 0.326375
0.633811 0.734768 0.328503
0.742767 0.754816 0.329925
0.853028 0.773727 0.330957
0.964271 0.791470 0.331954
0.006314 0.017314 0.059701
0.071805 0.031192 0.077450
0.153751 0.046041 0.096170
0.236633 0.061627 0.111779
0.322101 0.077421 0.127796
0.411371 0.093004 0.143813
0.505163 0.108095 0.159511
0.603917 0.122494 0.174654
0.056473 0.095963 0.113716
0.109681 0.120225 0.133646
0.196289 0.136918 0.149579
0.286249 0.153441 0.165098
0.380203 0.169533 0.179997
0.478511 0.185013 0.194147
0.581251 0.199774 0.207498
0.688221 0.213793 0.220078
0.109823 0.176840 0.170603
0.167396 0.202540 0.185239
0.244220 0.227773 0.199100
0.340576 0.252372 0.212164
0.440975 0.268508 0.224485
0.545132 0.283911 0.236198
0.652480 0.298649 0.247514
0.762168 0.312865 0.258720
0.156529 0.267902 0.216730
0.219431 0.293872 0.228810
0.286287 0.319015 0.240351
0.387698 0.343335 0.251589
0.492045 0.366916 0.262842
0.598396 0.389915 0.274502
0.705534 0.404829 0.287041
0.811963 0.419711 0.301005
0.196025 0.366095 0.255665
0.264760 0.391076 0.267017
0.336476 0.415140 0.278938
0.425641 0.438462 0.291928
0.530980 0.461303 0.306464
0.636253 0.483995 0.321414
0.741782 0.506615 0.335738
0.848523 0.529083 0.348479
0.237676 0.464606 0.297033
0.311918 0.487402 0.311918
0.386181 0.510066 0.326800
0.460377 0.532878 0.340563
0.566003 0.555732 0.352716
0.672628 0.578368 0.363254
0.780652 0.600566 0.372215
0.890341 0.622141 0.379668
0.286527 0.559413 0.345175
0.359512 0.582804 0.356738
0.432919 0.606113 0.366696
0.507245 0.629089 0.375098
0.598335 0.651517 0.382028
0.706415 0.673223 0.387612
0.816094 0.694068 0.392008
0.927328 0.713950 0.395416
0.324322 0.658309 0.377785
0.396569 0.681648 0.384209
0.470122 0.704285 0.389340
0.545169 0.726050 0.393352
0.621760 0.746813 0.396456
0.730782 0.766481 0.398903
0.841047 0.784996 0.400977
0.952202 0.802342 0.403004
0.010892 0.021892 0.092666
0.061269 0.036140 0.110785
0.143492 0.051266 0.129782
0.226955 0.066993 0.149638
0.313361 0.082752 0.170319
0.403676 0.098196 0.187508
0.498555 0.113070 0.204696
0.598374 0.127202 0.221586
0.061935 0.109271 0.147944
0.115528 0.125894 0.168813
0.187223 0.142563 0.189912
0.277877 0.158965 0.210893
0.372581 0.174866 0.227615
0.471631 0.190109 0.243756
0.575042 0.204618 0.259204
0.682544 0.218391 0.273923
0.114928 0.190720 0.209296
0.173002 0.216285 0.229695
0.234916 0.241317 0.249464
0.331850 0.257935 0.264647
0.432769 0.273819 0.279106
0.537322 0.288985 0.292913
0.644875 0.303526 0.306213
0.754514 0.317611 0.319231
0.160766 0.281924 0.266122
0.224241 0.307617 0.284202
0.291626 0.332477 0.297803
0.377971 0.356533 0.310971
0.482559 0.379894 0.323957
0.588909 0.395005 0.337091
0.695739 0.409868 0.350781
0.801581 0.424807 0.365452
0.199890 0.379802 0.315704
0.269222 0.404456 0.328702
0.341374 0.428245 0.341987
0.415263 0.451369 0.355995
0.520584 0.474133 0.370907
0.625835 0.496792 0.385804
0.731638 0.519387 0.399818
0.838734 0.534008 0.412503
0.242663 0.477502 0.361372
0.316994 0.500220 0.376349
0.391192 0.522904 0.391056
0.465368 0.545761 0.404594
0.555598 0.568568 0.416780
0.662387 0.591078 0.427580
0.770620 0.613084 0.437000
0.880532 0.634413 0.445080
0.290958 0.572462 0.409189
0.363795 0.595855 0.420873
0.437169 0.619077 0.431168
0.511544 0.641889 0.440093
0.587251 0.664090 0.447704
0.695454 0.685517 0.454093
0.805244 0.706044 0.459391
0.916547 0.725583 0.463765
0.327370 0.671414 0.443012
0.399629 0.694536 0.450166
0.473252 0.716894 0.456140
0.548395 0.738332 0.461080
0.625080 0.758731 0.465167
0.718675 0.778012 0.468619
0.828932 0.796131 0.471692
0.939980 0.813081 0.474679
0.015617 0.026617 0.125778
0.066317 0.041187 0.144220
0.133324 0.056574 0.163485
0.217514 0.072361 0.184042
0.304840 0.088047 0.205831
0.396171 0.103321 0.228327
0.492097 0.117959 0.251088
0.592930 0.131813 0.269883
0.067413 0.114888 0.182710
0.121405 0.131567 0.204813
0.178189 0.148177 0.227452
0.269527 0.164431 0.250217
0.364960 0.180122 0.272772
0.464720 0.195120 0.294865
0.568756 0.209375 0.312446
0.676733 0.222913 0.329288
0.119952 0.204562 0.249316
0.178537 0.229967 0.271729
0.241021 0.247041 0.293605
0.323036 0.263413 0.314795
0.424449 0.279047 0.335229
0.529359 0.293987 0.351042
0.637068 0.308349 0.366187
0.746596 0.322332 0.380826
0.164926 0.295855 0.313172
0.228980 0.321266 0.333328
0.296886 0.345845 0.352755
0.368145 0.369649 0.371564
0.472943 0.385071 0.386074
0.579250 0.400065 0.400420
0.685719 0.414918 0.414947
0.791186 0.429895 0.429895
0.203783 0.393394 0.369142
0.273713 0.417736 0.387428
0.346288 0.441273 0.405668
0.420360 0.464231 0.420360
0.510178 0.486952 0.435339
0.615479 0.509589 0.450106
0.721562 0.524390 0.463989
0.829001 0.538882 0.476786
0.247758 0.490339 0.421952
0.322059 0.513027 0.440769
0.396156 0.535768 0.455280
0.470321 0.558638 0.468779
0.545157 0.581370 0.481159
0.652106 0.603730 0.492357
0.760540 0.625523 0.502346
0.870661 0.646590 0.511140
0.295255 0.585522 0.473420
0.367962 0.608886 0.485375
0.441313 0.631994 0.496134
0.515744 0.654619 0.505684
0.591553 0.676573 0.514052
0.684388 0.697707 0.521299
0.794279 0.717907 0.527524
0.905634 0.737096 0.532866
0.330280 0.684454 0.508865
0.402565 0.707336 0.516815
0.476267 0.729397 0.523677
0.551511 0.750493 0.529563
0.628287 0.770520 0.534624
0.706448 0.789410 0.539049
0.816682 0.807130 0.543063
0.927605 0.823689 0.546928
0.020463 0.031463 0.159012
0.071458 0.046329 0.177748
0.123337 0.061924 0.197427
0.208283 0.077717 0.219041
0.296512 0.093293 0.242224
0.388830 0.108373 0.266391
0.485763 0.122757 0.291038
0.587557 0.136326 0.315740
0.072894 0.120539 0.218181
0.127297 0.137231 0.241785
0.184656 0.153749 0.266181
0.261183 0.169831 0.290893
0.357325 0.185297 0.315525
0.457761 0.200045 0.339758
0.562377 0.214049 0.363352
0.670772 0.227363 0.386144
0.124890 0.218358 0.290737
0.183995 0.235838 0.315257
0.247046 0.252683 0.339281
0.314128 0.268804 0.362598
0.416009 0.284194 0.385072
0.521238 0.298921 0.406647
0.629053 0.313129 0.427341
0.738407 0.327041 0.443382
0.169015 0.309691 0.361731
0.233652 0.334818 0.383880
0.302072 0.359124 0.405128
0.373709 0.374950 0.425522
0.463203 0.390198 0.445188
0.569423 0.405108 0.464327
0.675475 0.419993 0.479348
0.780780 0.434974 0.494328
0.207721 0.406875 0.423606
0.278249 0.430923 0.443052
0.351234 0.454234 0.462065
0.425456 0.477069 0.480940
0.499759 0.499759 0.499759
0.605185 0.514636 0.514409
0.711539 0.529357 0.528341
0.819308 0.543696 0.541406
0.252845 0.503167 0.478651
0.327097 0.525831 0.497421
0.401066 0.548647 0.515702
0.475226 0.571498 0.533204
0.550154 0.594128 0.545926
0.641777 0.616316 0.557643
0.750402 0.637879 0.568300
0.860717 0.650928 0.577878
0.299417 0.598583 0.530205
0.372010 0.621887 0.546441
0.445350 0.644854 0.561648
0.519842 0.667271 0.571912
0.595752 0.688962 0.581099
0.673214 0.709789 0.589241
0.783194 0.729652 0.596408
0.894585 0.748488 0.602705
0.333054 0.697419 0.571510
0.405380 0.720041 0.584182
0.479170 0.741788 0.591959
0.554518 0.762532 0.598795
0.631382 0.782178 0.604809
0.709586 0.800672 0.610161
0.804300 0.817995 0.615045
0.915078 0.834168 0.619692
0.025417 0.036417 0.192352
0.076687 0.051558 0.211365
0.129026 0.067291 0.231817
0.199237 0.083047 0.254797
0.288351 0.098482 0.279634
0.381626 0.113343 0.305679
0.479525 0.127460 0.332367
0.582228 0.140739 0.359209
0.078363 0.126208 0.254509
0.133190 0.142875 0.279856
0.191126 0.159270 0.306197
0.252832 0.175159 0.332994
0.349659 0.190389 0.359786
0.450738 0.204883 0.386191
0.555888 0.218643 0.411907
0.664645 0.231748 0.436706
0.129739 0.224357 0.333619
0.189372 0.241636 0.360310
0.252989 0.258241 0.386496
0.320606 0.274111 0.411900
0.407443 0.289264 0.436324
0.512953 0.303794 0.459647
0.620823 0.317873 0.481825
0.729942 0.331749 0.502891
0.173041 0.323431 0.411762
0.238264 0.348275 0.435796
0.307189 0.364575 0.458703
0.379186 0.380183 0.480468
0.453342 0.395286 0.501152
0.559433 0.410148 0.520894
0.665089 0.425089 0.539928
0.770362 0.440040 0.558749
0.211722 0.420250 0.478966
0.282846 0.444024 0.499287
0.356228 0.467138 0.518736
0.430543 0.489898 0.537640
0.504820 0.504814 0.556421
0.594937 0.519665 0.574938
0.701556 0.534280 0.592958
0.809642 0.548444 0.606435
0.257921 0.515985 0.535340
0.332063 0.538671 0.554056
0.405913 0.561530 0.572414
0.480076 0.584333 0.590208
0.555099 0.606836 0.607276
0.631392 0.628830 0.623493
0.740198 0.642403 0.634901
0.850692 0.655164 0.645322
0.303440 0.611633 0.587362
0.375935 0.634849 0.604132
0.449276 0.657651 0.620016
0.523834 0.679839 0.634939
0.599846 0.701250 0.648867
0.677413 0.721759 0.657929
0.771986 0.741279 0.666037
0.883395 0.759758 0.673265
0.335695 0.710303 0.630975
0.408076 0.732644 0.644538
0.481963 0.754064 0.657117
0.557418 0.774443 0.668765
0.634368 0.793702 0.675699
0.712606 0.811799 0.681918
0.791787 0.828728 0.687587
0.902400 0.844520 0.692907
0.030470 0.041470 0.225792
0.082005 0.056869 0.245089
0.134884 0.072658 0.266833
0.190352 0.088339 0.291462
0.280332 0.103603 0.318183
0.374535 0.118227 0.346287
0.473358 0.132066 0.375143
0.576917 0.145053 0.404200
0.083808 0.131881 0.291836
0.139072 0.148487 0.319138
0.197584 0.164732 0.347585
0.259943 0.180411 0.376574
0.341949 0.195395 0.405582
0.443637 0.209636 0.434166
0.549275 0.223161 0.461955
0.658334 0.236074 0.488662
0.134498 0.230294 0.378006
0.194668 0.247355 0.406908
0.258845 0.263714 0.435240
0.326981 0.279335 0.462665
0.398747 0.294262 0.488920
0.504499 0.308615 0.513820
0.612373 0.322593 0.537258
0.721194 0.336471 0.559202
0.177011 0.337074 0.463219
0.242824 0.353896 0.488998
0.312246 0.369945 0.513374
0.384581 0.385357 0.536268
0.458852 0.400344 0.557676
0.549284 0.415198 0.577675
0.654693 0.430177 0.596629
0.759953 0.445090 0.615418
0.215804 0.433524 0.535080
0.287521 0.457048 0.555963
0.361288 0.479997 0.575481
0.435620 0.494975 0.594330
0.509912 0.509869 0.613098
0.584724 0.524666 0.631786
0.691600 0.539150 0.650177
0.799991 0.553118 0.668066
0.262984 0.528791 0.592016
0.336946 0.551536 0.610770
0.410691 0.574406 0.629376
0.484865 0.597133 0.647606
0.559983 0.619484 0.665269
0.636426 0.633523 0.682210
0.729921 0.646833 0.698310
0.840579 0.659294 0.713490
0.307323 0.624662 0.644960
0.379738 0.647763 0.662376
0.453089 0.670377 0.679022
0.527719 0.692317 0.694795
0.603831 0.713434 0.709628
0.681497 0.733615 0.723493
0.760651 0.752785 0.736398
0.872062 0.763165 0.744517
0.338206 0.723098 0.691155
0.410656 0.745141 0.705637
0.484648 0.766219 0.719150
0.560213 0.786225 0.731714
0.637247 0.805092 0.743391
0.715510 0.822791 0.754276
0.794627 0.839328 0.760632
0.889573 0.854749 0.766502
0.035616 0.046616 0.259326
0.087450 0.062221 0.279238
0.140886 0.078013 0.302640
0.197088 0.093582 0.329173
0.272433 0.108650 0.357982
0.367533 0.123020 0.388295
0.467237 0.136573 0.419419
0.571598 0.149270 0.450739
0.089217 0.137545 0.330289
0.144930 0.154056 0.359731
0.204020 0.170128 0.390415
0.267020 0.185581 0.421678
0.334182 0.200315 0.452932
0.436443 0.214306 0.483668
0.542522 0.227607 0.513456
0.651826 0.240351 0.541942
0.139165 0.236162 0.423934
0.199879 0.252993 0.455055
0.264612 0.269101 0.485492
0.333252 0.284477 0.514842
0.405404 0.299192 0.542781
0.495873 0.313392 0.569059
0.603700 0.327301 0.593505
0.712158 0.341221 0.616025
0.180935 0.342879 0.516041
0.247340 0.359428 0.543399
0.317249 0.375241 0.569026
0.389902 0.390481 0.592778
0.464255 0.405387 0.614588
0.538985 0.420275 0.634468
0.644287 0.435255 0.653319
0.749672 0.450108 0.672131
0.219985 0.446706 0.591793
0.292295 0.470005 0.612895
0.366383 0.485093 0.632190
0.440684 0.500039 0.651007
0.515029 0.514915 0.669884
0.590018 0.529631 0.688909
0.681659 0.543961 0.707812
0.790341 0.557714 0.726359
0.268010 0.541597 0.648694
0.341740 0.564415 0.667656
0.415392 0.587265 0.686667
0.489584 0.609889 0.705466
0.564800 0.624324 0.723831
0.641388 0.638131 0.741576
0.719562 0.651165 0.758555
0.830368 0.663318 0.774656
0.311065 0.637661 0.703061
0.383415 0.660620 0.721220
0.456788 0.683024 0.738702
0.531494 0.704700 0.755372
0.607706 0.725510 0.771133
0.685464 0.745354 0.785927
0.764672 0.756429 0.799731
0.860583 0.766450 0.812562
0.340590 0.735797 0.752068
0.413124 0.757526 0.767482
0.487229 0.778250 0.781916
0.562907 0.797875 0.795362
0.640021 0.816347 0.807848
0.718301 0.833649 0.819441
0.797341 0.849800 0.830245
0.876598 0.864858 0.840399
