omv/luts/25_lonesome_road_ash.cube
# Original OMV LUT; redistribution permitted with OMV.
TITLE "Lonesome Road Ash"
LUT_3D_SIZE 32
DOMAIN_MIN 0.0 0.0 0.0
DOMAIN_MAX 1.0 1.0 1.0
0.002000 0.013000 0.027000
0.021912 0.016138 0.030138
0.042003 0.019455 0.033455
0.062188 0.022866 0.036866
0.082449 0.026352 0.040352
0.102775 0.029904 0.043904
0.123161 0.033516 0.047516
0.143603 0.037184 0.051184
0.164099 0.040905 0.054905
0.184645 0.044677 0.058677
0.205240 0.048498 0.062498
0.225882 0.052366 0.066366
0.246576 0.056278 0.070277
0.267412 0.060213 0.074192
0.288431 0.064160 0.078095
0.309651 0.068113 0.081980
0.331088 0.072064 0.085844
0.352756 0.076009 0.089679
0.374670 0.079943 0.093483
0.396843 0.083859 0.097251
0.419285 0.087755 0.100979
0.442008 0.091624 0.104663
0.465021 0.095464 0.108301
0.488332 0.099270 0.111889
0.511950 0.103039 0.115426
0.535879 0.106769 0.118908
0.560126 0.110455 0.122334
0.584694 0.114097 0.125702
0.609587 0.117691 0.129011
0.634806 0.121235 0.132260
0.660351 0.124729 0.135449
0.686224 0.128171 0.138576
0.013127 0.029288 0.038127
0.029541 0.034735 0.041638
0.049889 0.040244 0.045212
0.070297 0.043877 0.048845
0.090759 0.047565 0.052533
0.111273 0.051305 0.056273
0.131837 0.055095 0.060063
0.152449 0.058933 0.063901
0.173108 0.062818 0.067786
0.193833 0.066744 0.071703
0.214693 0.070696 0.075614
0.235710 0.074667 0.079512
0.256903 0.078651 0.083390
0.278289 0.082641 0.087243
0.299882 0.086631 0.091068
0.321698 0.090615 0.094859
0.343750 0.094589 0.098613
0.366050 0.098548 0.102325
0.388611 0.102486 0.105993
0.411442 0.106400 0.109613
0.434552 0.110286 0.113183
0.457950 0.114140 0.116700
0.481643 0.117959 0.120162
0.505636 0.121739 0.123567
0.529935 0.125478 0.126914
0.554543 0.129174 0.130201
0.579463 0.132825 0.133428
0.604697 0.136429 0.136594
0.630244 0.139983 0.139699
0.656105 0.143488 0.142743
0.682277 0.146942 0.145726
0.708757 0.150345 0.148648
0.025181 0.046504 0.050181
0.037921 0.052147 0.053888
0.058453 0.057841 0.057647
0.079035 0.063584 0.061455
0.099665 0.069374 0.065310
0.120340 0.073275 0.069211
0.141090 0.077218 0.073128
0.161953 0.081193 0.077035
0.182948 0.085195 0.080926
0.204094 0.089216 0.084796
0.225409 0.093249 0.088639
0.246908 0.097290 0.092452
0.268608 0.101331 0.096230
0.290522 0.105367 0.099969
0.312664 0.109393 0.103666
0.335047 0.113405 0.107317
0.357680 0.117398 0.110919
0.380575 0.121368 0.114470
0.403740 0.125310 0.117967
0.427183 0.129222 0.121408
0.450911 0.133099 0.124792
0.474929 0.136940 0.128118
0.499242 0.140741 0.131383
0.523853 0.144501 0.134588
0.548765 0.148216 0.137732
0.573978 0.151886 0.140814
0.599494 0.155509 0.143836
0.625311 0.159083 0.146797
0.651426 0.162609 0.149698
0.677838 0.166086 0.152540
0.704541 0.169512 0.155324
0.731530 0.172890 0.158053
0.037853 0.064337 0.062853
0.050757 0.070144 0.066725
0.067579 0.075998 0.070638
0.088337 0.081898 0.074552
0.109181 0.087838 0.078454
0.130133 0.093812 0.082338
0.151213 0.099811 0.086198
0.172437 0.103894 0.090031
0.193824 0.107989 0.093832
0.215390 0.112092 0.097596
0.237150 0.116195 0.101320
0.259118 0.120294 0.105000
0.281307 0.124384 0.108634
0.303729 0.128460 0.112218
0.326394 0.132517 0.115749
0.349313 0.136552 0.119226
0.372494 0.140560 0.122647
0.395944 0.144538 0.126010
0.419670 0.148483 0.129313
0.443677 0.152392 0.132557
0.467970 0.156263 0.135740
0.492551 0.160093 0.138861
0.517423 0.163880 0.141921
0.542586 0.167623 0.144921
0.568041 0.171320 0.147860
0.593785 0.174971 0.150739
0.619817 0.178573 0.153560
0.646133 0.182128 0.156324
0.672729 0.185635 0.159033
0.699599 0.189094 0.161689
0.726735 0.192506 0.164294
0.754132 0.195871 0.166851
0.051043 0.082723 0.075974
0.064107 0.088698 0.079870
0.077255 0.094714 0.083746
0.098248 0.100761 0.087597
0.119364 0.106834 0.091419
0.140621 0.112926 0.095207
0.162036 0.119030 0.098957
0.183625 0.125141 0.102665
0.205403 0.131253 0.106329
0.227384 0.135425 0.109944
0.249579 0.139588 0.113509
0.272002 0.143736 0.117021
0.294661 0.147867 0.120478
0.317568 0.151975 0.123878
0.340729 0.156057 0.127219
0.364152 0.160110 0.130501
0.387844 0.164130 0.133723
0.411809 0.168114 0.136883
0.436051 0.172061 0.139982
0.460573 0.175968 0.143020
0.485377 0.179833 0.145998
0.510463 0.183654 0.148915
0.535830 0.187430 0.151773
0.561478 0.191161 0.154573
0.587403 0.194845 0.157316
0.613602 0.198482 0.160006
0.640069 0.202073 0.162643
0.666799 0.205616 0.165230
0.693785 0.209114 0.167770
0.721018 0.212566 0.170267
0.748490 0.215974 0.172723
0.776189 0.219340 0.175142
0.064544 0.101748 0.088992
0.077791 0.107881 0.092802
0.091159 0.114038 0.096577
0.108536 0.120213 0.100312
0.129938 0.126401 0.104004
0.151511 0.132594 0.107651
0.173268 0.138788 0.111248
0.195224 0.144977 0.114794
0.217390 0.151157 0.118286
0.239778 0.157322 0.121723
0.262399 0.163469 0.125101
0.285260 0.167658 0.128421
0.308370 0.171821 0.131681
0.331737 0.175954 0.134880
0.355365 0.180055 0.138019
0.379260 0.184121 0.141095
0.403425 0.188150 0.144111
0.427862 0.192138 0.147067
0.452574 0.196085 0.149962
0.477559 0.199989 0.152799
0.502818 0.203848 0.155578
0.528348 0.207663 0.158302
0.554147 0.211431 0.160972
0.580210 0.215153 0.163590
0.606532 0.218829 0.166160
0.633106 0.222460 0.168684
0.659926 0.226044 0.171165
0.686983 0.229585 0.173607
0.714267 0.233082 0.176014
0.741767 0.236538 0.178390
0.769472 0.239954 0.180738
0.797369 0.243332 0.183065
0.078106 0.121451 0.101661
0.091564 0.127719 0.105337
0.105174 0.133998 0.108966
0.118952 0.140282 0.112545
0.140655 0.146566 0.116072
0.162552 0.152844 0.119544
0.184657 0.159113 0.122959
0.206980 0.165366 0.126317
0.229531 0.171600 0.129615
0.252319 0.177812 0.132853
0.275351 0.183997 0.136030
0.298634 0.190152 0.139146
0.322174 0.196275 0.142200
0.345975 0.200427 0.145194
0.370040 0.204540 0.148128
0.394371 0.208615 0.151001
0.418969 0.212647 0.153817
0.443835 0.216636 0.156576
0.468967 0.220582 0.159280
0.494363 0.224482 0.161931
0.520019 0.228336 0.164531
0.545931 0.232145 0.167084
0.572095 0.235908 0.169592
0.598502 0.239625 0.172059
0.625145 0.243298 0.174488
0.652015 0.246927 0.176882
0.679103 0.250513 0.179248
0.706397 0.254058 0.181588
0.733885 0.257564 0.183907
0.761554 0.261033 0.186212
0.789390 0.264468 0.188506
0.817377 0.267871 0.190797
0.091526 0.141845 0.113835
0.105220 0.148228 0.117342
0.119094 0.154608 0.120794
0.133162 0.160983 0.124188
0.151306 0.167346 0.127524
0.173536 0.173693 0.130801
0.195992 0.180020 0.134017
0.218681 0.186324 0.137171
0.241611 0.192600 0.140265
0.264789 0.198846 0.143297
0.288219 0.205058 0.146269
0.311905 0.211234 0.149181
0.335851 0.217372 0.152033
0.360058 0.223470 0.154828
0.384527 0.229526 0.157567
0.409258 0.233603 0.160251
0.434248 0.237635 0.162883
0.459497 0.241622 0.165466
0.484999 0.245563 0.168002
0.510750 0.249458 0.170495
0.536745 0.253308 0.172947
0.562975 0.257112 0.175363
0.589435 0.260871 0.177747
0.616113 0.264587 0.180102
0.642999 0.268260 0.182434
0.670084 0.271893 0.184748
0.697353 0.275486 0.187048
0.724793 0.279044 0.189340
0.752390 0.282567 0.191631
0.780128 0.286059 0.193926
0.807989 0.289522 0.196231
0.835956 0.292962 0.198554
0.104642 0.162934 0.125410
0.118596 0.169409 0.128724
0.132754 0.175872 0.131979
0.147127 0.182317 0.135172
0.161723 0.188742 0.138305
0.184293 0.195141 0.141376
0.207101 0.201512 0.144386
0.230154 0.207851 0.147336
0.253457 0.214156 0.150226
0.277013 0.220423 0.153057
0.300824 0.226652 0.155831
0.324893 0.232839 0.158550
0.349220 0.238984 0.161215
0.373803 0.245084 0.163829
0.398642 0.251139 0.166395
0.423734 0.257149 0.168915
0.449073 0.263111 0.171392
0.474657 0.267092 0.173831
0.500477 0.271027 0.176234
0.526527 0.274916 0.178607
0.552798 0.278760 0.180954
0.579282 0.282560 0.183278
0.605966 0.286317 0.185586
0.632840 0.290034 0.187883
0.659891 0.293711 0.190174
0.687105 0.297352 0.192465
0.714467 0.300959 0.194763
0.741961 0.304535 0.197074
0.769569 0.308084 0.199405
0.797273 0.311607 0.201763
0.825054 0.315110 0.204156
0.852891 0.318597 0.206590
0.117332 0.184705 0.136320
0.131569 0.191253 0.139430
0.146029 0.197777 0.142479
0.160720 0.204274 0.145467
0.175648 0.210742 0.148395
0.194691 0.217176 0.151263
0.217852 0.223575 0.154074
0.241265 0.229935 0.156828
0.264931 0.236255 0.159526
0.288851 0.242532 0.162173
0.313027 0.248765 0.164769
0.337456 0.254953 0.167317
0.362136 0.261094 0.169821
0.387065 0.267189 0.172284
0.412238 0.273236 0.174710
0.437650 0.279236 0.177102
0.463294 0.285189 0.179464
0.489162 0.291096 0.181802
0.515246 0.296956 0.184120
0.541536 0.300837 0.186423
0.568021 0.304674 0.188717
0.594690 0.308470 0.191008
0.621528 0.312227 0.193301
0.648521 0.315946 0.195603
0.675655 0.319632 0.197920
0.702913 0.323286 0.200260
0.730277 0.326911 0.202630
0.757729 0.330512 0.205037
0.785249 0.334093 0.207489
0.812815 0.337657 0.209994
0.840407 0.341209 0.212562
0.868001 0.344753 0.215200
0.129513 0.207135 0.146540
0.144053 0.213732 0.149446
0.158831 0.220297 0.152293
0.173853 0.226827 0.155083
0.189121 0.233320 0.157816
0.204640 0.239772 0.160496
0.228152 0.246182 0.163123
0.251918 0.252548 0.165702
0.275937 0.258869 0.168234
0.300207 0.265142 0.170723
0.324726 0.271368 0.173171
0.349491 0.277546 0.175584
0.374497 0.283675 0.177965
0.399737 0.289755 0.180318
0.425207 0.295787 0.182648
0.450896 0.301771 0.184960
0.476797 0.307708 0.187259
0.502899 0.313600 0.189551
0.529191 0.319447 0.191842
0.555661 0.325253 0.194137
0.582295 0.331018 0.196444
0.609078 0.334809 0.198769
0.635996 0.338566 0.201119
0.663030 0.342290 0.203501
0.690164 0.345986 0.205924
0.717378 0.349657 0.208394
0.744652 0.353306 0.210921
0.771965 0.356939 0.213513
0.799295 0.360558 0.216179
0.826618 0.364171 0.218928
0.853911 0.367780 0.221770
0.881146 0.371393 0.224714
0.141140 0.230181 0.156084
0.156004 0.236807 0.158798
0.171115 0.243393 0.161458
0.186476 0.249936 0.164068
0.202090 0.256435 0.166629
0.217957 0.262887 0.169145
0.237946 0.269293 0.171619
0.262057 0.275649 0.174054
0.286416 0.281956 0.176454
0.311019 0.288212 0.178825
0.335860 0.294418 0.181169
0.360935 0.300574 0.183492
0.386235 0.306680 0.185798
0.411752 0.312737 0.188094
0.437478 0.318745 0.190385
0.463401 0.324706 0.192677
0.489511 0.330622 0.194976
0.515793 0.336494 0.197288
0.542235 0.342325 0.199621
0.568822 0.348116 0.201982
0.595538 0.353871 0.204378
0.622365 0.359594 0.206817
0.649286 0.365286 0.209307
0.676280 0.369017 0.211857
0.703329 0.372725 0.214475
0.730409 0.376416 0.217170
0.757499 0.380094 0.219952
0.784575 0.383763 0.222829
0.811612 0.387429 0.225813
0.838585 0.391097 0.228913
0.865465 0.394773 0.232139
0.892225 0.398464 0.235503
0.152210 0.253792 0.165006
0.167414 0.260423 0.167550
0.182871 0.267008 0.170050
0.198581 0.273544 0.172509
0.214544 0.280030 0.174932
0.230757 0.286465 0.177321
0.247218 0.292848 0.179681
0.271664 0.299179 0.182017
0.296349 0.305457 0.184333
0.321265 0.311683 0.186635
0.346406 0.317857 0.188929
0.371762 0.323980 0.191219
0.397324 0.330052 0.193513
0.423081 0.336075 0.195816
0.449022 0.342052 0.198135
0.475132 0.347982 0.200477
0.501399 0.353870 0.202850
0.527807 0.359717 0.205261
0.554340 0.365526 0.207717
0.580980 0.371301 0.210228
0.607708 0.377044 0.212802
0.634506 0.382760 0.215447
0.661352 0.388452 0.218172
0.688224 0.394126 0.220988
0.715100 0.399785 0.223903
0.741956 0.403499 0.226927
0.768766 0.407209 0.230072
0.795504 0.410920 0.233347
0.822143 0.414638 0.236764
0.848655 0.418369 0.240333
0.875022 0.422118 0.244054
0.901352 0.425868 0.247804
0.162757 0.277897 0.173395
0.178316 0.284512 0.175805
0.194129 0.291074 0.178183
0.210194 0.297582 0.180534
0.226508 0.304036 0.182862
0.243066 0.310435 0.185173
0.259862 0.316779 0.187471
0.280761 0.323068 0.189763
0.305755 0.329302 0.192053
0.330964 0.335483 0.194350
0.356378 0.341611 0.196658
0.381986 0.347688 0.198984
0.407775 0.353716 0.201337
0.433733 0.359696 0.203723
0.459845 0.365631 0.206149
0.486096 0.371523 0.208625
0.512468 0.377376 0.211158
0.538944 0.383192 0.213756
0.565505 0.388975 0.216429
0.592131 0.394729 0.219186
0.618802 0.400458 0.222037
0.645495 0.406166 0.224991
0.672186 0.411858 0.228058
0.698852 0.417539 0.231249
0.725467 0.423214 0.234574
0.752005 0.428890 0.238045
0.778437 0.434571 0.241673
0.804774 0.438323 0.245420
0.831104 0.442071 0.249168
0.857428 0.445815 0.252911
0.883746 0.449552 0.256649
0.910058 0.453284 0.260380
0.172852 0.302414 0.181384
0.188780 0.308989 0.183705
0.204959 0.315506 0.186010
0.221384 0.321966 0.188306
0.238048 0.328367 0.190596
0.254946 0.334711 0.192888
0.272068 0.340998 0.195188
0.289406 0.347228 0.197502
0.314691 0.353403 0.199838
0.340170 0.359524 0.202201
0.365831 0.365593 0.204601
0.391659 0.371612 0.207045
0.417639 0.377583 0.209540
0.443757 0.383510 0.212095
0.469995 0.389394 0.214720
0.496335 0.395240 0.217423
0.522758 0.401050 0.220213
0.549243 0.406829 0.223100
0.575769 0.412581 0.226094
0.602315 0.418310 0.229205
0.628855 0.424021 0.232443
0.655366 0.429719 0.235820
0.681821 0.435409 0.239347
0.708195 0.441098 0.243034
0.734527 0.446785 0.246785
0.760854 0.452467 0.250532
0.787176 0.458144 0.254273
0.813492 0.463815 0.258008
0.839801 0.469479 0.261737
0.866107 0.473200 0.265454
0.892479 0.476914 0.269082
0.918951 0.480617 0.272592
0.182608 0.327243 0.189140
0.198917 0.333754 0.191430
0.215468 0.340205 0.193724
0.232255 0.346594 0.196029
0.249268 0.352923 0.198350
0.266499 0.359192 0.200694
0.283937 0.365403 0.203070
0.301569 0.371558 0.205485
0.323255 0.377657 0.207947
0.348979 0.383703 0.210463
0.374857 0.389699 0.213043
0.400871 0.395647 0.215695
0.427005 0.401550 0.218428
0.453240 0.407412 0.221252
0.479556 0.413236 0.224177
0.505934 0.419026 0.227212
0.532351 0.424786 0.230368
0.558785 0.430521 0.233656
0.585211 0.436236 0.237086
0.611605 0.441936 0.240670
0.637948 0.447626 0.244400
0.664279 0.453311 0.248149
0.690604 0.458991 0.251894
0.716924 0.464666 0.255634
0.743238 0.470334 0.259367
0.769544 0.475996 0.263093
0.795860 0.481651 0.266789
0.822248 0.487303 0.270374
0.848722 0.492946 0.273840
0.875289 0.498579 0.277188
0.901957 0.504196 0.280417
0.928732 0.507860 0.283528
0.192174 0.352271 0.196871
0.208874 0.358695 0.199200
0.225803 0.365056 0.201555
0.242952 0.371353 0.203945
0.260311 0.377589 0.206375
0.277867 0.383764 0.208856
0.295607 0.389881 0.211394
0.313516 0.395941 0.213999
0.331580 0.401948 0.216680
0.357524 0.407904 0.219445
0.383587 0.413812 0.222305
0.409752 0.419676 0.225268
0.435999 0.425498 0.228347
0.462306 0.431284 0.231549
0.488653 0.437037 0.234888
0.515014 0.442762 0.238373
0.541367 0.448464 0.242015
0.567701 0.454152 0.245765
0.594030 0.459836 0.249513
0.620353 0.465514 0.253256
0.646671 0.471187 0.256993
0.672982 0.476853 0.260724
0.699286 0.482512 0.264447
0.725615 0.488169 0.268108
0.752008 0.493825 0.271649
0.778473 0.499478 0.275073
0.805019 0.505122 0.278377
0.831653 0.510755 0.281563
0.858382 0.516372 0.284631
0.885213 0.521969 0.287581
0.912152 0.527544 0.290414
0.939205 0.533093 0.293130
0.201740 0.377371 0.204824
0.218838 0.383683 0.207272
0.236148 0.389930 0.209773
0.253659 0.396113 0.212334
0.271358 0.402234 0.214966
0.289228 0.408295 0.217676
0.307256 0.414299 0.220475
0.325423 0.420248 0.223371
0.343712 0.426145 0.226375
0.365975 0.431995 0.229498
0.392192 0.437800 0.232749
0.418470 0.443565 0.236139
0.444788 0.449294 0.239680
0.471122 0.454993 0.243380
0.497453 0.460679 0.247130
0.523780 0.466361 0.250877
0.550101 0.472037 0.254618
0.576417 0.477707 0.258352
0.602726 0.483371 0.262080
0.629030 0.489028 0.265794
0.655367 0.494690 0.269411
0.681753 0.500354 0.272909
0.708200 0.506019 0.276289
0.734714 0.511678 0.279551
0.761304 0.517328 0.282694
0.787977 0.522966 0.285718
0.814741 0.528587 0.288626
0.841602 0.534188 0.291416
0.868565 0.539766 0.294090
0.895636 0.545318 0.296649
0.922820 0.550840 0.299094
0.950121 0.556329 0.301426
0.211532 0.402399 0.213284
0.229034 0.408575 0.215943
0.246728 0.414685 0.218684
0.264597 0.420731 0.221517
0.282627 0.426715 0.224452
0.300801 0.432641 0.227498
0.319099 0.438512 0.230666
0.337503 0.444330 0.233966
0.355992 0.450101 0.237410
0.374544 0.455828 0.241009
0.400875 0.461520 0.244746
0.427205 0.467205 0.248495
0.453530 0.472884 0.252239
0.479849 0.478559 0.255978
0.506162 0.484227 0.259710
0.532468 0.489887 0.263436
0.558775 0.495546 0.267124
0.585108 0.501216 0.270698
0.611478 0.506892 0.274154
0.637895 0.512571 0.277490
0.664367 0.518248 0.280709
0.690904 0.523918 0.283808
0.717512 0.529579 0.286790
0.744200 0.535227 0.289655
0.770973 0.540857 0.292403
0.797839 0.546466 0.295035
0.824803 0.552051 0.297553
0.851870 0.557608 0.299956
0.879045 0.563136 0.302248
0.906332 0.568629 0.304428
0.933735 0.574087 0.306499
0.961256 0.579506 0.308462
0.221817 0.427197 0.222573
0.239727 0.433212 0.225547
0.257803 0.439160 0.228637
0.276027 0.445046 0.231851
0.294379 0.450872 0.235203
0.312841 0.456641 0.238702
0.331392 0.462359 0.242360
0.349982 0.468047 0.246111
0.368568 0.473730 0.249859
0.387150 0.479408 0.253601
0.409596 0.485080 0.257338
0.435906 0.490745 0.261068
0.462210 0.496403 0.264790
0.488514 0.502069 0.268439
0.514832 0.507750 0.271970
0.541175 0.513440 0.275382
0.567553 0.519136 0.278676
0.593974 0.524833 0.281851
0.620448 0.530527 0.284908
0.646982 0.536214 0.287847
0.673585 0.541889 0.290669
0.700263 0.547550 0.293375
0.727023 0.553193 0.295965
0.753872 0.558813 0.298441
0.780815 0.564409 0.300803
0.807856 0.569976 0.303054
0.835002 0.575511 0.305194
0.862254 0.581013 0.307226
0.889618 0.586477 0.309150
0.917095 0.591902 0.310970
0.944689 0.597284 0.312686
0.972401 0.602623 0.314302
0.232898 0.451594 0.233055
0.251220 0.457420 0.236459
0.269676 0.463183 0.240014
0.288242 0.468887 0.243726
0.306831 0.474573 0.247476
0.325415 0.480254 0.251222
0.343994 0.485930 0.254962
0.362567 0.491600 0.258696
0.381133 0.497262 0.262424
0.399692 0.502921 0.266132
0.418241 0.508598 0.269738
0.444535 0.514292 0.273226
0.470840 0.520000 0.276595
0.497168 0.525716 0.279845
0.523529 0.531435 0.282977
0.549930 0.537155 0.285991
0.576381 0.542870 0.288888
0.602891 0.548576 0.291667
0.629465 0.554270 0.294331
0.656112 0.559948 0.296880
0.682839 0.565607 0.299314
0.709650 0.571242 0.301636
0.736551 0.576850 0.303846
0.763548 0.582429 0.305947
0.790644 0.587976 0.307939
0.817845 0.593487 0.309825
0.845151 0.598960 0.311606
0.872568 0.604392 0.313286
0.900096 0.609781 0.314865
0.927738 0.615125 0.316347
0.955495 0.620421 0.317734
0.983367 0.625668 0.319028
0.245091 0.475414 0.245091
0.263679 0.481098 0.248840
0.282262 0.486778 0.252584
0.300839 0.492451 0.256322
0.319409 0.498119 0.260054
0.337973 0.503779 0.263779
0.356521 0.509444 0.267459
0.375048 0.515134 0.271022
0.393564 0.520845 0.274466
0.412080 0.526573 0.277792
0.430607 0.532311 0.280999
0.453026 0.538056 0.284088
0.479346 0.543804 0.287059
0.505706 0.549550 0.289913
0.532113 0.555289 0.292651
0.558576 0.561019 0.295272
0.585102 0.566734 0.297779
0.611699 0.572432 0.300172
0.638371 0.578108 0.302453
0.665126 0.583760 0.304623
0.691968 0.589385 0.306684
0.718902 0.594978 0.308638
0.745933 0.600537 0.310485
0.773064 0.606059 0.312230
0.800298 0.611543 0.313872
0.827638 0.616984 0.315416
0.855086 0.622380 0.316863
0.882643 0.627730 0.318215
0.910311 0.633032 0.319477
0.938091 0.638283 0.320650
0.965981 0.643481 0.321738
0.993982 0.648625 0.322743
0.257682 0.498972 0.257682
0.276250 0.504637 0.261411
0.294810 0.510295 0.265131
0.313338 0.515973 0.268770
0.331831 0.521680 0.272290
0.350301 0.527411 0.275691
0.368760 0.533161 0.278973
0.387218 0.538924 0.282138
0.405686 0.544698 0.285184
0.424175 0.550476 0.288112
0.442692 0.556254 0.290923
0.461247 0.562029 0.293618
0.487591 0.567796 0.296198
0.513989 0.573551 0.298663
0.540448 0.579290 0.301016
0.566975 0.585010 0.303256
0.593577 0.590707 0.305386
0.620258 0.596378 0.307408
0.647025 0.602019 0.309323
0.673881 0.607628 0.311132
0.700830 0.613201 0.312839
0.727877 0.618737 0.314445
0.755024 0.624231 0.315953
0.782274 0.629681 0.317366
0.809629 0.635086 0.318685
0.837089 0.640443 0.319914
0.864657 0.645750 0.321056
0.892332 0.651005 0.322113
0.920115 0.656206 0.323089
0.948003 0.661352 0.323988
0.975998 0.666441 0.324813
1.000000 0.671773 0.330440
0.270135 0.522510 0.270065
0.288584 0.528237 0.273542
0.306998 0.533990 0.276900
0.325390 0.539765 0.280139
0.343770 0.545557 0.283260
0.362150 0.551360 0.286263
0.380540 0.557171 0.289149
0.398949 0.562985 0.291918
0.417386 0.568797 0.294571
0.435861 0.574603 0.297109
0.454381 0.580400 0.299533
0.472955 0.586183 0.301844
0.495459 0.591947 0.304044
0.521901 0.597691 0.306135
0.548416 0.603410 0.308117
0.575008 0.609101 0.309993
0.601684 0.614761 0.311765
0.628448 0.620386 0.313435
0.655303 0.625975 0.315006
0.682254 0.631523 0.316479
0.709302 0.637028 0.317857
0.736450 0.642489 0.319143
0.763700 0.647902 0.320339
0.791053 0.653266 0.321450
0.818510 0.658577 0.322478
0.846072 0.663836 0.323425
0.873737 0.669039 0.324297
0.901505 0.674186 0.325096
0.929375 0.679274 0.325825
0.957345 0.684302 0.326490
0.985412 0.689270 0.327093
1.000000 0.695147 0.345302
0.281965 0.546387 0.281289
0.300259 0.552209 0.284367
0.318541 0.558046 0.287327
0.336824 0.563892 0.290170
0.355116 0.569743 0.292897
0.373428 0.575595 0.295508
0.391768 0.581443 0.298004
0.410146 0.587282 0.300387
0.428568 0.593110 0.302658
0.447043 0.598922 0.304818
0.465578 0.604714 0.306869
0.484178 0.610483 0.308812
0.502851 0.616224 0.310650
0.529342 0.621936 0.312385
0.555915 0.627615 0.314019
0.582574 0.633257 0.315553
0.609323 0.638861 0.316991
0.636166 0.644422 0.318335
0.663104 0.649939 0.319589
0.690140 0.655409 0.320754
0.717277 0.660829 0.321833
0.744514 0.666199 0.322832
0.771852 0.671515 0.323751
0.799292 0.676776 0.324596
0.826833 0.681980 0.325369
0.854475 0.687125 0.326075
0.882214 0.692211 0.326716
0.910051 0.697235 0.327299
0.937981 0.702197 0.327826
0.966002 0.707097 0.328302
0.994110 0.711931 0.328732
1.000000 0.718243 0.360899
0.293022 0.570640 0.291177
0.311190 0.576530 0.293861
0.329369 0.582423 0.296430
0.347567 0.588314 0.298885
0.365795 0.594199 0.301227
0.384060 0.600074 0.303457
0.402371 0.605934 0.305577
0.420734 0.611776 0.307589
0.439157 0.617596 0.309494
0.457645 0.623390 0.311294
0.476204 0.629155 0.312991
0.494840 0.634888 0.314589
0.513558 0.640585 0.316088
0.536231 0.646244 0.317491
0.562865 0.651862 0.318802
0.589590 0.657436 0.320023
0.616410 0.662963 0.321156
0.643327 0.668442 0.322206
0.670342 0.673869 0.323175
0.697456 0.679243 0.324067
0.724669 0.684562 0.324885
0.751982 0.689823 0.325633
0.779394 0.695026 0.326315
0.806903 0.700169 0.326935
0.834509 0.705250 0.327497
0.862208 0.710267 0.328005
0.889998 0.715221 0.328463
0.917876 0.720110 0.328877
0.945839 0.724934 0.329251
0.973881 0.729690 0.329590
1.000000 0.734512 0.333249
1.000000 0.740999 0.377359
0.303254 0.595220 0.299751
0.321325 0.601152 0.302052
0.339427 0.607075 0.304242
0.357567 0.612985 0.306322
0.375753 0.618878 0.308295
0.393993 0.624750 0.310161
0.412292 0.630598 0.311924
0.430657 0.636418 0.313584
0.449094 0.642206 0.315146
0.467607 0.647959 0.316610
0.486201 0.653675 0.317979
0.504881 0.659350 0.319257
0.523648 0.664982 0.320445
0.542508 0.670567 0.321548
0.569203 0.676103 0.322568
0.595993 0.681589 0.323509
0.622881 0.687021 0.324373
0.649867 0.692397 0.325166
0.676951 0.697717 0.325889
0.704132 0.702977 0.326548
0.731411 0.708176 0.327146
0.758786 0.713313 0.327688
0.786255 0.718386 0.328177
0.813815 0.723394 0.328619
0.841465 0.728337 0.329018
0.869199 0.733212 0.329378
0.897016 0.738020 0.329705
0.924909 0.742760 0.330004
0.952874 0.747431 0.330280
0.980906 0.752033 0.330537
1.000000 0.757124 0.347462
1.000000 0.763356 0.394820
0.312629 0.620075 0.307053
0.330632 0.626021 0.308986
0.348683 0.631947 0.310815
0.366789 0.637849 0.312540
0.384955 0.643725 0.314164
0.403189 0.649569 0.315690
0.421494 0.655380 0.317119
0.439877 0.661153 0.318455
0.458341 0.666886 0.319700
0.476890 0.672576 0.320857
0.495528 0.678219 0.321929
0.514257 0.683814 0.322920
0.533081 0.689358 0.323832
0.551999 0.694848 0.324670
0.574885 0.700283 0.325437
0.601739 0.705660 0.326136
0.628690 0.710977 0.326773
0.655739 0.716232 0.327350
0.682883 0.721425 0.327872
