omv/luts/25_lonesome_road_ash.cube
# Original OMV LUT; redistribution permitted with OMV.
TITLE "Lonesome Road Ash"
LUT_3D_SIZE 5
DOMAIN_MIN 0.000000 0.000000 0.000000
DOMAIN_MAX 0.903226 0.903226 0.903226
0.002000 0.013000 0.027000
0.143603 0.037184 0.051184
0.288431 0.064160 0.078095
0.442008 0.091624 0.104663
0.609587 0.117691 0.129011
0.091526 0.141845 0.113835
0.218681 0.186324 0.137171
0.384527 0.229526 0.157567
0.562975 0.257112 0.175363
0.752390 0.282567 0.191631
0.172852 0.302414 0.181384
0.289406 0.347228 0.197502
0.469995 0.389394 0.214720
0.655366 0.429719 0.235820
0.839801 0.469479 0.261737
0.245091 0.475414 0.245091
0.375048 0.515134 0.271022
0.532113 0.555289 0.292651
0.718902 0.594978 0.308638
0.910311 0.633032 0.319477
0.321133 0.645145 0.313143
0.448374 0.685921 0.322299
0.579886 0.724338 0.327546
0.770220 0.759652 0.330207
0.964271 0.791470 0.331954
0.009732 0.020732 0.084409
0.125436 0.046113 0.116565
0.272005 0.073553 0.151273
0.428786 0.100696 0.180714
0.599749 0.126034 0.209728
0.100834 0.165961 0.184634
0.202460 0.210140 0.219916
0.370188 0.239144 0.246469
0.550224 0.265977 0.270814
0.740316 0.290822 0.293424
0.179773 0.326897 0.279199
0.298031 0.370766 0.301436
0.452445 0.412181 0.323752
0.637352 0.452191 0.348320
0.821661 0.478312 0.374339
0.253995 0.497866 0.357866
0.383689 0.537684 0.383191
0.513675 0.577833 0.404555
0.700920 0.617080 0.421529
0.892928 0.654375 0.434321
0.326621 0.668144 0.426648
0.453941 0.708224 0.438037
0.585740 0.745653 0.446093
0.749178 0.779806 0.451853
0.943050 0.810409 0.456704
0.018026 0.029026 0.142381
0.107540 0.055314 0.175444
0.256304 0.082900 0.212543
0.416143 0.109554 0.253114
0.590236 0.134082 0.294564
0.109944 0.190031 0.252201
0.213171 0.220215 0.293474
0.355609 0.248506 0.333290
0.537044 0.274607 0.370800
0.727517 0.298947 0.399105
0.186575 0.351053 0.367822
0.306524 0.394016 0.402127
0.434641 0.434800 0.435001
0.619161 0.461097 0.461097
0.803914 0.487075 0.486765
0.262865 0.520284 0.463833
0.392126 0.560287 0.495533
0.522166 0.600270 0.517517
0.682753 0.638954 0.536127
0.875292 0.675410 0.551285
0.331684 0.690946 0.542038
0.459153 0.730218 0.555989
0.591255 0.766587 0.566949
0.727759 0.799548 0.575668
0.921361 0.828945 0.583249
0.026671 0.037671 0.200703
0.117176 0.064681 0.235050
0.241185 0.092132 0.276319
0.403932 0.118160 0.322467
0.580899 0.141827 0.370313
0.118821 0.200445 0.323819
0.223678 0.230065 0.371639
0.340745 0.257610 0.418012
0.523388 0.283028 0.461490
0.713938 0.306996 0.501354
0.193318 0.374886 0.460423
0.314943 0.417008 0.498933
0.443733 0.443762 0.534013
0.600937 0.469969 0.567066
0.786497 0.495720 0.599517
0.271593 0.542727 0.562975
0.400322 0.582886 0.594988
0.530451 0.622554 0.625122
0.664362 0.660568 0.652665
0.857360 0.682570 0.670479
0.336335 0.713510 0.645952
0.464019 0.751874 0.669443
0.596436 0.787125 0.690049
0.733065 0.818876 0.701463
0.899207 0.847089 0.711273
0.035616 0.046616 0.259326
0.127308 0.074073 0.296461
0.226516 0.101193 0.343343
0.392020 0.126488 0.396026
0.571598 0.149270 0.450739
0.127440 0.210704 0.399871
0.233952 0.239670 0.454532
0.352658 0.266462 0.507265
0.509215 0.291276 0.556028
0.699536 0.315033 0.599503
0.200072 0.398408 0.556500
0.323353 0.426236 0.597864
0.452685 0.452685 0.633330
0.582757 0.478800 0.666270
0.769327 0.504202 0.699520
0.279968 0.565281 0.662343
0.408246 0.605426 0.695530
0.538497 0.644644 0.727672
0.672808 0.668347 0.757770
0.839095 0.689390 0.785176
0.340590 0.735797 0.752068
0.468553 0.773169 0.778401
0.601299 0.807257 0.801722
0.738009 0.837793 0.822212
0.876598 0.864858 0.840399
