omv/luts/26_radioactive_dream.cube
# Original OMV LUT; redistribution permitted with OMV.
TITLE "Radioactive Dream"
LUT_3D_SIZE 8
DOMAIN_MIN 0.000000 0.000000 0.000000
DOMAIN_MAX 0.903226 0.903226 0.903226
0.000000 0.043000 0.046000
0.122147 0.049018 0.052018
0.244297 0.055039 0.058039
0.366644 0.061243 0.064244
0.491212 0.066858 0.070141
0.620548 0.071056 0.075053
0.755832 0.073556 0.078631
0.897834 0.074186 0.080631
0.020556 0.156425 0.066479
0.130990 0.161107 0.072064
0.257020 0.165015 0.076525
0.387211 0.169070 0.079551
0.522618 0.171718 0.080938
0.663887 0.172804 0.080592
0.811253 0.172285 0.078530
0.964543 0.170225 0.074877
0.038993 0.271371 0.080253
0.141021 0.275041 0.081014
0.273767 0.277444 0.080036
0.411950 0.278443 0.077374
0.555682 0.278016 0.073195
0.704669 0.277538 0.067773
0.858207 0.275917 0.061497
1.000000 0.275991 0.062617
0.043686 0.392073 0.076016
0.152021 0.394578 0.071347
0.278692 0.395686 0.065563
0.423283 0.395504 0.059094
0.572067 0.394251 0.052475
0.723810 0.392254 0.046356
0.876870 0.389953 0.041496
1.000000 0.393323 0.061149
0.033409 0.519647 0.056670
0.149107 0.520612 0.050152
0.269070 0.520429 0.044398
0.417750 0.519447 0.040205
0.567578 0.518127 0.038485
0.717196 0.516777 0.038422
0.866706 0.515314 0.038295
1.000000 0.515328 0.056596
0.021066 0.649560 0.039241
0.144344 0.648441 0.038473
0.268111 0.647047 0.038369
0.404852 0.645517 0.038313
0.554674 0.643876 0.038589
0.704336 0.642169 0.039183
0.853548 0.640429 0.040061
1.000000 0.638697 0.044647
0.020704 0.775628 0.038375
0.145378 0.773756 0.038770
0.270094 0.771738 0.039472
0.394525 0.769619 0.040442
0.544204 0.767430 0.041628
0.693105 0.765185 0.042962
0.841063 0.762887 0.044361
0.987971 0.760523 0.045729
0.026740 0.898507 0.040852
0.151859 0.895848 0.042100
0.276255 0.893100 0.043468
0.399723 0.890278 0.044868
0.535021 0.887381 0.046199
0.682055 0.884393 0.047344
0.827884 0.881285 0.048175
0.972524 0.878013 0.048546
0.002094 0.045094 0.156481
0.111271 0.051045 0.153400
0.233480 0.057125 0.150448
0.356134 0.063287 0.156737
0.481887 0.068459 0.163159
0.612596 0.072106 0.169227
0.749347 0.073985 0.174497
0.892812 0.073960 0.178636
0.022714 0.157222 0.168116
0.120593 0.161689 0.165434
0.247274 0.166536 0.171258
0.378322 0.170137 0.176149
0.514697 0.172266 0.179813
0.656949 0.172807 0.182063
0.805219 0.171751 0.182821
0.959238 0.169203 0.182121
0.040222 0.271894 0.177638
0.142817 0.275156 0.180802
0.263358 0.277092 0.182512
0.402271 0.277604 0.182730
0.546674 0.277996 0.181529
0.696177 0.277103 0.179094
0.849981 0.275157 0.175719
1.000000 0.273795 0.174220
0.043225 0.392230 0.182450
0.152267 0.394255 0.180773
0.266702 0.394908 0.177955
0.411823 0.394333 0.174333
0.560907 0.392784 0.170351
0.712624 0.390629 0.166565
0.865237 0.389635 0.163641
1.000000 0.391822 0.172066
0.031918 0.519268 0.172898
0.148389 0.519811 0.168917
0.268914 0.519312 0.165362
0.404946 0.518158 0.162940
0.554668 0.516829 0.162345
0.704244 0.515438 0.162244
0.853746 0.513957 0.162136
1.000000 0.512851 0.165082
0.020634 0.648409 0.162496
0.144323 0.647129 0.162323
0.268061 0.645691 0.162183
0.392026 0.644118 0.162149
0.541898 0.642449 0.162337
0.691536 0.640728 0.162739
0.840665 0.638982 0.163333
0.989060 0.637223 0.164085
0.021001 0.774160 0.162192
0.145809 0.772232 0.162459
0.270572 0.770176 0.162934
0.394975 0.768031 0.163591
0.531660 0.765821 0.164388
0.680421 0.763559 0.165270
0.828203 0.761240 0.166168
0.974909 0.758848 0.166999
0.027659 0.896763 0.163867
0.152715 0.894072 0.164702
0.276983 0.891298 0.165599
0.400272 0.888451 0.166483
0.522448 0.885525 0.167265
0.669237 0.882500 0.167842
0.814806 0.879342 0.168095
0.959185 0.876002 0.167892
0.004113 0.047113 0.266887
0.100412 0.053089 0.263831
0.222685 0.059234 0.260943
0.345938 0.065195 0.258547
0.472857 0.069883 0.256959
0.604905 0.072951 0.264605
0.743068 0.074194 0.271915
0.887925 0.073510 0.278463
0.024853 0.157964 0.279260
0.123107 0.163456 0.277814
0.237544 0.167912 0.276362
0.369439 0.171033 0.274407
0.506755 0.172631 0.280591
0.649947 0.172625 0.285603
0.799059 0.171045 0.289274
0.953730 0.168032 0.291545
0.041291 0.272288 0.294843
0.144472 0.275117 0.291595
0.252806 0.276575 0.287100
0.392434 0.277891 0.290262
0.537474 0.277828 0.292030
0.687441 0.276545 0.292496
0.841442 0.274315 0.291860
0.998175 0.271520 0.290437
0.042606 0.392224 0.300097
0.152366 0.393774 0.292342
0.267460 0.393988 0.292378
0.400184 0.393048 0.291414
0.549525 0.391247 0.289803
0.701157 0.390279 0.288010
0.853249 0.389368 0.286609
1.000000 0.389785 0.287650
0.030416 0.518737 0.290880
0.147662 0.518889 0.289144
0.268734 0.518119 0.287421
0.392086 0.516851 0.286327
0.541744 0.515518 0.286196
0.691282 0.514086 0.286055
0.840790 0.512600 0.285932
0.990068 0.512421 0.285917
0.020481 0.647159 0.286223
0.144287 0.645803 0.286158
0.268065 0.644319 0.285999
0.392149 0.642707 0.285913
0.529152 0.641017 0.285941
0.678755 0.639285 0.286090
0.827789 0.637533 0.286350
0.976046 0.635771 0.286698
0.021377 0.772671 0.285909
0.146300 0.770694 0.285982
0.271092 0.768604 0.286173
0.395451 0.766434 0.286468
0.519129 0.764207 0.286840
0.667738 0.761926 0.287244
0.815334 0.759585 0.287625
0.961832 0.757162 0.287911
0.028616 0.895007 0.286596
0.153591 0.892286 0.286986
0.277714 0.889487 0.287389
0.400809 0.886615 0.287744
0.522753 0.883658 0.287975
0.656383 0.880593 0.287989
0.801685 0.877379 0.287682
0.945798 0.873964 0.286933
0.006130 0.049130 0.377291
0.102477 0.055154 0.374283
0.211924 0.061359 0.371473
0.336017 0.066951 0.369948
0.464085 0.071119 0.369840
0.597433 0.073585 0.370414
0.736955 0.074179 0.371038
0.883134 0.072839 0.380224
0.026953 0.159923 0.391138
0.125607 0.165103 0.391359
0.227807 0.169134 0.392018
0.360540 0.171753 0.392526
0.498769 0.172809 0.392400
0.642856 0.172260 0.391270
0.792749 0.170172 0.397905
0.947992 0.166725 0.403123
0.042195 0.272542 0.413928
0.145977 0.274919 0.413474
0.255008 0.277182 0.411907
0.382429 0.278019 0.409006
0.528071 0.277517 0.404659
0.678450 0.275877 0.407898
0.832579 0.273407 0.409800
0.989061 0.270527 0.410587
0.041838 0.392055 0.428946
0.152325 0.393137 0.424067
0.268069 0.392933 0.417768
0.388371 0.391663 0.410201
0.537928 0.390946 0.410657
0.689415 0.389934 0.410477
0.840908 0.389180 0.410142
0.990778 0.389068 0.410068
0.028924 0.518062 0.428531
0.146948 0.517860 0.419675
0.268551 0.516868 0.410344
0.392094 0.515546 0.410095
0.528806 0.514194 0.410032
0.678333 0.512730 0.409856
0.827841 0.512536 0.409642
0.977052 0.512368 0.409437
0.020472 0.645859 0.419117
0.144237 0.644463 0.409979
0.268130 0.642931 0.409779
0.392315 0.641288 0.409565
0.516435 0.639580 0.409369
0.665989 0.637839 0.409210
0.814921 0.636084 0.409090
0.963032 0.634318 0.409000
0.021830 0.771163 0.409490
0.146846 0.769143 0.409306
0.271650 0.767022 0.409162
0.395949 0.764832 0.409055
0.519510 0.762586 0.408970
0.655053 0.760287 0.408876
0.802455 0.757921 0.408728
0.948739 0.755462 0.408468
0.029607 0.893241 0.409023
0.154480 0.890492 0.408939
0.278442 0.887668 0.408831
0.401328 0.884769 0.408650
0.523029 0.881779 0.408331
0.643490 0.878668 0.407796
0.788517 0.875393 0.406951
0.932359 0.871895 0.405690
0.008158 0.051158 0.487706
0.104564 0.057241 0.484757
0.201347 0.063396 0.482291
0.326336 0.068542 0.482165
0.455532 0.072158 0.483955
0.590144 0.074002 0.486829
0.730971 0.073941 0.490064
0.878398 0.071949 0.493047
0.028993 0.161790 0.503994
0.128071 0.166616 0.506269
0.230945 0.170191 0.509352
0.351602 0.172291 0.512561
0.490717 0.172802 0.515321
0.635653 0.171717 0.517167
0.786265 0.169142 0.517746
0.942000 0.165293 0.516814
0.042928 0.272649 0.534997
0.147328 0.275849 0.537473
0.257054 0.277624 0.538893
0.372251 0.277991 0.538944
0.518458 0.277075 0.537422
0.669197 0.275112 0.534235
0.823384 0.272450 0.529400
0.979527 0.269547 0.532078
0.040929 0.391724 0.559932
0.152152 0.392351 0.557809
0.268539 0.391755 0.554014
0.389295 0.391482 0.548605
0.526121 0.390610 0.541751
0.677404 0.389618 0.533730
0.828220 0.389096 0.533965
0.977842 0.389035 0.533906
0.027468 0.517254 0.567618
0.146271 0.516739 0.560300
0.268389 0.515577 0.551946
0.392086 0.514248 0.542989
0.515854 0.512854 0.533854
0.665402 0.512663 0.533608
0.814898 0.512475 0.533231
0.964034 0.512321 0.532772
0.020450 0.644547 0.561031
0.144192 0.643106 0.551848
0.268255 0.641531 0.542516
0.392523 0.639861 0.533071
0.516649 0.638139 0.532592
0.653240 0.636392 0.532075
0.802059 0.634634 0.531536
0.950016 0.634152 0.530978
0.022356 0.769638 0.550967
0.147446 0.767580 0.541439
0.272242 0.765433 0.531881
0.396467 0.763223 0.531336
0.519897 0.760959 0.530768
0.642364 0.758640 0.530159
0.789562 0.756246 0.529477
0.935626 0.753746 0.528675
0.030626 0.891464 0.540165
0.155378 0.888689 0.530553
0.279162 0.885840 0.529922
0.401824 0.882913 0.529202
0.523270 0.879886 0.528342
0.643455 0.876725 0.527276
0.775297 0.873381 0.525921
0.918863 0.869791 0.524185
0.010203 0.053203 0.598139
0.106674 0.059351 0.595254
0.203882 0.065296 0.593711
0.316861 0.069956 0.595437
0.447164 0.072992 0.599499
0.583002 0.074199 0.604974
0.725077 0.073479 0.611045
0.873680 0.070845 0.617005
0.030958 0.163551 0.618049
0.130483 0.167984 0.622727
0.234036 0.171078 0.628508
0.342605 0.172646 0.634614
0.482577 0.172609 0.640380
0.628316 0.171001 0.645249
0.779583 0.167964 0.648774
0.935730 0.163750 0.650619
0.043486 0.273892 0.658137
0.148520 0.276613 0.663635
0.258940 0.277903 0.668061
0.374795 0.277814 0.671007
0.508629 0.276511 0.672179
0.659673 0.274266 0.671390
0.813847 0.271465 0.668567
0.969565 0.268603 0.663745
0.039893 0.391233 0.693004
0.151858 0.391424 0.693478
0.268878 0.391755 0.691952
0.390063 0.391231 0.688390
0.514114 0.390260 0.682871
0.665131 0.389356 0.675581
0.815313 0.389087 0.666861
0.964890 0.388987 0.657729
0.026072 0.516326 0.707953
0.145654 0.515542 0.701762
0.268271 0.514269 0.693894
0.392065 0.512936 0.684904
0.515798 0.512792 0.675722
0.652490 0.512597 0.666305
0.801963 0.512418 0.656664
0.951016 0.512280 0.655893
0.020414 0.643220 0.702930
0.144217 0.641733 0.693677
0.268436 0.640120 0.684171
0.392772 0.638428 0.674464
0.516889 0.636696 0.664614
0.640506 0.634944 0.654663
0.789202 0.634472 0.653672
0.936999 0.633983 0.652621
0.022951 0.768099 0.692245
0.148095 0.766007 0.682354
0.272866 0.763837 0.672374
0.397000 0.761608 0.662328
0.520286 0.759326 0.652225
0.642569 0.756984 0.651091
0.776653 0.754559 0.649875
0.922490 0.752012 0.648541
0.031667 0.889678 0.680009
0.156280 0.886877 0.669885
0.279868 0.884004 0.659692
0.402293 0.881045 0.649405
0.523471 0.877977 0.648017
0.643372 0.874761 0.646443
0.762021 0.871341 0.644612
0.905305 0.867650 0.642444
0.012269 0.055269 0.708592
0.108814 0.061475 0.705811
0.206592 0.067044 0.705993
0.307558 0.071182 0.709981
0.438947 0.073614 0.716652
0.575972 0.074172 0.724986
0.719238 0.072795 0.734076
0.868944 0.069533 0.743123
0.032830 0.165190 0.733508
0.132825 0.169196 0.740896
0.237061 0.171788 0.749606
0.346433 0.172814 0.758767
0.474329 0.172234 0.767620
0.620825 0.170119 0.775517
0.772683 0.166649 0.781918
0.929161 0.162113 0.786395
0.043868 0.274975 0.783415
0.149550 0.277211 0.791989
0.260660 0.278021 0.799398
0.377155 0.277496 0.805142
0.498578 0.275837 0.808834
0.649874 0.273355 0.810196
0.803964 0.270472 0.809060
0.959166 0.267721 0.805371
0.038740 0.390588 0.828094
0.151455 0.391652 0.830963
0.269098 0.391655 0.831429
0.390683 0.390928 0.829365
0.514818 0.389916 0.824754
0.652605 0.389172 0.817691
0.802390 0.389067 0.808777
0.951924 0.388927 0.799597
0.024765 0.515291 0.849331
0.145126 0.514288 0.843811
0.268223 0.512965 0.835901
0.392030 0.512901 0.826804
0.515769 0.512726 0.817538
0.639597 0.512533 0.807910
0.789037 0.512366 0.797975
0.937999 0.512245 0.787807
0.020363 0.641879 0.844814
0.144316 0.640345 0.835426
0.268674 0.638700 0.825677
0.393061 0.636991 0.815650
0.517155 0.635250 0.805412
0.640688 0.634785 0.795020
0.776348 0.634309 0.784515
0.923977 0.633810 0.773922
0.023612 0.766547 0.833296
0.148790 0.764425 0.822997
0.273518 0.762233 0.812560
0.397546 0.759987 0.802020
0.520675 0.757687 0.791399
0.642764 0.755319 0.780703
0.763724 0.752858 0.769925
0.909328 0.751550 0.768074
0.032724 0.887883 0.819515
0.157179 0.885058 0.808867
0.280556 0.882157 0.798142
0.402729 0.879165 0.787329
0.523627 0.876052 0.776400
0.643234 0.872773 0.765314
0.761586 0.869270 0.763047
0.891680 0.865469 0.760497
0.014358 0.057358 0.819067
0.111061 0.063505 0.816925
0.209449 0.068625 0.819376
0.311299 0.072210 0.825998
0.430848 0.074019 0.835571
0.569019 0.073921 0.846984
0.713421 0.071893 0.859237
0.864154 0.068022 0.871437
0.034594 0.166696 0.850555
0.135080 0.170245 0.860921
0.240005 0.172316 0.872750
0.350167 0.172796 0.885081
0.465957 0.171682 0.897062
0.613161 0.169080 0.907951
0.765545 0.165210 0.917118
0.922272 0.160398 0.924041
0.044074 0.275895 0.910878
0.150417 0.277644 0.922541
0.262215 0.277985 0.932871
0.379327 0.277047 0.941275
0.501206 0.275068 0.947273
0.639795 0.272396 0.950495
0.793727 0.269493 0.950683
0.948325 0.266928 0.947687
0.037485 0.391085 0.965112
0.150957 0.391758 0.970136
0.269211 0.391470 0.972278
0.391169 0.390591 0.971318
0.515342 0.389602 0.967148
0.639836 0.389095 0.959771
0.789452 0.389033 0.950678
0.938945 0.388877 0.941402
0.023575 0.514165 0.991527
0.144713 0.512996 0.986183
0.268214 0.512956 0.977827
0.391980 0.512851 0.968690
0.515773 0.512659 0.959262
0.639626 0.512472 0.949356
0.776119 0.512319 0.939069
0.924981 0.512216 0.928489
0.020324 0.640522 0.986671
0.144489 0.638944 0.977058
0.268964 0.637273 0.967003
0.393387 0.635550 0.956600
0.517444 0.635093 0.945932
0.640881 0.634625 0.935066
0.763497 0.634143 0.924055
0.910951 0.633632 0.912938
0.024334 0.764984 0.974096
0.149525 0.762836 0.963349
0.274194 0.760624 0.952425
0.398100 0.758360 0.941371
0.521060 0.756039 0.930222
0.642943 0.753644 0.918997
0.763675 0.752431 0.907699
0.896137 0.751065 0.896321
0.033792 0.886080 0.958675
0.158070 0.883230 0.947496
0.281219 0.880301 0.936245
0.403126 0.877271 0.924920
0.523733 0.874108 0.913507
0.643035 0.870760 0.901976
0.761084 0.867164 0.890284
0.877983 0.863243 0.878373
