omv/luts/26_radioactive_dream.cube
# Original OMV LUT; redistribution permitted with OMV.
TITLE "Radioactive Dream"
LUT_3D_SIZE 5
DOMAIN_MIN 0.000000 0.000000 0.000000
DOMAIN_MAX 0.903226 0.903226 0.903226
0.000000 0.043000 0.046000
0.213744 0.053518 0.056518
0.428422 0.064206 0.067290
0.653774 0.071848 0.076084
0.897834 0.074186 0.080631
0.035315 0.242264 0.078302
0.237043 0.248378 0.081017
0.476831 0.250464 0.078463
0.733695 0.250401 0.071108
1.000000 0.247510 0.062922
0.039944 0.455152 0.067499
0.239184 0.457416 0.056217
0.496951 0.456188 0.045354
0.760875 0.453361 0.038862
1.000000 0.453709 0.059726
0.020479 0.681350 0.038479
0.237094 0.678854 0.038296
0.476882 0.675925 0.038757
0.738710 0.672754 0.040154
0.998574 0.669483 0.042250
0.026740 0.898507 0.040852
0.245236 0.893795 0.043119
0.461062 0.888839 0.045549
0.718626 0.883628 0.047587
0.972524 0.878013 0.048546
0.003610 0.046610 0.239287
0.194799 0.057154 0.234025
0.411218 0.067319 0.229805
0.640657 0.073286 0.242388
0.889137 0.073644 0.253329
0.038004 0.243235 0.262485
0.218967 0.248087 0.256518
0.461077 0.250925 0.262508
0.719880 0.249464 0.264246
0.992247 0.244712 0.262368
0.037867 0.454896 0.263915
0.239267 0.455826 0.261081
0.475519 0.453791 0.257170
0.738544 0.451028 0.255254
1.000000 0.450863 0.255203
0.020443 0.679056 0.255217
0.237234 0.676410 0.254991
0.454678 0.673374 0.255114
0.716354 0.670160 0.255658
0.975797 0.666864 0.256505
0.028373 0.895447 0.255942
0.246580 0.890646 0.256843
0.461826 0.885612 0.257667
0.696057 0.880287 0.257977
0.949150 0.874476 0.257201
0.007142 0.050142 0.432497
0.175925 0.060860 0.427409
0.394866 0.069919 0.426177
0.628209 0.074069 0.428893
0.880762 0.072421 0.431861
0.040249 0.243826 0.467475
0.223095 0.249553 0.469816
0.444851 0.250882 0.469016
0.705335 0.248139 0.463807
0.977950 0.242683 0.469766
0.035512 0.454149 0.498106
0.239067 0.453886 0.486715
0.453640 0.451302 0.472043
0.715931 0.450996 0.471996
0.977526 0.450730 0.471656
0.020364 0.676719 0.487719
0.237562 0.673919 0.471468
0.455156 0.670803 0.470894
0.694034 0.667558 0.470322
0.953012 0.664233 0.469750
0.030113 0.892353 0.470118
0.247932 0.887471 0.469518
0.462521 0.882352 0.468697
0.673364 0.876890 0.467332
0.925618 0.870847 0.464968
0.010718 0.053718 0.625750
0.180001 0.064391 0.621629
0.379172 0.071945 0.626046
0.616227 0.074174 0.636470
0.872499 0.070536 0.648330
0.042005 0.246241 0.678198
0.226793 0.250503 0.689647
0.428094 0.250361 0.697957
0.689996 0.246491 0.700994
0.962433 0.240608 0.697660
0.032969 0.452947 0.737910
0.238669 0.451669 0.732189
0.453970 0.451094 0.720275
0.693275 0.450920 0.704500
0.954769 0.450664 0.687980
0.020349 0.674329 0.735956
0.238068 0.671393 0.719142
0.455725 0.668219 0.701758
0.671741 0.664948 0.684051
0.930213 0.663842 0.681940
0.031930 0.889230 0.714918
0.249263 0.884270 0.696926
0.463120 0.879053 0.678662
0.673102 0.873428 0.675728
0.901905 0.867109 0.671976
0.014358 0.057358 0.819067
0.184589 0.067478 0.818323
0.363955 0.073347 0.830487
0.604525 0.073594 0.850006
0.864154 0.068022 0.871437
0.043242 0.248181 0.895208
0.230025 0.250936 0.916187
0.433340 0.249400 0.933319
0.673809 0.244603 0.943605
0.945637 0.238609 0.945084
0.030345 0.451336 0.982602
0.238171 0.451522 0.980589
0.454027 0.451027 0.968801
0.670596 0.450815 0.952723
0.931998 0.450627 0.935445
0.020602 0.671882 0.983957
0.238741 0.668841 0.966229
0.456375 0.665625 0.947584
0.672047 0.664586 0.928385
0.907390 0.663427 0.908862
0.033792 0.886080 0.958675
0.250545 0.881041 0.939065
0.463594 0.875709 0.919226
0.672662 0.869887 0.899070
0.877983 0.863243 0.878373
