omv/luts/26_radioactive_dream.cube
# Original OMV LUT; redistribution permitted with OMV.
TITLE "Radioactive Dream"
LUT_3D_SIZE 32
DOMAIN_MIN 0.0 0.0 0.0
DOMAIN_MAX 1.0 1.0 1.0
0.000000 0.043000 0.046000
0.030589 0.044557 0.047557
0.061114 0.046050 0.049050
0.091630 0.047533 0.050533
0.122147 0.049018 0.052018
0.152670 0.050509 0.053509
0.183202 0.052008 0.055008
0.213744 0.053518 0.056518
0.244297 0.055039 0.058039
0.274863 0.056573 0.059573
0.305441 0.058118 0.061118
0.336031 0.059676 0.062676
0.366644 0.061243 0.064244
0.397419 0.062760 0.065788
0.428422 0.064206 0.067290
0.459678 0.065574 0.068744
0.491212 0.066858 0.070141
0.523046 0.068053 0.071477
0.555200 0.069154 0.072745
0.587695 0.070156 0.073939
0.620548 0.071056 0.075053
0.653774 0.071848 0.076084
0.687389 0.072531 0.077026
0.721405 0.073101 0.077876
0.755832 0.073556 0.078631
0.790682 0.073893 0.079286
0.825962 0.074111 0.079839
0.861678 0.074209 0.080288
0.897834 0.074186 0.080631
0.934435 0.074041 0.080866
0.971482 0.073775 0.080993
1.000000 0.075071 0.082606
0.005073 0.071299 0.051073
0.032366 0.072463 0.052560
0.062892 0.073634 0.054053
0.093428 0.075137 0.055557
0.123974 0.076651 0.057071
0.154532 0.078177 0.058596
0.185102 0.079715 0.060134
0.215684 0.081265 0.061684
0.246279 0.082827 0.063247
0.276919 0.084387 0.064811
0.307716 0.085897 0.066340
0.338703 0.087346 0.067825
0.369907 0.088729 0.069259
0.401354 0.090039 0.070635
0.433066 0.091270 0.071947
0.465067 0.092418 0.073188
0.497376 0.093476 0.074354
0.530013 0.094441 0.075438
0.562993 0.095309 0.076438
0.596334 0.096076 0.077347
0.630048 0.096738 0.078162
0.664148 0.097293 0.078881
0.698646 0.097738 0.079499
0.733549 0.098071 0.080014
0.768866 0.098291 0.080425
0.804602 0.098397 0.080729
0.840762 0.098387 0.080925
0.877348 0.098263 0.081013
0.914361 0.098022 0.080991
0.951802 0.097668 0.080860
0.989668 0.097199 0.080620
1.000000 0.101840 0.086076
0.010107 0.099558 0.056107
0.034205 0.100754 0.057625
0.064768 0.101961 0.059155
0.095342 0.103181 0.060697
0.125929 0.104413 0.062251
0.156528 0.105980 0.063818
0.187191 0.107532 0.065372
0.217978 0.109043 0.066886
0.248919 0.110505 0.068354
0.280042 0.111911 0.069767
0.311374 0.113256 0.071120
0.342939 0.114532 0.072407
0.374760 0.115733 0.073622
0.406858 0.116856 0.074758
0.439255 0.117894 0.075812
0.471967 0.118844 0.076779
0.505011 0.119700 0.077655
0.538404 0.120461 0.078435
0.572157 0.121122 0.079117
0.606283 0.121680 0.079699
0.640793 0.122134 0.080176
0.675694 0.122482 0.080548
0.710993 0.122721 0.080813
0.746698 0.122851 0.080970
0.782810 0.122871 0.081017
0.819332 0.122782 0.080956
0.856265 0.122582 0.080785
0.893609 0.122274 0.080506
0.931359 0.121857 0.080119
0.969513 0.121334 0.079626
1.000000 0.122192 0.080964
1.000000 0.128724 0.089583
0.015261 0.127939 0.061261
0.039401 0.129175 0.062820
0.066782 0.130422 0.064388
0.097441 0.131651 0.065928
0.128189 0.132849 0.067426
0.159055 0.134011 0.068875
0.190069 0.135127 0.070267
0.221258 0.136513 0.071597
0.252648 0.137842 0.072858
0.284264 0.139105 0.074045
0.316128 0.140299 0.075152
0.348261 0.141417 0.076175
0.380683 0.142455 0.077109
0.413411 0.143409 0.077950
0.446461 0.144274 0.078695
0.479848 0.145047 0.079341
0.513585 0.145724 0.079885
0.547683 0.146304 0.080324
0.582153 0.146783 0.080657
0.617001 0.147160 0.080883
0.652236 0.147434 0.081000
0.687861 0.147604 0.081007
0.723880 0.147668 0.080906
0.760295 0.147627 0.080696
0.797107 0.147481 0.080377
0.834312 0.147232 0.079952
0.871909 0.146879 0.079421
0.909894 0.146425 0.078786
0.948258 0.145871 0.078051
0.986996 0.145221 0.077217
1.000000 0.149261 0.083462
1.000000 0.155781 0.093171
0.020556 0.156425 0.066479
0.044782 0.157644 0.067960
0.069093 0.158835 0.069389
0.099970 0.159992 0.070759
0.130990 0.161107 0.072064
0.162181 0.162173 0.073299
0.193567 0.163183 0.074457
0.225173 0.164133 0.075534
0.257020 0.165015 0.076525
0.289129 0.166148 0.077426
0.321520 0.167205 0.078233
0.354208 0.168180 0.078942
0.387211 0.169070 0.079551
0.420541 0.169872 0.080057
0.454212 0.170582 0.080457
0.488235 0.171198 0.080752
0.522618 0.171718 0.080938
0.557369 0.172139 0.081015
0.592495 0.172462 0.080983
0.628000 0.172683 0.080842
0.663887 0.172804 0.080592
0.700156 0.172824 0.080235
0.736809 0.172744 0.079771
0.773842 0.172563 0.079202
0.811253 0.172285 0.078530
0.849036 0.171909 0.077759
0.887185 0.171439 0.076890
0.925690 0.170877 0.075928
0.964543 0.170225 0.074877
1.000000 0.170159 0.074917
1.000000 0.176541 0.086016
1.000000 0.183055 0.096888
0.025860 0.184899 0.071242
0.050233 0.186072 0.072522
0.074747 0.187206 0.073730
0.102654 0.188293 0.074859
0.133979 0.189328 0.075905
0.165518 0.190304 0.076864
0.197294 0.191216 0.077731
0.229327 0.192059 0.078502
0.261635 0.192827 0.079175
0.294235 0.193518 0.079747
0.327143 0.194126 0.080215
0.360370 0.194972 0.080577
0.393931 0.195729 0.080832
0.427835 0.196395 0.080979
0.462091 0.196969 0.081016
0.496706 0.197447 0.080944
0.531686 0.197829 0.080764
0.567034 0.198115 0.080475
0.602754 0.198303 0.080078
0.638846 0.198394 0.079575
0.675309 0.198389 0.078969
0.712141 0.198287 0.078261
0.749337 0.198091 0.077453
0.786894 0.197802 0.076551
0.824802 0.197422 0.075556
0.863053 0.196954 0.074473
0.901637 0.196402 0.073306
0.940542 0.195768 0.072061
0.979755 0.195056 0.070743
1.000000 0.197704 0.076225
1.000000 0.204068 0.088665
1.000000 0.210573 0.100774
0.030867 0.213472 0.075250
0.055437 0.214599 0.076265
0.080195 0.215675 0.077190
0.105167 0.216694 0.078023
0.136823 0.217652 0.078759
0.168732 0.218542 0.079395
0.200912 0.219360 0.079929
0.233380 0.220103 0.080359
0.266150 0.220766 0.080682
0.299234 0.221346 0.080898
0.332646 0.221841 0.081005
0.366394 0.222246 0.081003
0.400487 0.222562 0.080891
0.434932 0.223108 0.080671
0.469733 0.223561 0.080343
0.504895 0.223920 0.079907
0.540419 0.224184 0.079367
0.576306 0.224355 0.078723
0.612554 0.224432 0.077978
0.649161 0.224416 0.077136
0.686121 0.224309 0.076199
0.723430 0.224113 0.075171
0.761079 0.223829 0.074057
0.799059 0.223461 0.072862
0.837359 0.223012 0.071589
0.875967 0.222485 0.070245
0.914869 0.221884 0.068837
0.954049 0.221214 0.067369
0.993489 0.220480 0.065849
1.000000 0.225523 0.077574
1.000000 0.231863 0.091447
1.000000 0.238352 0.104871
0.035315 0.242264 0.078302
0.060125 0.243342 0.079002
0.085166 0.244359 0.079602
0.110458 0.245311 0.080098
0.139245 0.246192 0.080489
0.171541 0.247000 0.080773
0.204137 0.247729 0.080949
0.237043 0.248378 0.081017
0.270272 0.248942 0.080975
0.303833 0.249421 0.080824
0.337733 0.249811 0.080564
0.371979 0.250111 0.080196
0.406576 0.250320 0.079722
0.441526 0.250438 0.079144
0.476831 0.250464 0.078463
0.512491 0.250720 0.077683
0.548504 0.250886 0.076805
0.584867 0.250962 0.075835
0.621575 0.250949 0.074776
0.658622 0.250850 0.073631
0.695998 0.250666 0.072407
0.733695 0.250401 0.071108
0.771702 0.250058 0.069740
0.810004 0.249640 0.068309
0.848588 0.249152 0.066821
0.887438 0.248598 0.065284
0.926536 0.247982 0.063705
0.965863 0.247311 0.062091
1.000000 0.247510 0.062922
1.000000 0.253635 0.078990
1.000000 0.259939 0.094395
1.000000 0.266400 0.109219
0.038993 0.271371 0.080253
0.064083 0.272396 0.080605
0.089441 0.273352 0.080850
0.115083 0.274235 0.080987
0.141021 0.275041 0.081014
0.173720 0.275768 0.080932
0.206738 0.276412 0.080742
0.240085 0.276971 0.080442
0.273767 0.277444 0.080036
0.307792 0.277828 0.079524
0.342162 0.278123 0.078908
0.376881 0.278328 0.078190
0.411950 0.278443 0.077374
0.447367 0.278469 0.076463
0.483131 0.278405 0.075459
0.519238 0.278254 0.074369
0.555682 0.278016 0.073195
0.592456 0.278016 0.071942
0.629553 0.277935 0.070617
0.666961 0.277774 0.069226
0.704669 0.277538 0.067773
0.742663 0.277230 0.066267
0.780929 0.276854 0.064714
0.819450 0.276414 0.063121
0.858207 0.275917 0.061497
0.897181 0.275366 0.059850
0.936351 0.274769 0.058190
0.975694 0.274131 0.056524
1.000000 0.275991 0.062617
1.000000 0.282050 0.080499
1.000000 0.288300 0.097543
1.000000 0.294717 0.113854
0.041743 0.300866 0.081009
0.067153 0.301833 0.080997
0.092859 0.302725 0.080876
0.118875 0.303538 0.080645
0.145208 0.304269 0.080307
0.175095 0.304915 0.079862
0.208541 0.305476 0.079312
0.242326 0.305950 0.078658
0.276455 0.306336 0.077904
0.310929 0.306633 0.077053
0.345748 0.306841 0.076108
0.380911 0.306961 0.075072
0.416417 0.306994 0.073950
0.452260 0.306940 0.072747
0.488435 0.306801 0.071468
0.524934 0.306579 0.070118
0.561748 0.306278 0.068704
0.598866 0.305899 0.067231
0.636277 0.305447 0.065706
0.673966 0.305246 0.064138
0.711918 0.304981 0.062533
0.750115 0.304654 0.060900
0.788540 0.304270 0.059247
0.827172 0.303837 0.057583
0.865989 0.303359 0.055919
0.904967 0.302843 0.054262
0.944082 0.302295 0.052625
0.983307 0.301723 0.051017
1.000000 0.304803 0.062286
1.000000 0.310773 0.082123
1.000000 0.316948 0.100922
1.000000 0.323303 0.118818
0.043464 0.330799 0.080534
0.069228 0.331704 0.080157
0.095312 0.332527 0.079673
0.121723 0.333267 0.079085
0.148467 0.333921 0.078395
0.175550 0.334488 0.077606
0.209426 0.334968 0.076720
0.243646 0.335359 0.075741
0.278209 0.335663 0.074674
0.313114 0.335879 0.073522
0.348358 0.336008 0.072290
0.383935 0.336052 0.070985
0.419840 0.336012 0.069610
0.456065 0.335891 0.068174
0.492600 0.335690 0.066681
0.529434 0.335414 0.065140
0.566554 0.335065 0.063557
0.603945 0.334647 0.061941
0.641593 0.334165 0.060300
0.679479 0.333624 0.058642
0.717585 0.333028 0.056977
0.755889 0.332706 0.055314
0.794369 0.332341 0.053663
0.833002 0.331940 0.052036
0.871761 0.331510 0.050442
0.910620 0.331058 0.048892
0.949550 0.330591 0.047400
0.988521 0.330119 0.045977
1.000000 0.333955 0.061931
1.000000 0.339808 0.083882
1.000000 0.345884 0.104565
1.000000 0.352155 0.124150
0.044109 0.361199 0.078846
0.070260 0.362035 0.078119
0.096746 0.362785 0.077294
0.123571 0.363448 0.076374
0.150739 0.364023 0.075362
0.178250 0.364510 0.074264
0.209330 0.364909 0.073082
0.243976 0.365221 0.071823
0.278960 0.365446 0.070492
0.314275 0.365587 0.069094
0.349916 0.365643 0.067636
0.385874 0.365619 0.066126
0.422138 0.365517 0.064568
0.458697 0.365339 0.062972
0.495539 0.365089 0.061346
0.532647 0.364772 0.059698
0.570006 0.364391 0.058036
0.607598 0.363952 0.056371
0.645403 0.363459 0.054711
0.683400 0.362919 0.053068
0.721565 0.362337 0.051451
0.759876 0.361721 0.049872
0.798305 0.361076 0.048342
0.836826 0.360734 0.046873
0.875409 0.360379 0.045478
0.914022 0.360019 0.044169
0.952635 0.359664 0.042960
0.991212 0.359323 0.041864
1.000000 0.363457 0.061554
1.000000 0.369160 0.085795
1.000000 0.375109 0.108505
1.000000 0.381271 0.129895
0.043686 0.392073 0.076016
0.070253 0.392832 0.074972
0.097164 0.393502 0.073843
0.124420 0.394084 0.072633
0.152021 0.394578 0.071347
0.179963 0.394983 0.069990
0.208242 0.395302 0.068570
0.243305 0.395536 0.067092
0.278692 0.395686 0.065563
0.314395 0.395755 0.063991
0.350402 0.395745 0.062383
0.386703 0.395660 0.060748
0.423283 0.395504 0.059094
0.460127 0.395280 0.057430
0.497219 0.394994 0.055765
0.534539 0.394649 0.054110
0.572067 0.394251 0.052475
0.609783 0.393806 0.050871
0.647662 0.393321 0.049309
0.685680 0.392801 0.047800
0.723810 0.392254 0.046356
0.762025 0.391688 0.044991
0.800294 0.391110 0.043717
0.838587 0.390529 0.042547
0.876870 0.389953 0.041496
0.915110 0.389715 0.040576
0.953269 0.389501 0.039804
0.991311 0.389322 0.039195
1.000000 0.393323 0.061149
1.000000 0.398840 0.087884
1.000000 0.404627 0.112780
1.000000 0.410620 0.136075
0.042258 0.423403 0.072173
0.069267 0.424077 0.070861
0.096624 0.424662 0.069480
0.124324 0.425158 0.068038
0.152363 0.425566 0.066541
0.180736 0.425888 0.064996
0.209435 0.426126 0.063410
0.241675 0.426282 0.061791
0.277446 0.426359 0.060148
0.313509 0.426360 0.058489
0.349851 0.426290 0.056823
0.386456 0.426151 0.055161
0.423305 0.425949 0.053512
0.460381 0.425689 0.051887
0.497663 0.425376 0.050297
0.535129 0.425016 0.048752
0.572754 0.424616 0.047266
0.610515 0.424181 0.045850
0.648382 0.423720 0.044516
0.686329 0.423239 0.043278
0.724325 0.422747 0.042150
0.762339 0.422252 0.041145
0.800336 0.421764 0.040278
0.838282 0.421291 0.039563
0.876141 0.420843 0.039016
0.913874 0.420431 0.038653
0.951443 0.420065 0.038489
0.988865 0.420059 0.038478
1.000000 0.423516 0.060656
1.000000 0.428718 0.090037
1.000000 0.434197 0.117194
1.000000 0.439910 0.142451
0.039944 0.455152 0.067499
0.067419 0.455733 0.065984
0.095238 0.456224 0.064423
0.123392 0.456628 0.062824
0.151875 0.456947 0.061195
0.180675 0.457182 0.059545
0.209783 0.457337 0.057883
0.239184 0.457416 0.056217
0.275317 0.457421 0.054559
0.311712 0.457358 0.052917
0.348352 0.457231 0.051304
0.385218 0.457044 0.049729
0.422288 0.456804 0.048204
0.459541 0.456517 0.046741
0.496951 0.456188 0.045354
0.534493 0.455825 0.044053
0.572141 0.455435 0.042854
0.609863 0.455025 0.041769
0.647631 0.454604 0.040812
0.685412 0.454180 0.039999
0.723172 0.453763 0.039344
0.760875 0.453361 0.038862
0.798486 0.452984 0.038569
0.835965 0.452642 0.038481
0.873378 0.452314 0.038475
0.910784 0.451978 0.038462
0.948183 0.451635 0.038441
0.985574 0.451284 0.038413
1.000000 0.453709 0.059726
1.000000 0.458515 0.091975
1.000000 0.463655 0.121603
1.000000 0.469078 0.149012
0.036918 0.487261 0.062234
0.064880 0.487738 0.060596
0.093174 0.488128 0.058941
0.121790 0.488434 0.057276
0.150717 0.488657 0.055612
0.179940 0.488802 0.053959
0.209444 0.488872 0.052326
0.239214 0.488873 0.050725
0.272456 0.488807 0.049167
0.309150 0.488682 0.047664
0.346050 0.488501 0.046227
0.383132 0.488272 0.044870
0.420371 0.488001 0.043604
0.457742 0.487694 0.042445
0.495215 0.487359 0.041405
0.532763 0.487004 0.040499
0.570354 0.486637 0.039741
0.607954 0.486266 0.039147
0.645531 0.485901 0.038732
0.683047 0.485551 0.038513
0.720480 0.485222 0.038480
0.757890 0.484890 0.038471
0.795294 0.484552 0.038455
0.832690 0.484206 0.038432
0.870078 0.483853 0.038401
0.907458 0.483491 0.038362
0.944831 0.483122 0.038320
0.982198 0.482754 0.038298
1.000000 0.484499 0.058322
1.000000 0.488558 0.093814
1.000000 0.493056 0.126188
1.000000 0.498167 0.155939
0.033409 0.519647 0.056670
0.061875 0.520010 0.055008
0.090656 0.520290 0.053361
0.119739 0.520489 0.051739
0.149107 0.520612 0.050152
0.178744 0.520662 0.048613
0.208630 0.520645 0.047132
0.238746 0.520565 0.045723
0.269070 0.520429 0.044398
0.306029 0.520242 0.043169
0.343146 0.520012 0.042052
0.380396 0.519744 0.041059
0.417750 0.519447 0.040205
0.455177 0.519129 0.039505
0.492646 0.518796 0.038975
0.530125 0.518459 0.038629
0.567578 0.518127 0.038485
0.604994 0.517800 0.038477
0.642402 0.517466 0.038466
0.679802 0.517125 0.038448
0.717196 0.516777 0.038422
0.754581 0.516420 0.038388
0.791958 0.516055 0.038345
0.829333 0.515685 0.038310
0.866706 0.515314 0.038295
0.904074 0.514942 0.038302
0.941430 0.514571 0.038331
0.978771 0.514200 0.038380
1.000000 0.515328 0.056596
1.000000 0.518865 0.095656
1.000000 0.522917 0.131008
1.000000 0.527394 0.163269
0.029702 0.552206 0.051157
0.058687 0.552445 0.049586
0.087964 0.552605 0.048066
0.117514 0.552690 0.046610
0.147319 0.552704 0.045230
0.177358 0.552655 0.043938
0.207609 0.552546 0.042749
0.238046 0.552384 0.041675
0.268646 0.552176 0.040731
0.302606 0.551929 0.039932
0.339897 0.551651 0.039292
0.377264 0.551348 0.038827
0.414674 0.551031 0.038552
0.452094 0.550707 0.038481
0.489506 0.550377 0.038474
0.526912 0.550041 0.038460
0.564310 0.549697 0.038439
0.601700 0.549346 0.038410
0.639083 0.548986 0.038373
0.676458 0.548618 0.038330
0.713839 0.548246 0.038302
0.751223 0.547871 0.038295
0.788607 0.547494 0.038310
0.825983 0.547115 0.038346
0.863348 0.546735 0.038403
0.900696 0.546355 0.038481
0.938023 0.545975 0.038579
0.975324 0.545596 0.038697
1.000000 0.546178 0.054483
1.000000 0.549121 0.097476
1.000000 0.552670 0.136068
1.000000 0.556717 0.171026
0.026136 0.584813 0.046098
0.055652 0.584916 0.044749
0.085430 0.584945 0.043493
0.115447 0.584907 0.042344
0.145682 0.584806 0.041316
0.176108 0.584650 0.040423
0.206702 0.584445 0.039679
0.237434 0.584198 0.039101
0.268275 0.583917 0.038704
0.299195 0.583610 0.038503
0.336608 0.583286 0.038479
0.374018 0.582954 0.038470
0.411421 0.582615 0.038453
0.448817 0.582268 0.038429
0.486204 0.581914 0.038398
0.523583 0.581551 0.038358
0.560961 0.581181 0.038317
0.598352 0.580805 0.038297
0.635752 0.580424 0.038298
0.673154 0.580040 0.038321
0.710555 0.579653 0.038364
0.747947 0.579263 0.038429
0.785327 0.578871 0.038514
0.822689 0.578478 0.038619
0.860029 0.578084 0.038744
0.897343 0.577690 0.038889
0.934626 0.577296 0.039052
0.971875 0.576903 0.039234
1.000000 0.577031 0.051882
1.000000 0.579297 0.099238
1.000000 0.582283 0.141369
1.000000 0.585851 0.179235
0.023107 0.617321 0.041955
0.053164 0.617274 0.040974
0.083445 0.617162 0.040134
0.113925 0.616990 0.039449
0.144578 0.616766 0.038935
0.175376 0.616498 0.038607
0.206288 0.616191 0.038482
0.237251 0.615864 0.038477
0.268207 0.615529 0.038465
0.299155 0.615188 0.038446
0.333322 0.614838 0.038419
0.370707 0.614481 0.038384
0.408083 0.614115 0.038341
0.445470 0.613741 0.038307
0.482875 0.613361 0.038295
0.520294 0.612974 0.038304
0.557720 0.612581 0.038334
0.595147 0.612184 0.038386
0.632571 0.611783 0.038458
0.669986 0.611378 0.038550
0.707386 0.610971 0.038663
0.744769 0.610562 0.038795
0.782128 0.610152 0.038946
0.819460 0.609739 0.039116
0.856761 0.609327 0.039304
0.894027 0.608913 0.039510
0.931254 0.608500 0.039732
0.968438 0.608086 0.039971
1.000000 0.607872 0.048662
1.000000 0.609368 0.100886
1.000000 0.611722 0.146904
1.000000 0.614762 0.187918
0.021066 0.649560 0.039241
0.051669 0.649350 0.038793
0.082453 0.649084 0.038537
0.113384 0.648771 0.038480
0.144344 0.648441 0.038473
0.175297 0.648104 0.038459
0.206243 0.647759 0.038437
0.237181 0.647407 0.038407
0.268111 0.647047 0.038369
0.299037 0.646678 0.038326
0.329986 0.646299 0.038300
0.367411 0.645912 0.038296
0.404852 0.645517 0.038313
0.442305 0.645115 0.038351
0.479763 0.644707 0.038409
0.517221 0.644294 0.038489
0.554674 0.643876 0.038589
0.592117 0.643454 0.038709
0.629545 0.643028 0.038848
0.666953 0.642600 0.039006
0.704336 0.642169 0.039183
0.741692 0.641736 0.039377
0.779014 0.641301 0.039589
0.816301 0.640865 0.039817
0.853548 0.640429 0.040061
0.890752 0.639991 0.040320
0.927909 0.639552 0.040592
0.965017 0.639113 0.040878
1.000000 0.638697 0.044647
1.000000 0.639314 0.102348
1.000000 0.640957 0.152661
1.000000 0.643412 0.197096
0.020479 0.681350 0.038479
0.051436 0.681017 0.038469
0.082387 0.680677 0.038452
0.113330 0.680330 0.038427
0.144265 0.679975 0.038394
0.175192 0.679612 0.038354
0.206126 0.679239 0.038314
0.237094 0.678854 0.038296
0.268089 0.678460 0.038300
0.299105 0.678055 0.038324
0.330137 0.677643 0.038370
0.364404 0.677223 0.038436
0.401900 0.676796 0.038523
0.439395 0.676363 0.038630
0.476882 0.675925 0.038757
0.514358 0.675482 0.038903
0.551817 0.675034 0.039068
0.589255 0.674584 0.039252
0.626668 0.674130 0.039452
0.664050 0.673673 0.039670
0.701399 0.673214 0.039904
0.738710 0.672754 0.040154
0.775981 0.672291 0.040417
0.813207 0.671826 0.040695
0.850386 0.671361 0.040985
0.887514 0.670893 0.041287
0.924590 0.670425 0.041599
0.961611 0.669955 0.041921
0.998574 0.669483 0.042250
1.000000 0.669117 0.103520
1.000000 0.669961 0.158613
1.000000 0.671767 0.206790
0.020416 0.712900 0.038416
0.051348 0.712542 0.038380
0.082273 0.712175 0.038337
0.113224 0.711797 0.038305
0.144214 0.711405 0.038295
0.175235 0.711001 0.038306
0.206282 0.710587 0.038338
0.237348 0.710163 0.038391
0.268426 0.709729 0.038465
0.299513 0.709288 0.038560
0.330600 0.708839 0.038674
0.361684 0.708384 0.038808
0.399211 0.707922 0.038961
0.436725 0.707455 0.039133
0.474219 0.706984 0.039323
0.511691 0.706508 0.039530
0.549136 0.706029 0.039754
0.586549 0.705546 0.039993
0.623926 0.705060 0.040248
0.661265 0.704572 0.040517
0.698562 0.704081 0.040799
0.735813 0.703588 0.041094
0.773016 0.703093 0.041399
0.810167 0.702596 0.041715
0.847264 0.702096 0.042040
0.884305 0.701595 0.042372
0.921287 0.701091 0.042711
0.958209 0.700585 0.043056
0.995069 0.700076 0.043404
1.000000 0.698765 0.104263
1.000000 0.698707 0.164724
1.000000 0.699794 0.217019
0.020333 0.744351 0.038299
0.051349 0.743951 0.038297
0.082400 0.743537 0.038315
0.113481 0.743111 0.038355
0.144584 0.742674 0.038416
0.175704 0.742226 0.038497
0.206835 0.741769 0.038599
0.237970 0.741304 0.038721
0.269105 0.740830 0.038862
0.300235 0.740349 0.039022
0.331353 0.739862 0.039200
0.362455 0.739369 0.039396
0.396763 0.738871 0.039609
0.434272 0.738368 0.039839
0.471751 0.737861 0.040084
0.509198 0.737349 0.040344
0.546607 0.736835 0.040618
0.583976 0.736317 0.040905
0.621301 0.735796 0.041203
0.658579 0.735272 0.041513
0.695806 0.734745 0.041832
0.732981 0.734216 0.042160
0.770101 0.733684 0.042495
0.807163 0.733149 0.042836
0.844165 0.732612 0.043182
0.881105 0.732071 0.043531
0.917983 0.731528 0.043882
0.954795 0.730980 0.044233
0.991542 0.730429 0.044583
1.000000 0.728256 0.104386
1.000000 0.727170 0.170937
1.000000 0.727457 0.227802
0.020704 0.775628 0.038375
0.051848 0.775177 0.038443
0.083013 0.774714 0.038532
0.114191 0.774240 0.038641
0.145378 0.773756 0.038770
0.176566 0.773263 0.038918
0.207752 0.772762 0.039084
0.238930 0.772254 0.039270
0.270094 0.771738 0.039472
0.301240 0.771217 0.039691
0.332364 0.770689 0.039927
0.363460 0.770157 0.040177
0.394525 0.769619 0.040442
0.432007 0.769078 0.040721
0.469449 0.768532 0.041012
0.506849 0.767983 0.041315
0.544204 0.767430 0.041628
0.581509 0.766873 0.041951
0.618763 0.766314 0.042281
0.655962 0.765751 0.042619
0.693105 0.765185 0.042962
0.730188 0.764616 0.043309
0.767210 0.764043 0.043659
0.804169 0.763467 0.044010
0.841063 0.762887 0.044361
0.877892 0.762303 0.044710
0.914653 0.761714 0.045055
0.951346 0.761121 0.045396
0.987971 0.760523 0.045729
1.000000 0.757595 0.103628
1.000000 0.755333 0.177172
1.000000 0.754724 0.239157
0.021583 0.806698 0.038686
0.052823 0.806196 0.038821
0.084069 0.805683 0.038976
0.115314 0.805161 0.039150
0.146553 0.804630 0.039341
0.177782 0.804091 0.039550
0.208994 0.803546 0.039775
0.240186 0.802993 0.040016
0.271353 0.802435 0.040272
0.302490 0.801871 0.040542
0.333594 0.801301 0.040826
0.364661 0.800728 0.041121
0.395686 0.800149 0.041428
0.429892 0.799567 0.041745
0.467277 0.798980 0.042070
0.504610 0.798390 0.042403
0.541890 0.797796 0.042743
0.579113 0.797198 0.043087
0.616278 0.796597 0.043436
0.653382 0.795992 0.043786
0.690423 0.795383 0.044138
0.727400 0.794770 0.044488
0.764310 0.794153 0.044836
0.801153 0.793531 0.045180
0.837928 0.792905 0.045518
0.874632 0.792273 0.045848
0.911267 0.791635 0.046169
0.947831 0.790991 0.046479
0.984324 0.790340 0.046776
1.000000 0.786807 0.101622
1.000000 0.783181 0.183317
1.000000 0.781563 0.251102
0.022922 0.837545 0.039217
0.054225 0.836991 0.039415
0.085520 0.836428 0.039630
0.116801 0.835857 0.039861
0.148064 0.835279 0.040108
0.179303 0.834694 0.040369
0.210514 0.834103 0.040644
0.241693 0.833505 0.040932
0.272836 0.832902 0.041232
0.303940 0.832295 0.041542
0.334999 0.831682 0.041862
0.366012 0.831065 0.042191
0.396975 0.830444 0.042526
0.427884 0.829818 0.042868
0.465189 0.829189 0.043214
0.502436 0.828555 0.043563
0.539623 0.827917 0.043914
0.576746 0.827276 0.044265
0.613805 0.826630 0.044615
0.650797 0.825979 0.044962
0.687721 0.825324 0.045304
0.724577 0.824664 0.045639
0.761361 0.823999 0.045967
0.798076 0.823328 0.046284
0.834718 0.822650 0.046589
0.871288 0.821966 0.046880
0.907786 0.821275 0.047155
0.944212 0.820575 0.047412
0.980566 0.819867 0.047649
1.000000 0.815938 0.097850
1.000000 0.810707 0.189213
1.000000 0.807942 0.263658
0.024662 0.868151 0.039949
0.055997 0.867547 0.040201
0.087310 0.866934 0.040468
0.118597 0.866315 0.040748
0.149853 0.865689 0.041040
0.181074 0.865057 0.041344
0.212257 0.864419 0.041658
0.243397 0.863776 0.041981
0.274490 0.863128 0.042312
0.305535 0.862475 0.042650
0.336526 0.861818 0.042993
0.367462 0.861156 0.043341
0.398340 0.860490 0.043691
0.429157 0.859820 0.044042
0.463137 0.859145 0.044393
0.500278 0.858466 0.044742
0.537352 0.857782 0.045087
0.574358 0.857094 0.045427
0.611293 0.856400 0.045759
