omv/luts/27_old_world_detective.cube
# Original OMV LUT; redistribution permitted with OMV.
TITLE "Old World Detective"
LUT_3D_SIZE 32
DOMAIN_MIN 0.0 0.0 0.0
DOMAIN_MAX 1.0 1.0 1.0
0.033000 0.042000 0.040000
0.050438 0.045889 0.043889
0.067912 0.049815 0.047815
0.085420 0.053775 0.051775
0.102964 0.057770 0.055770
0.120541 0.061799 0.059799
0.138151 0.065860 0.063860
0.155793 0.069955 0.067955
0.173468 0.074081 0.072081
0.191174 0.078238 0.076238
0.208910 0.082426 0.080426
0.226676 0.086644 0.084644
0.244477 0.090890 0.088888
0.262388 0.095150 0.093128
0.280445 0.099416 0.097350
0.298661 0.103683 0.101551
0.317048 0.107947 0.105726
0.335618 0.112203 0.109873
0.354381 0.116447 0.113988
0.373347 0.120676 0.118068
0.392526 0.124886 0.122110
0.411924 0.129074 0.126113
0.431550 0.133236 0.130073
0.451410 0.137370 0.133989
0.471509 0.141472 0.137858
0.491852 0.145541 0.141680
0.512443 0.149575 0.145453
0.533284 0.153571 0.149176
0.554378 0.157528 0.152848
0.575727 0.161444 0.156469
0.597329 0.165318 0.160037
0.619185 0.169149 0.163553
0.046226 0.061032 0.053226
0.061201 0.066330 0.057233
0.078790 0.071661 0.061274
0.096412 0.075734 0.065347
0.114066 0.079840 0.069453
0.131752 0.083978 0.073591
0.149469 0.088146 0.077759
0.167216 0.092345 0.081958
0.184993 0.096573 0.086186
0.202817 0.100829 0.090434
0.220748 0.105101 0.094667
0.238805 0.109385 0.098882
0.257001 0.113675 0.103074
0.275349 0.117968 0.107239
0.293861 0.122258 0.111375
0.312548 0.126541 0.115477
0.331422 0.130814 0.119544
0.350491 0.135072 0.123572
0.369764 0.139312 0.127560
0.389249 0.143531 0.131504
0.408953 0.147726 0.135403
0.428881 0.151894 0.139256
0.449041 0.156031 0.143060
0.469435 0.160137 0.146815
0.490067 0.164208 0.150519
0.510940 0.168244 0.154172
0.532056 0.172241 0.157774
0.553415 0.176200 0.161323
0.575018 0.180117 0.164821
0.596865 0.183994 0.168266
0.618953 0.187829 0.171660
0.641279 0.191621 0.175003
0.059838 0.080451 0.066838
0.072343 0.085859 0.070956
0.090040 0.091298 0.075105
0.107768 0.096768 0.079284
0.125526 0.102268 0.083494
0.143314 0.106507 0.087733
0.161158 0.110774 0.091977
0.179093 0.115063 0.096204
0.197133 0.119369 0.100411
0.215293 0.123688 0.104594
0.233587 0.128013 0.108749
0.252027 0.132342 0.112872
0.270625 0.136668 0.116962
0.289392 0.140988 0.121015
0.308338 0.145298 0.125029
0.327474 0.149595 0.129001
0.346806 0.153874 0.132929
0.366343 0.158133 0.136811
0.386091 0.162369 0.140646
0.406056 0.166578 0.144433
0.426243 0.170759 0.148169
0.446657 0.174908 0.151855
0.467301 0.179024 0.155490
0.488177 0.183105 0.159072
0.509286 0.187150 0.162603
0.530629 0.191156 0.166081
0.552207 0.195124 0.169508
0.574018 0.199051 0.172883
0.596060 0.202937 0.176208
0.618331 0.206783 0.179483
0.640827 0.210587 0.182709
0.663544 0.214350 0.185888
0.073813 0.100233 0.080813
0.086421 0.105744 0.085034
0.101640 0.111284 0.089280
0.119491 0.116857 0.093518
0.137413 0.122458 0.097738
0.155420 0.128082 0.101937
0.173529 0.133723 0.106110
0.191754 0.138086 0.110254
0.210108 0.142457 0.114366
0.228602 0.146830 0.118442
0.247250 0.151201 0.122481
0.266062 0.155567 0.126480
0.285047 0.159924 0.130436
0.304215 0.164267 0.134347
0.323574 0.168593 0.138213
0.343131 0.172899 0.142030
0.362893 0.177183 0.145799
0.382864 0.181441 0.149517
0.403051 0.185670 0.153184
0.423457 0.189870 0.156800
0.444085 0.194037 0.160364
0.464937 0.198169 0.163875
0.486014 0.202266 0.167335
0.507318 0.206326 0.170742
0.528847 0.210347 0.174099
0.550600 0.214330 0.177406
0.572575 0.218273 0.180663
0.594769 0.222175 0.183872
0.617179 0.226038 0.187035
0.639799 0.229860 0.190153
0.662625 0.233642 0.193228
0.685649 0.237385 0.196263
0.088129 0.120372 0.095057
0.100860 0.125999 0.099270
0.113658 0.131655 0.103459
0.131701 0.137332 0.107622
0.149843 0.143027 0.111755
0.168096 0.148734 0.115854
0.186474 0.154448 0.119917
0.204990 0.160165 0.123942
0.223654 0.165881 0.127925
0.242478 0.170300 0.131865
0.261470 0.174710 0.135760
0.280641 0.179107 0.139608
0.299997 0.183487 0.143408
0.319545 0.187847 0.147158
0.339293 0.192185 0.150858
0.359244 0.196497 0.154507
0.379405 0.200782 0.158103
0.399777 0.205037 0.161648
0.420365 0.209259 0.165141
0.441171 0.213448 0.168581
0.462194 0.217602 0.171970
0.483436 0.221719 0.175309
0.504895 0.225798 0.178597
0.526571 0.229839 0.181837
0.548460 0.233841 0.185029
0.570560 0.237804 0.188175
0.592867 0.241727 0.191277
0.615375 0.245611 0.194337
0.638079 0.249457 0.197358
0.660972 0.253263 0.200341
0.684047 0.257032 0.203290
0.707295 0.260765 0.206208
0.102704 0.140969 0.109130
0.115586 0.146710 0.113251
0.128564 0.152467 0.117338
0.144232 0.158236 0.121387
0.162603 0.164011 0.125397
0.181109 0.169789 0.129365
0.199759 0.175565 0.133289
0.218566 0.181335 0.137167
0.237537 0.187095 0.140997
0.256682 0.192842 0.144779
0.276009 0.198573 0.148511
0.295523 0.202993 0.152192
0.315231 0.207390 0.155822
0.335139 0.211762 0.159400
0.355250 0.216106 0.162925
0.375568 0.220420 0.166399
0.396095 0.224703 0.169821
0.416833 0.228952 0.173192
0.437783 0.233166 0.176512
0.458944 0.237343 0.179782
0.480317 0.241483 0.183004
0.501898 0.245586 0.186179
0.523686 0.249649 0.189309
0.545677 0.253674 0.192396
0.567867 0.257660 0.195441
0.590250 0.261607 0.198448
0.612821 0.265516 0.201419
0.635572 0.269387 0.204356
0.658496 0.273221 0.207263
0.681584 0.277019 0.210143
0.704826 0.280783 0.212999
0.728213 0.284515 0.215837
0.117354 0.162064 0.122851
0.130407 0.167902 0.126846
0.143580 0.173746 0.130798
0.156886 0.179591 0.134706
0.175495 0.185434 0.138567
0.194258 0.191271 0.142380
0.213183 0.197097 0.146144
0.232278 0.202909 0.149857
0.251551 0.208704 0.153520
0.271009 0.214478 0.157131
0.290656 0.220230 0.160689
0.310499 0.225956 0.164196
0.330540 0.231654 0.167651
0.350784 0.236031 0.171054
0.371232 0.240377 0.174406
0.391885 0.244689 0.177708
0.412745 0.248965 0.180961
0.433811 0.253206 0.184165
0.455082 0.257409 0.187324
0.476556 0.261574 0.190438
0.498230 0.265700 0.193509
0.520100 0.269788 0.196540
0.542162 0.273837 0.199534
0.564410 0.277848 0.202492
0.586838 0.281820 0.205417
0.609439 0.285755 0.208314
0.632204 0.289654 0.211185
0.655126 0.293517 0.214034
0.678193 0.297347 0.216865
0.701396 0.301144 0.219682
0.724724 0.304910 0.222490
0.748163 0.308648 0.225292
0.131915 0.183671 0.136117
0.145157 0.189589 0.139961
0.158540 0.195505 0.143756
0.172074 0.201412 0.147502
0.188349 0.207309 0.151197
0.207373 0.213190 0.154840
0.226572 0.219054 0.158432
0.245953 0.224897 0.161972
0.265521 0.230716 0.165460
0.285280 0.236509 0.168896
0.305235 0.242273 0.172280
0.325388 0.248007 0.175614
0.345741 0.253708 0.178898
0.366296 0.259375 0.182133
0.387053 0.265006 0.185321
0.408011 0.269310 0.188463
0.429169 0.273577 0.191561
0.450524 0.277806 0.194617
0.472074 0.281996 0.197634
0.493814 0.286147 0.200614
0.515740 0.290259 0.203560
0.537846 0.294332 0.206475
0.560125 0.298368 0.209362
0.582570 0.302366 0.212225
0.605173 0.306327 0.215067
0.627925 0.310254 0.217892
0.650815 0.314146 0.220705
0.673833 0.318007 0.223510
0.696967 0.321837 0.226312
0.720204 0.325639 0.229114
0.743531 0.329416 0.231924
0.766935 0.333169 0.234746
0.146254 0.205791 0.148853
0.159701 0.211774 0.152529
0.173307 0.217744 0.156154
0.187079 0.223699 0.159727
0.201025 0.229635 0.163248
0.220312 0.235549 0.166717
0.239784 0.241438 0.170134
0.259445 0.247300 0.173500
0.279300 0.253132 0.176815
0.299349 0.258933 0.180081
0.319596 0.264701 0.183299
0.340040 0.270433 0.186470
0.360683 0.276130 0.189596
0.381524 0.281789 0.192678
0.402560 0.287410 0.195720
0.423789 0.292992 0.198723
0.445208 0.298535 0.201691
0.466812 0.302748 0.204625
0.488597 0.306922 0.207529
0.510557 0.311057 0.210407
0.532684 0.315154 0.213262
0.554971 0.319212 0.216097
0.577410 0.323235 0.218918
0.599992 0.327221 0.221727
0.622704 0.331174 0.224530
0.645538 0.335095 0.227332
0.668481 0.338985 0.230136
0.691520 0.342848 0.232950
0.714641 0.346685 0.235777
0.737830 0.350498 0.238624
0.761071 0.354292 0.241497
0.784349 0.358068 0.244401
0.160268 0.228414 0.161015
0.173934 0.234445 0.164517
0.187774 0.240455 0.167967
0.201792 0.246442 0.171365
0.215994 0.252403 0.174713
0.232964 0.258335 0.178010
0.252706 0.264236 0.181258
0.272642 0.270105 0.184459
0.292773 0.275940 0.187613
0.313099 0.281738 0.190723
0.333620 0.287500 0.193790
0.354336 0.293223 0.196818
0.375245 0.298907 0.199808
0.396343 0.304551 0.202763
0.417627 0.310155 0.205686
0.439093 0.315719 0.208580
0.460735 0.321243 0.211449
0.482547 0.326727 0.214296
0.504522 0.332172 0.217126
0.526652 0.336289 0.219941
0.548929 0.340369 0.222748
0.571342 0.344412 0.225550
0.593881 0.348421 0.228352
0.616535 0.352398 0.231159
0.639292 0.356344 0.233977
0.662138 0.360261 0.236811
0.685060 0.364153 0.239667
0.708043 0.368022 0.242550
0.731071 0.371870 0.245468
0.754127 0.375701 0.248426
0.777195 0.379518 0.251432
0.800257 0.383325 0.254491
0.173881 0.251521 0.172590
0.187781 0.257582 0.175919
0.201864 0.263615 0.179198
0.216135 0.269618 0.182429
0.230595 0.275589 0.185612
0.245248 0.281525 0.188750
0.265256 0.287426 0.191844
0.285458 0.293290 0.194897
0.305854 0.299115 0.197911
0.326442 0.304900 0.200887
0.347220 0.310645 0.203830
0.368185 0.316349 0.206742
0.389334 0.322012 0.209627
0.410661 0.327634 0.212488
0.432161 0.333215 0.215328
0.453827 0.338755 0.218152
0.475653 0.344255 0.220964
0.497629 0.349716 0.223768
0.519748 0.355138 0.226570
0.541998 0.360525 0.229373
0.564370 0.365875 0.232184
0.586852 0.369903 0.235007
0.609431 0.373899 0.237848
0.632093 0.377866 0.240713
0.654826 0.381806 0.243608
0.677613 0.385723 0.246540
0.700440 0.389619 0.249514
0.723288 0.393497 0.252539
0.746141 0.397362 0.255620
0.768980 0.401216 0.258765
0.791786 0.405063 0.261982
0.814538 0.408908 0.265278
0.187051 0.275078 0.183593
0.201196 0.281151 0.186760
0.215531 0.287190 0.189882
0.230059 0.293193 0.192960
0.244780 0.299159 0.195999
0.259694 0.305086 0.198998
0.277381 0.310972 0.201963
0.297840 0.316818 0.204894
0.318488 0.322621 0.207796
0.339322 0.328382 0.210671
0.360337 0.334101 0.213524
0.381528 0.339777 0.216358
0.402889 0.345410 0.219177
0.424415 0.351002 0.221986
0.446096 0.356552 0.224788
0.467926 0.362062 0.227590
0.489894 0.367532 0.230395
0.511990 0.372965 0.233210
0.534204 0.378362 0.236039
0.556523 0.383724 0.238888
0.578935 0.389054 0.241763
0.601427 0.394354 0.244671
0.623983 0.399627 0.247617
0.646589 0.403584 0.250609
0.669228 0.407520 0.253654
0.691884 0.411438 0.256757
0.714538 0.415341 0.259928
0.737172 0.419233 0.263172
0.759767 0.423118 0.266499
0.782301 0.427000 0.269916
0.804754 0.430884 0.273432
0.827103 0.434774 0.277055
0.199764 0.299040 0.194071
0.214165 0.305108 0.197095
0.228759 0.311136 0.200082
0.243547 0.317124 0.203033
0.258527 0.323069 0.205954
0.273699 0.328971 0.208845
0.289058 0.334829 0.211712
0.309764 0.340643 0.214558
0.330650 0.346413 0.217386
0.351711 0.352138 0.220201
0.372941 0.357820 0.223006
0.394333 0.363457 0.225808
0.415880 0.369052 0.228610
0.437571 0.374605 0.231419
0.459399 0.380118 0.234238
0.481353 0.385591 0.237073
0.503421 0.391026 0.239931
0.525591 0.396426 0.242818
0.547850 0.401792 0.245739
0.570185 0.407127 0.248701
0.592581 0.412433 0.251711
0.615022 0.417714 0.254776
0.637492 0.422972 0.257903
0.659974 0.428211 0.261100
0.682449 0.433434 0.264374
0.704899 0.437354 0.267732
0.727304 0.441267 0.271184
0.749642 0.445176 0.274738
0.771893 0.449085 0.278402
0.794034 0.453000 0.282184
0.816053 0.456924 0.286085
0.838039 0.460845 0.290007
0.212036 0.323353 0.204100
0.226701 0.329397 0.207010
0.241560 0.335397 0.209892
0.256610 0.341351 0.212750
0.271848 0.347260 0.215589
0.287272 0.353122 0.218412
0.302876 0.358938 0.221223
0.321235 0.364707 0.224027
0.342343 0.370430 0.226828
0.363613 0.376108 0.229632
0.385035 0.381741 0.232443
0.406602 0.387331 0.235268
0.428303 0.392878 0.238111
0.450128 0.398384 0.240978
0.472065 0.403850 0.243877
0.494103 0.409280 0.246812
0.516226 0.414674 0.249791
0.538423 0.420035 0.252820
0.560677 0.425367 0.255907
0.582973 0.430671 0.259059
0.605295 0.435951 0.262282
0.627624 0.441210 0.265586
0.649942 0.446453 0.268978
0.672231 0.451682 0.272466
0.694470 0.456901 0.276058
0.716638 0.462116 0.279765
0.738714 0.467331 0.283593
0.760707 0.471255 0.287514
0.782691 0.475175 0.291433
0.804667 0.479087 0.295345
0.826637 0.482992 0.299250
0.848599 0.486889 0.303147
0.223913 0.347948 0.213786
0.238850 0.353950 0.216618
0.253977 0.359903 0.219436
0.269290 0.365808 0.222244
0.284784 0.371663 0.225047
0.300453 0.377470 0.227848
0.316290 0.383229 0.230654
0.332290 0.388940 0.233470
0.353603 0.394604 0.236300
0.375060 0.400222 0.239152
0.396651 0.405796 0.242030
0.418364 0.411326 0.244941
0.440189 0.416816 0.247891
0.462112 0.422266 0.250888
0.484120 0.427678 0.253937
0.506199 0.433057 0.257047
0.528333 0.438403 0.260223
0.550507 0.443721 0.263475
0.572703 0.449012 0.266810
0.594905 0.454282 0.270236
0.617092 0.459532 0.273761
0.639246 0.464768 0.277394
0.661347 0.469993 0.281144
0.683373 0.475212 0.285018
0.705360 0.480425 0.288941
0.727342 0.485632 0.292858
0.749316 0.490832 0.296767
0.771282 0.496024 0.300670
0.793241 0.501209 0.304564
0.815194 0.505095 0.308447
0.837184 0.508976 0.312278
0.859233 0.512850 0.316039
0.235472 0.372747 0.223265
0.250687 0.378687 0.226066
0.266084 0.384576 0.228869
0.281659 0.390413 0.231678
0.297403 0.396199 0.234498
0.313310 0.401935 0.237336
0.329370 0.407622 0.240196
0.345574 0.413260 0.243085
0.364493 0.418852 0.246010
0.386115 0.424398 0.248976
0.407849 0.429900 0.251991
0.429680 0.435361 0.255062
0.451595 0.440782 0.258195
0.473580 0.446167 0.261398
0.495619 0.451518 0.264679
0.517696 0.456838 0.268047
0.539794 0.462130 0.271508
0.561895 0.467397 0.275071
0.583979 0.472644 0.278745
0.606028 0.477874 0.282539
0.628028 0.483092 0.286447
0.650013 0.488303 0.290368
0.671992 0.493508 0.294282
0.693963 0.498705 0.298189
0.715927 0.503895 0.302088
0.737883 0.509076 0.305979
0.759840 0.514251 0.309850
0.781840 0.519423 0.313655
0.803889 0.524592 0.317392
0.825994 0.529754 0.321058
0.848156 0.534907 0.324655
0.870382 0.538758 0.328182
0.246818 0.397659 0.232703
0.262316 0.403518 0.235529
0.277985 0.409323 0.238374
0.293819 0.415076 0.241244
0.309807 0.420776 0.244146
0.325942 0.426425 0.247085
0.342211 0.432024 0.250068
0.358604 0.437575 0.253102
0.375108 0.443080 0.256195
0.396872 0.448541 0.259353
0.418721 0.453960 0.262583
0.440639 0.459340 0.265895
0.462610 0.464683 0.269295
0.484619 0.469993 0.272793
0.506648 0.475273 0.276395
0.528679 0.480526 0.280112
0.550692 0.485757 0.283952
0.572682 0.490972 0.287875
0.594665 0.496181 0.291794
0.616641 0.501383 0.295705
0.638609 0.506577 0.299609
0.660570 0.511764 0.303506
0.682523 0.516942 0.307394
0.704488 0.522118 0.311243
0.726490 0.527294 0.315024
0.748534 0.532467 0.318734
0.770625 0.537637 0.322376
0.792766 0.542798 0.325947
0.814963 0.547950 0.329449
0.837219 0.553090 0.332880
0.859537 0.558215 0.336242
0.881920 0.563323 0.339533
0.258089 0.422582 0.242297
0.273872 0.428340 0.245211
0.289812 0.434043 0.248165
0.305901 0.439692 0.251166
0.322127 0.445289 0.254221
0.338478 0.450834 0.257336
0.354942 0.456331 0.260520
0.371505 0.461780 0.263779
0.388154 0.467184 0.267122
0.407454 0.472547 0.270557
0.429389 0.477870 0.274092
0.451361 0.483158 0.277735
0.473354 0.488412 0.281496
0.495348 0.493638 0.285380
0.517335 0.498851 0.289302
0.539315 0.504057 0.293218
0.561289 0.509257 0.297127
0.583255 0.514448 0.301029
0.605213 0.519632 0.304922
0.627164 0.524808 0.308803
0.649133 0.529987 0.312627
0.671131 0.535168 0.316383
0.693163 0.540349 0.320068
0.715234 0.545527 0.323684
0.737349 0.550699 0.327230
0.759511 0.555863 0.330706
0.781726 0.561017 0.334112
0.803996 0.566157 0.337448
0.826324 0.571282 0.340714
0.848715 0.576390 0.343910
0.871170 0.581477 0.347037
0.893692 0.586543 0.350095
0.269450 0.447401 0.252272
0.285520 0.453039 0.255348
0.301730 0.458621 0.258487
0.318068 0.464149 0.261697
0.334522 0.469624 0.264986
0.351077 0.475049 0.268362
0.367719 0.480426 0.271832
0.384434 0.485758 0.275405
0.401204 0.491048 0.279090
0.418013 0.496299 0.282896
0.440002 0.501518 0.286809
0.461987 0.506729 0.290729
0.483965 0.511933 0.294642
0.505936 0.517129 0.298549
0.527899 0.522318 0.302447
0.549854 0.527499 0.306338
0.571806 0.532676 0.310203
0.593772 0.537859 0.314003
0.615759 0.543047 0.317732
0.637773 0.548237 0.321393
0.659819 0.553425 0.324983
0.681900 0.558610 0.328504
0.704023 0.563788 0.331954
0.726191 0.568956 0.335335
0.748408 0.574113 0.338645
0.770677 0.579257 0.341885
0.793002 0.584384 0.345056
0.815386 0.589492 0.348158
0.837830 0.594580 0.351191
0.860339 0.599645 0.354156
0.882913 0.604686 0.357053
0.905554 0.609701 0.359883
0.281098 0.471993 0.262885
0.297455 0.477490 0.266205
0.313931 0.482931 0.269614
0.330512 0.488318 0.273120
0.347183 0.493654 0.276733
0.363928 0.498941 0.280461
0.380732 0.504183 0.284313
0.397559 0.509398 0.288237
0.414380 0.514606 0.292154
0.431194 0.519807 0.296065
0.450582 0.525001 0.299969
0.472542 0.530187 0.303865
0.494494 0.535365 0.307752
0.516444 0.540546 0.311595
0.538401 0.545736 0.315369
0.560371 0.550933 0.319073
0.582361 0.556133 0.322708
0.604375 0.561333 0.326273
0.626418 0.566531 0.329768
0.648496 0.571724 0.333193
0.670612 0.576910 0.336548
0.692770 0.582085 0.339833
0.714975 0.587247 0.343048
0.737230 0.592395 0.346194
0.759537 0.597525 0.349270
0.781901 0.602636 0.352278
0.804323 0.607726 0.355218
0.826805 0.612791 0.358091
0.849350 0.617832 0.360897
0.871959 0.622845 0.363637
0.894633 0.627829 0.366313
0.917373 0.632783 0.368924
0.293260 0.496220 0.274423
0.309903 0.501555 0.278076
0.326640 0.506835 0.281848
0.343451 0.512064 0.285742
0.360277 0.517277 0.289664
0.377095 0.522482 0.293579
0.393907 0.527681 0.297487
0.410711 0.532872 0.301388
0.427507 0.538055 0.305281
0.444294 0.543232 0.309159
0.461075 0.548420 0.312977
0.483016 0.553618 0.316725
0.504964 0.558825 0.320405
0.526923 0.564037 0.324014
0.548900 0.569251 0.327554
0.570899 0.574464 0.331023
0.592925 0.579674 0.334423
0.614984 0.584878 0.337752
0.637080 0.590072 0.341011
0.659216 0.595255 0.344201
0.681395 0.600425 0.347322
0.703623 0.605578 0.350373
0.725901 0.610713 0.353356
0.748233 0.615827 0.356272
0.770620 0.620919 0.359120
0.793065 0.625986 0.361902
0.815569 0.631027 0.364619
0.838135 0.636040 0.367271
0.860763 0.641022 0.369859
0.883454 0.645973 0.372386
0.906209 0.650891 0.374851
0.929027 0.655774 0.377256
0.306170 0.519945 0.287170
0.322993 0.525155 0.291090
0.339809 0.530358 0.295003
0.356618 0.535554 0.298909
0.373419 0.540742 0.302806
0.390212 0.545922 0.306696
0.406993 0.551102 0.310557
0.423759 0.556298 0.314349
0.440518 0.561507 0.318073
0.457275 0.566726 0.321727
0.474037 0.571951 0.325311
0.493390 0.577180 0.328825
0.515339 0.582410 0.332269
0.537310 0.587638 0.335643
0.559307 0.592861 0.338947
0.581334 0.598076 0.342181
0.603396 0.603281 0.345345
0.625497 0.608473 0.348441
0.647640 0.613650 0.351467
0.669829 0.618810 0.354426
0.692066 0.623951 0.357317
0.714354 0.629070 0.360141
0.736696 0.634164 0.362899
0.759094 0.639234 0.365592
0.781548 0.644275 0.368221
0.804061 0.649287 0.370786
0.826634 0.654268 0.373290
0.849267 0.659216 0.375733
0.871961 0.664131 0.378117
0.894716 0.669009 0.380443
0.917532 0.673850 0.382712
0.940408 0.678654 0.384927
0.319328 0.543425 0.300328
0.336127 0.548611 0.304223
0.352916 0.553788 0.308109
0.369684 0.558976 0.311945
0.386429 0.564182 0.315713
0.403160 0.569403 0.319411
0.419882 0.574635 0.323040
0.436602 0.579876 0.326598
0.453326 0.585122 0.330087
0.470059 0.590369 0.333505
0.486807 0.595616 0.336854
0.503576 0.600860 0.340132
0.525531 0.606097 0.343341
0.547514 0.611325 0.346480
0.569532 0.616541 0.349550
0.591586 0.621744 0.352552
0.613682 0.626929 0.355486
0.635821 0.632097 0.358353
0.658007 0.637243 0.361153
0.680242 0.642367 0.363887
0.702529 0.647465 0.366556
0.724870 0.652536 0.369162
0.747265 0.657578 0.371705
0.769718 0.662590 0.374187
0.792227 0.667569 0.376608
0.814794 0.672515 0.378970
0.837420 0.677425 0.381276
0.860104 0.682298 0.383525
0.882846 0.687133 0.385720
0.905646 0.691929 0.387862
0.928503 0.696684 0.389954
0.951414 0.701398 0.391997
0.332363 0.566855 0.313325
0.349082 0.572073 0.317067
0.365778 0.577308 0.320740
0.382459 0.582555 0.324343
0.399132 0.587812 0.327877
0.415801 0.593076 0.331339
0.432475 0.598343 0.334732
0.449157 0.603610 0.338055
0.465854 0.608876 0.341308
0.482570 0.614136 0.344492
0.499310 0.619388 0.347606
0.516078 0.624629 0.350651
0.535460 0.629858 0.353628
0.557458 0.635071 0.356537
0.579495 0.640266 0.359380
0.601576 0.645441 0.362156
0.623702 0.650593 0.364866
0.645875 0.655721 0.367512
0.668099 0.660823 0.370095
0.690375 0.665896 0.372616
0.712704 0.670939 0.375075
0.735087 0.675950 0.377475
0.757526 0.680927 0.379816
0.780021 0.685869 0.382101
0.802572 0.690774 0.384330
0.825179 0.695642 0.386506
0.847843 0.700470 0.388630
0.870561 0.705257 0.390704
0.893333 0.710002 0.392729
0.916158 0.714705 0.394709
0.939034 0.719364 0.396645
0.961960 0.723978 0.398539
0.345003 0.590485 0.325638
0.361623 0.595760 0.329145
0.378233 0.601043 0.332583
0.394841 0.606331 0.335950
0.411453 0.611621 0.339248
0.428073 0.616909 0.342475
0.444707 0.622193 0.345634
0.461360 0.627470 0.348723
0.478037 0.632738 0.351743
0.494741 0.637994 0.354695
0.511477 0.643235 0.357580
0.528249 0.648458 0.360398
0.545059 0.653662 0.363150
0.567072 0.658845 0.365837
0.589130 0.664003 0.368460
0.611234 0.669136 0.371020
0.633387 0.674240 0.373518
0.655591 0.679315 0.375956
0.677846 0.684358 0.378334
0.700155 0.689367 0.380654
0.722518 0.694341 0.382919
0.744934 0.699279 0.385128
0.767406 0.704179 0.387285
0.789931 0.709039 0.389390
0.812511 0.713858 0.391447
0.835143 0.718635 0.393455
0.857828 0.723370 0.395419
0.880563 0.728060 0.397339
0.903346 0.732705 0.399219
0.926177 0.737304 0.401059
0.949052 0.741857 0.402864
0.971968 0.746362 0.404634
0.357156 0.614335 0.337159
0.373692 0.619648 0.340431
0.390231 0.624960 0.343633
0.406779 0.630270 0.346766
0.423341 0.635574 0.349830
0.439922 0.640868 0.352826
0.456526 0.646152 0.355753
0.473158 0.651422 0.358613
0.489821 0.656675 0.361407
0.506520 0.661909 0.364136
0.523256 0.667122 0.366799
0.540033 0.672311 0.369399
0.556854 0.677475 0.371936
0.576302 0.682612 0.374412
0.598378 0.687718 0.376828
0.620504 0.692794 0.379185
0.642681 0.697835 0.381485
0.664909 0.702842 0.383729
0.687191 0.707812 0.385920
0.709525 0.712744 0.388057
0.731912 0.717637 0.390145
0.754352 0.722488 0.392183
0.776844 0.727297 0.394175
0.799388 0.732063 0.396123
0.821981 0.736784 0.398028
0.844624 0.741460 0.399893
0.867313 0.746089 0.401720
0.890047 0.750671 0.403512
0.912822 0.755205 0.405271
0.935638 0.759690 0.407000
0.958489 0.764126 0.408701
0.981374 0.768513 0.410378
0.368783 0.638367 0.347889
0.385250 0.643698 0.350928
0.401732 0.649021 0.353899
0.418232 0.654333 0.356802
0.434756 0.659632 0.359638
0.451308 0.664916 0.362408
0.467891 0.670181 0.365113
0.484509 0.675425 0.367753
0.501165 0.680646 0.370330
0.517862 0.685842 0.372845
0.534602 0.691011 0.375299
0.551388 0.696150 0.377693
0.568220 0.701258 0.380029
0.585102 0.706332 0.382309
0.607196 0.711372 0.384533
0.629340 0.716375 0.386704
0.651536 0.721339 0.388823
0.673784 0.726264 0.390892
0.696084 0.731147 0.392914
0.718436 0.735988 0.394890
0.740838 0.740785 0.396821
0.763291 0.745537 0.398712
0.785792 0.750243 0.400563
0.808340 0.754902 0.402377
0.830934 0.759513 0.404156
0.853570 0.764075 0.405904
0.876247 0.768588 0.407623
0.898961 0.773050 0.409315
0.921709 0.777462 0.410983
0.944488 0.781823 0.412630
0.967295 0.786132 0.414260
0.990124 0.790390 0.415875
0.379857 0.662538 0.357842
0.396270 0.667867 0.360654
0.412707 0.673181 0.363400
0.429172 0.678478 0.366081
0.445669 0.683754 0.368698
0.462201 0.689007 0.371253
0.478771 0.694236 0.373745
0.495382 0.699437 0.376177
0.512037 0.704609 0.378550
0.528736 0.709750 0.380866
0.545483 0.714857 0.383125
0.562279 0.719930 0.385329
0.579124 0.724966 0.387481
0.596020 0.729963 0.389582
0.615547 0.734920 0.391634
0.637707 0.739835 0.393638
0.659918 0.744708 0.395598
0.682180 0.749536 0.397514
0.704491 0.754318 0.399390
