omv/luts/27_old_world_detective.cube
# Original OMV LUT; redistribution permitted with OMV.
TITLE "Old World Detective"
LUT_3D_SIZE 5
DOMAIN_MIN 0.000000 0.000000 0.000000
DOMAIN_MAX 0.903226 0.903226 0.903226
0.033000 0.042000 0.040000
0.155793 0.069955 0.067955
0.280445 0.099416 0.097350
0.411924 0.129074 0.126113
0.554378 0.157528 0.152848
0.131915 0.183671 0.136117
0.245953 0.224897 0.161972
0.387053 0.265006 0.185321
0.537846 0.294332 0.206475
0.696967 0.321837 0.226312
0.223913 0.347948 0.213786
0.332290 0.388940 0.233470
0.484120 0.427678 0.253937
0.639246 0.464768 0.277394
0.793241 0.501209 0.304564
0.306170 0.519945 0.287170
0.423759 0.556298 0.314349
0.559307 0.592861 0.338947
0.714354 0.629070 0.360141
0.871961 0.664131 0.378117
0.390361 0.686801 0.367041
0.505759 0.723411 0.383934
0.623411 0.758315 0.398202
0.779594 0.790974 0.410531
0.937562 0.821064 0.421820
0.042305 0.051305 0.098982
0.147589 0.079814 0.132008
0.273560 0.109553 0.166589
0.407567 0.138921 0.197476
0.552666 0.166768 0.227753
0.142078 0.203699 0.204114
0.239273 0.244652 0.238427
0.381810 0.275177 0.266502
0.533780 0.303864 0.292701
0.693338 0.330834 0.317436
0.232109 0.368101 0.301836
0.341708 0.408295 0.326250
0.476058 0.446377 0.350668
0.630660 0.483144 0.376821
0.784477 0.510438 0.404056
0.315477 0.538284 0.386800
0.432861 0.574661 0.413592
0.550315 0.611206 0.438037
0.705572 0.647104 0.459792
0.863450 0.681632 0.478871
0.397437 0.705348 0.467040
0.512786 0.741452 0.485190
0.630491 0.775643 0.501024
0.768586 0.807456 0.515057
0.926280 0.836637 0.528016
0.051806 0.060806 0.158161
0.139555 0.089845 0.191716
0.267252 0.119640 0.228032
0.403666 0.148588 0.266721
0.551204 0.175765 0.305837
0.152090 0.223677 0.270321
0.250524 0.255209 0.309220
0.376365 0.285131 0.346799
0.529354 0.313193 0.382440
0.689108 0.339708 0.411576
0.240180 0.387979 0.384231
0.350984 0.427401 0.417254
0.467747 0.464920 0.449121
0.621905 0.492453 0.476453
0.775940 0.519626 0.503452
0.324742 0.556580 0.481871
0.441830 0.593056 0.512945
0.559268 0.629475 0.537755
0.696651 0.664978 0.560448
0.854752 0.698914 0.580865
0.404229 0.723751 0.568146
0.519562 0.759271 0.587737
0.637320 0.792695 0.605182
0.757298 0.823632 0.620824
0.914657 0.851900 0.635217
0.061496 0.070496 0.217529
0.149915 0.099978 0.251948
0.261409 0.129624 0.291386
0.400107 0.158046 0.334318
0.549873 0.184510 0.378335
0.161923 0.234527 0.339651
0.261607 0.265575 0.383573
0.370678 0.294866 0.426198
0.524527 0.322339 0.466444
0.684230 0.348499 0.503792
0.248171 0.407583 0.469710
0.360156 0.446283 0.505985
0.477287 0.474319 0.539562
0.613108 0.501721 0.571528
0.767591 0.528742 0.603051
0.333903 0.574878 0.572385
0.450641 0.611443 0.603665
0.568076 0.647636 0.633797
0.687567 0.682670 0.662244
0.845838 0.706932 0.684160
0.410740 0.741980 0.661434
0.526090 0.776846 0.687094
0.643902 0.809459 0.710634
0.763794 0.839499 0.727712
0.902690 0.866857 0.743227
0.071366 0.080366 0.277075
0.160676 0.110114 0.313538
0.255927 0.139462 0.357231
0.396781 0.167273 0.405160
0.548562 0.193006 0.454449
0.171552 0.245241 0.412404
0.272496 0.275734 0.461584
0.382783 0.304386 0.509108
0.519264 0.331329 0.553430
0.678666 0.357256 0.593567
0.256133 0.426924 0.557885
0.369271 0.455940 0.596364
0.486661 0.483661 0.630241
0.604320 0.510948 0.662078
0.759377 0.537756 0.694100
0.342846 0.593244 0.663044
0.459272 0.629785 0.695034
0.576716 0.665662 0.726339
0.696357 0.691127 0.756249
0.836684 0.714704 0.784266
0.416979 0.760010 0.756012
0.532375 0.794159 0.783257
0.650240 0.825924 0.808270
0.770015 0.855055 0.831052
0.890384 0.881514 0.851817
