omv/luts/27_old_world_detective.cube
# Original OMV LUT; redistribution permitted with OMV.
TITLE "Old World Detective"
LUT_3D_SIZE 8
DOMAIN_MIN 0.000000 0.000000 0.000000
DOMAIN_MAX 0.903226 0.903226 0.903226
0.033000 0.042000 0.040000
0.102964 0.057770 0.055770
0.173468 0.074081 0.072081
0.244477 0.090890 0.088888
0.317048 0.107947 0.105726
0.392526 0.124886 0.122110
0.471509 0.141472 0.137858
0.554378 0.157528 0.152848
0.088129 0.120372 0.095057
0.149843 0.143027 0.111755
0.223654 0.165881 0.127925
0.299997 0.183487 0.143408
0.379405 0.200782 0.158103
0.462194 0.217602 0.171970
0.548460 0.233841 0.185029
0.638079 0.249457 0.197358
0.146254 0.205791 0.148853
0.201025 0.229635 0.163248
0.279300 0.253132 0.176815
0.360683 0.276130 0.189596
0.445208 0.298535 0.201691
0.532684 0.315154 0.213262
0.622704 0.331174 0.224530
0.714641 0.346685 0.235777
0.199764 0.299040 0.194071
0.258527 0.323069 0.205954
0.330650 0.346413 0.217386
0.415880 0.369052 0.228610
0.503421 0.391026 0.239931
0.592581 0.412433 0.251711
0.682449 0.433434 0.264374
0.771893 0.449085 0.278402
0.246818 0.397659 0.232703
0.309807 0.420776 0.244146
0.375108 0.443080 0.256195
0.462610 0.464683 0.269295
0.550692 0.485757 0.283952
0.638609 0.506577 0.299609
0.726490 0.527294 0.315024
0.814963 0.547950 0.329449
0.293260 0.496220 0.274423
0.360277 0.517277 0.289664
0.427507 0.538055 0.305281
0.504964 0.558825 0.320405
0.592925 0.579674 0.334423
0.681395 0.600425 0.347322
0.770620 0.620919 0.359120
0.860763 0.641022 0.369859
0.345003 0.590485 0.325638
0.411453 0.611621 0.339248
0.478037 0.632738 0.351743
0.545059 0.653662 0.363150
0.633387 0.674240 0.373518
0.722518 0.694341 0.382919
0.812511 0.713858 0.391447
0.903346 0.732705 0.399219
0.390361 0.686801 0.367041
0.456062 0.707892 0.377048
0.522416 0.728517 0.386119
0.589544 0.748552 0.394357
0.667803 0.767893 0.401887
0.757150 0.786460 0.408857
0.847139 0.804196 0.415437
0.937562 0.821064 0.421820
0.038292 0.047292 0.073679
0.098122 0.063251 0.092218
0.168800 0.079736 0.111284
0.240100 0.096678 0.128237
0.313429 0.113726 0.145383
0.389753 0.130569 0.162417
0.469621 0.146991 0.179106
0.553362 0.162837 0.195281
0.093993 0.131432 0.131894
0.145687 0.154190 0.151611
0.219952 0.171882 0.168543
0.296846 0.189405 0.185062
0.376855 0.206554 0.201017
0.460243 0.223185 0.216320
0.547055 0.239215 0.230939
0.637115 0.254618 0.244904
0.151957 0.217324 0.190942
0.207109 0.241071 0.206667
0.275502 0.264413 0.221721
0.357334 0.287217 0.236095
0.442265 0.304249 0.249842
0.530054 0.320658 0.263073
0.620242 0.336493 0.275960
0.712152 0.351860 0.288735
0.204771 0.310682 0.241168
0.263956 0.334484 0.254711
0.326146 0.357588 0.267794
0.411683 0.379994 0.280610
0.499397 0.401761 0.293413
0.588546 0.423010 0.306517
0.678167 0.438757 0.320296
0.767078 0.454405 0.335183
0.251370 0.409013 0.285257
0.314784 0.431846 0.298131
0.380386 0.453896 0.311434
0.457693 0.475298 0.325563
0.545700 0.496248 0.340893
0.633578 0.517029 0.356513
0.721561 0.537729 0.371728
0.810244 0.558337 0.386015
0.298373 0.506862 0.330999
0.365594 0.527755 0.346594
0.432780 0.548498 0.362152
0.499890 0.569314 0.377040
0.587890 0.590149 0.390976
0.676443 0.610829 0.403939
0.765776 0.631205 0.415927
0.856036 0.651148 0.426964
0.349972 0.601061 0.382225
0.416308 0.622212 0.395809
0.482846 0.643282 0.408415
0.549871 0.664105 0.420054
0.627910 0.684535 0.430755
0.717084 0.704448 0.440572
0.807114 0.723746 0.449582
0.897960 0.742350 0.457883
0.394440 0.697415 0.424056
0.460109 0.718363 0.434428
0.526466 0.738801 0.443941
0.593611 0.758611 0.452680
0.661562 0.777697 0.460752
0.750902 0.795987 0.468286
0.840842 0.813431 0.475434
0.931157 0.830001 0.482370
0.043650 0.052650 0.107424
0.093341 0.068792 0.126147
0.164188 0.085446 0.145382
0.235935 0.102475 0.165166
0.310007 0.119481 0.185470
0.387154 0.136202 0.203381
0.467874 0.152443 0.221201
0.552445 0.168069 0.238706
0.099888 0.142540 0.166415
0.151894 0.160202 0.186824
0.216289 0.177863 0.207312
0.293727 0.195279 0.227620
0.374319 0.212265 0.244968
0.458279 0.228699 0.261797
0.545599 0.244516 0.278028
0.636056 0.259712 0.293640
0.157601 0.228832 0.228827
0.213140 0.252460 0.248580
0.271648 0.275631 0.267778
0.353916 0.293071 0.283783
0.439231 0.309890 0.299177
0.527302 0.326096 0.314023
0.617618 0.341757 0.328444
0.709451 0.357001 0.342621
0.209708 0.322249 0.286875
0.269317 0.345818 0.304640
0.331890 0.368682 0.319314
0.407395 0.390862 0.333622
0.495257 0.412436 0.347767
0.584360 0.428385 0.362014
0.673689 0.444069 0.376687
0.762090 0.459736 0.392123
0.255919 0.420269 0.338778
0.319756 0.442825 0.352926
0.385649 0.464637 0.367287
0.452740 0.485858 0.382208
0.540695 0.506727 0.397824
0.628539 0.527469 0.413392
0.716679 0.548155 0.428431
0.805562 0.563534 0.442686
0.303630 0.517404 0.387856
0.370897 0.538220 0.403510
0.438028 0.558962 0.418954
0.505116 0.579806 0.433714
0.582832 0.600606 0.447671
0.671465 0.621198 0.460784
0.760901 0.641440 0.473034
0.851267 0.661212 0.484427
0.354858 0.611650 0.438891
0.421090 0.632794 0.452544
0.487587 0.653798 0.465344
0.554617 0.674502 0.477280
0.622365 0.694769 0.488366
0.711578 0.714484 0.498637
0.801637 0.733553 0.508150
0.892483 0.751908 0.516987
0.398425 0.707987 0.481413
0.464070 0.728776 0.492197
0.530434 0.749013 0.502184
0.597597 0.768586 0.511441
0.665560 0.787409 0.520056
0.744564 0.805417 0.528140
0.834446 0.822566 0.535827
0.924641 0.838837 0.543273
0.049072 0.058072 0.141233
0.098941 0.074393 0.160135
0.159636 0.091210 0.179538
0.231958 0.108267 0.199825
0.306759 0.125202 0.220952
0.384705 0.141780 0.242529
0.466244 0.157824 0.264224
0.551603 0.173220 0.283186
0.105800 0.148521 0.201341
0.158128 0.166214 0.222673
0.212654 0.183816 0.244328
0.290627 0.201103 0.265996
0.371783 0.217913 0.287428
0.456287 0.234141 0.308434
0.544080 0.249744 0.326306
0.634886 0.264739 0.343554
0.163181 0.240306 0.267736
0.219113 0.263795 0.289032
0.278054 0.281621 0.309848
0.350424 0.298853 0.330079
0.436101 0.315460 0.349675
0.524421 0.331471 0.366070
0.614825 0.346972 0.381917
0.706532 0.362114 0.397348
0.214578 0.333740 0.331186
0.274613 0.357071 0.350552
0.337562 0.379697 0.369317
0.403018 0.401659 0.387574
0.491001 0.417896 0.402898
0.580022 0.433729 0.418085
0.669016 0.449379 0.433408
0.757087 0.465054 0.449054
0.260477 0.431428 0.388022
0.324735 0.453718 0.405849
0.390907 0.475310 0.423631
0.458085 0.496375 0.439085
0.535677 0.517193 0.454742
0.623535 0.537908 0.470222
0.711833 0.553402 0.485189
0.800908 0.568698 0.499512
0.308959 0.527894 0.442217
0.376186 0.548670 0.460412
0.443245 0.569443 0.475740
0.510316 0.590291 0.490482
0.577747 0.611039 0.504553
0.666457 0.631527 0.517895
0.755988 0.651621 0.530472
0.846450 0.671210 0.542269
0.359659 0.622244 0.495686
0.425795 0.643360 0.509498
0.492258 0.664279 0.522564
0.559294 0.684849 0.534857
0.627072 0.704940 0.546371
0.705998 0.724444 0.557124
0.796077 0.743278 0.567155
0.886910 0.761378 0.576526
0.402317 0.718510 0.539138
0.467946 0.739125 0.550372
0.534320 0.759148 0.560857
0.601503 0.778475 0.570639
0.669475 0.797027 0.579790
0.738137 0.814747 0.588402
0.827951 0.831599 0.596592
0.918013 0.847571 0.604496
0.054556 0.063556 0.175105
0.104599 0.080051 0.194180
0.155226 0.096999 0.213866
0.228150 0.114045 0.234933
0.303665 0.130882 0.257108
0.382387 0.147295 0.279953
0.464711 0.163129 0.303087
0.550815 0.178289 0.326190
0.111719 0.154523 0.236801
0.164376 0.172214 0.259268
0.219356 0.189731 0.282260
0.287531 0.206872 0.305416
0.369233 0.223493 0.328439
0.454253 0.239510 0.351091
0.542481 0.254902 0.373192
0.633591 0.269705 0.394623
0.168694 0.251740 0.307727
0.225024 0.269911 0.330639
0.284394 0.287543 0.353107
0.346851 0.304563 0.374975
0.432867 0.320961 0.396145
0.521407 0.336786 0.416581
0.611857 0.352146 0.436305
0.703387 0.367210 0.452821
0.219386 0.345151 0.376666
0.279848 0.368242 0.397569
0.343164 0.390635 0.417740
0.408877 0.407230 0.437223
0.486633 0.423308 0.456123
0.575536 0.439052 0.474605
0.664150 0.454701 0.490314
0.752070 0.470360 0.505973
0.265056 0.442493 0.438063
0.329732 0.464530 0.456788
0.396171 0.485921 0.475171
0.463414 0.506866 0.493446
0.530645 0.527645 0.511645
0.618565 0.543183 0.527055
0.707015 0.558626 0.542057
0.796272 0.573822 0.556540
0.314275 0.538372 0.493985
0.381453 0.559114 0.512133
0.448427 0.579932 0.529990
0.515482 0.600765 0.547395
0.582952 0.621441 0.561666
0.661411 0.641810 0.575308
0.751031 0.661744 0.588266
0.841579 0.675978 0.600509
0.364374 0.632835 0.547498
0.430422 0.653903 0.564128
0.496855 0.674719 0.580107
0.563900 0.695140 0.592807
0.631706 0.715043 0.604786
0.700339 0.734328 0.616041
0.790431 0.752918 0.626595
0.881240 0.770759 0.636491
0.406118 0.728979 0.594672
0.471737 0.749406 0.608966
0.538126 0.769202 0.619963
0.605328 0.788274 0.630271
0.673307 0.806549 0.639943
0.741942 0.823977 0.649054
0.821358 0.840530 0.657701
0.911273 0.856205 0.666003
0.060101 0.069101 0.209036
0.110313 0.085764 0.228280
0.161293 0.102796 0.248527
0.224490 0.119799 0.270616
0.300704 0.136513 0.294044
0.380176 0.152743 0.318320
0.463253 0.168356 0.343016
0.550060 0.183276 0.367760
0.117632 0.160535 0.272917
0.170629 0.178194 0.296707
0.226060 0.195603 0.321183
0.284428 0.212580 0.345935
0.366658 0.229002 0.370617
0.452165 0.244807 0.394939
0.540790 0.259992 0.418674
0.632157 0.274614 0.441653
0.174136 0.257965 0.348845
0.230869 0.275964 0.373426
0.290664 0.293393 0.397557
0.353517 0.310201 0.421033
0.429527 0.326395 0.443707
0.518253 0.342047 0.465493
0.608708 0.357285 0.486363
0.700011 0.372297 0.506352
0.224136 0.356480 0.423286
0.285026 0.379331 0.445643
0.348701 0.396337 0.467095
0.414653 0.412740 0.487638
0.482154 0.428682 0.507326
0.570905 0.444363 0.526276
0.659160 0.460031 0.544676
0.747038 0.475651 0.562877
0.269668 0.453467 0.488799
0.334759 0.475267 0.508202
0.401454 0.496479 0.526924
0.468731 0.517344 0.545215
0.535926 0.532923 0.563371
0.613621 0.548446 0.581369
0.702217 0.563821 0.599084
0.791647 0.578902 0.613810
0.319578 0.548836 0.545739
0.386674 0.569579 0.563847
0.453567 0.590423 0.581758
0.520610 0.611221 0.599337
0.588118 0.631808 0.616468
0.656323 0.652042 0.633053
0.746024 0.666643 0.646441
0.836647 0.680674 0.659162
0.368999 0.643416 0.599530
0.434969 0.664416 0.616472
0.501376 0.685113 0.632841
0.568432 0.705371 0.648571
0.636265 0.725074 0.663621
0.704923 0.744131 0.675392
0.784696 0.762472 0.686466
0.875470 0.780050 0.696869
0.409827 0.739388 0.648030
0.475444 0.759613 0.662827
0.541851 0.779173 0.676922
0.609074 0.797981 0.690329
0.677056 0.815973 0.700499
0.745659 0.833106 0.710071
0.814665 0.849360 0.719122
0.904421 0.864739 0.727755
0.065705 0.074705 0.243027
0.116085 0.091530 0.262453
0.167495 0.108588 0.283661
0.220959 0.125518 0.306995
0.297855 0.142087 0.331856
0.378054 0.158120 0.357704
0.461849 0.173503 0.384061
0.549315 0.188182 0.410506
0.123530 0.166547 0.309798
0.176874 0.184144 0.335078
0.232757 0.201424 0.361163
0.291630 0.218224 0.387598
0.364044 0.234440 0.413982
0.450010 0.250032 0.439980
0.538995 0.265016 0.465312
0.630571 0.279470 0.489762
0.179505 0.264136 0.391127
0.236645 0.281951 0.417407
0.296860 0.299172 0.443191
0.360095 0.315767 0.468225
0.426076 0.331766 0.492311
0.514956 0.347260 0.515314
0.605374 0.362397 0.537157
0.696399 0.377387 0.557826
0.228834 0.367728 0.471011
0.290153 0.385180 0.494715
0.354178 0.401969 0.517301
0.420350 0.418197 0.538716
0.487893 0.434024 0.558965
0.566132 0.449674 0.578115
0.654155 0.465349 0.596446
0.742005 0.480927 0.614608
0.274328 0.464356 0.540120
0.339830 0.485936 0.559958
0.406767 0.506993 0.578735
0.474035 0.522648 0.596971
0.541223 0.538201 0.615109
0.608693 0.553692 0.633218
0.697429 0.568983 0.651156
0.787024 0.583934 0.668780
0.324866 0.559285 0.597479
0.391843 0.580060 0.615611
0.458661 0.600909 0.633675
0.525695 0.621652 0.651515
0.593240 0.642134 0.668993
0.661510 0.657059 0.685997
0.740963 0.671476 0.702435
0.831651 0.685295 0.718239
0.373534 0.653981 0.651825
0.439433 0.674895 0.669143
0.505821 0.695457 0.685950
0.572889 0.715538 0.702164
0.640747 0.735031 0.717725
0.709424 0.753851 0.732595
0.778870 0.771937 0.746760
0.869596 0.784088 0.757646
0.413447 0.749733 0.701807
0.479068 0.769744 0.717119
0.545498 0.789057 0.731733
0.612741 0.807594 0.745642
0.680723 0.825297 0.758860
0.749287 0.842133 0.771427
0.818198 0.858088 0.780822
0.897457 0.873175 0.789709
0.071366 0.080366 0.277075
0.121957 0.097320 0.296941
0.173814 0.114365 0.319396
0.227861 0.131195 0.344175
0.295102 0.147599 0.370629
0.376002 0.163421 0.398169
0.460480 0.178568 0.426265
0.548562 0.193006 0.454449
0.129403 0.172546 0.347544
0.183102 0.190058 0.374458
0.239435 0.207190 0.402258
0.298802 0.223800 0.430438
0.361381 0.239806 0.458549
0.447777 0.255186 0.486204
0.537084 0.269979 0.513076
0.628822 0.284281 0.538898
0.184801 0.270248 0.434601
0.242352 0.287869 0.462587
0.302981 0.304877 0.489992
0.366583 0.321264 0.516510
0.432834 0.337079 0.541894
0.511512 0.352431 0.565961
0.601851 0.367492 0.588583
0.692547 0.382490 0.609697
0.233486 0.373733 0.519793
0.295234 0.390952 0.544716
0.359600 0.407536 0.568268
0.425975 0.423607 0.590346
0.493532 0.439346 0.610905
0.561221 0.454996 0.629963
0.649137 0.470654 0.648202
0.737046 0.486182 0.666367
0.279049 0.475163 0.591906
0.344959 0.496543 0.611914
0.412096 0.512322 0.630515
0.479324 0.527937 0.648712
0.546531 0.543475 0.666917
0.614097 0.558914 0.685232
0.692644 0.574104 0.703476
0.782394 0.588913 0.721485
0.330125 0.569730 0.649215
0.396955 0.590550 0.667481
0.463705 0.611382 0.685791
0.530732 0.632053 0.703966
0.598313 0.647253 0.721854
0.666645 0.662017 0.739323
0.735842 0.676240 0.756262
0.826583 0.689840 0.772586
0.377977 0.664522 0.704419
0.443814 0.685333 0.722168
0.510187 0.705745 0.739455
0.577268 0.725637 0.756180
0.645149 0.744910 0.772263
0.713841 0.763486 0.787648
0.783273 0.776152 0.802304
0.863617 0.788035 0.816219
0.416979 0.760010 0.756012
0.482612 0.779794 0.771846
0.549067 0.798851 0.786969
0.616331 0.817110 0.801355
0.684310 0.834522 0.815001
0.752829 0.851059 0.827929
0.821633 0.866717 0.840179
0.890384 0.881514 0.851817
