omv/luts/28_capital_wasteland_overcast.cube
# Original OMV LUT; redistribution permitted with OMV.
TITLE "Capital Wasteland Overcast"
LUT_3D_SIZE 8
DOMAIN_MIN 0.000000 0.000000 0.000000
DOMAIN_MAX 0.903226 0.903226 0.903226
0.005000 0.032000 0.028000
0.105754 0.042432 0.038432
0.207153 0.053508 0.049508
0.308978 0.065002 0.061002
0.412311 0.076465 0.072465
0.518686 0.087384 0.083384
0.628890 0.097517 0.093517
0.743445 0.106697 0.102697
0.042250 0.126055 0.065220
0.130557 0.140479 0.076518
0.234746 0.154757 0.087175
0.341602 0.166011 0.096976
0.451836 0.176595 0.105782
0.565895 0.186361 0.113528
0.683960 0.195232 0.120222
0.805944 0.203204 0.125946
0.079164 0.225277 0.100302
0.156054 0.240034 0.108726
0.264545 0.254147 0.116084
0.376618 0.267480 0.122412
0.492376 0.279972 0.127817
0.611656 0.289053 0.132481
0.734026 0.297390 0.136659
0.858790 0.305137 0.140675
0.106849 0.330927 0.124479
0.187977 0.345359 0.129589
0.286947 0.358908 0.134043
0.403517 0.371600 0.138120
0.522983 0.383534 0.142174
0.644571 0.394880 0.146630
0.767235 0.405884 0.151987
0.889668 0.414280 0.158817
0.125511 0.441932 0.139578
0.211895 0.455285 0.143725
0.301264 0.467770 0.148447
0.421151 0.479573 0.154271
0.542048 0.490952 0.161793
0.662953 0.502179 0.170437
0.783770 0.513318 0.179014
0.904427 0.524469 0.187722
0.144710 0.553639 0.156779
0.236820 0.565078 0.164949
0.329302 0.576270 0.173561
0.436096 0.587341 0.182164
0.557297 0.598309 0.190939
0.678303 0.609237 0.199913
0.798764 0.620174 0.209091
0.918397 0.631148 0.218461
0.173940 0.661252 0.185336
0.267577 0.671947 0.194182
0.361277 0.682505 0.203231
0.454642 0.692988 0.212481
0.575730 0.703440 0.221915
0.695893 0.713887 0.231496
0.814939 0.724337 0.241169
0.932744 0.734780 0.250862
0.211023 0.765430 0.215896
0.305299 0.775318 0.225388
0.398722 0.785161 0.235010
0.491052 0.794983 0.244700
0.596310 0.804789 0.254378
0.714394 0.814566 0.263949
0.831074 0.824283 0.273297
0.946383 0.833891 0.282290
0.008420 0.035420 0.083033
0.095269 0.046140 0.098914
0.196820 0.057369 0.115304
0.298902 0.068938 0.126928
0.402984 0.080248 0.138770
0.510235 0.090924 0.150475
0.621381 0.100748 0.161743
0.736884 0.109579 0.172346
0.046205 0.132652 0.126071
0.120520 0.147065 0.143065
0.225115 0.158642 0.154642
0.332517 0.169689 0.165689
0.443378 0.180009 0.176009
0.558084 0.189476 0.185476
0.676751 0.198038 0.194038
0.799235 0.205717 0.201717
0.082449 0.232054 0.169539
0.159707 0.246612 0.179559
0.254467 0.260471 0.188698
0.367034 0.273522 0.196932
0.483257 0.283146 0.204310
0.602909 0.291962 0.210951
0.725499 0.300077 0.217049
0.850267 0.307673 0.222872
0.109057 0.337630 0.199713
0.190677 0.351764 0.206804
0.275929 0.365015 0.213221
0.392894 0.377435 0.219185
0.512616 0.389146 0.224988
0.634257 0.400346 0.230996
0.756710 0.408720 0.237647
0.878605 0.417192 0.245453
0.127184 0.448277 0.221299
0.214137 0.461318 0.227130
0.303947 0.473547 0.233318
0.409893 0.485174 0.240326
0.530801 0.496479 0.248608
0.651674 0.507674 0.257222
0.772482 0.518804 0.265766
0.893076 0.529974 0.274336
0.147331 0.559304 0.243184
0.239755 0.570594 0.251755
0.332219 0.581750 0.260334
0.424975 0.592778 0.268880
0.546239 0.603726 0.277472
0.667220 0.614653 0.286148
0.787584 0.625600 0.294931
0.907067 0.636590 0.303824
0.177286 0.666609 0.272000
0.271093 0.677249 0.280619
0.364858 0.687775 0.289333
0.458198 0.698243 0.298156
0.564994 0.708692 0.307086
0.685002 0.719140 0.316101
0.803850 0.729590 0.325163
0.921431 0.740025 0.334213
0.215170 0.770499 0.301396
0.309384 0.780368 0.310360
0.402668 0.790202 0.319397
0.494798 0.800019 0.328463
0.585619 0.809818 0.337492
0.703429 0.819579 0.346404
0.819822 0.829265 0.355099
0.934848 0.838822 0.363459
0.011988 0.038988 0.138214
0.084840 0.049904 0.154291
0.186533 0.061275 0.170824
0.289023 0.072833 0.187891
0.393842 0.083957 0.205597
0.501946 0.094364 0.218364
0.614002 0.103863 0.230991
0.730410 0.112339 0.243194
0.050138 0.139259 0.182084
0.124674 0.151040 0.199917
0.215488 0.162464 0.217832
0.323434 0.173283 0.235496
0.434907 0.183324 0.247488
0.550233 0.192485 0.258785
0.669468 0.200742 0.269276
0.792402 0.208139 0.278921
0.085627 0.238771 0.229609
0.163269 0.253108 0.246527
0.244300 0.266701 0.262701
0.357354 0.276885 0.272885
0.474022 0.286227 0.282227
0.594017 0.294789 0.290789
0.716785 0.302704 0.298704
0.841505 0.310178 0.306178
0.111170 0.344233 0.271220
0.193293 0.358066 0.285429
0.279018 0.371026 0.293736
0.382174 0.383188 0.301463
0.502128 0.394699 0.308842
0.623786 0.403201 0.316180
0.745982 0.411567 0.323854
0.867364 0.420138 0.332267
0.128870 0.454511 0.304175
0.216397 0.467258 0.311500
0.306643 0.479255 0.318913
0.398628 0.490737 0.326817
0.519544 0.501996 0.335415
0.640386 0.513157 0.343993
0.761199 0.524294 0.352433
0.881721 0.532909 0.360777
0.150166 0.564876 0.329908
0.242680 0.576099 0.338551
0.335203 0.587213 0.347081
0.428104 0.598206 0.355478
0.535219 0.609141 0.363803
0.656161 0.620071 0.372113
0.776419 0.631031 0.380443
0.895743 0.642037 0.388812
0.180732 0.671943 0.358514
0.274686 0.682537 0.366828
0.368494 0.693039 0.375142
0.461791 0.703497 0.383485
0.554280 0.713944 0.391870
0.674118 0.724393 0.400292
0.792759 0.734841 0.408726
0.910110 0.745265 0.417132
0.219370 0.775561 0.386533
0.313499 0.785415 0.394933
0.406624 0.795242 0.403363
0.498538 0.805054 0.411793
0.589101 0.814843 0.420175
0.692433 0.824583 0.428442
0.808532 0.834233 0.436511
0.923268 0.843730 0.444280
0.015636 0.042636 0.193474
0.088656 0.053720 0.209720
0.176294 0.065221 0.226392
0.279315 0.076677 0.244071
0.384860 0.087583 0.262777
0.493797 0.097699 0.282014
0.606730 0.106860 0.301363
0.723999 0.114975 0.315316
0.054037 0.143282 0.238588
0.128812 0.154974 0.257541
0.205852 0.166217 0.276864
0.314337 0.176787 0.296163
0.426409 0.186537 0.315121
0.542329 0.195390 0.333493
0.662093 0.203346 0.345946
0.785431 0.210474 0.357542
0.088696 0.245419 0.290917
0.166735 0.259518 0.309687
0.248235 0.270255 0.327799
0.347573 0.280150 0.345108
0.464667 0.289217 0.361543
0.584974 0.297540 0.371943
0.707879 0.305279 0.381542
0.832497 0.312664 0.390487
0.113196 0.350735 0.338993
0.195830 0.364267 0.355106
0.282027 0.376944 0.370363
0.371360 0.388865 0.384865
0.491522 0.397622 0.393622
0.613163 0.406041 0.402041
0.735055 0.414440 0.410440
0.856107 0.423075 0.419075
0.130585 0.460640 0.377786
0.218691 0.473110 0.391550
0.309365 0.484903 0.405082
0.401567 0.496277 0.413567
0.508276 0.507502 0.422212
0.629114 0.518640 0.430724
0.749924 0.527211 0.438967
0.870363 0.535855 0.447004
0.153112 0.570402 0.411563
0.245592 0.581592 0.425334
0.338262 0.592661 0.433754
0.431287 0.603627 0.441912
0.524237 0.614556 0.449896
0.645126 0.625493 0.457774
0.765267 0.636468 0.465601
0.884425 0.647490 0.473410
0.184275 0.677260 0.444835
0.278350 0.687815 0.452773
0.372181 0.698297 0.460628
0.465417 0.708749 0.468445
0.557777 0.719196 0.476252
0.663241 0.729646 0.484059
0.781665 0.740089 0.491859
0.898778 0.750497 0.499624
0.223618 0.780616 0.471287
0.317639 0.790459 0.479094
0.410586 0.800280 0.486901
0.502267 0.810086 0.494691
0.592557 0.819862 0.502434
0.681400 0.829577 0.510079
0.797197 0.839183 0.517556
0.911639 0.848612 0.524779
0.019347 0.046347 0.248798
0.092520 0.057584 0.265197
0.166174 0.069155 0.282166
0.269755 0.080456 0.300796
0.376015 0.091117 0.320773
0.485762 0.100923 0.341542
0.599539 0.109735 0.362623
0.717625 0.117487 0.383611
0.057889 0.147286 0.295742
0.132921 0.158855 0.316068
0.210387 0.169891 0.337002
0.305214 0.180195 0.358092
0.417869 0.189645 0.378961
0.534357 0.198190 0.399303
0.654614 0.205854 0.418886
0.778305 0.212731 0.437552
0.091654 0.251992 0.353531
0.170104 0.263256 0.374240
0.252074 0.273710 0.394328
0.337688 0.283319 0.413592
0.455188 0.292120 0.431899
0.575777 0.300224 0.449189
0.698775 0.307813 0.465475
0.823238 0.315143 0.475683
0.115142 0.357134 0.408171
0.198296 0.370369 0.426111
0.284963 0.382774 0.443030
0.374653 0.391893 0.458968
0.480804 0.400504 0.474039
0.602392 0.408877 0.488425
0.723933 0.417355 0.497225
0.844840 0.426001 0.505872
0.132345 0.466668 0.452346
0.221035 0.478884 0.467142
0.312130 0.490501 0.481340
0.404513 0.501803 0.495222
0.496996 0.512996 0.508996
0.617863 0.521546 0.517364
0.738657 0.530137 0.525324
0.859006 0.538813 0.532982
0.156047 0.575918 0.488047
0.248515 0.587071 0.501773
0.341393 0.598097 0.515142
0.434524 0.609044 0.528141
0.527485 0.619972 0.535714
0.634115 0.630919 0.543105
0.754128 0.641910 0.550385
0.873112 0.650367 0.557601
0.187910 0.682560 0.520602
0.282083 0.693085 0.533260
0.375915 0.703553 0.545765
0.469072 0.714001 0.553017
0.561288 0.724449 0.560219
0.652366 0.734899 0.567398
0.770563 0.745334 0.574560
0.887433 0.755720 0.581696
0.227906 0.785666 0.550482
0.321798 0.795500 0.562835
0.414547 0.805317 0.570008
0.505978 0.815114 0.577162
0.595982 0.824874 0.584282
0.684519 0.834559 0.591331
0.785811 0.844113 0.598257
0.899955 0.853463 0.604989
0.023114 0.050114 0.304179
0.096428 0.061493 0.320719
0.170375 0.073048 0.338347
0.260321 0.084160 0.358221
0.367284 0.094552 0.379713
0.477819 0.104032 0.402209
0.592407 0.112488 0.425169
0.711265 0.119878 0.448129
0.061683 0.151259 0.353691
0.136989 0.162674 0.375615
0.214889 0.173480 0.398338
0.296053 0.183504 0.421348
0.409274 0.192649 0.444207
0.526304 0.200888 0.466549
0.647015 0.208270 0.488082
0.771011 0.214915 0.508588
0.094499 0.255903 0.417507
0.173372 0.266901 0.440216
0.255816 0.277068 0.462293
0.341890 0.286395 0.483474
0.445582 0.294943 0.503566
0.566420 0.302847 0.522450
0.689470 0.310316 0.540077
0.813724 0.317629 0.556474
0.117015 0.363431 0.478722
0.200698 0.376374 0.498383
0.287832 0.385942 0.516811
0.377866 0.394863 0.533984
0.469981 0.403359 0.549953
0.591480 0.411725 0.564845
0.712688 0.420301 0.578882
0.833561 0.428916 0.592658
0.134170 0.472603 0.527730
0.223446 0.484588 0.543289
0.314956 0.496063 0.557834
0.407449 0.507320 0.571707
0.499905 0.515899 0.585434
0.606634 0.524456 0.598705
0.727400 0.533072 0.611463
0.847649 0.541785 0.618675
0.158971 0.581422 0.564519
0.251525 0.592533 0.578132
0.344596 0.603525 0.591200
0.437813 0.614460 0.603805
0.530769 0.625390 0.616065
0.623126 0.636350 0.628081
0.743000 0.644777 0.634775
0.861802 0.653248 0.641375
0.191633 0.687848 0.596101
0.285881 0.698348 0.608261
0.379694 0.708806 0.620210
0.472754 0.719253 0.632025
0.564811 0.729702 0.643763
0.655683 0.740150 0.650306
0.759452 0.750573 0.656837
0.876072 0.760932 0.663360
0.232229 0.790713 0.624103
0.325969 0.800540 0.635825
0.418501 0.810351 0.647523
0.509666 0.820139 0.659213
0.599370 0.829879 0.665731
0.687591 0.839526 0.672220
0.774371 0.849020 0.678642
0.888210 0.858281 0.684942
0.026933 0.053933 0.359611
0.100382 0.065440 0.376306
0.174682 0.076888 0.395103
0.250992 0.087781 0.416489
0.358647 0.097881 0.439714
0.469946 0.107022 0.464106
0.585311 0.115117 0.489064
0.704896 0.122149 0.514066
0.065410 0.155190 0.412567
0.141007 0.166422 0.436291
0.219346 0.176978 0.460954
0.301036 0.186711 0.485985
0.400614 0.195548 0.510886
0.518158 0.203487 0.535232
0.639284 0.210601 0.558670
0.763536 0.217036 0.580921
0.097231 0.259727 0.482888
0.176541 0.270449 0.507632
0.259459 0.280328 0.531685
0.345984 0.289380 0.554719
0.435847 0.297691 0.576483
0.556902 0.305420 0.596797
0.679960 0.312801 0.615554
0.803951 0.320138 0.632719
0.118827 0.369626 0.550599
0.203046 0.379707 0.571852
0.290644 0.389034 0.591608
0.381006 0.397782 0.609785
0.473254 0.406198 0.626376
0.580433 0.414600 0.641444
0.701431 0.423237 0.655366
0.822268 0.431821 0.669097
0.136077 0.478450 0.603805
0.225943 0.490232 0.619831
0.317859 0.501601 0.634375
0.410373 0.510244 0.648180
0.502848 0.518801 0.661779
0.595429 0.527373 0.674702
0.716155 0.536019 0.687025
0.836295 0.544769 0.698891
0.161883 0.586915 0.640979
0.254627 0.597981 0.654361
0.347868 0.608946 0.667048
0.441152 0.619874 0.679190
0.534087 0.630812 0.690920
0.626351 0.639207 0.702356
0.731883 0.647649 0.713597
0.850496 0.656132 0.724723
0.195440 0.693126 0.671300
0.289739 0.703607 0.682910
0.383512 0.714058 0.694265
0.476457 0.724505 0.705455
0.568340 0.734956 0.716556
0.658996 0.745398 0.727623
0.748327 0.755805 0.738695
0.864691 0.763549 0.744631
0.236580 0.795756 0.697302
0.330145 0.805578 0.708385
0.422441 0.815383 0.719450
0.513323 0.825158 0.730530
0.602715 0.834872 0.741638
0.690608 0.844475 0.752770
0.777062 0.853900 0.758742
0.876400 0.863061 0.764676
0.030800 0.057800 0.415090
0.104404 0.069372 0.432274
0.179076 0.080663 0.452591
0.255941 0.091310 0.475729
0.350082 0.101099 0.500879
0.462123 0.109891 0.527309
0.578230 0.117623 0.554360
0.698497 0.124304 0.581448
0.069061 0.159068 0.472491
0.144966 0.170092 0.498188
0.223749 0.180381 0.524916
0.305959 0.189814 0.552044
0.391878 0.198343 0.579014
0.509908 0.205990 0.605340
0.631410 0.212853 0.630611
0.755867 0.219103 0.654486
0.099851 0.263461 0.549707
0.179610 0.273899 0.576495
0.263004 0.283492 0.602480
0.349969 0.292279 0.627278
0.440176 0.300371 0.650575
0.547222 0.307952 0.672131
0.670243 0.315280 0.691779
0.793916 0.322685 0.709424
0.120586 0.373142 0.623746
0.205350 0.382952 0.646433
0.293407 0.392059 0.667310
0.384084 0.400663 0.686236
0.476438 0.409035 0.703142
0.569259 0.417518 0.718033
0.690163 0.426163 0.731840
0.810958 0.434742 0.745430
0.138087 0.484220 0.680425
0.228546 0.495829 0.696593
0.320805 0.504547 0.710869
0.413286 0.513157 0.724641
0.505830 0.521707 0.737979
0.598441 0.530299 0.750475
0.704922 0.538978 0.762297
0.824945 0.547768 0.773602
0.164814 0.592393 0.717401
0.257818 0.603416 0.730415
0.351208 0.614363 0.742647
0.444540 0.625290 0.754264
0.537439 0.633658 0.765416
0.629596 0.642068 0.776236
0.720775 0.650527 0.786838
0.839192 0.659018 0.797318
0.199326 0.698395 0.746168
0.293653 0.708862 0.757185
0.387366 0.719310 0.767914
0.480179 0.729759 0.778461
0.571873 0.740208 0.788917
0.662300 0.750643 0.799353
0.751378 0.758447 0.809824
0.853287 0.766149 0.820365
0.240951 0.800798 0.770072
0.334320 0.810614 0.780514
0.426361 0.820411 0.790957
0.516944 0.830170 0.801450
0.606010 0.839853 0.812022
0.693565 0.849404 0.822684
0.779686 0.858750 0.833428
0.864517 0.867798 0.844231
