omv/luts/28_capital_wasteland_overcast.cube
# Original OMV LUT; redistribution permitted with OMV.
TITLE "Capital Wasteland Overcast"
LUT_3D_SIZE 5
DOMAIN_MIN 0.000000 0.000000 0.000000
DOMAIN_MAX 0.903226 0.903226 0.903226
0.005000 0.032000 0.028000
0.181760 0.050696 0.046696
0.360323 0.070783 0.066783
0.545853 0.089999 0.085999
0.743445 0.106697 0.102697
0.070602 0.199905 0.092419
0.230407 0.225340 0.108003
0.425170 0.248721 0.120365
0.631243 0.265035 0.129802
0.847316 0.278986 0.137298
0.116929 0.385967 0.132682
0.265622 0.409855 0.139851
0.473248 0.431227 0.147522
0.685580 0.451088 0.158293
0.897295 0.470714 0.173166
0.151571 0.580797 0.163571
0.313458 0.600333 0.178627
0.500950 0.619454 0.193976
0.712630 0.638411 0.209936
0.921951 0.657416 0.226469
0.211023 0.765430 0.215896
0.375460 0.782703 0.232596
0.536750 0.799888 0.249546
0.743695 0.817002 0.266312
0.946383 0.833891 0.282290
0.011088 0.038088 0.124411
0.163648 0.057423 0.152777
0.343439 0.077523 0.182621
0.531572 0.095999 0.204408
0.732022 0.111660 0.225365
0.076714 0.211696 0.203180
0.212852 0.236532 0.232532
0.409165 0.254553 0.250553
0.616589 0.270009 0.266009
0.833234 0.283321 0.279321
0.120068 0.397378 0.271060
0.270330 0.420342 0.283829
0.454027 0.441054 0.296126
0.666038 0.460748 0.309974
0.877523 0.475801 0.325008
0.156710 0.590452 0.315484
0.318842 0.609847 0.330398
0.481792 0.628878 0.345106
0.693308 0.647837 0.359869
0.902152 0.666876 0.374795
0.218315 0.774296 0.365284
0.382448 0.791527 0.380263
0.543092 0.808695 0.395282
0.724361 0.825758 0.410049
0.926168 0.842506 0.424106
0.017484 0.044484 0.221129
0.145675 0.064288 0.249966
0.327086 0.084059 0.281896
0.517713 0.101668 0.316686
0.720809 0.116246 0.351874
0.082525 0.223326 0.308205
0.219893 0.242937 0.343064
0.392874 0.260082 0.376086
0.601499 0.274729 0.406441
0.818462 0.287529 0.424953
0.123072 0.408460 0.395428
0.274920 0.430563 0.422047
0.434599 0.450757 0.446757
0.646341 0.465889 0.461889
0.857703 0.480919 0.476671
0.161814 0.600072 0.458330
0.324460 0.619317 0.481812
0.487606 0.638296 0.495460
0.674044 0.657273 0.508726
0.882364 0.676346 0.521864
0.225757 0.783141 0.513516
0.389470 0.800345 0.526637
0.549380 0.817491 0.539702
0.704912 0.834479 0.552567
0.905804 0.851042 0.564918
0.024064 0.051064 0.318032
0.152806 0.071161 0.347762
0.311139 0.090340 0.383488
0.504149 0.106982 0.423401
0.709675 0.120457 0.464479
0.088011 0.230233 0.417005
0.226665 0.249052 0.457894
0.376263 0.265318 0.496945
0.585936 0.279230 0.532765
0.802957 0.291673 0.564647
0.126008 0.419226 0.523492
0.279452 0.440558 0.553897
0.439859 0.455888 0.580495
0.626609 0.470996 0.604738
0.837852 0.486080 0.627899
0.167009 0.609643 0.592035
0.330301 0.628758 0.614568
0.493543 0.647715 0.635834
0.654832 0.666722 0.656399
0.862581 0.681303 0.667629
0.233315 0.791974 0.642443
0.396493 0.809159 0.662661
0.555583 0.826270 0.682848
0.710157 0.843152 0.693971
0.885264 0.859480 0.704894
0.030800 0.057800 0.415090
0.160243 0.077891 0.447214
0.295484 0.096322 0.488100
0.490760 0.111924 0.534038
0.698497 0.124304 0.581448
0.093157 0.236894 0.529941
0.233149 0.254867 0.577134
0.384149 0.270277 0.622027
0.569872 0.283556 0.662663
0.786688 0.295821 0.697770
0.128950 0.429697 0.654778
0.283998 0.445860 0.687688
0.445034 0.461034 0.714453
0.606862 0.476084 0.738429
0.817983 0.491292 0.760400
0.172535 0.619155 0.725353
0.336353 0.638182 0.746526
0.499593 0.657141 0.766086
0.660499 0.671667 0.784745
0.842796 0.686257 0.803044
0.240951 0.800798 0.770072
0.403483 0.817965 0.788343
0.561668 0.835024 0.806725
0.715225 0.851763 0.825363
0.864517 0.867798 0.844231
