omv/luts/28_capital_wasteland_overcast.cube
# Original OMV LUT; redistribution permitted with OMV.
TITLE "Capital Wasteland Overcast"
LUT_3D_SIZE 32
DOMAIN_MIN 0.0 0.0 0.0
DOMAIN_MAX 1.0 1.0 1.0
0.005000 0.032000 0.028000
0.030077 0.034497 0.030497
0.055255 0.037094 0.033094
0.080485 0.039743 0.035743
0.105754 0.042432 0.038432
0.131059 0.045156 0.041156
0.156395 0.047911 0.043911
0.181760 0.050696 0.046696
0.207153 0.053508 0.049508
0.232571 0.056346 0.052346
0.258015 0.059208 0.055208
0.283482 0.062095 0.058095
0.308978 0.065002 0.061002
0.334578 0.067903 0.063903
0.360323 0.070783 0.066783
0.386229 0.073639 0.069639
0.412311 0.076465 0.072465
0.438584 0.079257 0.075257
0.465063 0.082010 0.078010
0.491760 0.084720 0.080720
0.518686 0.087384 0.083384
0.545853 0.089999 0.085999
0.573271 0.092561 0.088561
0.600947 0.095068 0.091068
0.628890 0.097517 0.093517
0.657106 0.099906 0.095906
0.685601 0.102234 0.098234
0.714380 0.104498 0.100498
0.743445 0.106697 0.102697
0.772800 0.108831 0.104831
0.802446 0.110898 0.106898
0.832382 0.112898 0.108898
0.013717 0.054911 0.036717
0.035452 0.058258 0.039420
0.060768 0.061639 0.042155
0.086115 0.064405 0.044921
0.111490 0.067200 0.047716
0.136893 0.070022 0.050538
0.162320 0.072869 0.053385
0.187773 0.075740 0.056257
0.213248 0.078635 0.059151
0.238763 0.081546 0.062060
0.264376 0.084452 0.064954
0.290109 0.087344 0.067826
0.315979 0.090219 0.070672
0.342002 0.093071 0.073486
0.368195 0.095894 0.076264
0.394571 0.098686 0.079002
0.421145 0.101441 0.081696
0.447929 0.104156 0.084342
0.474934 0.106827 0.086938
0.502171 0.109450 0.089480
0.529649 0.112024 0.091967
0.557377 0.114545 0.094394
0.585362 0.117010 0.096761
0.613610 0.119419 0.099065
0.642127 0.121768 0.101306
0.670917 0.124056 0.103481
0.699983 0.126283 0.105591
0.729327 0.128447 0.107634
0.758951 0.130548 0.109610
0.788854 0.132585 0.111519
0.819035 0.134558 0.113361
0.849494 0.136467 0.115138
0.022936 0.078323 0.045936
0.041224 0.081773 0.048740
0.066636 0.085249 0.051572
0.092073 0.088750 0.054428
0.117534 0.092276 0.057308
0.143018 0.095179 0.060211
0.168546 0.098094 0.063116
0.194151 0.101010 0.066003
0.219852 0.103921 0.068866
0.245667 0.106820 0.071700
0.271613 0.109703 0.074501
0.297708 0.112564 0.077265
0.323965 0.115399 0.079988
0.350400 0.118203 0.082665
0.377025 0.120973 0.085293
0.403853 0.123705 0.087870
0.430896 0.126394 0.090392
0.458162 0.129038 0.092857
0.485662 0.131635 0.095263
0.513404 0.134180 0.097607
0.541394 0.136673 0.099889
0.569638 0.139111 0.102106
0.598143 0.141492 0.104257
0.626910 0.143814 0.106342
0.655945 0.146078 0.108361
0.685247 0.148281 0.110313
0.714819 0.150423 0.112198
0.744659 0.152504 0.114016
0.774767 0.154524 0.115768
0.805141 0.156483 0.117456
0.835776 0.158382 0.119079
0.866669 0.160221 0.120641
0.032473 0.102054 0.055473
0.050846 0.105588 0.058362
0.072790 0.109144 0.061270
0.098314 0.112714 0.064169
0.123892 0.116292 0.067048
0.149541 0.119871 0.069901
0.175283 0.123446 0.072724
0.201135 0.126365 0.075512
0.227113 0.129268 0.078261
0.253235 0.132152 0.080968
0.279515 0.135010 0.083628
0.305967 0.137840 0.086238
0.332604 0.140636 0.088795
0.359438 0.143395 0.091296
0.386480 0.146114 0.093740
0.413740 0.148789 0.096124
0.441226 0.151418 0.098445
0.468947 0.153999 0.100703
0.496909 0.156528 0.102896
0.525118 0.159004 0.105024
0.553578 0.161425 0.107085
0.582294 0.163791 0.109079
0.611267 0.166099 0.111007
0.640500 0.168348 0.112867
0.669993 0.170540 0.114661
0.699745 0.172672 0.116390
0.729756 0.174745 0.118054
0.760021 0.176760 0.119655
0.790538 0.178717 0.121194
0.821302 0.180617 0.122673
0.852307 0.182461 0.124095
0.883547 0.184251 0.125462
0.042250 0.126055 0.065220
0.060683 0.129655 0.068090
0.079167 0.133263 0.070933
0.104817 0.136873 0.073743
0.130557 0.140479 0.076518
0.156403 0.144075 0.079252
0.182373 0.147657 0.081942
0.208482 0.151219 0.084584
0.234746 0.154757 0.087175
0.261178 0.157622 0.089712
0.287790 0.160455 0.092193
0.314595 0.163253 0.094615
0.341602 0.166011 0.096976
0.368822 0.168727 0.099275
0.396263 0.171398 0.101509
0.423932 0.174021 0.103679
0.451836 0.176595 0.105782
0.479981 0.179118 0.107819
0.508370 0.181587 0.109789
0.537007 0.184002 0.111692
0.565895 0.186361 0.113528
0.595035 0.188664 0.115298
0.624426 0.190910 0.117003
0.654068 0.193100 0.118644
0.683960 0.195232 0.120222
0.714098 0.197308 0.121739
0.744477 0.199327 0.123197
0.775095 0.201293 0.124599
0.805944 0.203204 0.125946
0.837017 0.205063 0.127242
0.868306 0.206872 0.128490
0.899802 0.208632 0.129693
0.052001 0.150330 0.074758
0.070514 0.153983 0.077518
0.089115 0.157631 0.080237
0.111369 0.161271 0.082909
0.137294 0.164896 0.085533
0.163355 0.168503 0.088105
0.189567 0.172086 0.090622
0.215945 0.175642 0.093082
0.242500 0.179166 0.095482
0.269243 0.182655 0.097820
0.296186 0.186107 0.100096
0.323336 0.188872 0.102307
0.350703 0.191592 0.104452
0.378294 0.194267 0.106531
0.406114 0.196893 0.108544
0.434169 0.199469 0.110489
0.462464 0.201992 0.112368
0.491000 0.204463 0.114180
0.519781 0.206879 0.115926
0.548806 0.209240 0.117608
0.578076 0.211547 0.119226
0.607590 0.213797 0.120781
0.637346 0.215992 0.122277
0.667340 0.218133 0.123714
0.697568 0.220219 0.125096
0.728025 0.222252 0.126424
0.758704 0.224234 0.127702
0.789599 0.226165 0.128933
0.820701 0.228047 0.130120
0.851999 0.229883 0.131268
0.883485 0.231676 0.132381
0.915145 0.233427 0.133462
0.061506 0.174933 0.083870
0.080133 0.178625 0.086476
0.098881 0.182304 0.089028
0.117765 0.185964 0.091524
0.143895 0.189601 0.093962
0.170189 0.193211 0.096340
0.196657 0.196790 0.098656
0.223311 0.200334 0.100908
0.250162 0.203841 0.103095
0.277217 0.207307 0.105217
0.304486 0.210730 0.107272
0.331974 0.214107 0.109260
0.359688 0.217436 0.111181
0.387633 0.220070 0.113035
0.415812 0.222654 0.114823
0.444228 0.225185 0.116546
0.472883 0.227663 0.118204
0.501777 0.230087 0.119799
0.530911 0.232457 0.121333
0.560282 0.234772 0.122807
0.589888 0.237034 0.124223
0.619726 0.239242 0.125585
0.649791 0.241397 0.126895
0.680077 0.243500 0.128155
0.710578 0.245553 0.129370
0.741286 0.247557 0.130543
0.772193 0.249514 0.131677
0.803288 0.251426 0.132777
0.834561 0.253296 0.133848
0.866001 0.255127 0.134894
0.897593 0.256921 0.135921
0.929324 0.258683 0.136933
0.070602 0.199905 0.092419
0.089376 0.203627 0.094835
0.108300 0.207325 0.097191
0.127385 0.210997 0.099483
0.150193 0.214637 0.101712
0.176734 0.218243 0.103875
0.203469 0.221812 0.105973
0.230407 0.225340 0.108003
0.257556 0.228825 0.109967
0.284922 0.232265 0.111864
0.312511 0.235657 0.113694
0.340328 0.239000 0.115458
0.368375 0.242292 0.117157
0.396655 0.245533 0.118792
0.425170 0.248721 0.120365
0.453920 0.251211 0.121876
0.482905 0.253647 0.123329
0.512122 0.256030 0.124725
0.541568 0.258360 0.126068
0.571241 0.260636 0.127359
0.601135 0.262861 0.128603
0.631243 0.265035 0.129802
0.661560 0.267160 0.130960
0.692078 0.269237 0.132081
0.722786 0.271269 0.133171
0.753676 0.273256 0.134232
0.784736 0.275203 0.135270
0.815954 0.277112 0.136290
0.847316 0.278986 0.137298
0.878809 0.280828 0.138300
0.910417 0.282643 0.139300
0.942123 0.284433 0.140306
0.079164 0.225277 0.100302
0.098116 0.229017 0.102507
0.117241 0.232725 0.104647
0.136551 0.236399 0.106720
0.156054 0.240034 0.108726
0.182857 0.243629 0.110665
0.209868 0.247181 0.112538
0.237096 0.250688 0.114344
0.264545 0.254147 0.116084
0.292219 0.257557 0.117760
0.320121 0.260916 0.119372
0.348253 0.264224 0.120922
0.376618 0.267480 0.122412
0.405214 0.270682 0.123844
0.434040 0.273832 0.125220
0.463095 0.276928 0.126544
0.492376 0.279972 0.127817
0.521878 0.282318 0.129044
0.551597 0.284613 0.130228
0.581525 0.286857 0.131372
0.611656 0.289053 0.132481
0.641982 0.291202 0.133560
0.672492 0.293307 0.134612
0.703178 0.295368 0.135643
0.734026 0.297390 0.136659
0.765026 0.299374 0.137663
0.796163 0.301324 0.138664
0.827423 0.303244 0.139666
0.858790 0.305137 0.140675
0.890247 0.307008 0.141700
0.921778 0.308859 0.142745
0.953362 0.310697 0.143820
0.087103 0.251069 0.107458
0.106261 0.254814 0.109440
0.125614 0.258521 0.111355
0.145168 0.262187 0.113203
0.164932 0.265809 0.114985
0.188460 0.269386 0.116702
0.215757 0.272914 0.118354
0.243277 0.276393 0.119943
0.271025 0.279822 0.121471
0.299002 0.283198 0.122940
0.327208 0.286523 0.124351
0.355644 0.289794 0.125708
0.384308 0.293012 0.127013
0.413197 0.296176 0.128269
0.442309 0.299289 0.129480
0.471639 0.302348 0.130649
0.501181 0.305357 0.131780
0.530930 0.308316 0.132877
0.560876 0.311227 0.133946
0.591013 0.313446 0.134990
0.621329 0.315620 0.136015
0.651815 0.317753 0.137025
0.682459 0.319845 0.138028
0.713247 0.321902 0.139028
0.744167 0.323924 0.140032
0.775203 0.325917 0.141046
0.806340 0.327884 0.142077
0.837560 0.329830 0.143133
0.868845 0.331757 0.144220
0.900177 0.333671 0.145346
0.931535 0.335578 0.146519
0.962899 0.337481 0.147747
0.094367 0.277283 0.113859
0.113760 0.281022 0.115617
0.133362 0.284717 0.117310
0.153181 0.288365 0.118940
0.173221 0.291965 0.120506
0.193485 0.295514 0.122013
0.221072 0.299012 0.123460
0.248888 0.302458 0.124851
0.276932 0.305851 0.126189
0.305205 0.309190 0.127476
0.333705 0.312476 0.128715
0.362428 0.315708 0.129910
0.391372 0.318888 0.131065
0.420532 0.322014 0.132183
0.449901 0.325090 0.133269
0.479473 0.328116 0.134328
0.509240 0.331093 0.135365
0.539194 0.334023 0.136384
0.569324 0.336909 0.137391
0.599619 0.339754 0.138392
0.630067 0.342558 0.139393
0.660655 0.344681 0.140400
0.691370 0.346772 0.141419
0.722195 0.348832 0.142459
0.753115 0.350867 0.143525
0.784112 0.352881 0.144625
0.815169 0.354877 0.145767
0.846265 0.356861 0.146959
0.877381 0.358837 0.148210
0.908494 0.360811 0.149527
0.939583 0.362789 0.150920
0.970625 0.364776 0.152398
0.100942 0.303910 0.119517
0.120594 0.307631 0.121062
0.140469 0.311302 0.122546
0.160569 0.314922 0.123973
0.180897 0.318490 0.125344
0.201454 0.322004 0.126663
0.225789 0.325464 0.127932
0.253900 0.328870 0.129155
0.282237 0.332222 0.130335
0.310798 0.335519 0.131476
0.339578 0.338763 0.132582
0.368572 0.341954 0.133658
0.397775 0.345093 0.134708
0.427179 0.348182 0.135738
0.456776 0.351221 0.136752
0.486556 0.354214 0.137756
0.516510 0.357162 0.138756
0.546626 0.360067 0.139758
0.576892 0.362933 0.140769
0.607294 0.365763 0.141795
0.637819 0.368559 0.142843
0.668450 0.371326 0.143921
0.699171 0.374067 0.145036
0.729964 0.376141 0.146195
0.760811 0.378198 0.147407
0.791693 0.380243 0.148681
0.822588 0.382281 0.150025
0.853475 0.384317 0.151448
0.884331 0.386357 0.152959
0.915132 0.388406 0.154568
0.945854 0.390471 0.156284
0.976470 0.392558 0.158118
0.106849 0.330927 0.124479
0.126786 0.334617 0.125830
0.146952 0.338252 0.127131
0.167349 0.341833 0.128383
0.187977 0.345359 0.129589
0.208834 0.348829 0.130755
0.229918 0.352244 0.131882
0.258323 0.355603 0.132977
0.286947 0.358908 0.134043
0.315786 0.362159 0.135085
0.344832 0.365356 0.136108
0.374078 0.368503 0.137118
0.403517 0.371600 0.138120
0.433138 0.374649 0.139120
0.462930 0.377653 0.140125
0.492883 0.380613 0.141140
0.522983 0.383534 0.142174
0.553218 0.386417 0.143232
0.583571 0.389267 0.144322
0.614028 0.392087 0.145452
0.644571 0.394880 0.146630
0.675182 0.397652 0.147864
0.705844 0.400407 0.149162
0.736535 0.403149 0.150533
0.767235 0.405884 0.151987
0.797922 0.407971 0.153533
0.828573 0.410063 0.155179
0.859163 0.412163 0.156937
0.889668 0.414280 0.158817
0.920061 0.416419 0.160828
0.950326 0.418584 0.162971
0.980558 0.420751 0.165138
0.112146 0.358297 0.128827
0.132389 0.361941 0.130018
0.152866 0.365529 0.131169
0.173574 0.369060 0.132285
0.194511 0.372533 0.133368
0.215673 0.375950 0.134425
0.237056 0.379311 0.135459
0.262203 0.382616 0.136477
0.291106 0.385868 0.137483
0.320211 0.389066 0.138484
0.349507 0.392214 0.139485
0.378985 0.395313 0.140493
0.408634 0.398365 0.141514
0.438443 0.401373 0.142556
0.468398 0.404341 0.143625
0.498485 0.407270 0.144728
0.528690 0.410164 0.145875
0.558996 0.413028 0.147072
0.589386 0.415865 0.148328
0.619842 0.418680 0.149652
0.650345 0.421476 0.151053
0.680874 0.424260 0.152539
0.711408 0.427036 0.154120
0.741925 0.429809 0.155806
0.772402 0.432585 0.157607
0.802813 0.435371 0.159533
0.833135 0.438172 0.161595
0.863373 0.440341 0.163761
0.893603 0.442506 0.165926
0.923827 0.444666 0.168085
0.954045 0.446819 0.170239
0.984257 0.448966 0.172386
0.116929 0.385967 0.132682
0.137499 0.389553 0.133756
0.158302 0.393080 0.134804
0.179333 0.396549 0.135832
0.200586 0.399960 0.136844
0.222057 0.403313 0.137848
0.243739 0.406611 0.138848
0.265622 0.409855 0.139851
0.294795 0.413046 0.140863
0.324151 0.416187 0.141891
0.353679 0.419280 0.142941
0.383366 0.422327 0.144022
0.413200 0.425332 0.145140
0.443166 0.428298 0.146305
0.473248 0.431227 0.147522
0.503430 0.434125 0.148802
0.533695 0.436995 0.150153
0.564025 0.439841 0.151583
0.594399 0.442669 0.153103
0.624798 0.445482 0.154721
0.655199 0.448287 0.156448
0.685580 0.451088 0.158293
0.715918 0.453892 0.160268
0.746187 0.456704 0.162381
0.776420 0.459517 0.164549
0.806648 0.462325 0.166713
0.836870 0.465128 0.168870
0.867086 0.467924 0.171021
0.897295 0.470714 0.173166
0.927497 0.472852 0.175304
0.957686 0.474992 0.177447
0.987854 0.477138 0.179600
0.121328 0.413872 0.136202
0.142244 0.417385 0.137211
0.163387 0.420839 0.138212
0.184751 0.424234 0.139213
0.206328 0.427571 0.140218
0.228109 0.430851 0.141235
0.250085 0.434077 0.142270
0.272247 0.437251 0.143331
0.298130 0.440375 0.144424
0.327722 0.443451 0.145559
0.357462 0.446484 0.146741
0.387334 0.449475 0.147981
0.417324 0.452430 0.149285
0.447413 0.455350 0.150664
0.477586 0.458241 0.152126
0.507822 0.461107 0.153680
0.538102 0.463953 0.155337
0.568405 0.466784 0.157105
0.598710 0.469604 0.158997
0.628992 0.472420 0.161021
0.659235 0.475235 0.163171
0.689467 0.478047 0.165338
0.719692 0.480854 0.167499
0.749912 0.483654 0.169654
0.780125 0.486448 0.171803
0.810332 0.489235 0.173945
0.840532 0.492017 0.176083
0.870724 0.494802 0.178230
0.900901 0.497590 0.180387
0.931059 0.500382 0.182554
0.961190 0.503180 0.184732
0.991290 0.505338 0.186922
0.125511 0.441932 0.139578
0.146790 0.445359 0.140586
0.168287 0.448725 0.141609
0.189991 0.452033 0.142653
0.211895 0.455285 0.143725
0.233986 0.458481 0.144832
0.256253 0.461626 0.145983
0.278684 0.464721 0.147185
0.301264 0.467770 0.148447
0.331075 0.470776 0.149778
0.361005 0.473742 0.151186
0.391037 0.476673 0.152680
0.421151 0.479573 0.154271
0.451331 0.482446 0.155967
0.481554 0.485296 0.157779
0.511801 0.488130 0.159718
0.542048 0.490952 0.161793
0.572283 0.493767 0.163960
0.602512 0.496577 0.166125
0.632736 0.499381 0.168284
0.662953 0.502179 0.170437
0.693164 0.504970 0.172583
0.723368 0.507755 0.174723
0.753570 0.510536 0.176864
0.783770 0.513318 0.179014
0.813962 0.516101 0.181174
0.844139 0.518887 0.183345
0.874296 0.521676 0.185528
0.904427 0.524469 0.187722
0.934526 0.527266 0.189928
0.964589 0.530069 0.192147
0.994610 0.532877 0.194378
0.129682 0.470054 0.143040
0.151340 0.473379 0.144123
0.173200 0.476644 0.145246
0.195252 0.479853 0.146414
0.217485 0.483006 0.147637
0.239884 0.486108 0.148923
0.262436 0.489161 0.150281
0.285125 0.492168 0.151719
0.307935 0.495134 0.153248
0.334398 0.498062 0.154876
0.364494 0.500956 0.156613
0.394657 0.503821 0.158470
0.424865 0.506662 0.160457
0.455097 0.509484 0.162581
0.485330 0.512298 0.164749
0.515557 0.515105 0.166912
0.545778 0.517907 0.169069
0.575993 0.520703 0.171219
0.606202 0.523492 0.173363
0.636405 0.526275 0.175501
0.666614 0.529054 0.177645
0.696828 0.531831 0.179799
0.727039 0.534608 0.181963
0.757241 0.537386 0.184139
0.787427 0.540164 0.186325
0.817593 0.542945 0.188524
0.847733 0.545729 0.190734
0.877840 0.548516 0.192958
0.907911 0.551306 0.195193
0.937940 0.554102 0.197442
0.967923 0.556903 0.199704
0.997856 0.559709 0.201978
0.134082 0.498130 0.146853
0.156131 0.501337 0.148098
0.178364 0.504487 0.149409
0.200769 0.507582 0.150795
0.223331 0.510625 0.152265
0.246034 0.513621 0.153828
0.268862 0.516571 0.155495
0.291797 0.519481 0.157274
0.314821 0.522355 0.159177
0.337914 0.525198 0.161214
0.368145 0.528016 0.163371
0.398376 0.530827 0.165537
0.428601 0.533633 0.167698
0.458820 0.536433 0.169852
0.489033 0.539226 0.172001
0.519239 0.542013 0.174142
0.549445 0.544793 0.176281
0.579667 0.547568 0.178428
0.609899 0.550340 0.180586
0.640134 0.553109 0.182754
0.670365 0.555877 0.184933
0.700587 0.558644 0.187124
0.730792 0.561411 0.189327
0.760976 0.564179 0.191542
0.791132 0.566949 0.193770
0.821257 0.569722 0.196011
0.851343 0.572497 0.198264
0.881388 0.575276 0.200530
0.911386 0.578059 0.202809
0.941334 0.580846 0.205101
0.971227 0.583637 0.207405
1.000000 0.586496 0.210805
0.138987 0.526037 0.151320
0.161438 0.529111 0.152823
0.184052 0.532130 0.154423
0.206812 0.535098 0.156129
0.229702 0.538018 0.157952
0.252703 0.540895 0.159903
0.275797 0.543733 0.161991
0.298934 0.546547 0.164160
0.322066 0.549357 0.166324
0.345192 0.552160 0.168483
0.371861 0.554958 0.170635
0.402071 0.557749 0.172781
0.432275 0.560533 0.174920
0.462492 0.563310 0.177062
0.492732 0.566079 0.179213
0.522988 0.568844 0.181374
0.553251 0.571603 0.183546
0.583516 0.574360 0.185730
0.613777 0.577114 0.187925
0.644026 0.579866 0.190132
0.674258 0.582617 0.192352
0.704468 0.585369 0.194584
0.734649 0.588122 0.196829
0.764797 0.590876 0.199087
0.794907 0.593632 0.201358
0.824974 0.596390 0.203642
0.854994 0.599151 0.205938
0.884963 0.601916 0.208247
0.914877 0.604684 0.210568
0.944732 0.607457 0.212901
0.974526 0.610233 0.215245
1.000000 0.613217 0.222310
0.144710 0.553639 0.156779
0.167573 0.556564 0.158647
0.190572 0.559437 0.160647
0.213684 0.562265 0.162781
0.236820 0.565078 0.164949
0.259950 0.567885 0.167111
0.283074 0.570686 0.169267
0.306191 0.573482 0.171417
0.329302 0.576270 0.173561
0.352411 0.579051 0.175699
0.375549 0.581823 0.177844
0.405812 0.584586 0.179998
0.436096 0.587341 0.182164
0.466393 0.590090 0.184340
0.496696 0.592833 0.186527
0.527000 0.595573 0.188727
0.557297 0.598309 0.190939
0.587582 0.601042 0.193163
0.617848 0.603775 0.195400
0.648091 0.606506 0.197650
0.678303 0.609237 0.199913
0.708482 0.611970 0.202188
0.738621 0.614703 0.204476
0.768716 0.617437 0.206777
0.798764 0.620174 0.209091
0.828759 0.622913 0.211416
0.858698 0.625655 0.213753
0.888579 0.628400 0.216102
0.918397 0.631148 0.218461
0.948149 0.633899 0.220831
0.977834 0.636653 0.223210
1.000000 0.639680 0.234547
0.151571 0.580797 0.163571
0.174704 0.583608 0.165737
0.197832 0.586413 0.167897
0.220954 0.589212 0.170051
0.244069 0.592005 0.172198
0.267178 0.594791 0.174339
0.290297 0.597568 0.176478
0.313458 0.600333 0.178627
0.336651 0.603087 0.180785
0.359871 0.605832 0.182955
0.383110 0.608568 0.185135
0.409908 0.611297 0.187327
0.440259 0.614021 0.189531
0.470608 0.616739 0.191747
0.500950 0.619454 0.193976
0.531276 0.622165 0.196218
0.561583 0.624874 0.198472
0.591864 0.627582 0.200740
0.622114 0.630289 0.203020
0.652328 0.632996 0.205313
0.682502 0.635703 0.207618
0.712630 0.638411 0.209936
0.742710 0.641120 0.212266
0.772736 0.643831 0.214607
0.802705 0.646544 0.216960
0.832615 0.649259 0.219323
0.862460 0.651976 0.221696
0.892240 0.654695 0.224078
0.921951 0.657416 0.226469
0.951592 0.660140 0.228868
0.981159 0.662865 0.231274
1.000000 0.665844 0.247584
0.158833 0.607736 0.170833
0.181946 0.610527 0.172978
0.205053 0.613310 0.175117
0.228194 0.616081 0.177259
0.251381 0.618838 0.179411
0.274608 0.621581 0.181574
0.297865 0.624314 0.183747
0.321146 0.627037 0.185932
0.344444 0.629750 0.188128
0.367750 0.632456 0.190336
0.391058 0.635156 0.192557
0.414363 0.637850 0.194791
0.444754 0.640540 0.197037
0.475128 0.643225 0.199296
0.505480 0.645908 0.201568
0.535805 0.648589 0.203853
0.566097 0.651269 0.206151
0.596352 0.653947 0.208460
0.626565 0.656626 0.210783
0.656730 0.659304 0.213117
0.686845 0.661983 0.215462
0.716906 0.664663 0.217819
0.746909 0.667344 0.220185
0.776850 0.670027 0.222562
0.806726 0.672711 0.224948
0.836536 0.675396 0.227341
0.866276 0.678083 0.229743
0.895944 0.680771 0.232151
0.925537 0.683460 0.234564
0.955056 0.686151 0.236983
0.984497 0.688842 0.239404
1.000000 0.691667 0.261488
0.166104 0.634590 0.178042
0.189324 0.637337 0.180197
0.212588 0.640069 0.182364
0.235888 0.642788 0.184541
0.259215 0.645495 0.186730
0.282564 0.648192 0.188930
0.305926 0.650879 0.191143
0.329294 0.653559 0.193369
0.352663 0.656231 0.195607
0.376024 0.658898 0.197858
0.399373 0.661559 0.200122
0.422703 0.664216 0.202399
0.449558 0.666870 0.204688
0.479931 0.669521 0.206990
0.510269 0.672170 0.209305
0.540568 0.674818 0.211631
0.570822 0.677465 0.213969
0.601029 0.680112 0.216319
0.631182 0.682758 0.218679
0.661280 0.685405 0.221050
0.691318 0.688052 0.223429
0.721293 0.690700 0.225818
0.751202 0.693349 0.228215
0.781043 0.695999 0.230619
0.810812 0.698649 0.233029
0.840509 0.701300 0.235444
0.870130 0.703952 0.237864
0.899675 0.706604 0.240286
0.929142 0.709256 0.242711
0.958530 0.711907 0.245135
0.987838 0.714557 0.247559
1.000000 0.717110 0.276325
0.173940 0.661252 0.185336
0.197319 0.663943 0.187530
0.220723 0.666621 0.189735
0.244145 0.669289 0.191952
0.267577 0.671947 0.194182
0.291013 0.674597 0.196425
0.314445 0.677239 0.198681
0.337869 0.679874 0.200949
0.361277 0.682505 0.203231
0.384663 0.685131 0.205525
0.408023 0.687752 0.207831
0.431351 0.690371 0.210150
0.454642 0.692988 0.212481
0.484987 0.695602 0.214823
0.515287 0.698216 0.217177
0.545535 0.700828 0.219541
0.575730 0.703440 0.221915
0.605866 0.706051 0.224298
0.635941 0.708663 0.226690
0.665951 0.711275 0.229089
0.695893 0.713887 0.231496
0.725765 0.716499 0.233908
0.755565 0.719112 0.236325
0.785290 0.721724 0.238745
0.814939 0.724337 0.241169
0.844510 0.726949 0.243593
0.874002 0.729561 0.246018
0.903414 0.732171 0.248441
0.932744 0.734780 0.250862
0.961994 0.737387 0.253278
0.991161 0.739992 0.255688
1.000000 0.742135 0.292165
0.182408 0.687684 0.192762
0.205908 0.690320 0.194997
0.229415 0.692945 0.197245
0.252922 0.695562 0.199505
0.276423 0.698171 0.201778
0.299911 0.700774 0.204064
0.323382 0.703371 0.206363
0.346828 0.705962 0.208674
0.370244 0.708550 0.210997
0.393626 0.711134 0.213333
0.416968 0.713716 0.215679
0.440266 0.716295 0.218036
0.463514 0.718872 0.220404
0.490259 0.721449 0.222781
0.520495 0.724024 0.225168
0.550670 0.726599 0.227563
0.580782 0.729173 0.229965
0.610828 0.731747 0.232373
0.640803 0.734321 0.234787
0.670707 0.736895 0.237206
0.700537 0.739469 0.239627
0.730290 0.742042 0.242051
0.759965 0.744614 0.244476
0.789560 0.747186 0.246900
0.819075 0.749757 0.249323
0.848509 0.752326 0.251742
0.877859 0.754893 0.254156
0.907128 0.757457 0.256564
0.936314 0.760018 0.258963
0.965417 0.762575 0.261353
0.994437 0.765128 0.263731
1.000000 0.766705 0.309078
0.191456 0.713867 0.200331
0.215037 0.716449 0.202609
0.238609 0.719022 0.204900
0.262166 0.721589 0.207203
0.285701 0.724150 0.209519
0.309208 0.726706 0.211846
0.332683 0.729257 0.214186
0.356121 0.731805 0.216536
0.379515 0.734349 0.218897
0.402863 0.736892 0.221269
0.426158 0.739432 0.223649
0.449399 0.741970 0.226039
0.472580 0.744508 0.228436
0.495698 0.747044 0.230841
0.525847 0.749580 0.233251
0.555927 0.752115 0.235667
0.585935 0.754650 0.238087
0.615869 0.757184 0.240510
0.645726 0.759718 0.242934
0.675505 0.762250 0.245359
0.705204 0.764782 0.247783
0.734822 0.767313 0.250204
0.764358 0.769842 0.252622
0.793810 0.772369 0.255034
0.823178 0.774894 0.257439
0.852462 0.777415 0.259835
0.881662 0.779933 0.262220
0.910778 0.782447 0.264593
0.939810 0.784955 0.266952
0.968760 0.787457 0.269294
0.997627 0.789952 0.271618
1.000000 0.790787 0.327145
0.201018 0.739786 0.208045
0.224644 0.742315 0.210365
0.248245 0.744838 0.212697
0.271815 0.747356 0.215040
0.295350 0.749869 0.217394
0.318843 0.752378 0.219759
0.342290 0.754884 0.222134
0.365688 0.757388 0.224518
0.389030 0.759889 0.226911
0.412315 0.762389 0.229311
0.435537 0.764887 0.231718
0.458693 0.767385 0.234130
0.481781 0.769881 0.236548
0.504797 0.772376 0.238969
0.531287 0.774871 0.241392
0.561249 0.777365 0.243817
0.591132 0.779858 0.246242
0.620935 0.782350 0.248665
0.650655 0.784841 0.251085
