omv/luts/29_potomac_fog.cube
# Original OMV LUT; redistribution permitted with OMV.
TITLE "Potomac Fog"
LUT_3D_SIZE 32
DOMAIN_MIN 0.0 0.0 0.0
DOMAIN_MAX 1.0 1.0 1.0
0.025000 0.048000 0.053000
0.045151 0.050732 0.055732
0.065567 0.053728 0.058728
0.086088 0.056830 0.061830
0.106681 0.060003 0.065003
0.127326 0.063230 0.068230
0.148015 0.066499 0.071499
0.168741 0.069806 0.074806
0.189499 0.073144 0.078144
0.210284 0.076510 0.081510
0.231094 0.079900 0.084900
0.251927 0.083314 0.088314
0.272786 0.086746 0.091746
0.293745 0.090174 0.095171
0.314844 0.093585 0.098576
0.336096 0.096973 0.101955
0.357520 0.100333 0.105302
0.379127 0.103660 0.108613
0.400934 0.106948 0.111882
0.422951 0.110193 0.115106
0.445191 0.113392 0.118281
0.467664 0.116540 0.121403
0.490380 0.119634 0.124468
0.513348 0.122672 0.127474
0.536575 0.125649 0.130419
0.560068 0.128565 0.133299
0.583833 0.131416 0.136113
0.607874 0.134201 0.138859
0.632194 0.136919 0.141536
0.656798 0.139568 0.144143
0.681685 0.142147 0.146679
0.706857 0.144657 0.149143
0.034978 0.068623 0.062978
0.053011 0.072624 0.066172
0.073673 0.076673 0.069415
0.094377 0.079957 0.072699
0.115114 0.083276 0.076017
0.135882 0.086624 0.079366
0.156677 0.089999 0.082741
0.177496 0.093399 0.086141
0.198336 0.096820 0.089562
0.219213 0.100256 0.092995
0.240183 0.103690 0.096413
0.261267 0.107114 0.099809
0.282482 0.110522 0.103177
0.303844 0.113908 0.106512
0.325368 0.117266 0.109808
0.347070 0.120593 0.113061
0.368961 0.123883 0.116268
0.391056 0.127132 0.119424
0.413364 0.130335 0.122525
0.435897 0.133491 0.125570
0.458664 0.136594 0.128554
0.481674 0.139643 0.131475
0.504933 0.142634 0.134331
0.528448 0.145565 0.137121
0.552225 0.148435 0.139842
0.576268 0.151241 0.142494
0.600580 0.153982 0.145075
0.625163 0.156657 0.147584
0.650019 0.159265 0.150022
0.675148 0.161805 0.152389
0.700550 0.164278 0.154683
0.726221 0.166683 0.156907
0.045903 0.090194 0.073903
0.061491 0.094330 0.077233
0.082269 0.098495 0.080592
0.103073 0.102686 0.083976
0.123900 0.106900 0.087384
0.144748 0.110328 0.090812
0.165637 0.113771 0.094242
0.186597 0.117216 0.097653
0.207647 0.120659 0.101039
0.228804 0.124091 0.104395
0.250087 0.127509 0.107716
0.271511 0.130905 0.110998
0.293090 0.134275 0.114234
0.314840 0.137614 0.117423
0.336774 0.140918 0.120559
0.358903 0.144181 0.123640
0.381238 0.147402 0.126663
0.403791 0.150575 0.129624
0.426570 0.153699 0.132522
0.449583 0.156769 0.135355
0.472838 0.159784 0.138119
0.496339 0.162740 0.140815
0.520094 0.165638 0.143441
0.544105 0.168473 0.145996
0.568376 0.171246 0.148480
0.592909 0.173956 0.150892
0.617704 0.176600 0.153232
0.642762 0.179180 0.155501
0.668081 0.181695 0.157699
0.693660 0.184144 0.159827
0.719495 0.186529 0.161887
0.745582 0.188850 0.163880
0.057214 0.112150 0.085214
0.072888 0.116372 0.088630
0.091162 0.120614 0.092063
0.112045 0.124873 0.095486
0.132975 0.129143 0.098889
0.153972 0.133416 0.102265
0.175054 0.137686 0.105609
0.196240 0.141140 0.108916
0.217545 0.144578 0.112181
0.238987 0.147997 0.115401
0.260579 0.151390 0.118571
0.282336 0.154752 0.121688
0.304271 0.158080 0.124748
0.326396 0.161370 0.127748
0.348721 0.164617 0.130687
0.371257 0.167819 0.133561
0.394013 0.170972 0.136369
0.416995 0.174073 0.139109
0.440212 0.177120 0.141780
0.463669 0.180112 0.144380
0.487370 0.183045 0.146909
0.511320 0.185918 0.149366
0.535522 0.188731 0.151752
0.559976 0.191482 0.154066
0.584684 0.194170 0.156309
0.609645 0.196795 0.158482
0.634859 0.199358 0.160585
0.660322 0.201857 0.162620
0.686031 0.204294 0.164589
0.711981 0.206670 0.166493
0.738168 0.208985 0.168334
0.764584 0.211241 0.170116
0.068750 0.134374 0.096727
0.084469 0.138667 0.100121
0.100232 0.142970 0.103486
0.121221 0.147275 0.106817
0.142291 0.151577 0.110110
0.163462 0.155870 0.113359
0.184749 0.160148 0.116561
0.206169 0.164405 0.119712
0.227735 0.168638 0.122808
0.249462 0.172034 0.125847
0.271363 0.175397 0.128826
0.293448 0.178722 0.131741
0.315729 0.182005 0.134591
0.338215 0.185244 0.137375
0.360915 0.188435 0.140089
0.383837 0.191576 0.142734
0.406986 0.194664 0.145309
0.430369 0.197697 0.147812
0.453991 0.200673 0.150243
0.477853 0.203591 0.152603
0.501960 0.206450 0.154891
0.526313 0.209249 0.157109
0.550911 0.211987 0.159256
0.575754 0.214663 0.161334
0.600841 0.217278 0.163345
0.626169 0.219833 0.165289
0.651734 0.222327 0.167170
0.677531 0.224761 0.168990
0.703554 0.227137 0.170750
0.729797 0.229456 0.172454
0.756252 0.231719 0.174106
0.782909 0.233929 0.175707
0.080197 0.156895 0.108021
0.095975 0.161244 0.111298
0.111833 0.165589 0.114531
0.130370 0.169924 0.117714
0.151601 0.174244 0.120846
0.172963 0.178545 0.123922
0.194468 0.182820 0.126939
0.216131 0.187066 0.129894
0.237964 0.191278 0.132786
0.259978 0.195454 0.135612
0.282184 0.199588 0.138371
0.304592 0.202872 0.141061
0.327208 0.206108 0.143680
0.350042 0.209296 0.146228
0.373098 0.212431 0.148705
0.396383 0.215512 0.151111
0.419901 0.218538 0.153444
0.443654 0.221507 0.155707
0.467645 0.224417 0.157898
0.491875 0.227269 0.160020
0.516344 0.230061 0.162074
0.541052 0.232793 0.164060
0.565995 0.235465 0.165981
0.591172 0.238078 0.167840
0.616578 0.240632 0.169637
0.642208 0.243128 0.171377
0.668056 0.245567 0.173061
0.694115 0.247950 0.174694
0.720376 0.250281 0.176279
0.746830 0.252560 0.177819
0.773468 0.254789 0.179319
0.800277 0.256973 0.180784
0.091323 0.179748 0.118861
0.107191 0.184135 0.121972
0.123171 0.188507 0.125027
0.139281 0.192859 0.128022
0.160694 0.197185 0.130955
0.182262 0.201482 0.133823
0.203999 0.205746 0.136625
0.225915 0.209973 0.139358
0.248019 0.214158 0.142022
0.270322 0.218300 0.144616
0.292831 0.222396 0.147139
0.315553 0.226442 0.149589
0.338494 0.230437 0.151969
0.361660 0.233572 0.154276
0.385053 0.236652 0.156513
0.408678 0.239676 0.158679
0.432536 0.242643 0.160776
0.456627 0.245551 0.162805
0.480952 0.248401 0.164767
0.505509 0.251191 0.166665
0.530296 0.253923 0.168501
0.555310 0.256597 0.170277
0.580546 0.259213 0.171996
0.605999 0.261772 0.173662
0.631662 0.264276 0.175277
0.657529 0.266726 0.176845
0.683590 0.269124 0.178370
0.709836 0.271472 0.179856
0.736257 0.273772 0.181309
0.762840 0.276027 0.182732
0.789573 0.278241 0.184130
0.816443 0.280416 0.185510
0.101958 0.202959 0.129097
0.117948 0.207370 0.132006
0.134079 0.211755 0.134851
0.150366 0.216111 0.137628
0.169400 0.220432 0.140336
0.191192 0.224716 0.142975
0.213172 0.228960 0.145543
0.235348 0.233159 0.148039
0.257729 0.237312 0.150464
0.280320 0.241416 0.152817
0.303127 0.245469 0.155099
0.326156 0.249469 0.157309
0.349410 0.253414 0.159450
0.372891 0.257303 0.161522
0.396600 0.261135 0.163527
0.420540 0.264103 0.165465
0.444709 0.267013 0.167341
0.469104 0.269864 0.169154
0.493725 0.272658 0.170909
0.518568 0.275394 0.172609
0.543626 0.278073 0.174255
0.568896 0.280696 0.175853
0.594370 0.283265 0.177405
0.620041 0.285781 0.178915
0.645899 0.288246 0.180389
0.671934 0.290662 0.181830
0.698137 0.293031 0.183243
0.724495 0.295357 0.184635
0.750994 0.297642 0.186009
0.777622 0.299890 0.187372
0.804362 0.302104 0.188730
0.831200 0.304289 0.190089
0.111976 0.226549 0.138622
0.128119 0.230968 0.141305
0.144429 0.235353 0.143918
0.160916 0.239700 0.146460
0.177591 0.244006 0.148930
0.199622 0.248268 0.151329
0.221857 0.252483 0.153656
0.244300 0.256649 0.155912
0.266959 0.260763 0.158097
0.289837 0.264824 0.160212
0.312938 0.268830 0.162260
0.336263 0.272780 0.164240
0.359815 0.276673 0.166155
0.383594 0.280509 0.168008
0.407598 0.284287 0.169800
0.431825 0.288007 0.171534
0.456274 0.291669 0.173214
0.480940 0.294468 0.174842
0.505817 0.297210 0.176423
0.530901 0.299897 0.177959
0.556184 0.302530 0.179456
0.581658 0.305110 0.180917
0.607313 0.307641 0.182347
0.633141 0.310123 0.183752
0.659128 0.312559 0.185136
0.685264 0.314953 0.186506
0.711535 0.317307 0.187866
0.737927 0.319624 0.189224
0.764424 0.321909 0.190586
0.791009 0.324166 0.191957
0.817667 0.326397 0.193346
0.844377 0.328609 0.194760
0.121291 0.250524 0.147367
0.137618 0.254938 0.149812
0.154133 0.259311 0.152184
0.170843 0.263638 0.154485
0.187757 0.267918 0.156715
0.207460 0.272148 0.158875
0.229959 0.276326 0.160966
0.252676 0.280450 0.162988
0.275615 0.284519 0.164945
0.298777 0.288532 0.166837
0.322164 0.292488 0.168667
0.345775 0.296385 0.170438
0.369609 0.300225 0.172152
0.393665 0.304007 0.173813
0.417939 0.307731 0.175423
0.442427 0.311398 0.176987
0.467123 0.315008 0.178508
0.492022 0.318563 0.179992
0.517116 0.322065 0.181441
0.542396 0.324708 0.182861
0.567853 0.327301 0.184258
0.593477 0.329846 0.185636
0.619256 0.332346 0.187002
0.645178 0.334804 0.188361
0.671229 0.337222 0.189719
0.697395 0.339605 0.191083
0.723659 0.341956 0.192461
0.750005 0.344278 0.193858
0.776415 0.346577 0.195282
0.802871 0.348857 0.196742
0.829353 0.351123 0.198244
0.855840 0.353379 0.199798
0.129857 0.274883 0.155305
0.146396 0.279279 0.157510
0.163140 0.283625 0.159644
0.180095 0.287921 0.161710
0.197264 0.292164 0.163708
0.214652 0.296353 0.165641
0.237423 0.300486 0.167510
0.260418 0.304561 0.169319
0.283636 0.308579 0.171068
0.307078 0.312538 0.172763
0.330743 0.316439 0.174405
0.354627 0.320281 0.175998
0.378727 0.324065 0.177546
0.403039 0.327792 0.179053
0.427558 0.331462 0.180523
0.452276 0.335076 0.181961
0.477186 0.338637 0.183372
0.502279 0.342145 0.184762
0.527546 0.345603 0.186135
0.552975 0.349014 0.187497
0.578556 0.352379 0.188855
0.604275 0.354896 0.190215
0.630118 0.357374 0.191583
0.656070 0.359816 0.192967
0.682116 0.362226 0.194373
0.708238 0.364609 0.195809
0.734419 0.366968 0.197283
0.760638 0.369309 0.198803
0.786877 0.371636 0.200378
0.813114 0.373954 0.202015
0.839326 0.376270 0.203725
0.865490 0.378587 0.205515
0.137663 0.299610 0.162445
0.154443 0.303973 0.164419
0.171441 0.308281 0.166329
0.188658 0.312534 0.168176
0.206098 0.316730 0.169962
0.223763 0.320867 0.171692
0.244233 0.324946 0.173366
0.267507 0.328965 0.174990
0.291003 0.332925 0.176566
0.314719 0.336825 0.178099
0.338651 0.340667 0.179592
0.362793 0.344450 0.181050
0.387140 0.348176 0.182478
0.411686 0.351846 0.183881
0.436421 0.355461 0.185263
0.461338 0.359024 0.186632
0.486425 0.362536 0.187992
0.511673 0.366000 0.189350
0.537069 0.369418 0.190712
0.562599 0.372795 0.192085
0.588250 0.376131 0.193475
0.614007 0.379433 0.194892
0.639852 0.382702 0.196341
0.665769 0.385137 0.197831
0.691740 0.387549 0.199370
0.717744 0.389942 0.200966
0.743763 0.392322 0.202629
0.769773 0.394693 0.204367
0.795752 0.397062 0.206189
0.821678 0.399433 0.208105
0.847525 0.401813 0.210125
0.873268 0.404209 0.212260
0.144738 0.324678 0.168833
0.161786 0.328993 0.170598
0.179058 0.333250 0.172307
0.196557 0.337447 0.173963
0.214282 0.341585 0.175569
0.232232 0.345661 0.177129
0.250405 0.349677 0.178647
0.273960 0.353632 0.180127
0.297731 0.357527 0.181573
0.321713 0.361363 0.182991
0.345900 0.365140 0.184386
0.370284 0.368860 0.185763
0.394858 0.372525 0.187127
0.419612 0.376136 0.188486
0.444535 0.379696 0.189845
0.469617 0.383207 0.191210
0.494845 0.386672 0.192588
0.520205 0.390094 0.193988
0.545684 0.393476 0.195415
0.571264 0.396822 0.196878
0.596931 0.400135 0.198385
0.622666 0.403421 0.199944
0.648450 0.406683 0.201564
0.674265 0.409926 0.203252
0.700088 0.413155 0.205020
0.725899 0.415568 0.206875
0.751674 0.417979 0.208828
0.777390 0.420393 0.210889
0.803022 0.422816 0.213067
0.828543 0.425254 0.215374
0.853938 0.427712 0.217809
0.879300 0.430171 0.220268
0.151149 0.350043 0.174553
0.168488 0.354297 0.176142
0.186056 0.358489 0.177686
0.203852 0.362619 0.179190
0.221873 0.366687 0.180657
0.240117 0.370692 0.182092
0.258578 0.374635 0.183501
0.279832 0.378518 0.184889
0.303872 0.382341 0.186261
0.328111 0.386106 0.187622
0.352539 0.389813 0.188980
0.377147 0.393467 0.190340
0.401925 0.397067 0.191710
0.426861 0.400618 0.193095
0.451942 0.404121 0.194504
0.477154 0.407580 0.195943
0.502482 0.410999 0.197421
0.527911 0.414380 0.198946
0.553425 0.417728 0.200526
0.579003 0.421048 0.202170
0.604629 0.424343 0.203886
0.630282 0.427618 0.205685
0.655940 0.430879 0.207574
0.681582 0.434131 0.209565
0.707185 0.437379 0.211668
0.732724 0.440629 0.213892
0.758174 0.443889 0.216248
0.783544 0.446350 0.218705
0.808904 0.448807 0.221162
0.834259 0.451259 0.223614
0.859609 0.453706 0.226061
0.884953 0.456147 0.228502
0.156998 0.375652 0.179728
0.174651 0.379830 0.181183
0.192534 0.383944 0.182608
0.210641 0.387993 0.184009
0.228969 0.391979 0.185390
0.247511 0.395903 0.186757
0.266262 0.399764 0.188117
0.285212 0.403566 0.189475
0.309515 0.407309 0.190838
0.333999 0.410996 0.192212
0.358653 0.414629 0.193605
0.383466 0.418210 0.195024
0.408424 0.421743 0.196476
0.433513 0.425230 0.197971
0.458719 0.428675 0.199515
0.484024 0.432082 0.201117
0.509412 0.435454 0.202786
0.534865 0.438797 0.204531
0.560363 0.442113 0.206361
0.585886 0.445410 0.208287
0.611412 0.448690 0.210317
0.636920 0.451961 0.212463
0.662386 0.455227 0.214733
0.687785 0.458495 0.217140
0.713149 0.461761 0.219600
0.738507 0.465023 0.222055
0.763860 0.468280 0.224505
0.789208 0.471531 0.226950
0.814550 0.474776 0.229389
0.839886 0.477209 0.231823
0.865218 0.479646 0.234264
0.890541 0.482091 0.236718
0.162423 0.401435 0.184514
0.180413 0.405522 0.185889
0.198627 0.409543 0.187253
0.217058 0.413500 0.188611
0.235701 0.417392 0.189970
0.254547 0.421223 0.191336
0.273586 0.424993 0.192716
0.292809 0.428704 0.194118
0.314785 0.432360 0.195548
0.339502 0.435962 0.197015
0.364365 0.439514 0.198527
0.389360 0.443018 0.200091
0.414473 0.446479 0.201716
0.439685 0.449900 0.203412
0.464981 0.453284 0.205187
0.490341 0.456638 0.207051
0.515746 0.459964 0.209013
0.541175 0.463268 0.211084
0.566606 0.466555 0.213274
0.592018 0.469831 0.215593
0.617391 0.473101 0.218036
0.642753 0.476366 0.220495
0.668109 0.479625 0.222948
0.693461 0.482880 0.225396
0.718806 0.486129 0.227839
0.744146 0.489372 0.230275
0.769482 0.492612 0.232710
0.794816 0.495856 0.235156
0.820146 0.499107 0.237615
0.845468 0.502363 0.240087
0.870778 0.505627 0.242571
0.896073 0.508090 0.245069
0.167602 0.427310 0.189105
0.185947 0.431290 0.190466
0.204508 0.435205 0.191837
0.223275 0.439054 0.193224
0.242239 0.442841 0.194635
0.261390 0.446567 0.196078
0.280717 0.450235 0.197560
0.300207 0.453847 0.199089
0.319845 0.457407 0.200675
0.344779 0.460917 0.202325
0.369832 0.464381 0.204048
0.394987 0.467803 0.205855
0.420226 0.471188 0.207753
0.445531 0.474538 0.209754
0.470880 0.477860 0.211867
0.496254 0.481158 0.214103
0.521631 0.484438 0.216472
0.546996 0.487706 0.218932
0.572356 0.490969 0.221388
0.597711 0.494227 0.223840
0.623060 0.497479 0.226286
0.648404 0.500726 0.228726
0.673742 0.503967 0.231161
0.699079 0.507207 0.233599
0.724420 0.510452 0.236050
0.749760 0.513701 0.238513
0.775095 0.516955 0.240990
0.800422 0.520214 0.243479
0.825737 0.523479 0.245982
0.851036 0.526750 0.248497
0.876316 0.530027 0.251025
0.901575 0.533310 0.253567
0.172748 0.453180 0.193734
0.191466 0.457038 0.195156
0.210386 0.460831 0.196612
0.229497 0.464560 0.198111
0.248788 0.468228 0.199660
0.268246 0.471838 0.201268
0.287856 0.475393 0.202943
0.307604 0.478896 0.204696
0.327474 0.482350 0.206535
0.350028 0.485760 0.208470
0.375250 0.489130 0.210510
0.400539 0.492464 0.212666
0.425876 0.495767 0.214950
0.451238 0.499044 0.217367
0.476601 0.502311 0.219827
0.501959 0.505572 0.222282
0.527312 0.508828 0.224731
0.552659 0.512078 0.227175
0.578000 0.515323 0.229613
0.603337 0.518563 0.232047
0.628681 0.521803 0.234490
0.654032 0.525046 0.236945
0.679385 0.528293 0.239413
0.704736 0.531543 0.241895
0.730082 0.534797 0.244389
0.755419 0.538056 0.246896
0.780743 0.541320 0.249416
0.806052 0.544589 0.251949
0.831341 0.547862 0.254495
0.856608 0.551142 0.257053
0.881851 0.554427 0.259624
0.907065 0.557717 0.262206
0.178108 0.478934 0.198668
0.197215 0.482654 0.200238
0.216507 0.486310 0.201869
0.235970 0.489904 0.203572
0.255591 0.493441 0.205355
0.275353 0.496922 0.207228
0.295242 0.500353 0.209200
0.315238 0.503736 0.211281
0.335325 0.507076 0.213482
0.355482 0.510378 0.215814
0.380844 0.513650 0.218263
0.406205 0.516915 0.220721
0.431561 0.520174 0.223174
0.456912 0.523428 0.225621
0.482257 0.526676 0.228063
0.507596 0.529919 0.230500
0.532936 0.533158 0.232935
0.558289 0.536397 0.235382
0.583652 0.539638 0.237842
0.609021 0.542881 0.240315
0.634391 0.546127 0.242801
0.659759 0.549375 0.245300
0.685121 0.552627 0.247812
0.710473 0.555883 0.250337
0.735812 0.559143 0.252874
0.761135 0.562406 0.255425
0.786437 0.565674 0.257987
0.811718 0.568947 0.260562
0.836972 0.572224 0.263149
0.862199 0.575506 0.265748
0.887395 0.578793 0.268358
0.912559 0.582084 0.270979
0.183969 0.504448 0.204211
0.203479 0.508013 0.206026
0.223153 0.511517 0.207933
0.242973 0.514962 0.209944
0.262925 0.518353 0.212068
0.282990 0.521693 0.214316
0.303149 0.524987 0.216698
0.323352 0.528255 0.219158
0.343550 0.531518 0.221615
0.363743 0.534775 0.224066
0.386511 0.538027 0.226511
0.411854 0.541274 0.228951
0.437192 0.544514 0.231385
0.462539 0.547752 0.233824
0.487904 0.550989 0.236276
0.513283 0.554227 0.238741
0.538670 0.557466 0.241219
0.564062 0.560706 0.243709
0.589455 0.563948 0.246213
0.614844 0.567192 0.248730
0.640227 0.570439 0.251259
0.665598 0.573689 0.253801
0.690956 0.576941 0.256356
0.716297 0.580198 0.258924
0.741617 0.583457 0.261503
0.766914 0.586721 0.264094
0.792185 0.589988 0.266697
0.817428 0.593259 0.269311
0.842639 0.596534 0.271935
0.867817 0.599813 0.274570
0.892959 0.603096 0.277215
0.918065 0.606383 0.279869
0.190654 0.529584 0.210704
0.210579 0.532977 0.212871
0.230642 0.536311 0.215167
0.250820 0.539594 0.217594
0.271021 0.542860 0.220053
0.291217 0.546121 0.222508
0.311408 0.549376 0.224957
0.331594 0.552626 0.227400
0.351773 0.555870 0.229838
0.371951 0.559109 0.232272
0.392149 0.562345 0.234715
0.417529 0.565580 0.237172
0.442926 0.568813 0.239641
0.468335 0.572047 0.242124
0.493751 0.575281 0.244619
0.519171 0.578515 0.247128
0.544591 0.581751 0.249649
0.570006 0.584988 0.252183
0.595413 0.588226 0.254730
0.620808 0.591468 0.257290
0.646188 0.594711 0.259861
0.671551 0.597957 0.262445
0.696892 0.601206 0.265040
0.722209 0.604458 0.267647
0.747499 0.607713 0.270265
0.772760 0.610972 0.272894
0.797989 0.614233 0.275532
0.823184 0.617498 0.278180
0.848343 0.620766 0.280837
0.873464 0.624036 0.283503
0.898546 0.627310 0.286176
0.923586 0.630586 0.288857
0.198490 0.554199 0.218490
0.218689 0.557463 0.220947
0.238884 0.560722 0.223400
0.259073 0.563976 0.225847
0.279256 0.567224 0.228288
0.299434 0.570466 0.230724
0.319618 0.573703 0.233160
0.339831 0.576936 0.235608
0.360068 0.580167 0.238070
0.380325 0.583396 0.240544
0.400597 0.586623 0.243031
0.423460 0.589850 0.245531
0.448909 0.593076 0.248044
0.474361 0.596302 0.250570
0.499811 0.599528 0.253109
0.525255 0.602756 0.255661
0.550690 0.605984 0.258224
0.576113 0.609214 0.260800
0.601519 0.612446 0.263389
0.626906 0.615680 0.265988
0.652270 0.618917 0.268599
0.677610 0.622155 0.271221
0.702922 0.625396 0.273853
0.728204 0.628639 0.276495
0.753453 0.631885 0.279146
0.778667 0.635134 0.281807
0.803845 0.638384 0.284475
0.828984 0.641637 0.287151
0.854082 0.644892 0.289834
0.879139 0.648149 0.292523
0.904152 0.651408 0.295217
0.929121 0.654668 0.297916
0.206736 0.578575 0.226736
0.226918 0.581821 0.229176
0.247094 0.585061 0.231610
0.267292 0.588295 0.234050
0.287523 0.591525 0.236503
0.307782 0.594751 0.238969
0.328062 0.597974 0.241448
0.348361 0.601194 0.243940
0.368673 0.604412 0.246444
0.388993 0.607629 0.248962
0.409319 0.610845 0.251493
0.429645 0.614060 0.254036
0.455128 0.617275 0.256592
0.480605 0.620491 0.259161
0.506071 0.623707 0.261741
0.531523 0.626924 0.264334
0.556957 0.630143 0.266937
0.582371 0.633362 0.269552
0.607762 0.636584 0.272178
0.633126 0.639807 0.274814
0.658462 0.643031 0.277459
0.683767 0.646258 0.280114
0.709037 0.649487 0.282777
0.734272 0.652717 0.285449
0.759470 0.655949 0.288127
0.784628 0.659183 0.290812
0.809744 0.662418 0.293503
0.834818 0.665654 0.296199
0.859848 0.668892 0.298900
0.884833 0.672130 0.301603
0.909772 0.675368 0.304309
0.934664 0.678606 0.307016
0.214975 0.602886 0.234941
0.235227 0.606111 0.237399
0.255509 0.609332 0.239870
0.275817 0.612548 0.242353
0.296145 0.615760 0.244850
0.316489 0.618969 0.247360
0.336844 0.622176 0.249882
0.357206 0.625380 0.252418
0.377572 0.628584 0.254966
0.397936 0.631786 0.257526
0.418295 0.634988 0.260099
0.438645 0.638189 0.262684
0.461564 0.641391 0.265280
0.487048 0.644593 0.267888
0.512513 0.647795 0.270507
0.537956 0.650999 0.273136
0.563374 0.654204 0.275776
0.588765 0.657409 0.278425
0.614126 0.660617 0.281083
0.639454 0.663825 0.283749
0.664747 0.667034 0.286423
0.690004 0.670245 0.289104
0.715222 0.673457 0.291791
0.740399 0.676670 0.294484
0.765535 0.679884 0.297182
0.790626 0.683098 0.299884
0.815673 0.686313 0.302588
0.840674 0.689528 0.305295
0.865628 0.692743 0.308002
0.890534 0.695957 0.310710
0.915391 0.699170 0.313417
0.940200 0.702382 0.316121
0.223590 0.627116 0.243261
0.243950 0.630319 0.245762
0.264328 0.633518 0.248276
0.284721 0.636714 0.250804
0.305122 0.639907 0.253344
0.325529 0.643098 0.255896
0.345937 0.646286 0.258461
0.366341 0.649474 0.261039
0.386739 0.652660 0.263628
0.407127 0.655845 0.266228
0.427500 0.659030 0.268840
0.447856 0.662216 0.271463
0.468192 0.665401 0.274096
0.493665 0.668587 0.276739
0.519113 0.671773 0.279391
0.544531 0.674960 0.282052
0.569918 0.678148 0.284722
0.595270 0.681336 0.287398
0.620587 0.684525 0.290082
0.645866 0.687715 0.292771
0.671105 0.690906 0.295466
0.696302 0.694097 0.298165
0.721455 0.697288 0.300868
0.746564 0.700480 0.303573
0.771628 0.703671 0.306280
0.796644 0.706862 0.308988
0.821612 0.710052 0.311696
0.846531 0.713241 0.314402
0.871402 0.716428 0.317105
0.896222 0.719613 0.319805
0.920993 0.722796 0.322500
0.945713 0.725975 0.325189
0.232625 0.651245 0.251727
0.253068 0.654425 0.254272
0.273518 0.657602 0.256829
0.293972 0.660777 0.259398
0.314424 0.663949 0.261980
0.334871 0.667119 0.264573
0.355309 0.670288 0.267178
0.375735 0.673456 0.269794
0.396145 0.676623 0.272421
0.416536 0.679789 0.275057
0.436905 0.682956 0.277704
0.457248 0.686122 0.280359
0.477564 0.689288 0.283023
0.500429 0.692455 0.285695
0.525842 0.695622 0.288374
0.551220 0.698790 0.291060
0.576560 0.701957 0.293752
0.601860 0.705125 0.296448
0.627120 0.708293 0.299149
0.652336 0.711462 0.301853
0.677507 0.714629 0.304559
0.702633 0.717797 0.307266
0.727711 0.720964 0.309974
0.752742 0.724130 0.312681
0.777723 0.727295 0.315386
0.802654 0.730457 0.318089
0.827536 0.733618 0.320787
0.852366 0.736776 0.323480
0.877146 0.739931 0.326166
0.901874 0.743083 0.328845
0.926552 0.746230 0.331514
0.951180 0.749372 0.334172
0.242041 0.675256 0.260337
0.262542 0.678412 0.262923
0.283040 0.681566 0.265520
0.303531 0.684718 0.268129
0.324011 0.687868 0.270749
0.344477 0.691016 0.273379
0.364924 0.694163 0.276020
0.385350 0.697310 0.278669
0.405752 0.700456 0.281328
0.426127 0.703602 0.283995
0.446473 0.706747 0.286670
0.466785 0.709892 0.289352
0.487063 0.713038 0.292039
0.507304 0.716183 0.294733
0.532667 0.719328 0.297431
0.557989 0.722473 0.300133
0.583267 0.725617 0.302837
0.608502 0.728762 0.305544
0.633690 0.731906 0.308252
0.658830 0.735048 0.310960
0.683923 0.738190 0.313666
0.708965 0.741331 0.316371
0.733958 0.744469 0.319072
0.758899 0.747606 0.321768
0.783790 0.750740 0.324459
0.808628 0.753870 0.327142
0.833414 0.756998 0.329818
0.858148 0.760121 0.332483
0.882831 0.763239 0.335137
0.907461 0.766352 0.337779
0.932041 0.769459 0.340407
0.956570 0.772558 0.343019
0.251794 0.699135 0.269082
0.272330 0.702266 0.271705
0.292852 0.705396 0.274339
0.313357 0.708523 0.276983
0.333842 0.711650 0.279636
0.354304 0.714775 0.282298
0.374739 0.717899 0.284968
0.395146 0.721023 0.287645
0.415520 0.724146 0.290329
0.435860 0.727269 0.293019
0.456164 0.730392 0.295715
0.476428 0.733513 0.298414
0.496651 0.736635 0.301117
0.516831 0.739756 0.303823
0.539548 0.742877 0.306530
0.564798 0.745997 0.309238
0.590001 0.749115 0.311945
0.615155 0.752233 0.314651
0.640259 0.755349 0.317354
