omv/luts/29_potomac_fog.cube
# Original OMV LUT; redistribution permitted with OMV.
TITLE "Potomac Fog"
LUT_3D_SIZE 5
DOMAIN_MIN 0.000000 0.000000 0.000000
DOMAIN_MAX 0.903226 0.903226 0.903226
0.025000 0.048000 0.053000
0.168741 0.069806 0.074806
0.314844 0.093585 0.098576
0.467664 0.116540 0.121403
0.632194 0.136919 0.141536
0.101958 0.202959 0.129097
0.235348 0.233159 0.148039
0.396600 0.261135 0.163527
0.568896 0.280696 0.175853
0.750994 0.297642 0.186009
0.156998 0.375652 0.179728
0.285212 0.403566 0.189475
0.458719 0.428675 0.199515
0.636920 0.451961 0.212463
0.814550 0.474776 0.229389
0.198490 0.554199 0.218490
0.339831 0.576936 0.235608
0.499811 0.599528 0.253109
0.677610 0.622155 0.271221
0.854082 0.644892 0.289834
0.261835 0.722869 0.277948
0.405074 0.744584 0.296697
0.546439 0.766258 0.315636
0.721481 0.787853 0.334417
0.893877 0.809224 0.352593
0.031888 0.054888 0.150211
0.158657 0.077786 0.170850
0.305932 0.101592 0.193073
0.461239 0.123802 0.218421
0.628508 0.143102 0.242741
0.109107 0.217130 0.229733
0.225490 0.246679 0.251076
0.388195 0.268095 0.272142
0.561766 0.286717 0.290408
0.744387 0.302932 0.306303
0.160866 0.389207 0.296425
0.290609 0.416101 0.311699
0.446948 0.440446 0.326298
0.624843 0.463456 0.342262
0.802265 0.480568 0.359367
0.204324 0.565678 0.348517
0.345825 0.588342 0.365583
0.487974 0.610931 0.382792
0.665710 0.633591 0.400249
0.841914 0.656366 0.417931
0.269075 0.733977 0.406664
0.412141 0.755677 0.424404
0.553112 0.777334 0.442178
0.709562 0.798874 0.459724
0.881386 0.820120 0.476683
0.039433 0.062433 0.248078
0.148710 0.085903 0.269290
0.297514 0.109401 0.293575
0.455194 0.130722 0.320575
0.624995 0.148888 0.347760
0.115915 0.231124 0.335898
0.233419 0.254261 0.362669
0.379474 0.274727 0.387365
0.554181 0.292454 0.409161
0.737079 0.308062 0.430184
0.164583 0.402401 0.421668
0.295880 0.428336 0.439430
0.434972 0.452058 0.455087
0.612614 0.469292 0.472291
0.789974 0.486398 0.489274
0.210126 0.577126 0.480772
0.351980 0.599740 0.495378
0.494295 0.622342 0.512034
0.653854 0.645042 0.528646
0.829755 0.667846 0.545279
0.276409 0.745079 0.534699
0.419229 0.766766 0.551336
0.559746 0.788397 0.567921
0.697561 0.809862 0.584282
0.868787 0.830950 0.600143
0.047244 0.070244 0.346211
0.157071 0.094033 0.368333
0.289462 0.116951 0.396378
0.449404 0.137272 0.428432
0.621524 0.154277 0.461427
0.122359 0.239248 0.445812
0.241045 0.261529 0.478532
0.370410 0.281038 0.509177
0.546105 0.297940 0.536362
0.729030 0.313093 0.559393
0.168217 0.415246 0.550581
0.301090 0.440310 0.572061
0.440914 0.457930 0.589542
0.600355 0.475097 0.604548
0.777685 0.492274 0.618955
0.215986 0.588546 0.615226
0.358288 0.611137 0.629365
0.500703 0.633766 0.642987
0.642034 0.656505 0.656344
0.817599 0.673683 0.671846
0.283817 0.756176 0.666512
0.426315 0.777850 0.679734
0.566320 0.799442 0.692888
0.703523 0.820807 0.708149
0.856061 0.841702 0.723069
0.055232 0.078232 0.444523
0.165705 0.102031 0.469025
0.281661 0.124195 0.502178
0.443750 0.143433 0.540184
0.617977 0.159279 0.579431
0.128426 0.247107 0.559835
0.248352 0.268471 0.598778
0.379045 0.287042 0.635186
0.537515 0.303220 0.667112
0.720212 0.318094 0.693298
0.171848 0.427764 0.682693
0.306312 0.446426 0.706611
0.446780 0.463780 0.724199
0.588086 0.480890 0.738992
0.765404 0.498198 0.752787
0.222065 0.599951 0.749485
0.364738 0.622540 0.762901
0.507188 0.645203 0.775562
0.648308 0.662334 0.787808
0.805438 0.679516 0.799879
0.291274 0.767269 0.797552
0.433376 0.788925 0.809598
0.572813 0.810461 0.821634
0.709362 0.831699 0.833660
0.843188 0.852361 0.845577
