omv/luts/29_potomac_fog.cube
# Original OMV LUT; redistribution permitted with OMV.
TITLE "Potomac Fog"
LUT_3D_SIZE 8
DOMAIN_MIN 0.000000 0.000000 0.000000
DOMAIN_MAX 0.903226 0.903226 0.903226
0.025000 0.048000 0.053000
0.106681 0.060003 0.065003
0.189499 0.073144 0.078144
0.272786 0.086746 0.091746
0.357520 0.100333 0.105302
0.445191 0.113392 0.118281
0.536575 0.125649 0.130419
0.632194 0.136919 0.141536
0.068750 0.134374 0.096727
0.142291 0.151577 0.110110
0.227735 0.168638 0.122808
0.315729 0.182005 0.134591
0.406986 0.194664 0.145309
0.501960 0.206450 0.154891
0.600841 0.217278 0.163345
0.703554 0.227137 0.170750
0.111976 0.226549 0.138622
0.177591 0.244006 0.148930
0.266959 0.260763 0.158097
0.359815 0.276673 0.166155
0.456274 0.291669 0.173214
0.556184 0.302530 0.179456
0.659128 0.312559 0.185136
0.764424 0.321909 0.190586
0.144738 0.324678 0.168833
0.214282 0.341585 0.175569
0.297731 0.357527 0.181573
0.394858 0.372525 0.187127
0.494845 0.386672 0.192588
0.596931 0.400135 0.198385
0.700088 0.413155 0.205020
0.803022 0.422816 0.213067
0.167602 0.427310 0.189105
0.242239 0.442841 0.194635
0.319845 0.457407 0.200675
0.420226 0.471188 0.207753
0.521631 0.484438 0.216472
0.623060 0.497479 0.226286
0.724420 0.510452 0.236050
0.825737 0.523479 0.245982
0.190654 0.529584 0.210704
0.271021 0.542860 0.220053
0.351773 0.555870 0.229838
0.442926 0.568813 0.239641
0.544591 0.581751 0.249649
0.646188 0.594711 0.259861
0.747499 0.607713 0.270265
0.848343 0.620766 0.280837
0.223590 0.627116 0.243261
0.305122 0.639907 0.253344
0.386739 0.652660 0.263628
0.468192 0.665401 0.274096
0.569918 0.678148 0.284722
0.671105 0.690906 0.295466
0.771628 0.703671 0.306280
0.871402 0.716428 0.317105
0.261835 0.722869 0.277948
0.343868 0.735283 0.288622
0.425401 0.747682 0.299398
0.506281 0.760070 0.310224
0.596717 0.772441 0.321035
0.696637 0.784777 0.331759
0.795687 0.797051 0.342310
0.893877 0.809224 0.352593
0.028790 0.051790 0.108402
0.100752 0.064397 0.119719
0.183754 0.077722 0.131754
0.267287 0.091399 0.145481
0.352735 0.104843 0.159408
0.441243 0.117655 0.173156
0.533530 0.129594 0.186407
0.630059 0.140501 0.198923
0.073398 0.142339 0.151838
0.136784 0.159535 0.164453
0.222593 0.173244 0.178052
0.311094 0.186393 0.191059
0.402941 0.198770 0.203265
0.498526 0.210237 0.214542
0.597980 0.220733 0.224837
0.701165 0.230273 0.234171
0.115826 0.234674 0.195604
0.181772 0.251915 0.207482
0.261247 0.268396 0.218404
0.354568 0.284000 0.228343
0.451465 0.295457 0.237347
0.551728 0.306023 0.245541
0.654876 0.315801 0.253118
0.760165 0.324968 0.260350
0.147402 0.332656 0.231724
0.217414 0.349238 0.240416
0.290997 0.364853 0.248358
0.388506 0.379548 0.255775
0.488739 0.393441 0.262962
0.590874 0.406723 0.270289
0.693821 0.416433 0.278197
0.796224 0.426133 0.287201
0.169671 0.434831 0.258400
0.244869 0.450019 0.265592
0.322915 0.464294 0.273075
0.413228 0.477862 0.281318
0.514652 0.491006 0.290781
0.616051 0.504019 0.300567
0.717418 0.516997 0.310333
0.818717 0.530054 0.320215
0.193666 0.536308 0.284612
0.274354 0.549418 0.294354
0.355087 0.562399 0.304112
0.436032 0.575336 0.313916
0.537752 0.588279 0.323845
0.639350 0.601252 0.333904
0.740614 0.614271 0.344090
0.841376 0.627339 0.354390
0.227190 0.633597 0.317516
0.308841 0.646371 0.327492
0.390511 0.659117 0.337598
0.471958 0.671859 0.347828
0.563309 0.684609 0.358163
0.664406 0.697371 0.368575
0.764810 0.710136 0.379024
0.864446 0.722885 0.389459
0.265959 0.729218 0.351580
0.347960 0.741626 0.361947
0.429412 0.754021 0.372377
0.510170 0.766404 0.382828
0.590132 0.778766 0.393244
0.689880 0.791084 0.403561
0.788746 0.803329 0.413703
0.886751 0.815457 0.423584
0.032944 0.055944 0.164169
0.094898 0.068866 0.175802
0.178055 0.082345 0.187990
0.261973 0.096017 0.200703
0.348123 0.109279 0.214032
0.437445 0.121817 0.228822
0.530603 0.133419 0.243410
0.627999 0.143953 0.257502
0.078014 0.150317 0.208559
0.141583 0.164237 0.221999
0.217442 0.177784 0.235464
0.306448 0.190692 0.248611
0.398870 0.202771 0.262464
0.495043 0.213911 0.275545
0.595033 0.224078 0.287742
0.698645 0.233309 0.299016
0.119557 0.242734 0.256314
0.185851 0.259735 0.268614
0.255436 0.275928 0.280092
0.349215 0.287994 0.291953
0.446535 0.299142 0.302897
0.547120 0.309425 0.312986
0.650432 0.318972 0.322355
0.755664 0.327984 0.331216
0.149963 0.340526 0.297332
0.220455 0.356779 0.306663
0.294494 0.372073 0.316471
0.382052 0.386478 0.325627
0.482510 0.400139 0.334368
0.584661 0.410044 0.343003
0.687354 0.419709 0.351913
0.789250 0.429476 0.361508
0.171749 0.442231 0.328843
0.247516 0.457090 0.337506
0.325996 0.471099 0.346193
0.406226 0.484487 0.355313
0.507662 0.497566 0.365082
0.609036 0.510550 0.374840
0.710426 0.523551 0.384578
0.811700 0.533415 0.394355
0.196896 0.542929 0.358832
0.277676 0.555967 0.368644
0.358448 0.568924 0.378382
0.439501 0.581860 0.388131
0.530942 0.594810 0.397929
0.632530 0.607798 0.407791
0.733741 0.620834 0.417724
0.834415 0.633918 0.427722
0.230856 0.640070 0.391692
0.312611 0.652832 0.401511
0.394319 0.665574 0.411399
0.475749 0.678318 0.421357
0.556715 0.691073 0.431376
0.657712 0.703837 0.441436
0.757990 0.716599 0.451509
0.857483 0.729336 0.461551
0.270117 0.735564 0.424998
0.352071 0.747967 0.435035
0.433429 0.760358 0.445104
0.514055 0.772736 0.455171
0.593856 0.785086 0.465190
0.683100 0.797383 0.475107
0.781777 0.809594 0.484855
0.879593 0.821671 0.494357
0.037244 0.060244 0.220083
0.099428 0.073396 0.231944
0.172399 0.087005 0.244272
0.256819 0.100585 0.257592
0.343658 0.113631 0.271905
0.433773 0.125871 0.286695
0.527768 0.137121 0.301528
0.625989 0.147276 0.317344
0.082582 0.155066 0.265767
0.146352 0.168895 0.280309
0.212269 0.182251 0.295161
0.301775 0.194894 0.309919
0.394760 0.206663 0.324260
0.491495 0.217473 0.337938
0.591987 0.227313 0.352071
0.695977 0.236249 0.365270
0.123166 0.250720 0.318253
0.189822 0.267461 0.332378
0.259845 0.280129 0.345768
0.343753 0.291882 0.358278
0.441476 0.302726 0.369837
0.542357 0.312741 0.381739
0.645793 0.322080 0.392769
0.750916 0.330970 0.403077
0.152428 0.348284 0.365648
0.223411 0.364208 0.376858
0.297906 0.379189 0.387140
0.375501 0.393322 0.396596
0.476162 0.403549 0.406692
0.578295 0.413336 0.416387
0.680689 0.422999 0.426003
0.782261 0.432810 0.435810
0.173854 0.449515 0.402916
0.250196 0.464063 0.411543
0.329106 0.477832 0.419878
0.409559 0.491075 0.429559
0.500663 0.504115 0.439373
0.602036 0.517087 0.449099
0.703446 0.526890 0.458753
0.804687 0.536787 0.468376
0.200238 0.549496 0.434432
0.280989 0.562505 0.442924
0.361862 0.575448 0.452620
0.443009 0.588385 0.462259
0.524160 0.601346 0.471878
0.625729 0.614349 0.481503
0.726879 0.627402 0.491150
0.827458 0.640502 0.500822
0.234585 0.646538 0.465761
0.316428 0.659290 0.475381
0.398161 0.672032 0.485013
0.479562 0.684779 0.494669
0.560455 0.697537 0.504349
0.651022 0.710302 0.514044
0.751167 0.723059 0.523733
0.850512 0.735781 0.533383
0.274305 0.741908 0.498190
0.356198 0.754306 0.507878
0.437448 0.766694 0.517574
0.517930 0.779064 0.527253
0.597561 0.791399 0.536879
0.676295 0.803672 0.546407
0.774777 0.815843 0.555779
0.872398 0.827863 0.564928
0.041643 0.064643 0.276094
0.104010 0.077977 0.288139
0.166855 0.091656 0.300759
0.251801 0.105091 0.315022
0.339316 0.117889 0.330589
0.430202 0.129809 0.346888
0.525003 0.140695 0.363429
0.624004 0.150468 0.379803
0.087092 0.159797 0.323620
0.151078 0.173497 0.339516
0.217383 0.186634 0.355955
0.297064 0.198995 0.372479
0.390597 0.210444 0.388705
0.487869 0.220922 0.404327
0.588826 0.230444 0.419113
0.693149 0.239100 0.432905
0.126651 0.258623 0.381489
0.193685 0.271863 0.397527
0.264150 0.284224 0.412867
0.338179 0.295664 0.427305
0.436288 0.306214 0.440711
0.537434 0.315978 0.453027
0.640952 0.325136 0.464269
0.745915 0.333938 0.475818
0.154806 0.355931 0.435360
0.226290 0.371529 0.448372
0.301241 0.386207 0.460292
0.379184 0.396861 0.471161
0.469701 0.406908 0.481097
0.571783 0.416614 0.490288
0.673832 0.426318 0.500285
0.775263 0.436134 0.510102
0.176002 0.456686 0.477929
0.252926 0.470946 0.487568
0.332261 0.484503 0.496548
0.412901 0.497643 0.505159
0.493654 0.510654 0.513654
0.595057 0.520407 0.523316
0.696476 0.530240 0.532834
0.797680 0.540172 0.542256
0.203570 0.556054 0.511312
0.284307 0.569034 0.519772
0.365326 0.581970 0.528085
0.446554 0.594913 0.536273
0.527728 0.607887 0.545671
0.618945 0.620907 0.555023
0.720026 0.633977 0.564356
0.820505 0.643864 0.573681
0.238375 0.653002 0.542282
0.320291 0.665748 0.550370
0.402034 0.678490 0.558422
0.483395 0.691240 0.567751
0.564204 0.704002 0.577076
0.644333 0.716767 0.586395
0.744339 0.729515 0.595697
0.843530 0.742217 0.604960
0.278519 0.748250 0.572437
0.360336 0.760645 0.580470
0.441466 0.773028 0.589784
0.521793 0.785389 0.599075
0.601244 0.797706 0.608316
0.679783 0.809949 0.617470
0.767740 0.822075 0.626489
0.865164 0.834031 0.635315
0.046116 0.069116 0.332180
0.108635 0.082602 0.344377
0.171750 0.096271 0.357650
0.246896 0.109522 0.373146
0.335075 0.122045 0.390210
0.426709 0.133628 0.408212
0.522283 0.144141 0.426608
0.622022 0.153531 0.444927
0.091530 0.164496 0.382262
0.155751 0.178034 0.399736
0.222450 0.190927 0.417941
0.292303 0.202989 0.436359
0.386369 0.214112 0.454548
0.484153 0.224260 0.472143
0.585539 0.233474 0.488853
0.690145 0.241870 0.504460
0.130012 0.263212 0.446078
0.197438 0.276163 0.464090
0.268348 0.288212 0.481393
0.342814 0.299343 0.497722
0.430966 0.309610 0.512888
0.532347 0.319145 0.526773
0.635908 0.328151 0.539334
0.740658 0.336902 0.550598
0.157104 0.363466 0.506437
0.229100 0.378743 0.521146
0.304506 0.389907 0.534550
0.382785 0.400329 0.546631
0.463135 0.410227 0.557445
0.565131 0.419891 0.567121
0.666854 0.429661 0.575886
0.768254 0.439448 0.584383
0.178214 0.463752 0.553760
0.255724 0.477747 0.564141
0.335478 0.491126 0.573448
0.416234 0.504202 0.582040
0.496963 0.513959 0.590501
0.588098 0.523736 0.598752
0.689519 0.533601 0.606793
0.790677 0.543568 0.615973
0.206893 0.562602 0.588183
0.287684 0.575559 0.596584
0.368839 0.588494 0.604751
0.450137 0.601445 0.612731
0.531321 0.614433 0.620577
0.612178 0.627470 0.628335
0.713182 0.637330 0.637329
0.813556 0.647228 0.646292
0.242223 0.659463 0.618650
0.324196 0.672205 0.626460
0.405937 0.684949 0.634195
0.487245 0.697704 0.641885
0.567961 0.710468 0.649549
0.647965 0.723230 0.658486
0.737502 0.735966 0.667403
0.836535 0.748643 0.676287
0.282755 0.754591 0.647728
0.364481 0.766982 0.655385
0.445478 0.779359 0.663026
0.525640 0.791708 0.670642
0.604901 0.804005 0.679509
0.683237 0.816213 0.688308
0.760665 0.828288 0.697000
0.857887 0.840171 0.705537
0.050649 0.073649 0.388326
0.113301 0.087263 0.400677
0.176740 0.100836 0.415115
0.242083 0.113869 0.432107
0.330914 0.126092 0.450883
0.423274 0.137322 0.470758
0.519588 0.147456 0.491127
0.620020 0.156467 0.511461
0.095888 0.169151 0.441825
0.160360 0.182496 0.461076
0.227460 0.195124 0.481197
0.297803 0.206875 0.501610
0.382065 0.217667 0.521815
0.480335 0.227489 0.541388
0.582112 0.236409 0.559976
0.686955 0.244566 0.577304
0.133249 0.267707 0.512064
0.201081 0.280359 0.532085
0.272438 0.292094 0.551336
0.347333 0.302921 0.569493
0.425510 0.312922 0.586307
0.527096 0.322251 0.601599
0.630658 0.331135 0.615266
0.735142 0.339876 0.627276
0.159334 0.370890 0.578831
0.231851 0.382628 0.595108
0.307710 0.393520 0.609816
0.386313 0.403736 0.622880
0.466795 0.413518 0.634294
0.558346 0.423182 0.644127
0.659865 0.432994 0.652768
0.761236 0.442755 0.661230
0.180507 0.470720 0.630275
0.258610 0.484476 0.641101
0.338776 0.497712 0.650389
0.419557 0.507525 0.658912
0.500300 0.517271 0.667303
0.581160 0.527075 0.675381
0.682574 0.536975 0.683190
0.783681 0.546977 0.690798
0.210204 0.569140 0.665043
0.291123 0.582082 0.673330
0.372401 0.595020 0.681301
0.453754 0.607981 0.689030
0.534938 0.620986 0.696580
0.615749 0.630814 0.704007
0.706346 0.640688 0.711351
0.806608 0.650595 0.718647
0.246126 0.665921 0.694847
0.328141 0.678662 0.702346
0.409865 0.691409 0.709738
0.491109 0.704168 0.717062
0.571721 0.716933 0.724346
0.651592 0.729690 0.731608
0.730654 0.742410 0.738855
0.829525 0.751832 0.747374
0.287008 0.760931 0.722768
0.368629 0.773318 0.730043
0.449480 0.785688 0.737299
0.529465 0.798022 0.744540
0.608528 0.810293 0.751758
0.686654 0.822462 0.758934
0.763869 0.834478 0.767331
0.850563 0.846282 0.775617
0.055232 0.078232 0.444523
0.118027 0.091913 0.457357
0.181804 0.105338 0.473307
0.247664 0.118122 0.492034
0.326812 0.130024 0.512714
0.419875 0.140890 0.534602
0.516896 0.150641 0.557037
0.617977 0.159279 0.579431
0.100155 0.173750 0.502428
0.164896 0.186874 0.523629
0.232403 0.199219 0.545790
0.303232 0.210650 0.568274
0.377674 0.221109 0.590522
0.476403 0.230615 0.612049
0.578535 0.239256 0.632444
0.683565 0.247198 0.651370
0.136363 0.272104 0.579478
0.204615 0.284448 0.601516
0.276422 0.295870 0.622675
0.351736 0.306404 0.642570
0.430242 0.316156 0.660892
0.521679 0.325304 0.677403
0.625199 0.334102 0.691939
0.729365 0.342876 0.704409
0.161506 0.374978 0.652487
0.234553 0.386415 0.670173
0.310863 0.397055 0.685980
0.389777 0.407093 0.699771
0.470366 0.416795 0.711480
0.551438 0.426503 0.721115
0.652866 0.436318 0.729640
0.754214 0.446077 0.738025
0.182903 0.477598 0.707326
0.261602 0.491144 0.718275
0.342118 0.501054 0.727279
0.422869 0.510837 0.735773
0.503667 0.520591 0.744031
0.584565 0.530426 0.751885
0.675642 0.540360 0.759421
0.776690 0.550397 0.766714
0.213527 0.575668 0.741881
0.294624 0.588605 0.749983
0.376009 0.601548 0.757712
0.457405 0.614523 0.765151
0.538578 0.624318 0.772374
0.619333 0.634162 0.779444
0.699517 0.644050 0.786414
0.799662 0.653963 0.793326
0.250081 0.672379 0.770852
0.332122 0.685120 0.778013
0.413817 0.697871 0.785042
0.494984 0.710633 0.791986
0.575483 0.723398 0.798884
0.655213 0.736146 0.805764
0.734116 0.745620 0.812640
0.822497 0.755007 0.819519
0.291274 0.767269 0.797552
0.372775 0.779652 0.804440
0.453468 0.792012 0.811317
0.533266 0.804329 0.818194
0.612121 0.816570 0.825073
0.690030 0.828693 0.831945
0.767026 0.840644 0.838790
0.843188 0.852361 0.845577
