omv/luts/30_ruined_capitol_dusk.cube
# Original OMV LUT; redistribution permitted with OMV.
TITLE "Ruined Capitol Dusk"
LUT_3D_SIZE 5
DOMAIN_MIN 0.000000 0.000000 0.000000
DOMAIN_MAX 0.903226 0.903226 0.903226
0.008000 0.013000 0.046000
0.207410 0.027248 0.060248
0.408017 0.042183 0.075131
0.617270 0.056182 0.088427
0.841280 0.067428 0.098323
0.057700 0.178419 0.092472
0.241795 0.205981 0.100939
0.462912 0.231220 0.105372
0.697379 0.242152 0.106243
0.943408 0.250169 0.104818
0.087661 0.365450 0.105898
0.263052 0.391057 0.104109
0.498470 0.413403 0.103042
0.738635 0.433544 0.105857
0.977327 0.453005 0.113715
0.100554 0.560748 0.108554
0.289284 0.580110 0.116508
0.503555 0.599666 0.122329
0.743893 0.619185 0.125571
0.985368 0.638151 0.126534
0.128101 0.747237 0.126167
0.317860 0.766595 0.126389
0.508023 0.784875 0.124860
0.747855 0.801652 0.122054
0.987018 0.816577 0.118516
0.012826 0.017826 0.213407
0.187567 0.032244 0.214276
0.389671 0.047161 0.216278
0.602199 0.060368 0.232431
0.829718 0.070450 0.247226
0.062299 0.195420 0.251607
0.223053 0.222320 0.252001
0.446036 0.235283 0.263038
0.682051 0.245173 0.270973
0.928630 0.252366 0.276410
0.088848 0.382001 0.273185
0.265931 0.406431 0.278017
0.477340 0.427870 0.282461
0.716804 0.447643 0.288998
0.955242 0.455709 0.296986
0.103331 0.574815 0.291976
0.292115 0.594177 0.299495
0.481844 0.613783 0.304749
0.722400 0.633168 0.307741
0.963956 0.651841 0.308716
0.130727 0.761359 0.308314
0.320403 0.780403 0.308631
0.510360 0.798216 0.307382
0.724968 0.814400 0.304985
0.963506 0.828629 0.301930
0.017628 0.022628 0.380790
0.167836 0.037351 0.381965
0.372027 0.051929 0.386224
0.587682 0.064187 0.393353
0.818436 0.073039 0.400619
0.066593 0.212249 0.428131
0.228890 0.227057 0.434922
0.428819 0.238984 0.439392
0.666178 0.247876 0.440677
0.912978 0.254379 0.452263
0.089833 0.398139 0.472346
0.268597 0.421454 0.469343
0.455864 0.442138 0.464296
0.694745 0.450423 0.472423
0.933366 0.458435 0.480038
0.106059 0.588834 0.488898
0.295022 0.608282 0.482335
0.485000 0.627873 0.487220
0.700876 0.647068 0.490116
0.942444 0.665400 0.491211
0.133253 0.775393 0.490711
0.322804 0.794068 0.491211
0.512503 0.811369 0.490285
0.701823 0.826922 0.488295
0.939664 0.840426 0.485673
0.022522 0.027522 0.548264
0.173281 0.042463 0.550306
0.354934 0.056423 0.558841
0.573562 0.067607 0.571867
0.807271 0.075194 0.585980
0.070546 0.217558 0.609064
0.234423 0.231455 0.622881
0.411213 0.242328 0.634416
0.649707 0.250297 0.642139
0.896393 0.256277 0.645324
0.090685 0.413874 0.675867
0.271114 0.436166 0.677375
0.458939 0.444990 0.674640
0.672639 0.453155 0.669348
0.911676 0.461167 0.662973
0.108780 0.602843 0.699264
0.297982 0.622404 0.692229
0.488157 0.641917 0.683372
0.679293 0.660867 0.672751
0.920802 0.667524 0.674047
0.135662 0.789319 0.700499
0.325046 0.807574 0.687700
0.514434 0.824319 0.673567
0.703243 0.839207 0.671954
0.915474 0.851960 0.669691
0.027524 0.032524 0.715847
0.179170 0.047432 0.720522
0.338250 0.060589 0.734960
0.559690 0.070605 0.754964
0.796069 0.076923 0.776457
0.074131 0.222591 0.794835
0.239621 0.235497 0.816015
0.418018 0.245331 0.834407
0.632593 0.252481 0.847817
0.878827 0.258137 0.854852
0.091482 0.429228 0.883194
0.273556 0.439330 0.887718
0.461798 0.447798 0.885282
0.650551 0.455860 0.879738
0.890136 0.463883 0.872989
0.111564 0.616913 0.909487
0.300966 0.636519 0.902174
0.491291 0.655895 0.893272
0.682465 0.663260 0.882786
0.899006 0.669489 0.870790
0.137939 0.803119 0.910616
0.327113 0.820905 0.898105
0.516137 0.837055 0.884306
0.704371 0.851245 0.869469
0.890920 0.863223 0.853916
