omv/luts/30_ruined_capitol_dusk.cube
# Original OMV LUT; redistribution permitted with OMV.
TITLE "Ruined Capitol Dusk"
LUT_3D_SIZE 32
DOMAIN_MIN 0.0 0.0 0.0
DOMAIN_MAX 1.0 1.0 1.0
0.008000 0.013000 0.046000
0.036512 0.015061 0.048061
0.064972 0.017069 0.050069
0.093432 0.019077 0.052077
0.121902 0.021096 0.054096
0.150387 0.023129 0.056129
0.178889 0.025180 0.058180
0.207410 0.027248 0.060248
0.235949 0.029336 0.062336
0.264509 0.031444 0.064444
0.293088 0.033571 0.066571
0.321686 0.035719 0.068719
0.350312 0.037884 0.070883
0.379073 0.040043 0.073026
0.408017 0.042183 0.075131
0.437165 0.044298 0.077195
0.466535 0.046384 0.079210
0.496144 0.048434 0.081174
0.526008 0.050443 0.083082
0.556142 0.052407 0.084929
0.586558 0.054321 0.086711
0.617270 0.056182 0.088427
0.648289 0.057985 0.090071
0.679622 0.059727 0.091642
0.711281 0.061405 0.093138
0.743270 0.063017 0.094555
0.775597 0.064559 0.095892
0.808266 0.066030 0.097149
0.841280 0.067428 0.098323
0.874643 0.068752 0.099414
0.908354 0.069999 0.100422
0.942414 0.071170 0.101345
0.014811 0.035940 0.052811
0.039738 0.039576 0.054834
0.068228 0.043228 0.056874
0.096737 0.045285 0.058931
0.125264 0.047361 0.061006
0.153811 0.049456 0.063101
0.182377 0.051571 0.065216
0.210964 0.053706 0.067351
0.239570 0.055860 0.069505
0.268220 0.058029 0.071667
0.297000 0.060195 0.073797
0.325936 0.062351 0.075888
0.355047 0.064491 0.077934
0.384352 0.066608 0.079932
0.413871 0.068698 0.081875
0.443620 0.070754 0.083761
0.473614 0.072772 0.085585
0.503867 0.074747 0.087344
0.534393 0.076676 0.089034
0.565203 0.078553 0.090652
0.596307 0.080375 0.092196
0.627716 0.082139 0.093663
0.659437 0.083842 0.095051
0.691477 0.085481 0.096359
0.723841 0.087053 0.097586
0.756534 0.088557 0.098730
0.789559 0.089991 0.099791
0.822918 0.091354 0.100768
0.856612 0.092643 0.101661
0.890639 0.093860 0.102471
0.924999 0.095002 0.103198
0.959688 0.096071 0.103844
0.021684 0.058942 0.059684
0.043122 0.062638 0.061767
0.071676 0.066353 0.063869
0.100249 0.070088 0.065991
0.128842 0.073842 0.068133
0.157456 0.076004 0.070294
0.186127 0.078180 0.072446
0.214903 0.080360 0.074563
0.243806 0.082539 0.076638
0.272858 0.084709 0.078667
0.302078 0.086865 0.080646
0.331486 0.089000 0.082569
0.361099 0.091109 0.084433
0.390934 0.093187 0.086233
0.421006 0.095229 0.087967
0.451328 0.097230 0.089631
0.481913 0.099186 0.091222
0.512772 0.101093 0.092739
0.543916 0.102947 0.094177
0.575354 0.104745 0.095537
0.607093 0.106484 0.096815
0.639140 0.108162 0.098012
0.671500 0.109776 0.099126
0.704177 0.111323 0.100156
0.737173 0.112803 0.101103
0.770491 0.114214 0.101966
0.804130 0.115555 0.102745
0.838090 0.116826 0.103443
0.872368 0.118025 0.104059
0.906961 0.119153 0.104595
0.941865 0.120211 0.105053
0.977073 0.121198 0.105435
0.028768 0.082156 0.066768
0.050272 0.085917 0.068917
0.075346 0.089699 0.071082
0.104018 0.093501 0.073221
0.132767 0.097315 0.075323
0.161615 0.101136 0.077382
0.190586 0.104956 0.079394
0.219700 0.107157 0.081353
0.248977 0.109344 0.083255
0.278435 0.111511 0.085096
0.308092 0.113655 0.086872
0.337964 0.115768 0.088581
0.368065 0.117847 0.090219
0.398409 0.119887 0.091783
0.429008 0.121883 0.093271
0.459873 0.123832 0.094682
0.491014 0.125729 0.096012
0.522439 0.127573 0.097261
0.554156 0.129359 0.098427
0.586171 0.131085 0.099511
0.618489 0.132750 0.100510
0.651113 0.134350 0.101426
0.684045 0.135885 0.102259
0.717288 0.137353 0.103009
0.750840 0.138754 0.103676
0.784701 0.140085 0.104263
0.818867 0.141348 0.104771
0.853336 0.142543 0.105201
0.888102 0.143669 0.105556
0.923160 0.144727 0.105839
0.958500 0.145719 0.106051
0.994116 0.146646 0.106198
0.036074 0.105609 0.073991
0.057676 0.109452 0.076078
0.079350 0.113309 0.078121
0.108219 0.117172 0.080113
0.137206 0.121036 0.082052
0.166332 0.124893 0.083932
0.195617 0.128739 0.085750
0.225078 0.132565 0.087502
0.254733 0.136369 0.089186
0.284596 0.138530 0.090797
0.314683 0.140658 0.092334
0.345006 0.142748 0.093794
0.375578 0.144795 0.095175
0.406409 0.146796 0.096476
0.437508 0.148747 0.097695
0.468883 0.150646 0.098831
0.500542 0.152488 0.099884
0.532490 0.154273 0.100854
0.564732 0.155996 0.101739
0.597271 0.157657 0.102542
0.630109 0.159255 0.103261
0.663246 0.160787 0.103899
0.696683 0.162253 0.104457
0.730418 0.163652 0.104936
0.764448 0.164984 0.105339
0.798768 0.166250 0.105667
0.833373 0.167449 0.105924
0.868258 0.168583 0.106112
0.903413 0.169652 0.106235
0.938830 0.170659 0.106296
0.974499 0.171604 0.106300
1.000000 0.174435 0.109172
0.043487 0.129425 0.080825
0.065230 0.133345 0.082743
0.087090 0.137266 0.084601
0.112634 0.141180 0.086396
0.141881 0.145083 0.088124
0.171302 0.148968 0.089781
0.200912 0.152830 0.091365
0.230726 0.156663 0.092875
0.260760 0.160464 0.094306
0.291024 0.164226 0.095658
0.321531 0.167947 0.096929
0.352292 0.170010 0.098118
0.383314 0.172024 0.099224
0.414607 0.173986 0.100247
0.446176 0.175892 0.101186
0.478026 0.177742 0.102041
0.510163 0.179532 0.102813
0.542589 0.181260 0.103503
0.575306 0.182926 0.104112
0.608313 0.184528 0.104641
0.641611 0.186065 0.105092
0.675197 0.187536 0.105467
0.709067 0.188942 0.105769
0.743219 0.190283 0.106000
0.777645 0.191559 0.106164
0.812338 0.192771 0.106264
0.847292 0.193920 0.106304
0.882496 0.195008 0.106288
0.917939 0.196037 0.106220
0.953610 0.197008 0.106105
0.989496 0.197924 0.105948
1.000000 0.203484 0.113858
0.050766 0.153679 0.087033
0.072686 0.157662 0.088735
0.094759 0.161634 0.090366
0.117003 0.165588 0.091924
0.146531 0.169518 0.093405
0.176259 0.173420 0.094808
0.206203 0.177290 0.096130
0.236375 0.181121 0.097372
0.266785 0.184912 0.098531
0.297444 0.188657 0.099606
0.328359 0.192354 0.100598
0.359540 0.195999 0.101507
0.390991 0.199589 0.102332
0.422718 0.201510 0.103074
0.454725 0.203372 0.103734
0.487014 0.205173 0.104313
0.519587 0.206912 0.104814
0.552443 0.208587 0.105237
0.585581 0.210199 0.105585
0.619000 0.211746 0.105861
0.652694 0.213229 0.106068
0.686661 0.214648 0.106208
0.720892 0.216002 0.106285
0.755382 0.217294 0.106304
0.790122 0.218525 0.106269
0.825101 0.219695 0.106183
0.860309 0.220807 0.106052
0.895734 0.221864 0.105882
0.931362 0.222867 0.105678
0.967179 0.223819 0.105445
1.000000 0.225292 0.106330
1.000000 0.232656 0.118867
0.057700 0.178419 0.092472
0.079829 0.182451 0.093925
0.102143 0.186459 0.095298
0.124657 0.190438 0.096592
0.150933 0.194384 0.097803
0.180981 0.198293 0.098932
0.211265 0.202159 0.099977
0.241795 0.205981 0.100939
0.272578 0.209753 0.101817
0.303622 0.213474 0.102611
0.334932 0.217141 0.103323
0.366514 0.220751 0.103954
0.398369 0.224301 0.104505
0.430502 0.227792 0.104977
0.462912 0.231220 0.105372
0.495600 0.232973 0.105694
0.528563 0.234662 0.105944
0.561800 0.236287 0.106126
0.595306 0.237848 0.106243
0.629075 0.239346 0.106299
0.663102 0.240780 0.106297
0.697379 0.242152 0.106243
0.731896 0.243464 0.106140
0.766645 0.244716 0.105995
0.801612 0.245911 0.105811
0.836787 0.247051 0.105596
0.872155 0.248139 0.105354
0.907700 0.249177 0.105093
0.943408 0.250169 0.104818
0.979260 0.251119 0.104538
1.000000 0.254692 0.110385
1.000000 0.261926 0.124261
0.064121 0.203674 0.097042
0.086488 0.207738 0.098224
0.109068 0.211767 0.099322
0.131871 0.215759 0.100337
0.154908 0.219707 0.101268
0.185286 0.223610 0.102116
0.215914 0.227463 0.102880
0.246801 0.231265 0.103562
0.277951 0.235011 0.104164
0.309368 0.238700 0.104685
0.341057 0.242330 0.105129
0.373017 0.245900 0.105498
0.405251 0.249407 0.105793
0.437758 0.252851 0.106018
0.470535 0.256232 0.106176
0.503579 0.259548 0.106270
0.536887 0.262801 0.106305
0.570452 0.264377 0.106283
0.604268 0.265891 0.106211
0.638326 0.267342 0.106092
0.672618 0.268733 0.105932
0.707133 0.270065 0.105736
0.741859 0.271340 0.105510
0.776784 0.272561 0.105261
0.811893 0.273731 0.104994
0.847170 0.274851 0.104716
0.882600 0.275926 0.104436
0.918164 0.276960 0.104159
0.953843 0.277956 0.103894
0.989618 0.278919 0.103650
1.000000 0.284179 0.114809
1.000000 0.291267 0.130101
0.069900 0.229456 0.100686
0.092533 0.233534 0.101586
0.115400 0.237570 0.102403
0.138509 0.241558 0.103138
0.161869 0.245495 0.103791
0.189033 0.249380 0.104363
0.220008 0.253209 0.104856
0.251248 0.256980 0.105272
0.282756 0.260690 0.105614
0.314534 0.264340 0.105883
0.346582 0.267927 0.106083
0.378899 0.271450 0.106218
0.411482 0.274909 0.106290
0.444328 0.278304 0.106303
0.477433 0.281634 0.106263
0.510791 0.284900 0.106173
0.544393 0.288104 0.106038
0.578233 0.291245 0.105865
0.612300 0.294326 0.105657
0.646583 0.295734 0.105422
0.681071 0.297086 0.105165
0.715750 0.298384 0.104894
0.750605 0.299630 0.104614
0.785622 0.300828 0.104334
0.820782 0.301981 0.104061
0.856068 0.303092 0.103802
0.891460 0.304166 0.103567
0.926937 0.305207 0.103364
0.962479 0.306221 0.103201
0.998061 0.307211 0.103088
1.000000 0.313725 0.119661
1.000000 0.320651 0.136453
0.074952 0.255758 0.103385
0.097876 0.259834 0.104008
0.121050 0.263858 0.104551
0.144480 0.267827 0.105016
0.168172 0.271740 0.105405
0.192128 0.275593 0.105720
0.223448 0.279385 0.105964
0.255036 0.283115 0.106140
0.286892 0.286781 0.106251
0.319014 0.290382 0.106301
0.351401 0.293918 0.106295
0.384047 0.297388 0.106236
0.416949 0.300794 0.106129
0.450099 0.304135 0.105979
0.483491 0.307412 0.105793
0.517115 0.310627 0.105574
0.550961 0.313780 0.105331
0.585019 0.316874 0.105068
0.619276 0.319910 0.104792
0.653718 0.322892 0.104512
0.688330 0.325822 0.104233
0.723096 0.327091 0.103965
0.757999 0.328314 0.103714
0.793021 0.329496 0.103489
0.828141 0.330640 0.103299
0.863338 0.331752 0.103153
0.898591 0.332836 0.103061
0.933875 0.333897 0.103032
0.969167 0.334940 0.103076
1.000000 0.336669 0.105688
1.000000 0.343300 0.125006
1.000000 0.350048 0.143385
0.079234 0.282557 0.105166
0.102470 0.286612 0.105528
0.125969 0.290608 0.105817
0.149733 0.294543 0.106035
0.173764 0.298415 0.106187
0.198062 0.302223 0.106276
0.226177 0.305966 0.106305
0.258105 0.309643 0.106279
0.290296 0.313253 0.106202
0.322745 0.316797 0.106079
0.355447 0.320274 0.105915
0.388396 0.323685 0.105716
0.421582 0.327032 0.105488
0.454998 0.330314 0.105237
0.488633 0.333535 0.104969
0.522476 0.336695 0.104691
0.556513 0.339797 0.104410
0.590730 0.342843 0.104134
0.625113 0.345837 0.103871
0.659645 0.348782 0.103628
0.694308 0.351680 0.103415
0.729083 0.354537 0.103241
0.763950 0.357356 0.103113
0.798888 0.358528 0.103043
0.833874 0.359673 0.103039
0.868884 0.360794 0.103112
0.903894 0.361898 0.103273
0.938876 0.362990 0.103532
0.973803 0.364076 0.103900
1.000000 0.366462 0.109718
1.000000 0.372874 0.130913
1.000000 0.379425 0.150972
0.082744 0.309813 0.106098
0.106314 0.313828 0.106227
0.130153 0.317778 0.106293
0.154261 0.321662 0.106302
0.178636 0.325478 0.106256
0.203277 0.329227 0.106162
0.228181 0.332907 0.106024
0.260439 0.336519 0.105847
0.292950 0.340063 0.105637
0.325706 0.343540 0.105399
0.358698 0.346949 0.105141
0.391918 0.350294 0.104868
0.425355 0.353575 0.104588
0.458997 0.356794 0.104308
0.492830 0.359953 0.104036
0.526840 0.363056 0.103780
0.561012 0.366105 0.103547
0.595329 0.369104 0.103347
0.629772 0.372056 0.103188
0.664323 0.374964 0.103080
0.698961 0.377834 0.103033
0.733664 0.380670 0.103056
0.768409 0.383476 0.103160
0.803173 0.386259 0.103355
0.837929 0.389024 0.103652
0.872650 0.390163 0.104064
0.907310 0.391297 0.104600
0.941879 0.392431 0.105273
0.976326 0.393573 0.106096
1.000000 0.396244 0.114265
1.000000 0.402414 0.137461
1.000000 0.408746 0.159252
0.085525 0.337468 0.106291
0.109447 0.341424 0.106228
0.133639 0.345310 0.106117
0.158098 0.349126 0.105964
0.182821 0.352871 0.105774
0.207803 0.356545 0.105553
0.233038 0.360149 0.105307
0.262066 0.363684 0.105043
0.294879 0.367149 0.104767
0.327919 0.370548 0.104486
0.361174 0.373881 0.104208
0.394634 0.377151 0.103941
0.428283 0.380359 0.103692
0.462107 0.383509 0.103470
0.496091 0.386603 0.103284
0.530216 0.389646 0.103143
0.564465 0.392639 0.103056
0.598819 0.395589 0.103033
0.633255 0.398498 0.103084
0.667752 0.401372 0.103220
0.702287 0.404215 0.103451
0.736835 0.407034 0.103788
0.771371 0.409833 0.104244
0.805866 0.412619 0.104828
0.840294 0.415398 0.105555
0.874624 0.418176 0.106436
0.908826 0.420961 0.107483
0.942915 0.422141 0.108657
0.976991 0.423314 0.109830
1.000000 0.425967 0.119188
1.000000 0.431854 0.144350
1.000000 0.437932 0.167849
0.087661 0.365450 0.105898
0.111951 0.369327 0.105697
0.136507 0.373129 0.105466
0.161324 0.376859 0.105213
0.186395 0.380516 0.104943
0.211713 0.384100 0.104665
0.237269 0.387614 0.104384
0.263052 0.391057 0.104109
0.296149 0.394433 0.103847
0.329448 0.397743 0.103607
0.362938 0.400990 0.103398
0.396602 0.404176 0.103227
0.430423 0.407305 0.103104
0.464386 0.410379 0.103039
0.498470 0.413403 0.103042
0.532656 0.416380 0.103123
0.566923 0.419316 0.103292
0.601248 0.422215 0.103561
0.635607 0.425081 0.103940
0.669976 0.427921 0.104441
0.704328 0.430740 0.105076
0.738635 0.433544 0.105857
0.772871 0.436339 0.106797
0.807004 0.439133 0.107907
0.841085 0.441924 0.109085
0.875158 0.444706 0.110255
0.909223 0.447481 0.111417
0.943280 0.450247 0.112570
0.977327 0.453005 0.113715
1.000000 0.455569 0.124068
1.000000 0.461165 0.151334
1.000000 0.467002 0.176647
0.089278 0.393668 0.105116
0.113950 0.397444 0.104843
0.138879 0.401144 0.104562
0.164057 0.404769 0.104283
0.189476 0.408320 0.104012
0.215124 0.411799 0.103757
0.240989 0.415207 0.103527
0.267060 0.418546 0.103330
0.296869 0.421820 0.103176
0.330402 0.425030 0.103073
0.364094 0.428180 0.103032
0.397925 0.431273 0.103062
0.431878 0.434314 0.103174
0.465932 0.437306 0.103378
0.500065 0.440253 0.103685
0.534255 0.443162 0.104107
0.568477 0.446036 0.104656
0.602706 0.448881 0.105343
0.636916 0.451704 0.106180
0.671079 0.454509 0.107181
0.705176 0.457305 0.108337
0.739254 0.460092 0.109512
0.773324 0.462872 0.110679
0.807386 0.465644 0.111838
0.841439 0.468407 0.112988
0.875484 0.471161 0.114129
0.909529 0.473909 0.115251
0.943612 0.476663 0.116317
0.977738 0.479423 0.117327
1.000000 0.483604 0.128849
1.000000 0.490492 0.158383
1.000000 0.496077 0.185636
0.090547 0.422013 0.104183
0.115611 0.425668 0.103917
0.140920 0.429246 0.103670
0.166462 0.432747 0.103451
0.192224 0.436175 0.103269
0.218193 0.439532 0.103132
0.244355 0.442818 0.103051
0.270695 0.446039 0.103034
0.297193 0.449197 0.103093
0.330931 0.452295 0.103237
0.364790 0.455337 0.103477
0.398751 0.458328 0.103825
0.432791 0.461272 0.104292
0.466887 0.464174 0.104889
0.501015 0.467040 0.105630
0.535149 0.469874 0.106525
0.569263 0.472683 0.107588
0.603346 0.475475 0.108765
0.637421 0.478260 0.109938
0.671489 0.481037 0.111102
0.705548 0.483806 0.112257
0.739598 0.486566 0.113404
0.773639 0.489316 0.114542
0.807694 0.492066 0.115646
0.841787 0.494824 0.116691
0.875920 0.497588 0.117680
0.910091 0.500356 0.118612
0.944301 0.503127 0.119488
0.978550 0.505899 0.120308
1.000000 0.510146 0.133551
1.000000 0.516916 0.165546
1.000000 0.523755 0.194883
0.091679 0.450363 0.103380
0.117147 0.453875 0.103213
0.142839 0.457309 0.103096
0.168743 0.460668 0.103037
0.194843 0.463954 0.103046
0.221123 0.467171 0.103135
0.247566 0.470321 0.103313
0.274153 0.473408 0.103591
0.300864 0.476436 0.103981
0.331227 0.479410 0.104494
0.365218 0.482333 0.105142
0.399267 0.485212 0.105937
0.433348 0.488050 0.106892
0.467435 0.490855 0.108016
0.501516 0.493645 0.109193
0.535588 0.496427 0.110362
0.569652 0.499201 0.111523
0.603708 0.501966 0.112676
0.637755 0.504723 0.113820
0.671795 0.507471 0.114950
0.705862 0.510225 0.116033
0.739963 0.512987 0.117058
0.774100 0.515756 0.118026
0.808272 0.518529 0.118937
0.842481 0.521305 0.119793
0.876726 0.524083 0.120593
0.911006 0.526861 0.121339
0.945322 0.529637 0.122031
0.979674 0.532409 0.122670
1.000000 0.536721 0.138223
1.000000 0.543332 0.172887
1.000000 0.550023 0.204461
0.092930 0.478575 0.103032
0.118808 0.481922 0.103069
0.144887 0.485192 0.103189
0.171150 0.488388 0.103402
0.197581 0.491514 0.103719
0.224159 0.494573 0.104153
0.250864 0.497570 0.104713
0.277676 0.500508 0.105413
0.304571 0.503392 0.106265
0.331525 0.506228 0.107282
0.365607 0.509026 0.108445
0.399684 0.511813 0.109620
0.433754 0.514592 0.110786
0.467815 0.517363 0.111944
0.501868 0.520126 0.113093
0.535911 0.522879 0.114234
0.569956 0.525628 0.115351
0.604030 0.528386 0.116413
0.638137 0.531153 0.117417
0.672277 0.533927 0.118364
0.706449 0.536705 0.119255
0.740654 0.539487 0.120090
0.774892 0.542271 0.120871
0.809163 0.545054 0.121597
0.843468 0.547837 0.122269
0.877805 0.550616 0.122889
0.912175 0.553391 0.123457
0.946578 0.556160 0.123973
0.981012 0.558922 0.124439
1.000000 0.563280 0.142904
1.000000 0.569691 0.180468
1.000000 0.576196 0.214441
0.094597 0.506494 0.103505
0.120890 0.509652 0.103863
0.147356 0.512736 0.104341
0.173974 0.515749 0.104951
0.200725 0.518695 0.105705
0.227586 0.521579 0.106616
0.254534 0.524405 0.107695
0.281519 0.527196 0.108874
0.308497 0.529981 0.110045
0.335467 0.532757 0.111209
0.365976 0.535525 0.112364
0.400026 0.538284 0.113510
0.434066 0.541034 0.114646
0.468118 0.543786 0.115744
0.502199 0.546550 0.116785
0.536309 0.549322 0.117768
0.570449 0.552101 0.118695
0.604618 0.554885 0.119566
0.638818 0.557673 0.120381
0.673047 0.560463 0.121141
0.707308 0.563253 0.121848
0.741599 0.566042 0.122501
0.775920 0.568829 0.123102
0.810272 0.571611 0.123651
0.844653 0.574387 0.124148
0.879064 0.577156 0.124596
0.913503 0.579916 0.124995
0.947972 0.582666 0.125345
0.982467 0.585405 0.125649
1.000000 0.589773 0.147628
1.000000 0.595940 0.188344
1.000000 0.602225 0.224893
0.097020 0.533943 0.105209
0.123732 0.536890 0.106018
0.150583 0.539766 0.106989
0.177544 0.542577 0.108125
0.204527 0.545366 0.109301
0.231502 0.548147 0.110470
0.258469 0.550920 0.111630
0.285427 0.553685 0.112782
0.312376 0.556441 0.113925
0.339319 0.559189 0.115053
0.366282 0.561947 0.116130
0.400367 0.564716 0.117150
0.434478 0.567493 0.118112
0.468615 0.570278 0.119018
0.502780 0.573069 0.119869
0.536972 0.575863 0.120664
0.571191 0.578660 0.121405
0.605439 0.581457 0.122092
0.639714 0.584253 0.122726
0.674017 0.587047 0.123307
0.708349 0.589836 0.123838
0.742707 0.592620 0.124317
0.777093 0.595396 0.124747
0.811506 0.598164 0.125128
0.845945 0.600922 0.125461
0.880410 0.603669 0.125747
0.914899 0.606402 0.125987
0.949412 0.609122 0.126182
0.983948 0.611826 0.126334
1.000000 0.616150 0.152412
1.000000 0.622030 0.196566
1.000000 0.628059 0.235884
0.100554 0.560748 0.108554
0.127534 0.563534 0.109728
0.154506 0.566313 0.110893
0.181470 0.569083 0.112050
0.208425 0.571844 0.113199
0.235371 0.574596 0.114338
0.262317 0.577347 0.115452
0.289284 0.580110 0.116508
0.316274 0.582885 0.117507
0.343287 0.585668 0.118449
0.370323 0.588460 0.119334
0.400933 0.591257 0.120165
0.435115 0.594058 0.120940
0.469322 0.596862 0.121661
0.503555 0.599666 0.122329
0.537813 0.602470 0.122944
0.572097 0.605271 0.123506
0.606406 0.608068 0.124018
0.640741 0.610859 0.124480
0.675100 0.613644 0.124891
0.709484 0.616419 0.125255
0.743893 0.619185 0.125571
0.778325 0.621939 0.125840
0.812780 0.624681 0.126063
0.847257 0.627408 0.126242
0.881756 0.630120 0.126378
0.916274 0.632816 0.126471
0.950812 0.635493 0.126522
0.985368 0.638151 0.126534
1.000000 0.642362 0.157262
1.000000 0.647910 0.205178
1.000000 0.653647 0.247481
0.104470 0.587244 0.112470
0.131421 0.590002 0.113615
0.158364 0.592751 0.114750
0.185315 0.595507 0.115843
0.212285 0.598276 0.116878
0.239274 0.601057 0.117856
0.266284 0.603847 0.118778
0.293314 0.606645 0.119643
0.320366 0.609450 0.120453
0.347439 0.612258 0.121209
0.374536 0.615069 0.121910
0.401655 0.617881 0.122559
0.435894 0.620692 0.123154
0.470157 0.623501 0.123699
0.504442 0.626306 0.124192
0.538751 0.629105 0.124635
0.573083 0.631898 0.125029
0.607437 0.634682 0.125375
0.641814 0.637455 0.125674
0.676212 0.640218 0.125926
0.710632 0.642967 0.126134
0.745072 0.645703 0.126297
0.779531 0.648422 0.126417
0.814009 0.651125 0.126494
0.848505 0.653810 0.126531
0.883018 0.656475 0.126528
0.917545 0.659120 0.126487
0.952087 0.661743 0.126408
0.986641 0.664343 0.126293
1.000000 0.668363 0.162160
1.000000 0.673532 0.214218
1.000000 0.678942 0.259749
0.108313 0.613670 0.116226
0.135283 0.616445 0.117241
0.162269 0.619233 0.118198
0.189273 0.622030 0.119099
0.216295 0.624835 0.119944
0.243336 0.627647 0.120735
0.270396 0.630463 0.121470
0.297477 0.633282 0.122152
0.324578 0.636102 0.122782
0.351699 0.638921 0.123358
0.378842 0.641738 0.123884
0.406006 0.644551 0.124359
0.436739 0.647358 0.124784
0.471041 0.650159 0.125161
0.505364 0.652951 0.125490
0.539708 0.655733 0.125771
0.574071 0.658504 0.126007
0.608454 0.661261 0.126198
0.642856 0.664005 0.126345
0.677275 0.666732 0.126450
0.711712 0.669443 0.126512
0.746165 0.672135 0.126535
0.780633 0.674808 0.126518
0.815116 0.677460 0.126462
0.849611 0.680090 0.126370
0.884117 0.682697 0.126242
0.918633 0.685279 0.126080
0.953158 0.687836 0.125885
0.987689 0.690366 0.125659
1.000000 0.694107 0.167066
1.000000 0.698849 0.223713
1.000000 0.703896 0.272751
0.112254 0.640217 0.119413
0.139266 0.643030 0.120239
0.166294 0.645849 0.121009
0.193339 0.648673 0.121725
0.220402 0.651500 0.122388
0.247483 0.654328 0.122998
0.274582 0.657156 0.123556
0.301700 0.659981 0.124063
0.328837 0.662802 0.124520
0.355993 0.665618 0.124927
0.383168 0.668427 0.125286
0.410361 0.671228 0.125597
0.437574 0.674018 0.125862
0.471901 0.676797 0.126082
0.506246 0.679563 0.126257
0.540608 0.682315 0.126388
0.574987 0.685050 0.126477
0.609382 0.687769 0.126525
0.643791 0.690469 0.126533
0.678214 0.693149 0.126502
0.712650 0.695808 0.126433
0.747098 0.698445 0.126328
0.781556 0.701059 0.126187
0.816023 0.703648 0.126013
0.850497 0.706211 0.125806
0.884977 0.708747 0.125568
0.919462 0.711255 0.125301
0.953948 0.713734 0.125005
0.988435 0.716183 0.124682
1.000000 0.719553 0.171905
1.000000 0.723816 0.233680
1.000000 0.728463 0.286554
0.116267 0.666889 0.121972
0.143310 0.669724 0.122616
0.170369 0.672561 0.123207
0.197444 0.675397 0.123746
0.224536 0.678231 0.124235
0.251645 0.681061 0.124674
0.278771 0.683886 0.125063
0.305913 0.686703 0.125405
0.333073 0.689512 0.125699
0.360250 0.692311 0.125948
0.387443 0.695099 0.126150
0.414653 0.697873 0.126310
0.441878 0.700633 0.126425
0.472666 0.703376 0.126499
0.507018 0.706103 0.126533
0.541382 0.708811 0.126526
0.575760 0.711498 0.126481
0.610149 0.714165 0.126399
0.644549 0.716809 0.126281
0.678958 0.719429 0.126128
0.713375 0.722024 0.125941
0.747799 0.724593 0.125723
0.782227 0.727135 0.125474
0.816660 0.729648 0.125196
0.851093 0.732132 0.124890
0.885527 0.734586 0.124558
0.919959 0.737008 0.124201
0.954386 0.739397 0.123820
0.988807 0.741753 0.123418
1.000000 0.744664 0.176557
1.000000 0.748388 0.244125
1.000000 0.752599 0.301228
0.120285 0.693645 0.123930
0.147350 0.696488 0.124400
0.174429 0.699327 0.124821
0.201523 0.702160 0.125193
0.228633 0.704987 0.125517
0.255757 0.707804 0.125795
0.282897 0.710612 0.126027
0.310052 0.713408 0.126214
0.337221 0.716191 0.126357
0.364405 0.718959 0.126457
0.391603 0.721711 0.126516
0.418813 0.724445 0.126535
0.446036 0.727161 0.126514
0.473270 0.729856 0.126455
0.507612 0.732529 0.126360
0.541963 0.735180 0.126229
0.576323 0.737807 0.126064
0.610690 0.740409 0.125866
0.645062 0.742984 0.125636
0.679439 0.745531 0.125376
0.713819 0.748050 0.125088
0.748200 0.750538 0.124772
0.782581 0.752996 0.124431
0.816958 0.755422 0.124065
0.851332 0.757815 0.123676
0.885699 0.760174 0.123266
0.920057 0.762498 0.122837
0.954404 0.764786 0.122390
0.988737 0.767037 0.121926
1.000000 0.769405 0.180840
1.000000 0.772527 0.255040
1.000000 0.776261 0.316847
0.124249 0.720442 0.125317
0.151324 0.723277 0.125624
0.178412 0.726104 0.125884
0.205514 0.728921 0.126100
0.232630 0.731725 0.126271
0.259758 0.734516 0.126398
0.286900 0.737293 0.126483
0.314053 0.740053 0.126527
0.341219 0.742795 0.126532
0.368396 0.745519 0.126497
0.395583 0.748221 0.126425
0.422780 0.750902 0.126316
0.449986 0.753560 0.126173
0.477199 0.756194 0.125995
0.507967 0.758801 0.125786
0.542288 0.761382 0.125545
0.576613 0.763935 0.125275
0.610940 0.766458 0.124976
0.645268 0.768952 0.124651
