omv/luts/30_ruined_capitol_dusk.cube
# Original OMV LUT; redistribution permitted with OMV.
TITLE "Ruined Capitol Dusk"
LUT_3D_SIZE 8
DOMAIN_MIN 0.000000 0.000000 0.000000
DOMAIN_MAX 0.903226 0.903226 0.903226
0.008000 0.013000 0.046000
0.121902 0.021096 0.054096
0.235949 0.029336 0.062336
0.350312 0.037884 0.070883
0.466535 0.046384 0.079210
0.586558 0.054321 0.086711
0.711281 0.061405 0.093138
0.841280 0.067428 0.098323
0.036074 0.105609 0.073991
0.137206 0.121036 0.082052
0.254733 0.136369 0.089186
0.375578 0.144795 0.095175
0.500542 0.152488 0.099884
0.630109 0.159255 0.103261
0.764448 0.164984 0.105339
0.903413 0.169652 0.106235
0.064121 0.203674 0.097042
0.154908 0.219707 0.101268
0.277951 0.235011 0.104164
0.405251 0.249407 0.105793
0.536887 0.262801 0.106305
0.672618 0.268733 0.105932
0.811893 0.273731 0.104994
0.953843 0.277956 0.103894
0.082744 0.309813 0.106098
0.178636 0.325478 0.106256
0.292950 0.340063 0.105637
0.425355 0.353575 0.104588
0.561012 0.366105 0.103547
0.698961 0.377834 0.103033
0.837929 0.389024 0.103652
0.976326 0.393573 0.106096
0.090547 0.422013 0.104183
0.192224 0.436175 0.103269
0.297193 0.449197 0.103093
0.432791 0.461272 0.104292
0.569263 0.472683 0.107588
0.705548 0.483806 0.112257
0.841787 0.494824 0.116691
0.978550 0.505899 0.120308
0.097020 0.533943 0.105209
0.204527 0.545366 0.109301
0.312376 0.556441 0.113925
0.434478 0.567493 0.118112
0.571191 0.578660 0.121405
0.708349 0.589836 0.123838
0.845945 0.600922 0.125461
0.983948 0.611826 0.126334
0.112254 0.640217 0.119413
0.220402 0.651500 0.122388
0.328837 0.662802 0.124520
0.437574 0.674018 0.125862
0.574987 0.685050 0.126477
0.712650 0.695808 0.126433
0.850497 0.706211 0.125806
0.988435 0.716183 0.124682
0.128101 0.747237 0.126167
0.236470 0.758404 0.126534
0.345008 0.769283 0.126268
0.453669 0.779788 0.125450
0.576572 0.789838 0.124167
0.713616 0.799362 0.122513
0.850483 0.808294 0.120593
0.987018 0.816577 0.118516
0.010782 0.015782 0.141685
0.110475 0.023862 0.142023
0.224624 0.032204 0.142624
0.339277 0.040812 0.151268
0.456457 0.049159 0.159974
0.577581 0.056835 0.168345
0.703469 0.063578 0.176062
0.834629 0.069208 0.182888
0.039069 0.115094 0.162195
0.126320 0.130534 0.163079
0.244389 0.139297 0.171245
0.365931 0.147501 0.178660
0.491673 0.154897 0.185119
0.622025 0.161320 0.190497
0.757084 0.166687 0.194756
0.896631 0.171004 0.197943
0.066538 0.213447 0.181131
0.157793 0.229258 0.187206
0.267205 0.244269 0.192176
0.395092 0.258331 0.196035
0.527263 0.264927 0.198860
0.663407 0.270529 0.200814
0.802898 0.275242 0.202143
0.944796 0.279257 0.203182
0.083951 0.319512 0.197177
0.180405 0.334815 0.199661
0.281053 0.349030 0.201354
0.413876 0.362194 0.202535
0.549770 0.374428 0.203568
0.687702 0.385939 0.204902
0.826325 0.390570 0.207073
0.963980 0.395149 0.210701
0.091007 0.431220 0.202906
0.193284 0.444978 0.203992
0.298688 0.457652 0.205565
0.420286 0.469466 0.208190
0.556670 0.480735 0.212412
0.692910 0.491813 0.217039
0.829265 0.502840 0.221269
0.966211 0.513925 0.224663
0.098299 0.542189 0.209532
0.206112 0.553403 0.214112
0.313924 0.564437 0.218673
0.421952 0.575539 0.222601
0.558781 0.586720 0.225696
0.696040 0.597876 0.227995
0.833717 0.608911 0.229541
0.971773 0.619733 0.230388
0.113870 0.648300 0.223822
0.222072 0.659602 0.226623
0.330554 0.670887 0.228642
0.439325 0.682051 0.229928
0.562560 0.692999 0.230534
0.700212 0.703645 0.230525
0.838016 0.713910 0.229970
0.975874 0.723720 0.228948
0.129613 0.755316 0.230224
0.237965 0.766396 0.230598
0.346467 0.777158 0.230382
0.455068 0.787517 0.229648
0.563687 0.797395 0.228477
0.700606 0.806725 0.226960
0.837304 0.815443 0.225193
0.973622 0.823495 0.223281
0.013508 0.018508 0.237314
0.099080 0.026661 0.237725
0.213334 0.035109 0.238431
0.328499 0.043702 0.239605
0.446622 0.051855 0.241332
0.568816 0.059240 0.250901
0.695829 0.065621 0.260178
0.828093 0.070847 0.268854
0.042064 0.124599 0.258496
0.129649 0.133554 0.260310
0.234071 0.142160 0.262072
0.356301 0.150114 0.263420
0.482798 0.157193 0.271817
0.613900 0.163262 0.279328
0.749631 0.168269 0.285842
0.889699 0.172245 0.291335
0.068843 0.223154 0.282053
0.160579 0.238715 0.282404
0.256360 0.253416 0.281818
0.384818 0.260685 0.287959
0.517497 0.266937 0.293091
0.654012 0.272221 0.297307
0.793665 0.276671 0.300783
0.935443 0.280508 0.303781
0.085043 0.329090 0.297683
0.182067 0.344025 0.294725
0.283234 0.357875 0.298646
0.402262 0.370705 0.301913
0.538359 0.382666 0.304819
0.676228 0.387543 0.307743
0.814448 0.392109 0.311148
0.951394 0.396749 0.315523
0.091460 0.440285 0.302994
0.194338 0.453655 0.305859
0.300163 0.466008 0.308900
0.407737 0.477595 0.312613
0.544063 0.488773 0.317225
0.680266 0.499808 0.321793
0.816800 0.510864 0.325784
0.953917 0.515494 0.328998
0.099791 0.550307 0.314242
0.207682 0.561424 0.318908
0.315507 0.572452 0.323337
0.423651 0.583593 0.327043
0.546392 0.594777 0.329980
0.683741 0.605903 0.332178
0.821486 0.616875 0.333677
0.959582 0.627607 0.334523
0.115492 0.656394 0.328200
0.223742 0.667702 0.330864
0.332263 0.678957 0.332803
0.441059 0.690058 0.334058
0.550104 0.700914 0.334678
0.687734 0.711438 0.334721
0.825483 0.721556 0.334251
0.963247 0.731198 0.333341
0.131094 0.763370 0.334354
0.239421 0.774351 0.334758
0.347880 0.784985 0.334606
0.456411 0.795190 0.333967
0.564930 0.804889 0.332915
0.687518 0.814018 0.331535
0.824034 0.822515 0.329917
0.960121 0.830331 0.328160
0.016248 0.021248 0.332958
0.101914 0.029494 0.333462
0.202089 0.038047 0.334282
0.317948 0.046539 0.336105
0.436999 0.054463 0.338950
0.560234 0.061529 0.342270
0.688328 0.067530 0.345603
0.821641 0.072344 0.356310
0.045045 0.127657 0.355355
0.132979 0.136532 0.358432
0.223760 0.144947 0.361807
0.346669 0.152625 0.365045
0.473899 0.159372 0.367798
0.605716 0.165082 0.369799
0.742070 0.169730 0.378610
0.882596 0.173379 0.386394
0.071031 0.232784 0.384422
0.163259 0.248073 0.386927
0.259601 0.255999 0.388605
0.374422 0.262922 0.389307
0.507581 0.268835 0.388969
0.644426 0.273817 0.395352
0.784187 0.278030 0.400820
0.925777 0.281723 0.405566
0.086027 0.338545 0.407608
0.183624 0.353109 0.406891
0.285304 0.366601 0.405182
0.390516 0.379115 0.402619
0.526783 0.384379 0.407166
0.664541 0.389110 0.411389
0.802298 0.393659 0.415682
0.938788 0.398336 0.420337
0.091924 0.449212 0.419817
0.195403 0.462214 0.416464
0.301636 0.474274 0.412921
0.409352 0.485675 0.417353
0.531441 0.496796 0.422022
0.667676 0.507814 0.426471
0.804386 0.512438 0.430259
0.941660 0.517056 0.433329
0.101389 0.558357 0.426809
0.209236 0.569429 0.423688
0.317125 0.580485 0.427934
0.425375 0.591652 0.431458
0.534019 0.602828 0.434273
0.671446 0.613911 0.436403
0.809247 0.624811 0.437881
0.947370 0.635443 0.438747
0.117118 0.664495 0.432564
0.225407 0.675796 0.435126
0.333960 0.687010 0.437015
0.442771 0.698037 0.438265
0.551810 0.708790 0.438919
0.675212 0.719184 0.439029
0.812894 0.729148 0.438653
0.950549 0.738613 0.437858
0.132542 0.771393 0.438569
0.240837 0.782266 0.439019
0.349243 0.792763 0.438945
0.457696 0.802804 0.438408
0.566103 0.812317 0.437479
0.674348 0.821237 0.436234
0.810670 0.829509 0.434758
0.946511 0.837082 0.433145
0.019016 0.024016 0.428629
0.104784 0.032364 0.429235
0.191003 0.040973 0.430352
0.307598 0.049310 0.433225
0.427560 0.056971 0.437511
0.551806 0.063694 0.442589
0.680938 0.069302 0.447926
0.815241 0.073699 0.453069
0.047995 0.130702 0.452959
0.136298 0.139457 0.457600
0.227633 0.147648 0.462831
0.337018 0.155028 0.468145
0.464958 0.161431 0.473121
0.597454 0.166778 0.477424
0.734381 0.171076 0.480802
0.875303 0.174414 0.483088
0.073098 0.242330 0.488317
0.165828 0.250873 0.493083
0.262729 0.258464 0.497074
0.363898 0.265041 0.500069
0.497508 0.270625 0.501933
0.634642 0.275323 0.502615
0.774454 0.279327 0.502151
0.915789 0.282915 0.508403
0.086908 0.347874 0.519185
0.185086 0.362069 0.520620
0.287270 0.375214 0.520877
0.392838 0.380980 0.520021
0.515047 0.386029 0.518204
0.652647 0.390655 0.515663
0.789879 0.395237 0.520463
0.926167 0.399909 0.525135
0.092416 0.458008 0.537762
0.196496 0.470663 0.535650
0.303123 0.482464 0.532921
0.410952 0.493726 0.529920
0.518802 0.504802 0.526802
0.655142 0.509379 0.531088
0.792017 0.514012 0.534712
0.929435 0.518605 0.537675
0.102974 0.566393 0.547103
0.210783 0.577426 0.543921
0.318773 0.588530 0.540226
0.427120 0.599712 0.535866
0.535850 0.610867 0.538593
0.659151 0.621898 0.540683
0.796995 0.632716 0.542163
0.935131 0.636788 0.543068
0.118742 0.672597 0.552418
0.227065 0.683880 0.547168
0.335640 0.695041 0.541291
0.444457 0.705985 0.542557
0.553479 0.716624 0.543262
0.662643 0.726880 0.543451
0.800244 0.736682 0.543177
0.937778 0.745965 0.542500
0.133954 0.779383 0.550619
0.242208 0.790138 0.543388
0.350553 0.800489 0.543402
0.458917 0.810358 0.542974
0.567203 0.819677 0.542167
0.675286 0.828382 0.541052
0.797207 0.836422 0.539709
0.932789 0.843749 0.538224
0.021817 0.026817 0.524333
0.107690 0.035270 0.525045
0.194287 0.043861 0.526875
0.297421 0.052002 0.531149
0.418276 0.059370 0.537167
0.543502 0.065730 0.544237
0.673628 0.070933 0.551753
0.808865 0.074912 0.559191
0.050902 0.133720 0.551479
0.139588 0.142316 0.557955
0.231481 0.150255 0.565253
0.327332 0.157317 0.572797
0.455959 0.163366 0.580094
0.589096 0.168353 0.586736
0.726547 0.172310 0.592402
0.867801 0.175358 0.596853
0.075041 0.245330 0.593808
0.168285 0.253563 0.600909
0.265741 0.260812 0.607229
0.367435 0.267045 0.612475
0.487273 0.272312 0.616442
0.624652 0.276748 0.619008
0.764462 0.280576 0.620137
0.905471 0.284101 0.619880
0.087696 0.357077 0.632378
0.186458 0.370907 0.635845
0.289138 0.377267 0.637887
0.395041 0.382763 0.638501
0.503157 0.387631 0.637768
0.640551 0.392195 0.635853
0.777289 0.396837 0.633031
0.913529 0.401465 0.629916
0.092956 0.466678 0.656686
0.197636 0.479014 0.655498
0.304643 0.490590 0.653211
0.412538 0.501764 0.650215
0.520352 0.506345 0.647040
0.642659 0.510951 0.643406
0.779685 0.515581 0.639161
0.917235 0.520140 0.642050
0.104543 0.574414 0.667382
0.212360 0.585442 0.664090
0.320445 0.596585 0.660234
0.428881 0.607769 0.655767
0.537686 0.618893 0.650695
0.646850 0.629861 0.645029
0.784724 0.634136 0.646533
0.922860 0.638091 0.647493
0.120361 0.680697 0.672292
0.228710 0.691949 0.667002
0.337299 0.703047 0.661126
0.446113 0.713897 0.654686
0.555108 0.724415 0.647714
0.664215 0.734524 0.647992
0.787529 0.744156 0.647824
0.924928 0.753250 0.647264
0.135326 0.787336 0.670510
0.243532 0.797963 0.663354
0.351808 0.808159 0.655721
0.460074 0.817848 0.647662
0.568227 0.826965 0.646975
0.676136 0.835450 0.645984
0.783643 0.843253 0.644761
0.918952 0.850328 0.643388
0.024652 0.029652 0.620072
0.110638 0.038210 0.620917
0.197722 0.046695 0.624051
0.287391 0.054605 0.630046
0.409121 0.061652 0.638056
0.535296 0.067632 0.647319
0.666370 0.072423 0.657158
0.802483 0.075986 0.666977
0.053751 0.136696 0.651073
0.142837 0.145099 0.659623
0.235291 0.152761 0.669170
0.331789 0.159489 0.679066
0.446886 0.165179 0.688748
0.580627 0.169808 0.697736
0.718550 0.173439 0.705638
0.860074 0.176221 0.712145
0.076857 0.248231 0.700945
0.170624 0.256138 0.710425
0.268632 0.263042 0.719059
0.370835 0.268937 0.726485
0.476872 0.273902 0.732424
0.614453 0.278103 0.736685
0.754203 0.281789 0.739161
0.894818 0.285297 0.739831
0.088399 0.366154 0.747133
0.187749 0.373175 0.752479
0.290916 0.379220 0.756098
0.397131 0.384472 0.757915
0.505313 0.389196 0.757939
0.628258 0.393745 0.756266
0.764682 0.398424 0.753327
0.900887 0.403007 0.750159
0.093565 0.475230 0.776431
0.198842 0.487275 0.775821
0.306215 0.498667 0.773570
0.414108 0.503334 0.770495
0.521951 0.507900 0.767222
0.630220 0.512526 0.763445
0.767386 0.517142 0.759109
0.905054 0.521656 0.754212
0.106096 0.582418 0.787644
0.213964 0.593476 0.784214
0.322136 0.604645 0.780234
0.430651 0.615819 0.775694
0.539521 0.626900 0.770593
0.648730 0.631344 0.764937
0.772430 0.635519 0.758741
0.910552 0.639348 0.752028
0.121971 0.688790 0.792204
0.230338 0.700001 0.786900
0.338934 0.711024 0.781045
0.447735 0.721771 0.774658
0.556692 0.732158 0.767763
0.665730 0.742112 0.760394
0.774745 0.751568 0.752592
0.911995 0.754015 0.752146
0.136655 0.795249 0.790508
0.244807 0.805739 0.783436
0.353004 0.815770 0.775904
0.461162 0.825272 0.767955
0.569171 0.834181 0.759641
0.676895 0.842440 0.751021
0.784169 0.850000 0.749904
0.904996 0.856820 0.748623
0.027524 0.032524 0.715847
0.113685 0.041134 0.717213
0.201285 0.049461 0.722068
0.291677 0.057107 0.730069
0.400070 0.063811 0.740301
0.527162 0.069396 0.751928
0.659139 0.073770 0.764202
0.796069 0.076923 0.776457
0.056531 0.139618 0.751884
0.146032 0.147795 0.762716
0.239048 0.155157 0.774661
0.336183 0.161541 0.787001
0.437724 0.166869 0.799101
0.572031 0.171147 0.810410
0.710376 0.174469 0.820466
0.852104 0.177011 0.828888
0.078547 0.251025 0.809767
0.172846 0.258597 0.821638
0.271402 0.265155 0.832541
0.374096 0.270721 0.842041
0.480494 0.275404 0.849791
0.604041 0.279397 0.855527
0.743675 0.282981 0.859073
0.883825 0.286519 0.860335
0.089028 0.368656 0.863383
0.188970 0.375330 0.870426
0.292614 0.381081 0.875381
0.399119 0.386119 0.878101
0.507329 0.390740 0.878526
0.615777 0.395326 0.876680
0.752060 0.399995 0.873608
0.888311 0.404554 0.870353
0.094263 0.483674 0.896825
0.200136 0.495461 0.896415
0.307815 0.500266 0.893879
0.415662 0.504888 0.890759
0.523599 0.509466 0.887365
0.632012 0.514099 0.883481
0.755112 0.518691 0.879087
0.892886 0.523150 0.874173
0.107642 0.590416 0.907880
0.215591 0.601522 0.904312
0.323842 0.612705 0.900244
0.432427 0.623858 0.895661
0.541352 0.628434 0.890557
0.650595 0.632796 0.884932
0.760108 0.636861 0.878794
0.898202 0.640558 0.872160
0.123568 0.696873 0.912166
0.231946 0.708031 0.906871
0.340539 0.718970 0.901058
0.449318 0.729603 0.894738
0.558228 0.739851 0.887929
0.667185 0.749643 0.880659
0.776082 0.752464 0.872964
0.898975 0.754710 0.864884
0.137939 0.803119 0.910616
0.246028 0.813461 0.903637
0.354138 0.823321 0.896207
0.462179 0.832628 0.888367
0.570034 0.841322 0.880160
0.677560 0.849348 0.871641
0.784587 0.856661 0.862870
0.890920 0.863223 0.853916
