omv/luts/31_dc_radstorm.cube
# Original OMV LUT; redistribution permitted with OMV.
TITLE "DC Radstorm"
LUT_3D_SIZE 5
DOMAIN_MIN 0.000000 0.000000 0.000000
DOMAIN_MAX 0.903226 0.903226 0.903226
0.008000 0.034000 0.004000
0.194201 0.048588 0.018588
0.383121 0.065290 0.035252
0.582996 0.081243 0.050694
0.801659 0.093969 0.062438
0.061623 0.228133 0.055470
0.233501 0.238477 0.065576
0.448244 0.246118 0.070947
0.680531 0.259183 0.072060
0.928308 0.268776 0.070437
0.088848 0.455260 0.071674
0.255417 0.464127 0.069636
0.490458 0.469081 0.068617
0.732767 0.471501 0.072599
0.974200 0.473361 0.083103
0.100189 0.696770 0.076189
0.287241 0.698530 0.087091
0.502261 0.699618 0.099477
0.742931 0.700417 0.113926
0.979615 0.701339 0.130099
0.149256 0.921402 0.119641
0.339390 0.919589 0.136304
0.524547 0.917788 0.153787
0.757716 0.916096 0.171110
0.984525 0.914343 0.187022
0.012611 0.038611 0.089902
0.172606 0.054090 0.123445
0.363483 0.070956 0.159315
0.567458 0.086005 0.178737
0.790599 0.097327 0.197056
0.066422 0.225885 0.167587
0.213099 0.235478 0.203064
0.430302 0.250975 0.217160
0.664728 0.262792 0.227556
0.913435 0.271422 0.234909
0.089389 0.452788 0.230518
0.258405 0.460236 0.237130
0.467771 0.464122 0.243273
0.709599 0.466180 0.252051
0.950716 0.477021 0.262905
0.103895 0.691443 0.256024
0.291291 0.693004 0.266941
0.479530 0.693931 0.278701
0.719842 0.694738 0.291542
0.955735 0.695750 0.305353
0.156089 0.914838 0.296472
0.345732 0.913001 0.310557
0.529921 0.911239 0.325027
0.734784 0.909559 0.339133
0.960381 0.907697 0.351855
0.017613 0.043613 0.176193
0.151236 0.059816 0.210462
0.344698 0.076394 0.249560
0.552603 0.090328 0.293172
0.779895 0.100159 0.337569
0.070798 0.223451 0.266702
0.219456 0.241140 0.310667
0.411949 0.255398 0.352029
0.648278 0.266026 0.389541
0.897520 0.273869 0.404931
0.089741 0.449817 0.359463
0.261224 0.455925 0.391592
0.444772 0.458944 0.421060
0.686209 0.469887 0.431887
0.927091 0.480720 0.442571
0.107570 0.686086 0.417763
0.295654 0.687398 0.446367
0.484067 0.688232 0.456800
0.696830 0.689086 0.467518
0.931881 0.690192 0.478644
0.163151 0.908252 0.471524
0.352144 0.906423 0.482776
0.535245 0.904702 0.494166
0.711728 0.903004 0.505177
0.936081 0.900972 0.515020
0.022886 0.048886 0.262757
0.157396 0.065608 0.298420
0.326574 0.081518 0.343367
0.538235 0.094168 0.394869
0.769343 0.102463 0.448340
0.074712 0.229788 0.371611
0.225431 0.246399 0.424866
0.393132 0.259393 0.475525
0.631124 0.268929 0.521477
0.880498 0.276204 0.561649
0.090005 0.446359 0.494090
0.263966 0.451249 0.532095
0.448642 0.462674 0.564538
0.662790 0.473564 0.593629
0.903352 0.484479 0.621690
0.111382 0.680662 0.561336
0.300318 0.681740 0.588851
0.488770 0.682537 0.615422
0.673891 0.683465 0.641671
0.908050 0.693693 0.649889
0.170398 0.901660 0.608520
0.358580 0.899861 0.634849
0.540479 0.898170 0.661259
0.715605 0.896412 0.669398
0.911588 0.894138 0.676775
0.028402 0.054402 0.349563
0.164066 0.071265 0.388924
0.308937 0.086256 0.441809
0.524172 0.097498 0.502586
0.758755 0.104249 0.565810
0.078141 0.235801 0.482869
0.230993 0.251231 0.545836
0.400911 0.262981 0.605507
0.613220 0.271562 0.658906
0.862317 0.278527 0.704097
0.090293 0.442444 0.633672
0.266736 0.455309 0.675597
0.452386 0.466386 0.708386
0.639344 0.477225 0.737170
0.879529 0.488312 0.763756
0.115654 0.675131 0.704443
0.305274 0.676051 0.730183
0.493630 0.676860 0.754327
0.678113 0.686909 0.777733
0.884236 0.697212 0.800986
0.177780 0.895072 0.743489
0.364993 0.893313 0.766779
0.545575 0.891633 0.790279
0.719274 0.889763 0.813936
0.886860 0.887163 0.837423
