omv/luts/31_dc_radstorm.cube
# Original OMV LUT; redistribution permitted with OMV.
TITLE "DC Radstorm"
LUT_3D_SIZE 32
DOMAIN_MIN 0.0 0.0 0.0
DOMAIN_MAX 1.0 1.0 1.0
0.008000 0.034000 0.004000
0.034383 0.035867 0.005867
0.060879 0.037847 0.007847
0.087441 0.039892 0.009892
0.114058 0.041994 0.011994
0.140726 0.044145 0.014145
0.167441 0.046344 0.016344
0.194201 0.048588 0.018588
0.221003 0.050874 0.020874
0.247847 0.053202 0.023202
0.274731 0.055569 0.025569
0.301653 0.057975 0.027975
0.328622 0.060417 0.030416
0.355758 0.062861 0.032848
0.383121 0.065290 0.035252
0.410737 0.067695 0.037620
0.438631 0.070070 0.039944
0.466824 0.072407 0.042218
0.495339 0.074699 0.044436
0.524194 0.076939 0.046591
0.553408 0.079122 0.048679
0.582996 0.081243 0.050694
0.612975 0.083296 0.052632
0.643356 0.085277 0.054488
0.674152 0.087182 0.056260
0.705373 0.089006 0.057943
0.737027 0.090747 0.059535
0.769120 0.092402 0.061034
0.801659 0.093969 0.062438
0.834646 0.095445 0.063745
0.868085 0.096829 0.064954
0.901975 0.098120 0.066066
0.014651 0.060006 0.010651
0.037417 0.060836 0.012771
0.064102 0.061715 0.014941
0.090833 0.063930 0.017156
0.117609 0.066189 0.019415
0.144426 0.068491 0.021717
0.171285 0.070833 0.024059
0.198183 0.073215 0.026441
0.225119 0.075635 0.028861
0.252119 0.078086 0.031304
0.279277 0.080542 0.033727
0.306624 0.082995 0.036119
0.334188 0.085435 0.038471
0.361994 0.087854 0.040778
0.390067 0.090245 0.043033
0.418428 0.092601 0.045228
0.447097 0.094915 0.047360
0.476095 0.097180 0.049421
0.505439 0.099392 0.051409
0.535144 0.101543 0.053317
0.565225 0.103631 0.055143
0.595694 0.105649 0.056883
0.626563 0.107595 0.058533
0.657842 0.109464 0.060092
0.689538 0.111253 0.061556
0.721658 0.112960 0.062925
0.754206 0.114582 0.064197
0.787185 0.116118 0.065370
0.820599 0.117565 0.066446
0.854445 0.118924 0.067423
0.888723 0.120193 0.068302
0.923430 0.121373 0.069084
0.021973 0.086683 0.017973
0.041023 0.087668 0.020248
0.067855 0.088694 0.022565
0.094728 0.089760 0.024922
0.121640 0.090866 0.027318
0.148590 0.093300 0.029751
0.175614 0.095762 0.032190
0.202761 0.098241 0.034602
0.230063 0.100726 0.036980
0.257546 0.103209 0.039317
0.285237 0.105681 0.041605
0.313161 0.108135 0.043839
0.341343 0.110562 0.046012
0.369802 0.112956 0.048118
0.398560 0.115311 0.050154
0.427636 0.117619 0.052113
0.457046 0.119876 0.053992
0.486805 0.122076 0.055787
0.516929 0.124214 0.057494
0.547428 0.126286 0.059111
0.578314 0.128288 0.060636
0.609596 0.130216 0.062066
0.641281 0.132068 0.063399
0.673375 0.133840 0.064635
0.705883 0.135531 0.065773
0.738807 0.137139 0.066813
0.772149 0.138662 0.067754
0.805907 0.140099 0.068598
0.840080 0.141451 0.069345
0.874665 0.142717 0.069997
0.909655 0.143897 0.070556
0.945045 0.144992 0.071024
0.029789 0.113854 0.025789
0.048973 0.114973 0.028199
0.072067 0.116131 0.030641
0.099087 0.117323 0.033071
0.126194 0.118543 0.035472
0.153420 0.119779 0.037836
0.180794 0.121023 0.040156
0.208343 0.123556 0.042425
0.236093 0.126079 0.044637
0.264070 0.128586 0.046787
0.292295 0.131067 0.048868
0.320790 0.133517 0.050876
0.349576 0.135929 0.052806
0.378670 0.138297 0.054655
0.408088 0.140616 0.056418
0.437846 0.142879 0.058093
0.467958 0.145083 0.059677
0.498434 0.147223 0.061167
0.529286 0.149295 0.062562
0.560522 0.151295 0.063861
0.592148 0.153222 0.065061
0.624171 0.155072 0.066163
0.656594 0.156843 0.067167
0.689420 0.158533 0.068073
0.722649 0.160142 0.068881
0.756280 0.161668 0.069594
0.790311 0.163111 0.070211
0.824737 0.164472 0.070737
0.859554 0.165749 0.071172
0.894753 0.166946 0.071521
0.930326 0.168062 0.071786
0.966262 0.169100 0.071971
0.038005 0.141484 0.033949
0.057300 0.142743 0.036337
0.076680 0.144029 0.038686
0.103917 0.145332 0.040988
0.131297 0.146643 0.043237
0.158848 0.147954 0.045427
0.186595 0.149256 0.047553
0.214562 0.150542 0.049608
0.242772 0.151804 0.051588
0.271246 0.154326 0.053489
0.300003 0.156811 0.055307
0.329061 0.159254 0.057039
0.358436 0.161648 0.058681
0.388142 0.163988 0.060231
0.418193 0.166271 0.061686
0.448599 0.168491 0.063046
0.479371 0.170645 0.064309
0.510517 0.172730 0.065474
0.542043 0.174742 0.066540
0.573954 0.176679 0.067508
0.606254 0.178540 0.068378
0.638944 0.180323 0.069152
0.672025 0.182025 0.069829
0.705495 0.183648 0.070413
0.739352 0.185190 0.070906
0.773590 0.186652 0.071309
0.808203 0.188033 0.071627
0.843185 0.189336 0.071863
0.878525 0.190562 0.072020
0.914212 0.191712 0.072103
0.950234 0.192789 0.072117
0.986577 0.193796 0.072068
0.046255 0.169689 0.041814
0.065698 0.171077 0.044042
0.085282 0.172473 0.046209
0.108905 0.173868 0.048309
0.136591 0.175255 0.050338
0.164494 0.176626 0.052289
0.192636 0.177974 0.054161
0.221036 0.179292 0.055948
0.249715 0.180574 0.057647
0.278688 0.181813 0.059256
0.307972 0.183005 0.060772
0.337581 0.185434 0.062193
0.367528 0.187807 0.063517
0.397822 0.190118 0.064744
0.428474 0.192365 0.065873
0.459492 0.194543 0.066904
0.490880 0.196650 0.067836
0.522645 0.198684 0.068671
0.554788 0.200642 0.069409
0.587311 0.202524 0.070053
0.620214 0.204328 0.070603
0.653495 0.206053 0.071063
0.687150 0.207699 0.071435
0.721175 0.209267 0.071722
0.755563 0.210758 0.071929
0.790306 0.212171 0.072058
0.825393 0.213509 0.072116
0.860813 0.214775 0.072106
0.896554 0.215969 0.072035
0.932600 0.217095 0.071907
0.968936 0.218157 0.071730
1.000000 0.219922 0.073459
0.054212 0.198555 0.049056
0.073853 0.200049 0.051057
0.093686 0.201536 0.052980
0.113733 0.203006 0.054821
0.141758 0.204452 0.056577
0.170038 0.205868 0.058243
0.198593 0.207249 0.059818
0.227439 0.208587 0.061300
0.256592 0.209878 0.062686
0.286064 0.211116 0.063975
0.315868 0.212298 0.065167
0.346014 0.213419 0.066260
0.376512 0.214476 0.067255
0.407368 0.216756 0.068151
0.438588 0.218965 0.068951
0.470176 0.221102 0.069654
0.502135 0.223164 0.070264
0.534465 0.225151 0.070781
0.567165 0.227061 0.071208
0.600234 0.228893 0.071549
0.633668 0.230648 0.071806
0.667460 0.232326 0.071984
0.701604 0.233927 0.072087
0.736092 0.235453 0.072120
0.770912 0.236906 0.072087
0.806052 0.238287 0.071995
0.841501 0.239599 0.071848
0.877241 0.240845 0.071655
0.913257 0.242028 0.071421
0.949531 0.243152 0.071154
0.986042 0.244221 0.070862
1.000000 0.248308 0.079425
0.061623 0.228133 0.055470
0.081511 0.229714 0.057194
0.101635 0.231270 0.058827
0.122013 0.232796 0.060369
0.146534 0.234285 0.061816
0.175215 0.235732 0.063167
0.204200 0.237131 0.064420
0.233501 0.238477 0.065576
0.263130 0.239767 0.066633
0.293098 0.240995 0.067592
0.323412 0.242160 0.068454
0.354079 0.243257 0.069218
0.385105 0.244283 0.069887
0.416493 0.245238 0.070462
0.448244 0.246118 0.070947
0.480361 0.248214 0.071342
0.512840 0.250233 0.071652
0.545680 0.252175 0.071880
0.578876 0.254041 0.072030
0.612422 0.255830 0.072107
0.646310 0.257543 0.072115
0.680531 0.259183 0.072060
0.715075 0.260750 0.071947
0.749930 0.262246 0.071783
0.785080 0.263674 0.071574
0.820511 0.265038 0.071327
0.856205 0.266340 0.071050
0.892145 0.267584 0.070751
0.928308 0.268776 0.070437
0.964674 0.269918 0.070119
1.000000 0.271174 0.070339
1.000000 0.277043 0.085809
0.068292 0.258458 0.060907
0.088474 0.260103 0.062319
0.108928 0.261709 0.063634
0.129670 0.263272 0.064853
0.150715 0.264786 0.065972
0.179816 0.266247 0.066994
0.209244 0.267651 0.067917
0.239007 0.268992 0.068743
0.269114 0.270269 0.069473
0.299571 0.271478 0.070107
0.330382 0.272617 0.070649
0.361551 0.273683 0.071101
0.393079 0.274674 0.071465
0.424966 0.275590 0.071744
0.457211 0.276430 0.071944
0.489809 0.277193 0.072067
0.522758 0.277879 0.072118
0.556049 0.279779 0.072102
0.589674 0.281604 0.072025
0.623625 0.283356 0.071893
0.657890 0.285035 0.071712
0.692456 0.286644 0.071488
0.727308 0.288186 0.071230
0.762431 0.289663 0.070943
0.797807 0.291080 0.070638
0.833417 0.292441 0.070322
0.869240 0.293748 0.070003
0.905254 0.295009 0.069692
0.941433 0.296227 0.069398
0.977754 0.297409 0.069132
1.000000 0.300308 0.075766
1.000000 0.306096 0.092699
0.074081 0.289542 0.065272
0.094600 0.291227 0.066356
0.115421 0.292863 0.067341
0.136558 0.294443 0.068229
0.158020 0.295965 0.069020
0.183689 0.297424 0.069714
0.213570 0.298816 0.070315
0.243800 0.300140 0.070824
0.274382 0.301392 0.071243
0.305319 0.302571 0.071576
0.336612 0.303675 0.071826
0.368260 0.304702 0.071997
0.400262 0.305653 0.072093
0.432613 0.306526 0.072120
0.465309 0.307322 0.072081
0.498342 0.308041 0.071983
0.531704 0.308685 0.071832
0.565385 0.309255 0.071635
0.599372 0.309752 0.071398
0.633654 0.311470 0.071128
0.668214 0.313120 0.070834
0.703036 0.314707 0.070524
0.738103 0.316233 0.070205
0.773394 0.317702 0.069889
0.808888 0.319120 0.069583
0.844563 0.320491 0.069298
0.880394 0.321820 0.069044
0.916354 0.323113 0.068832
0.952417 0.324376 0.068674
0.988552 0.325616 0.068580
1.000000 0.329750 0.081703
1.000000 0.335434 0.100191
0.078906 0.321374 0.068528
0.099802 0.323078 0.069284
0.121025 0.324721 0.069944
0.142584 0.326299 0.070511
0.164486 0.327809 0.070987
0.186736 0.329248 0.071374
0.217079 0.330615 0.071677
0.247776 0.331907 0.071897
0.278828 0.333122 0.072040
0.310234 0.334259 0.072111
0.341990 0.335319 0.072113
0.374094 0.336299 0.072052
0.406538 0.337202 0.071934
0.439316 0.338027 0.071766
0.472418 0.338776 0.071553
0.505834 0.339450 0.071303
0.539552 0.340050 0.071024
0.573558 0.340581 0.070722
0.607837 0.341043 0.070408
0.642371 0.341441 0.070089
0.677143 0.341778 0.069775
0.712131 0.343349 0.069476
0.747315 0.344867 0.069201
0.782670 0.346338 0.068961
0.818173 0.347768 0.068768
0.853795 0.349162 0.068632
0.889510 0.350526 0.068565
0.925288 0.351867 0.068580
0.961096 0.353193 0.068689
0.996903 0.354510 0.068906
1.000000 0.359463 0.088254
1.000000 0.365019 0.108394
0.082739 0.353926 0.070695
0.104051 0.355623 0.071138
0.125707 0.357251 0.071494
0.147714 0.358806 0.071766
0.170073 0.360285 0.071958
0.192787 0.361688 0.072074
0.219726 0.363012 0.072119
0.250890 0.364256 0.072098
0.282404 0.365421 0.072015
0.314264 0.366506 0.071878
0.346463 0.367510 0.071693
0.378993 0.368436 0.071466
0.411845 0.369283 0.071204
0.445009 0.370055 0.070916
0.478470 0.370752 0.070609
0.512216 0.371377 0.070292
0.546229 0.371933 0.069974
0.580494 0.372424 0.069664
0.614990 0.372853 0.069372
0.649697 0.373225 0.069109
0.684593 0.373543 0.068885
0.719654 0.373814 0.068711
0.754855 0.374042 0.068599
0.790169 0.375524 0.068560
0.825566 0.376976 0.068608
0.861017 0.378405 0.068755
0.896490 0.379818 0.069014
0.931952 0.381223 0.069400
0.967367 0.382627 0.069926
1.000000 0.384309 0.072379
1.000000 0.389411 0.095541
1.000000 0.394811 0.117431
0.085609 0.387143 0.071845
0.107372 0.388811 0.072009
0.129490 0.390400 0.072099
0.151965 0.391910 0.072119
0.174798 0.393339 0.072074
0.197985 0.394686 0.071971
0.221523 0.395950 0.071816
0.253149 0.397133 0.071615
0.285115 0.398233 0.071374
0.317411 0.399252 0.071102
0.350029 0.400191 0.070806
0.382956 0.401051 0.070494
0.416179 0.401836 0.070176
0.449685 0.402547 0.069860
0.483455 0.403187 0.069555
0.517473 0.403760 0.069273
0.551719 0.404270 0.069022
0.586172 0.404721 0.068815
0.620810 0.405118 0.068662
0.655607 0.405465 0.068576
0.690538 0.405769 0.068567
0.725576 0.406036 0.068650
0.760691 0.406271 0.068836
0.795852 0.406482 0.069140
0.831029 0.406676 0.069574
0.866186 0.408152 0.070155
0.901288 0.409627 0.070896
0.936299 0.411109 0.071812
0.971179 0.412608 0.072920
1.000000 0.414667 0.078456
1.000000 0.419553 0.103703
1.000000 0.424749 0.127389
0.087599 0.420953 0.072110
0.109845 0.422565 0.072043
0.132451 0.424093 0.071921
0.155416 0.425536 0.071748
0.178734 0.426893 0.071531
0.202400 0.428165 0.071278
0.226407 0.429353 0.070997
0.254618 0.430456 0.070694
0.287022 0.431477 0.070379
0.319735 0.432417 0.070060
0.352744 0.433279 0.069747
0.386035 0.434065 0.069449
0.419590 0.434777 0.069177
0.453391 0.435421 0.068941
0.487418 0.435999 0.068753
0.521649 0.436516 0.068622
0.556061 0.436976 0.068563
0.590630 0.437386 0.068586
0.625329 0.437750 0.068705
0.660130 0.438076 0.068932
0.695004 0.438368 0.069282
0.729919 0.438635 0.069768
0.764843 0.438884 0.070405
0.799742 0.439122 0.071209
0.834579 0.439358 0.072193
0.869316 0.439600 0.073374
0.903916 0.439858 0.074769
0.938391 0.441423 0.076326
0.972855 0.442984 0.077888
1.000000 0.445131 0.085163
1.000000 0.449698 0.112412
1.000000 0.454610 0.137832
0.088848 0.455260 0.071674
0.111608 0.456791 0.071443
0.134725 0.458232 0.071179
0.158195 0.459585 0.070888
0.182009 0.460850 0.070580
0.206158 0.462028 0.070263
0.230631 0.463119 0.069945
0.255417 0.464127 0.069636
0.288242 0.465054 0.069347
0.321349 0.465901 0.069087
0.354721 0.466673 0.068867
0.388339 0.467372 0.068698
0.422183 0.468004 0.068592
0.456231 0.468572 0.068561
0.490458 0.469081 0.068617
0.524840 0.469536 0.068774
0.559350 0.469944 0.069045
0.593959 0.470311 0.069442
0.628638 0.470643 0.069982
0.663354 0.470947 0.070678
0.698075 0.471230 0.071545
0.732767 0.471501 0.072599
0.767391 0.471769 0.073856
0.801912 0.472041 0.075331
0.836379 0.472315 0.076895
0.870842 0.472584 0.078455
0.905300 0.472849 0.080010
0.939753 0.473108 0.081560
0.974200 0.473361 0.083103
1.000000 0.475502 0.092003
1.000000 0.479722 0.121403
1.000000 0.484340 0.148703
0.089552 0.489947 0.070778
0.112852 0.491370 0.070465
0.136501 0.492700 0.070147
0.160489 0.493940 0.069831
0.184806 0.495089 0.069528
0.209439 0.496152 0.069248
0.234373 0.497129 0.069001
0.259591 0.498023 0.068799
0.288948 0.498839 0.068651
0.322423 0.499579 0.068571
0.356126 0.500248 0.068571
0.390033 0.500850 0.068662
0.424120 0.501390 0.068859
0.458362 0.501873 0.069174
0.492731 0.502306 0.069622
0.527199 0.502695 0.070216
0.561734 0.503046 0.070973
0.596306 0.503367 0.071906
0.630879 0.503664 0.073032
0.665420 0.503947 0.074367
0.699901 0.504223 0.075901
0.734367 0.504496 0.077464
0.768828 0.504764 0.079022
0.803285 0.505027 0.080575
0.837735 0.505284 0.082122
0.872180 0.505535 0.083664
0.906615 0.505781 0.085209
0.941024 0.506028 0.086794
0.975399 0.506279 0.088423
1.000000 0.507071 0.099128
1.000000 0.509665 0.130891
1.000000 0.513970 0.160208
0.089961 0.524875 0.069719
0.113825 0.526163 0.069423
0.138023 0.527356 0.069154
0.162541 0.528457 0.068922
0.187366 0.529470 0.068738
0.212480 0.530395 0.068614
0.237865 0.531238 0.068561
0.263501 0.532001 0.068593
0.289368 0.532688 0.068721
0.323183 0.533306 0.068959
0.357181 0.533858 0.069321
0.391335 0.534349 0.069820
0.425617 0.534787 0.070472
0.459999 0.535177 0.071291
0.494449 0.535526 0.072293
0.528934 0.535841 0.073493
0.563421 0.536131 0.074908
0.597890 0.536406 0.076470
0.632354 0.536677 0.078031
0.666814 0.536943 0.079588
0.701268 0.537203 0.081139
0.735717 0.537458 0.082684
0.770159 0.537707 0.084223
0.804593 0.537951 0.085781
0.839011 0.538193 0.087382
0.873404 0.538436 0.089027
0.907761 0.538680 0.090717
0.942075 0.538928 0.092450
0.976337 0.539181 0.094228
1.000000 0.539820 0.106705
1.000000 0.541831 0.140982
1.000000 0.544535 0.172419
0.090381 0.559884 0.068849
0.114830 0.561008 0.068685
0.139592 0.562038 0.068586
0.164649 0.562976 0.068562
0.189982 0.563827 0.068627
0.215573 0.564594 0.068794
0.241398 0.565281 0.069076
0.267434 0.565894 0.069486
0.293656 0.566436 0.070039
0.323909 0.566915 0.070750
0.358164 0.567335 0.071634
0.392521 0.567704 0.072706
0.426947 0.568027 0.073983
0.461411 0.568314 0.075475
0.495878 0.568587 0.077039
0.530341 0.568857 0.078599
0.564798 0.569121 0.080153
0.599251 0.569380 0.081702
0.633697 0.569632 0.083245
0.668138 0.569879 0.084785
0.702579 0.570118 0.086359
0.737014 0.570353 0.087976
0.771433 0.570585 0.089637
0.805826 0.570815 0.091343
0.840184 0.571046 0.093092
0.874498 0.571279 0.094886
0.908760 0.571516 0.096723
0.942962 0.571757 0.098604
0.977097 0.572003 0.100528
1.000000 0.572423 0.114779
1.000000 0.573790 0.151729
1.000000 0.575945 0.185396
0.091174 0.594791 0.068575
0.116227 0.595723 0.068676
0.141564 0.596561 0.068883
0.167164 0.597311 0.069209
0.193006 0.597977 0.069670
0.219065 0.598562 0.070279
0.245315 0.599073 0.071051
0.271730 0.599515 0.072002
0.298281 0.599894 0.073147
0.324937 0.600217 0.074502
0.359400 0.600497 0.076045
0.393865 0.600769 0.077607
0.428326 0.601036 0.079165
0.462782 0.601298 0.080718
0.497233 0.601555 0.082265
0.531677 0.601806 0.083806
0.566121 0.602048 0.085353
0.600578 0.602281 0.086942
0.635038 0.602505 0.088575
0.669491 0.602724 0.090253
0.703927 0.602938 0.091975
0.738336 0.603150 0.093740
0.772710 0.603361 0.095550
0.807040 0.603572 0.097403
0.841317 0.603786 0.099299
0.875534 0.604003 0.101239
0.909683 0.604224 0.103220
0.943758 0.604450 0.105242
0.977752 0.604683 0.107304
1.000000 0.604824 0.123390
1.000000 0.605482 0.163185
1.000000 0.607038 0.199193
0.092755 0.629392 0.069361
0.118428 0.630102 0.069874
0.144350 0.630722 0.070541
0.170497 0.631257 0.071376
0.196842 0.631711 0.072395
0.223359 0.632092 0.073615
0.250018 0.632404 0.075050
0.276743 0.632679 0.076614
0.303465 0.632949 0.078175
0.330183 0.633215 0.079731
0.360766 0.633475 0.081282
0.395214 0.633730 0.082827
0.429655 0.633978 0.084365
0.464113 0.634214 0.085926
0.498594 0.634437 0.087532
0.533087 0.634649 0.089181
0.567582 0.634852 0.090875
0.602068 0.635048 0.092612
0.636536 0.635238 0.094394
0.670977 0.635425 0.096219
0.705381 0.635609 0.098089
0.739740 0.635793 0.100001
0.774045 0.635978 0.101955
0.808290 0.636165 0.103951
0.842466 0.636355 0.105988
0.876568 0.636549 0.108065
0.910589 0.636748 0.110181
0.944522 0.636953 0.112335
0.978363 0.637165 0.114526
1.000000 0.636966 0.132573
1.000000 0.636845 0.175401
1.000000 0.637751 0.213867
0.095599 0.663461 0.071725
0.121905 0.663920 0.072815
0.148418 0.664292 0.074111
0.175104 0.664587 0.075620
0.201828 0.664860 0.077183
0.228549 0.665129 0.078742
0.255264 0.665393 0.080296
0.281974 0.665651 0.081845
0.308678 0.665903 0.083387
0.335380 0.666148 0.084928
0.362119 0.666375 0.086506
0.396632 0.666586 0.088127
0.431166 0.666783 0.089792
0.465710 0.666967 0.091502
0.500255 0.667142 0.093256
0.534788 0.667309 0.095054
0.569302 0.667469 0.096895
0.603787 0.667625 0.098780
0.638233 0.667777 0.100707
0.672633 0.667928 0.102677
0.706979 0.668079 0.104688
0.741263 0.668231 0.106740
0.775477 0.668384 0.108831
0.809617 0.668541 0.110961
0.843674 0.668702 0.113128
0.877643 0.668867 0.115332
0.911519 0.669038 0.117570
0.945298 0.669215 0.119841
0.978973 0.669398 0.122144
1.000000 0.668793 0.142353
1.000000 0.667818 0.188419
1.000000 0.668020 0.229470
0.100189 0.696770 0.076189
0.126913 0.697042 0.077751
0.153631 0.697309 0.079309
0.180345 0.697570 0.080861
0.207052 0.697827 0.082407
0.233754 0.698076 0.083947
0.260471 0.698314 0.085498
0.287241 0.698530 0.087091
0.314052 0.698726 0.088728
0.340892 0.698905 0.090410
0.367752 0.699069 0.092135
0.398490 0.699221 0.093905
0.433096 0.699362 0.095719
0.467690 0.699493 0.097576
0.502261 0.699618 0.099477
0.536802 0.699737 0.101419
0.571302 0.699853 0.103404
0.605754 0.699966 0.105430
0.640150 0.700077 0.107497
0.674483 0.700189 0.109602
0.708745 0.700302 0.111746
0.742931 0.700417 0.113926
0.777033 0.700534 0.116143
0.811047 0.700656 0.118393
0.844966 0.700782 0.120676
0.878787 0.700913 0.122990
0.912505 0.701050 0.125333
0.946115 0.701192 0.127704
0.979615 0.701339 0.130099
1.000000 0.700249 0.152748
1.000000 0.698340 0.202284
1.000000 0.697782 0.246055
0.105424 0.729747 0.081424
0.132130 0.730001 0.082969
0.158830 0.730248 0.084507
0.185577 0.730474 0.086073
0.212386 0.730676 0.087682
0.239244 0.730855 0.089335
0.266141 0.731014 0.091033
0.293065 0.731156 0.092775
0.320004 0.731282 0.094561
0.346947 0.731395 0.096390
0.373885 0.731496 0.098263
0.400808 0.731588 0.100179
0.435448 0.731672 0.102137
0.470054 0.731750 0.104137
0.504618 0.731823 0.106178
0.539132 0.731893 0.108259
0.573587 0.731961 0.110378
0.607977 0.732028 0.112536
0.642295 0.732096 0.114729
0.676535 0.732165 0.116958
0.710689 0.732237 0.119221
0.744754 0.732311 0.121515
0.778723 0.732389 0.123840
0.812592 0.732470 0.126193
0.846357 0.732557 0.128573
0.880014 0.732648 0.130977
0.913560 0.732744 0.133404
0.946991 0.732845 0.135851
0.980304 0.732950 0.138315
1.000000 0.731281 0.163763
1.000000 0.728349 0.217031
1.000000 0.726971 0.263672
0.110703 0.762628 0.086653
0.137559 0.762813 0.088279
0.164473 0.762973 0.089948
0.191433 0.763110 0.091662
0.218428 0.763227 0.093420
0.245445 0.763325 0.095222
0.272475 0.763408 0.097067
0.299506 0.763476 0.098956
0.326527 0.763533 0.100887
0.353531 0.763580 0.102861
0.380506 0.763619 0.104876
0.407445 0.763651 0.106931
0.438210 0.763677 0.109026
0.472793 0.763701 0.111159
0.507315 0.763721 0.113330
0.541770 0.763740 0.115537
0.576150 0.763759 0.117778
0.610449 0.763779 0.120052
0.644662 0.763800 0.122358
0.678783 0.763824 0.124693
0.712806 0.763850 0.127057
0.746728 0.763880 0.129446
0.780545 0.763913 0.131858
0.814251 0.763951 0.134292
0.847845 0.763992 0.136746
0.881324 0.764038 0.139216
0.914684 0.764088 0.141700
0.947924 0.764142 0.144196
0.981042 0.764200 0.146701
1.000000 0.761837 0.175386
1.000000 0.757783 0.232694
1.000000 0.755522 0.282373
0.116772 0.795190 0.092297
0.143845 0.795280 0.094071
0.170948 0.795348 0.095888
0.198069 0.795399 0.097750
0.225199 0.795433 0.099654
0.252326 0.795453 0.101601
0.279440 0.795461 0.103589
0.306532 0.795459 0.105619
0.333593 0.795448 0.107689
0.360614 0.795430 0.109798
0.387587 0.795406 0.111945
0.414504 0.795379 0.114129
0.441357 0.795348 0.116349
0.475881 0.795316 0.118602
0.510328 0.795283 0.120888
0.544692 0.795250 0.123205
0.578967 0.795218 0.125551
0.613148 0.795188 0.127923
0.647229 0.795161 0.130321
0.681207 0.795136 0.132742
0.715077 0.795114 0.135183
0.748835 0.795096 0.137643
0.782480 0.795081 0.140119
0.816007 0.795071 0.142608
0.849414 0.795063 0.145107
0.882700 0.795059 0.147614
0.915863 0.795058 0.150126
0.948902 0.795059 0.152640
0.981817 0.795062 0.155153
1.000000 0.791870 0.187589
1.000000 0.786581 0.249299
1.000000 0.783370 0.302211
0.123735 0.827367 0.098438
0.150969 0.827365 0.100358
0.178206 0.827346 0.102320
0.205437 0.827314 0.104324
0.232651 0.827269 0.106368
0.259839 0.827213 0.108452
0.286992 0.827149 0.110576
0.314101 0.827078 0.112736
0.341157 0.827000 0.114933
0.368155 0.826919 0.117165
0.395085 0.826834 0.119431
0.421942 0.826747 0.121728
0.448718 0.826660 0.124056
0.479279 0.826572 0.126411
0.513619 0.826485 0.128794
0.547861 0.826399 0.131200
0.582002 0.826315 0.133629
0.616037 0.826234 0.136077
0.649962 0.826155 0.138543
0.683773 0.826080 0.141024
0.717467 0.826008 0.143517
0.751042 0.825938 0.146019
0.784496 0.825872 0.148528
0.817827 0.825809 0.151042
0.851033 0.825748 0.153555
0.884114 0.825689 0.156066
0.917069 0.825632 0.158572
0.949898 0.825575 0.161068
0.982601 0.825518 0.163552
1.000000 0.821335 0.200316
1.000000 0.814682 0.266869
1.000000 0.810444 0.323245
0.131525 0.859137 0.105063
0.158866 0.859048 0.107122
0.186185 0.858946 0.109221
0.213474 0.858834 0.111358
0.240723 0.858714 0.113532
0.267924 0.858586 0.115742
0.295069 0.858452 0.117986
0.322151 0.858313 0.120264
0.349162 0.858172 0.122572
0.376095 0.858028 0.124910
0.402944 0.857883 0.127276
0.429704 0.857738 0.129667
0.456368 0.857594 0.132082
0.482932 0.857451 0.134518
0.517133 0.857309 0.136973
0.551224 0.857170 0.139444
0.585203 0.857033 0.141930
0.619066 0.856899 0.144427
0.652809 0.856768 0.146932
0.686431 0.856640 0.149443
0.719929 0.856514 0.151957
0.753302 0.856391 0.154470
0.786548 0.856270 0.156979
0.819667 0.856151 0.159482
0.852658 0.856032 0.161974
0.885522 0.855914 0.164452
0.918258 0.855796 0.166912
0.950868 0.855676 0.169350
0.983354 0.855554 0.171764
1.000000 0.850197 0.213480
1.000000 0.842025 0.285427
1.000000 0.836676 0.345545
0.140063 0.890485 0.112145
0.167457 0.890314 0.114332
0.194806 0.890134 0.116555
0.222103 0.889946 0.118812
0.249339 0.889753 0.121101
0.276506 0.889556 0.123420
0.303599 0.889356 0.125768
0.330610 0.889153 0.128143
0.357533 0.888950 0.130544
0.384363 0.888746 0.132966
0.411093 0.888542 0.135409
0.437719 0.888340 0.137871
0.464237 0.888140 0.140348
0.490643 0.887941 0.142838
0.520803 0.887745 0.145338
0.554714 0.887552 0.147846
0.588504 0.887362 0.150358
0.622169 0.887174 0.152872
0.655708 0.886988 0.155384
