omv/luts/31_dc_radstorm.cube
# Original OMV LUT; redistribution permitted with OMV.
TITLE "DC Radstorm"
LUT_3D_SIZE 8
DOMAIN_MIN 0.000000 0.000000 0.000000
DOMAIN_MAX 0.903226 0.903226 0.903226
0.008000 0.034000 0.004000
0.114058 0.041994 0.011994
0.221003 0.050874 0.020874
0.328622 0.060417 0.030416
0.438631 0.070070 0.039944
0.553408 0.079122 0.048679
0.674152 0.087182 0.056260
0.801659 0.093969 0.062438
0.038005 0.141484 0.033949
0.131297 0.146643 0.043237
0.242772 0.151804 0.051588
0.358436 0.161648 0.058681
0.479371 0.170645 0.064309
0.606254 0.178540 0.068378
0.739352 0.185190 0.070906
0.878525 0.190562 0.072020
0.068292 0.258458 0.060907
0.150715 0.264786 0.065972
0.269114 0.270269 0.069473
0.393079 0.274674 0.071465
0.522758 0.277879 0.072118
0.657890 0.285035 0.071712
0.797807 0.291080 0.070638
0.941433 0.296227 0.069398
0.085609 0.387143 0.071845
0.174798 0.393339 0.072074
0.285115 0.398233 0.071374
0.416179 0.401836 0.070176
0.551719 0.404270 0.069022
0.690538 0.405769 0.068567
0.831029 0.406676 0.069574
0.971179 0.412608 0.072920
0.089961 0.524875 0.069719
0.187366 0.529470 0.068738
0.289368 0.532688 0.068721
0.425617 0.534787 0.070472
0.563421 0.536131 0.074908
0.701268 0.537203 0.081139
0.839011 0.538193 0.087382
0.976337 0.539181 0.094228
0.095599 0.663461 0.071725
0.201828 0.664860 0.077183
0.308678 0.665903 0.083387
0.431166 0.666783 0.089792
0.569302 0.667469 0.096895
0.706979 0.668079 0.104688
0.843674 0.668702 0.113128
0.978973 0.669398 0.122144
0.116772 0.795190 0.092297
0.225199 0.795433 0.099654
0.333593 0.795448 0.107689
0.441357 0.795348 0.116349
0.578967 0.795218 0.125551
0.715077 0.795114 0.135183
0.849414 0.795063 0.145107
0.981817 0.795062 0.155153
0.149256 0.921402 0.119641
0.258407 0.920380 0.129014
0.366185 0.919326 0.138771
0.472242 0.918291 0.148760
0.591824 0.917296 0.158802
0.724803 0.916335 0.168690
0.855673 0.915372 0.178185
0.984525 0.914343 0.187022
0.010568 0.036568 0.053020
0.101509 0.044928 0.071702
0.208691 0.054046 0.091143
0.316722 0.063733 0.100894
0.427915 0.073234 0.111013
0.544069 0.081987 0.120966
0.666292 0.089640 0.130300
0.795283 0.095952 0.138675
0.041353 0.139793 0.094241
0.119510 0.145014 0.114682
0.231643 0.155222 0.124456
0.348179 0.164813 0.133474
0.470107 0.173459 0.141438
0.598009 0.180942 0.148162
0.732058 0.187156 0.153570
0.872020 0.192106 0.157698
0.070742 0.257275 0.136508
0.153761 0.263349 0.144036
0.257414 0.268486 0.150283
0.382162 0.272491 0.155215
0.512575 0.280442 0.158909
0.648298 0.287204 0.161553
0.788569 0.292915 0.163444
0.932216 0.297825 0.164995
0.086512 0.385981 0.156696
0.176476 0.391740 0.159980
0.272055 0.396189 0.162309
0.403742 0.399376 0.164023
0.539686 0.401461 0.165573
0.678595 0.402715 0.167519
0.818769 0.408680 0.170535
0.958099 0.414689 0.175403
0.090110 0.523193 0.164579
0.188397 0.527298 0.166203
0.291082 0.530102 0.168455
0.412237 0.531898 0.172048
0.550063 0.533095 0.177675
0.687882 0.534140 0.183882
0.825573 0.535115 0.190183
0.962740 0.536126 0.196947
0.097224 0.660654 0.173847
0.203945 0.661816 0.179945
0.310782 0.662823 0.186128
0.417974 0.663623 0.192589
0.556155 0.664271 0.199531
0.693750 0.664877 0.206963
0.830264 0.665520 0.214868
0.965307 0.666249 0.223198
0.119480 0.791898 0.195060
0.228129 0.792049 0.202180
0.336591 0.792013 0.209788
0.444291 0.791896 0.217855
0.566248 0.791770 0.226322
0.702109 0.791682 0.235105
0.836143 0.791650 0.244086
0.968214 0.791661 0.253123
0.153130 0.917655 0.220895
0.262174 0.916614 0.229489
0.369735 0.915562 0.238358
0.475491 0.914540 0.247378
0.579229 0.913558 0.256393
0.711813 0.912602 0.265220
0.842280 0.911625 0.273646
0.970745 0.910554 0.281430
0.013307 0.039307 0.102210
0.089045 0.047948 0.121174
0.196452 0.057290 0.140839
0.305136 0.067017 0.161356
0.417495 0.076310 0.182886
0.534993 0.084724 0.194479
0.658644 0.091942 0.205912
0.789053 0.097764 0.216755
0.044681 0.138145 0.144708
0.123216 0.148524 0.166448
0.220533 0.158567 0.188362
0.337936 0.167869 0.209947
0.460834 0.176138 0.220490
0.589716 0.183197 0.230035
0.724659 0.188975 0.238416
0.865335 0.193518 0.245577
0.073041 0.256017 0.193240
0.156678 0.261802 0.213769
0.245588 0.266571 0.233227
0.371106 0.275329 0.241164
0.502223 0.282867 0.247888
0.638491 0.289251 0.253495
0.779051 0.294657 0.258192
0.922637 0.299370 0.262296
0.087279 0.384674 0.233427
0.178032 0.389989 0.250050
0.274355 0.393998 0.255296
0.391160 0.396788 0.259735
0.527470 0.398555 0.263724
0.666415 0.404769 0.267733
0.806200 0.410688 0.272342
0.944748 0.416813 0.278168
0.090284 0.521338 0.261217
0.189459 0.524975 0.265153
0.292816 0.527399 0.269307
0.398848 0.528938 0.274301
0.536696 0.530051 0.280438
0.674486 0.531065 0.286617
0.812122 0.532041 0.292896
0.949119 0.538247 0.299432
0.099176 0.657692 0.276467
0.206052 0.658762 0.282697
0.312974 0.659711 0.288878
0.420334 0.660445 0.295243
0.543053 0.661069 0.301885
0.680550 0.661680 0.308838
0.816869 0.662347 0.316110
0.951647 0.663113 0.323676
0.122329 0.788569 0.297627
0.231167 0.788643 0.304379
0.339666 0.788570 0.311449
0.447277 0.788442 0.318832
0.553562 0.788326 0.326495
0.689158 0.788256 0.334376
0.822878 0.788241 0.342385
0.954610 0.788260 0.350403
0.157085 0.913898 0.321592
0.265990 0.912847 0.329343
0.373307 0.911802 0.337283
0.478739 0.910793 0.345310
0.582098 0.909824 0.353295
0.698790 0.908867 0.361079
0.828845 0.907868 0.368473
0.956919 0.906742 0.375261
0.016154 0.042154 0.151509
0.092145 0.051048 0.170725
0.184290 0.060601 0.190615
0.293824 0.070247 0.212079
0.407333 0.079284 0.235153
0.526142 0.087322 0.259088
0.651170 0.094083 0.283248
0.782929 0.099404 0.296789
0.047971 0.141678 0.195932
0.126909 0.151995 0.219399
0.209422 0.161826 0.243484
0.327684 0.170804 0.267591
0.451529 0.178677 0.291239
0.581349 0.185303 0.314056
0.717129 0.190651 0.325462
0.858445 0.194803 0.335632
0.075183 0.254673 0.251872
0.159459 0.260137 0.275255
0.249114 0.269682 0.297700
0.359905 0.278025 0.318990
0.491696 0.285158 0.339016
0.628459 0.291185 0.347461
0.769243 0.296317 0.354761
0.912686 0.300881 0.361142
0.087919 0.383218 0.302026
0.179476 0.388087 0.321588
0.276537 0.391667 0.339919
0.378440 0.394081 0.357175
0.515078 0.400726 0.363299
0.654004 0.406788 0.368991
0.793327 0.412722 0.374739
0.931382 0.418931 0.380931
0.090505 0.519317 0.338836
0.190575 0.522512 0.355076
0.294593 0.524593 0.371048
0.400959 0.525926 0.376959
0.523320 0.526997 0.383191
0.661095 0.527986 0.389335
0.798662 0.534136 0.395445
0.935480 0.540384 0.401617
0.101301 0.654655 0.368914
0.208148 0.655697 0.385439
0.315261 0.656571 0.391558
0.422764 0.657256 0.397680
0.529999 0.657865 0.403895
0.667379 0.658489 0.410262
0.803490 0.659187 0.416813
0.937994 0.659990 0.423549
0.125315 0.785209 0.399928
0.234308 0.785221 0.406193
0.342815 0.785120 0.412625
0.450313 0.784990 0.419244
0.556389 0.784887 0.426043
0.676221 0.784837 0.432983
0.809616 0.784837 0.440000
0.941003 0.784856 0.446998
0.161113 0.910135 0.421700
0.269848 0.909081 0.428556
0.376894 0.908046 0.435533
0.481979 0.907052 0.442556
0.584942 0.906091 0.449518
0.685728 0.905128 0.456286
0.815362 0.904096 0.462697
0.943042 0.902903 0.468558
0.019093 0.045093 0.200900
0.095320 0.054224 0.220353
0.172324 0.063916 0.240709
0.282752 0.073407 0.263640
0.397394 0.082142 0.288673
0.517479 0.089772 0.314968
0.643833 0.096057 0.341798
0.776873 0.100871 0.368549
0.051202 0.145209 0.248153
0.130571 0.155409 0.273737
0.213773 0.164985 0.300305
0.317404 0.173611 0.327172
0.442171 0.181071 0.353764
0.572889 0.187261 0.379618
0.709446 0.192188 0.404383
0.851326 0.195972 0.427820
0.077167 0.253229 0.312508
0.162101 0.263508 0.338879
0.252504 0.272652 0.364372
0.348552 0.280580 0.388676
0.480985 0.287320 0.411591
0.618196 0.293014 0.433029
0.759137 0.297912 0.453013
0.902354 0.302376 0.461353
0.088444 0.381610 0.372783
0.180816 0.386035 0.395165
0.278612 0.389199 0.416065
0.381074 0.396427 0.435546
0.502518 0.402830 0.453783
0.641368 0.408791 0.471060
0.780157 0.414806 0.477450
0.918007 0.421040 0.483685
0.090799 0.517137 0.417914
0.191770 0.519919 0.435762
0.296437 0.521699 0.452782
0.403083 0.522890 0.469406
0.509933 0.523933 0.485933
0.647715 0.530069 0.491960
0.785199 0.536243 0.497755
0.921825 0.542540 0.503441
0.103417 0.651610 0.451030
0.210262 0.652614 0.467517
0.317645 0.653410 0.483767
0.425262 0.654057 0.499833
0.532475 0.654663 0.505504
0.654237 0.655307 0.511188
0.790127 0.656039 0.516941
0.924350 0.662041 0.522790
0.128434 0.781824 0.481255
0.237548 0.781786 0.497245
0.346034 0.781667 0.513272
0.453394 0.781542 0.519059
0.559240 0.781455 0.524944
0.663294 0.781424 0.530915
0.796353 0.781436 0.536931
0.927388 0.781449 0.542921
0.165205 0.906369 0.510867
0.273739 0.905317 0.527109
0.380486 0.904295 0.533103
0.485203 0.903315 0.539119
0.587751 0.902359 0.545078
0.688103 0.901381 0.550869
0.801823 0.900306 0.556355
0.929104 0.899031 0.561367
0.022118 0.048118 0.250376
0.098569 0.057472 0.270053
0.176049 0.067197 0.291429
0.271887 0.076478 0.316276
0.387642 0.084871 0.343643
0.508968 0.092065 0.372598
0.636596 0.097859 0.402323
0.770849 0.102166 0.432111
0.054358 0.148718 0.301596
0.134184 0.158750 0.329643
0.218084 0.168035 0.358967
0.307076 0.176283 0.388791
0.432740 0.183317 0.418448
0.564313 0.189072 0.447385
0.701589 0.193592 0.475158
0.843956 0.197034 0.501435
0.078988 0.256838 0.375235
0.164600 0.266747 0.404689
0.255752 0.275482 0.433248
0.352528 0.282998 0.460509
0.470086 0.289361 0.486180
0.607695 0.294751 0.510082
0.748727 0.299455 0.532145
0.891635 0.303874 0.552409
0.088866 0.379851 0.445648
0.182066 0.383836 0.470690
0.280591 0.391766 0.493924
0.383590 0.398677 0.515321
0.489799 0.404881 0.534963
0.628517 0.410800 0.553041
0.766801 0.416931 0.569898
0.904621 0.423137 0.586428
0.091195 0.514806 0.498264
0.193070 0.517209 0.517308
0.298374 0.518736 0.534887
0.405200 0.519845 0.551523
0.512026 0.526019 0.568008
0.634350 0.532157 0.584090
0.771735 0.538364 0.599761
0.908160 0.544717 0.604847
0.105523 0.648556 0.533136
0.212494 0.649501 0.549518
0.320123 0.650232 0.565431
0.427828 0.650855 0.580991
0.534997 0.651466 0.596335
0.641124 0.652135 0.611574
0.776781 0.658065 0.616464
0.910714 0.664104 0.621380
0.131681 0.778418 0.562193
0.240882 0.778342 0.577487
0.349318 0.778214 0.592708
0.456516 0.778098 0.607926
0.562113 0.778030 0.623182
0.665856 0.778016 0.628165
0.783085 0.778034 0.633182
0.913764 0.778034 0.638188
0.169354 0.902602 0.589071
0.277654 0.901557 0.604345
0.384077 0.900549 0.619667
0.488402 0.899580 0.635009
0.590518 0.898624 0.639994
0.690422 0.897623 0.644858
0.788222 0.896493 0.649488
0.915100 0.895122 0.653742
0.025222 0.051222 0.299931
0.101892 0.060785 0.319858
0.179949 0.070424 0.343033
0.261195 0.079446 0.370206
0.378045 0.087461 0.400241
0.500577 0.094197 0.432115
0.629425 0.099490 0.464918
0.764821 0.103290 0.497852
0.057424 0.152186 0.356463
0.137733 0.162004 0.387280
0.222338 0.170963 0.419591
0.312167 0.178814 0.452528
0.423219 0.185415 0.485333
0.555603 0.190740 0.517358
0.693538 0.194871 0.548070
0.836315 0.198002 0.577042
0.080648 0.260327 0.440120
0.166956 0.269850 0.472710
0.258858 0.278170 0.504313
0.356345 0.285281 0.534434
0.458996 0.291288 0.562690
0.596952 0.296407 0.588808
0.738008 0.300964 0.612626
0.880521 0.305397 0.634092
0.089199 0.377940 0.520551
0.183237 0.386658 0.548054
0.282486 0.394214 0.573347
0.385998 0.400845 0.596309
0.492417 0.406899 0.616929
0.615462 0.412836 0.635307
0.753435 0.419048 0.652016
0.891218 0.425228 0.668502
0.091720 0.512335 0.579681
0.194503 0.514398 0.599467
0.300431 0.515722 0.617076
0.407307 0.521953 0.633630
0.514152 0.528101 0.649983
0.621001 0.534252 0.665653
0.758274 0.540503 0.680754
0.894488 0.546917 0.695460
0.107619 0.645490 0.615232
0.214849 0.646360 0.631363
0.322694 0.647042 0.646803
0.430462 0.647651 0.661742
0.537565 0.648276 0.676342
0.643523 0.654137 0.690737
0.763451 0.660103 0.705032
0.897086 0.666178 0.719303
0.135049 0.774994 0.642686
0.244304 0.774892 0.657197
0.352661 0.774763 0.671545
0.459673 0.774660 0.685824
0.565002 0.774611 0.700100
0.668420 0.774612 0.714412
0.769808 0.774631 0.728765
0.900125 0.779769 0.732818
0.173548 0.898836 0.666616
0.281584 0.897802 0.680902
0.387655 0.896808 0.695229
0.491567 0.895848 0.709595
0.593234 0.894884 0.723968
0.692679 0.893850 0.738288
0.790033 0.892653 0.742144
0.901021 0.891168 0.745740
0.028402 0.054402 0.349563
0.105330 0.064099 0.370249
0.183996 0.073579 0.395761
0.266130 0.082297 0.425629
0.368572 0.089903 0.458626
0.492272 0.096161 0.493638
0.622288 0.100947 0.529663
0.758755 0.104249 0.565810
0.060386 0.155596 0.412938
0.141201 0.165157 0.446791
0.226521 0.173763 0.482282
0.317176 0.181199 0.518449
0.413589 0.187365 0.554441
0.546742 0.192269 0.589520
0.685275 0.196033 0.623059
0.828384 0.198888 0.654541
0.082145 0.263691 0.507210
0.169167 0.272813 0.542950
0.261821 0.280718 0.577535
0.360002 0.287437 0.610379
0.463196 0.293112 0.641006
0.585964 0.297998 0.669051
0.726977 0.302458 0.694260
0.869010 0.306968 0.716490
0.089459 0.381041 0.597404
0.184346 0.389345 0.627128
0.284311 0.396554 0.654164
0.388313 0.402945 0.678299
0.494900 0.408902 0.699431
0.602213 0.414923 0.717567
0.740059 0.421156 0.734124
0.877766 0.427340 0.750455
0.092405 0.509735 0.661939
0.196099 0.511500 0.681973
0.302556 0.517846 0.699201
0.409404 0.524049 0.715726
0.516317 0.530184 0.731777
0.623158 0.536360 0.746902
0.744819 0.542660 0.761322
0.880812 0.549139 0.775234
0.109745 0.642406 0.697285
0.217327 0.643198 0.712976
0.325356 0.643843 0.727820
0.433161 0.644449 0.742033
0.540177 0.650256 0.755804
0.645950 0.656150 0.769291
0.750136 0.662155 0.782624
0.883466 0.668261 0.795905
0.138533 0.771559 0.722686
0.247810 0.771439 0.736336
0.356059 0.771315 0.749754
0.462860 0.771229 0.763058
0.567902 0.771198 0.776339
0.670980 0.771211 0.789658
0.772002 0.776385 0.803050
0.886467 0.781489 0.816517
0.177780 0.895072 0.743489
0.285520 0.894051 0.756778
0.391213 0.893071 0.770121
0.494691 0.892115 0.783541
0.595891 0.891136 0.797031
0.694863 0.890059 0.810556
0.791764 0.888779 0.824051
0.886860 0.887163 0.837423
