omv/luts/32_underworld_embers.cube
# Original OMV LUT; redistribution permitted with OMV.
TITLE "Underworld Embers"
LUT_3D_SIZE 5
DOMAIN_MIN 0.000000 0.000000 0.000000
DOMAIN_MAX 0.903226 0.903226 0.903226
0.016000 0.029000 0.035000
0.177382 0.050382 0.056382
0.342023 0.074319 0.080216
0.519416 0.097748 0.102237
0.717969 0.117977 0.119767
0.095156 0.162055 0.109206
0.241161 0.203082 0.124841
0.436300 0.241400 0.135170
0.650587 0.262431 0.140933
0.881528 0.279817 0.143991
0.153529 0.333373 0.142226
0.292070 0.373274 0.144982
0.508800 0.408982 0.149381
0.732658 0.441928 0.159935
0.954910 0.474233 0.178233
0.193313 0.521023 0.166313
0.351961 0.553347 0.184769
0.542297 0.586482 0.197763
0.768056 0.619251 0.203535
1.000000 0.650159 0.203562
0.240031 0.704929 0.203961
0.395499 0.739786 0.201066
0.557445 0.771875 0.193327
0.789741 0.800252 0.182568
1.000000 0.823458 0.256845
0.022837 0.035837 0.100547
0.153691 0.058304 0.132046
0.320683 0.082509 0.166047
0.502838 0.105063 0.192157
0.706465 0.123863 0.216644
0.103015 0.185129 0.192343
0.219663 0.225421 0.224783
0.417569 0.248980 0.244490
0.634182 0.268706 0.260306
0.866051 0.285076 0.273163
0.157141 0.356384 0.265246
0.298210 0.394770 0.277476
0.484652 0.429323 0.289825
0.707692 0.461854 0.305854
0.929784 0.480554 0.324426
0.199689 0.540947 0.312689
0.358004 0.573474 0.330439
0.516779 0.606685 0.343294
0.743256 0.638959 0.350675
0.976744 0.668931 0.352853
0.241809 0.725946 0.352041
0.397541 0.759999 0.352488
0.560092 0.790908 0.348889
0.761307 0.817896 0.342666
0.999642 0.840668 0.335726
0.030162 0.043162 0.166582
0.130263 0.066488 0.198941
0.300391 0.090488 0.236227
0.487092 0.111936 0.277793
0.695406 0.129205 0.319846
0.110501 0.208030 0.271858
0.229465 0.233835 0.313369
0.398414 0.256108 0.352026
0.617067 0.274585 0.386705
0.849406 0.290122 0.408376
0.160524 0.378863 0.376955
0.304108 0.415814 0.406431
0.460076 0.449421 0.433738
0.682456 0.468230 0.452230
0.905206 0.486796 0.470449
0.206041 0.560847 0.450008
0.363764 0.593700 0.476431
0.522660 0.626777 0.490383
0.718237 0.658397 0.500278
0.952619 0.687364 0.505987
0.243039 0.746742 0.502833
0.399149 0.779844 0.507081
0.562342 0.809485 0.507752
0.732441 0.835050 0.505865
0.970713 0.856410 0.502927
0.037814 0.050814 0.232943
0.139005 0.074776 0.266812
0.280928 0.098164 0.310175
0.471956 0.118317 0.360091
0.684564 0.133999 0.411845
0.117563 0.217127 0.357580
0.238896 0.241831 0.409054
0.378768 0.262789 0.457755
0.599168 0.280116 0.501632
0.831509 0.295047 0.539754
0.163775 0.400824 0.494838
0.309852 0.436463 0.530854
0.466765 0.455829 0.561654
0.657197 0.474584 0.589552
0.881094 0.492898 0.617008
0.212208 0.580804 0.578269
0.369197 0.613949 0.605361
0.528281 0.646695 0.630501
0.692950 0.677525 0.652673
0.928143 0.691856 0.662313
0.243744 0.767261 0.638536
0.400341 0.799287 0.655898
0.564212 0.827588 0.669823
0.734768 0.851715 0.671896
0.941251 0.871704 0.672255
0.045751 0.058751 0.299589
0.148436 0.082957 0.337341
0.262097 0.105456 0.389056
0.457221 0.124173 0.448841
0.673723 0.138256 0.511052
0.124164 0.225897 0.450117
0.247911 0.249386 0.512033
0.390191 0.269042 0.570497
0.580425 0.285360 0.622528
0.812295 0.299958 0.666266
0.167003 0.422293 0.618122
0.315547 0.443239 0.658597
0.473207 0.462207 0.690078
0.632016 0.480902 0.717893
0.857335 0.498800 0.746701
0.217879 0.600938 0.706925
0.374265 0.634148 0.735893
0.533600 0.666389 0.764070
0.698964 0.682760 0.790038
0.903269 0.695941 0.812866
0.243952 0.787454 0.777394
0.401144 0.818296 0.798943
0.565726 0.845205 0.816864
0.736697 0.867899 0.831377
0.911274 0.886577 0.843183
