omv/luts/32_underworld_embers.cube
# Original OMV LUT; redistribution permitted with OMV.
TITLE "Underworld Embers"
LUT_3D_SIZE 32
DOMAIN_MIN 0.0 0.0 0.0
DOMAIN_MAX 1.0 1.0 1.0
0.016000 0.029000 0.035000
0.038781 0.031781 0.037781
0.061710 0.034710 0.040710
0.084721 0.037721 0.043721
0.107799 0.040799 0.046799
0.130939 0.043939 0.049939
0.154134 0.047134 0.053134
0.177382 0.050382 0.056382
0.200681 0.053681 0.059681
0.224029 0.057029 0.063029
0.247424 0.060424 0.066424
0.270864 0.063864 0.069864
0.294359 0.067346 0.073344
0.318056 0.070837 0.076803
0.342023 0.074319 0.080216
0.366288 0.077783 0.083576
0.390875 0.081221 0.086874
0.415808 0.084624 0.090105
0.441110 0.087985 0.093262
0.466799 0.091297 0.096340
0.492896 0.094553 0.099334
0.519416 0.097748 0.102237
0.546375 0.100875 0.105048
0.573786 0.103930 0.107761
0.601660 0.106909 0.110373
0.630008 0.109806 0.112882
0.658838 0.112618 0.115285
0.688157 0.115343 0.117580
0.717969 0.117977 0.119767
0.748278 0.120518 0.121843
0.779084 0.122965 0.123809
0.810388 0.125315 0.125665
0.025834 0.045931 0.044834
0.044419 0.050968 0.047936
0.067579 0.056063 0.051096
0.090794 0.059278 0.054310
0.114061 0.062545 0.057577
0.137378 0.065862 0.060894
0.160743 0.069227 0.064259
0.184155 0.072639 0.067671
0.207611 0.076095 0.071127
0.231146 0.079589 0.074608
0.254875 0.083096 0.078051
0.278835 0.086607 0.081446
0.303052 0.090110 0.084784
0.327554 0.093598 0.088059
0.352365 0.097062 0.091263
0.377509 0.100494 0.094392
0.403006 0.103887 0.097440
0.428878 0.107234 0.100401
0.455141 0.110528 0.103272
0.481811 0.113764 0.106047
0.508905 0.116936 0.108724
0.536434 0.120039 0.111298
0.564410 0.123068 0.113769
0.592841 0.126020 0.116133
0.621737 0.128891 0.118389
0.651103 0.131678 0.120536
0.680942 0.134378 0.122572
0.711259 0.136989 0.124498
0.742054 0.139510 0.126313
0.773325 0.141938 0.128020
0.805071 0.144274 0.129617
0.837287 0.146518 0.131108
0.036494 0.063687 0.055494
0.050747 0.068908 0.058779
0.074082 0.074179 0.062114
0.097464 0.079496 0.065496
0.120892 0.084860 0.068924
0.144364 0.088332 0.072396
0.167933 0.091842 0.075867
0.191661 0.095375 0.079293
0.215580 0.098923 0.082668
0.239719 0.102475 0.085984
0.264105 0.106023 0.089234
0.288765 0.109556 0.092412
0.313723 0.113067 0.095512
0.339002 0.116549 0.098528
0.364622 0.119994 0.101457
0.390604 0.123395 0.104293
0.416963 0.126746 0.107033
0.443717 0.130041 0.109673
0.470879 0.133275 0.112210
0.498462 0.136442 0.114642
0.526477 0.139539 0.116967
0.554931 0.142561 0.119183
0.583834 0.145506 0.121290
0.613189 0.148369 0.123286
0.643002 0.151149 0.125172
0.673273 0.153843 0.126947
0.704004 0.156450 0.128614
0.735194 0.158969 0.130172
0.766838 0.161399 0.131625
0.798934 0.163740 0.132973
0.831472 0.165992 0.134220
0.864447 0.168155 0.135370
0.047739 0.082029 0.066739
0.062151 0.087409 0.070183
0.081126 0.092834 0.073664
0.104700 0.098303 0.077120
0.128395 0.103808 0.080528
0.152241 0.109339 0.083882
0.176271 0.114884 0.087175
0.200512 0.118499 0.090399
0.224993 0.122110 0.093550
0.249738 0.125709 0.096620
0.274772 0.129287 0.099605
0.300116 0.132837 0.102501
0.325792 0.136352 0.105302
0.351818 0.139824 0.108006
0.378210 0.143249 0.110609
0.404985 0.146619 0.113108
0.432156 0.149930 0.115501
0.459734 0.153177 0.117787
0.487731 0.156356 0.119963
0.516154 0.159463 0.122029
0.545010 0.162494 0.123985
0.574305 0.165446 0.125831
0.604041 0.168318 0.127567
0.634220 0.171107 0.129193
0.664842 0.173811 0.130713
0.695906 0.176430 0.132127
0.727407 0.178963 0.133439
0.759341 0.181410 0.134650
0.791700 0.183772 0.135764
0.824476 0.186049 0.136786
0.857659 0.188242 0.137719
0.891235 0.190353 0.138568
0.059494 0.100915 0.078366
0.074090 0.106465 0.081756
0.088801 0.112051 0.085088
0.112691 0.117663 0.088357
0.136759 0.123290 0.091555
0.161032 0.128922 0.094677
0.185538 0.134551 0.097717
0.210302 0.140169 0.100670
0.235346 0.145767 0.103532
0.260693 0.149402 0.106298
0.286362 0.153003 0.108965
0.312373 0.156563 0.111531
0.338740 0.160075 0.113992
0.365480 0.163536 0.116346
0.392605 0.166938 0.118592
0.420127 0.170278 0.120728
0.448055 0.173551 0.122754
0.476397 0.176754 0.124670
0.505160 0.179883 0.126475
0.534349 0.182936 0.128171
0.563965 0.185909 0.129759
0.594010 0.188802 0.131240
0.624484 0.191613 0.132617
0.655384 0.194340 0.133891
0.686706 0.196984 0.135067
0.718444 0.199545 0.136147
0.750591 0.202022 0.137135
0.783138 0.204417 0.138037
0.816074 0.206732 0.138857
0.849386 0.208967 0.139600
0.883059 0.211126 0.140272
0.917079 0.213212 0.140880
0.071544 0.120495 0.089530
0.086378 0.126206 0.092701
0.101385 0.131933 0.095793
0.121109 0.137664 0.098802
0.145577 0.143393 0.101722
0.170298 0.149110 0.104550
0.195293 0.154808 0.107281
0.220585 0.160478 0.109911
0.246192 0.166115 0.112439
0.272133 0.171712 0.114861
0.298424 0.177262 0.117176
0.325079 0.180824 0.119382
0.352110 0.184330 0.121478
0.379528 0.187774 0.123464
0.407343 0.191152 0.125340
0.435562 0.194461 0.127105
0.464191 0.197698 0.128762
0.493234 0.200859 0.130311
0.522693 0.203943 0.131753
0.552569 0.206947 0.133092
0.582860 0.209871 0.134330
0.613565 0.212714 0.135471
0.644677 0.215474 0.136517
0.676192 0.218153 0.137474
0.708100 0.220751 0.138345
0.740394 0.223269 0.139136
0.773060 0.225708 0.139853
0.806085 0.228070 0.140501
0.839456 0.230359 0.141086
0.873155 0.232575 0.141617
0.907165 0.234724 0.142100
0.941464 0.236809 0.142543
0.083533 0.140858 0.099876
0.098650 0.146705 0.102763
0.113991 0.152548 0.105555
0.129581 0.158379 0.108250
0.154474 0.164190 0.110843
0.179659 0.169974 0.113333
0.205155 0.175724 0.115716
0.230979 0.181433 0.117992
0.257147 0.187096 0.120158
0.283672 0.192708 0.122214
0.310566 0.198262 0.124160
0.337841 0.203755 0.125995
0.365504 0.209183 0.127721
0.393563 0.212607 0.129338
0.422022 0.215958 0.130848
0.450887 0.219235 0.132253
0.480157 0.222436 0.133554
0.509833 0.225558 0.134757
0.539915 0.228600 0.135862
0.570397 0.231562 0.136875
0.601276 0.234443 0.137800
0.632545 0.237244 0.138642
0.664194 0.239965 0.139405
0.696215 0.242607 0.140096
0.728594 0.245172 0.140721
0.761319 0.247662 0.141286
0.794373 0.250080 0.141798
0.827741 0.252428 0.142266
0.861402 0.254709 0.142697
0.895338 0.256929 0.143099
0.929524 0.259091 0.143482
0.963938 0.261200 0.143856
0.095156 0.162055 0.109206
0.110599 0.168013 0.111762
0.126310 0.173949 0.114213
0.142311 0.179858 0.116557
0.163135 0.185731 0.118793
0.188800 0.191564 0.120919
0.214804 0.197349 0.122935
0.241161 0.203082 0.124841
0.267883 0.208758 0.126636
0.294979 0.214373 0.128322
0.322458 0.219921 0.129900
0.350325 0.225401 0.131371
0.378586 0.230809 0.132738
0.407244 0.236143 0.134004
0.436300 0.241400 0.135170
0.465754 0.244643 0.136242
0.495603 0.247807 0.137222
0.525844 0.250891 0.138116
0.556471 0.253895 0.138929
0.587477 0.256819 0.139665
0.618852 0.259664 0.140331
0.650587 0.262431 0.140933
0.682669 0.265121 0.141478
0.715083 0.267738 0.141973
0.747814 0.270283 0.142426
0.780844 0.272760 0.142846
0.814154 0.275172 0.143240
0.847723 0.277523 0.143619
0.881528 0.279817 0.143991
0.915545 0.282061 0.144367
0.949747 0.284258 0.144758
0.984106 0.286415 0.145174
0.106171 0.184115 0.117384
0.121980 0.190157 0.119580
0.138095 0.196164 0.121666
0.154532 0.202127 0.123642
0.171307 0.208043 0.125507
0.197464 0.213905 0.127263
0.223982 0.219709 0.128909
0.250870 0.225450 0.130448
0.278137 0.231125 0.131881
0.305788 0.236731 0.133211
0.333827 0.242263 0.134439
0.362258 0.247721 0.135571
0.391080 0.253102 0.136609
0.420292 0.258404 0.137557
0.449893 0.263626 0.138421
0.479878 0.268769 0.139205
0.510241 0.273831 0.139915
0.540973 0.276878 0.140557
0.572067 0.279845 0.141137
0.603509 0.282735 0.141664
0.635288 0.285549 0.142143
0.667388 0.288290 0.142583
0.699794 0.290959 0.142992
0.732487 0.293560 0.143379
0.765448 0.296097 0.143755
0.798654 0.298574 0.144127
0.832083 0.300996 0.144507
0.865710 0.303367 0.144906
0.899508 0.305692 0.145334
0.933449 0.307979 0.145803
0.967502 0.310233 0.146325
1.000000 0.312667 0.147562
0.116396 0.207045 0.124334
0.132608 0.213146 0.126159
0.149157 0.219197 0.127875
0.166055 0.225193 0.129482
0.183313 0.231130 0.130982
0.205455 0.237002 0.132377
0.232489 0.242807 0.133669
0.259904 0.248540 0.134863
0.287704 0.254200 0.135960
0.315891 0.259783 0.136964
0.344465 0.265288 0.137881
0.373425 0.270714 0.138715
0.402768 0.276059 0.139472
0.432488 0.281323 0.140156
0.462580 0.286506 0.140775
0.493034 0.291609 0.141335
0.523842 0.296632 0.141843
0.554991 0.301577 0.142307
0.586468 0.306446 0.142735
0.618257 0.309305 0.143135
0.650342 0.312093 0.143517
0.682704 0.314813 0.143890
0.715323 0.317469 0.144264
0.748177 0.320064 0.144649
0.781242 0.322605 0.145057
0.814493 0.325095 0.145499
0.847902 0.327540 0.145986
0.881441 0.329947 0.146531
0.915078 0.332322 0.147147
0.948782 0.334671 0.147847
0.982519 0.337003 0.148644
1.000000 0.341300 0.156638
0.125710 0.230828 0.130040
0.142360 0.236961 0.131502
0.159371 0.243033 0.132859
0.176749 0.249038 0.134115
0.194503 0.254974 0.135273
0.212637 0.260836 0.136336
0.240186 0.266623 0.137308
0.268120 0.272331 0.138194
0.296439 0.277960 0.139000
0.325140 0.283507 0.139729
0.354220 0.288973 0.140389
0.383673 0.294356 0.140985
0.413493 0.299657 0.141525
0.443671 0.304876 0.142017
0.474196 0.310014 0.142466
0.505057 0.315073 0.142883
0.536238 0.320055 0.143276
0.567724 0.324962 0.143653
0.599499 0.329797 0.144025
0.631542 0.334563 0.144402
0.663834 0.339264 0.144795
0.696351 0.341969 0.145214
0.729069 0.344619 0.145670
0.761963 0.347218 0.146177
0.795005 0.349771 0.146747
0.828164 0.352286 0.147391
0.861411 0.354769 0.148125
0.894712 0.357227 0.148961
0.928032 0.359668 0.149915
0.961337 0.362098 0.151000
0.994586 0.364528 0.152232
1.000000 0.370203 0.166866
0.134051 0.255426 0.134548
0.151171 0.261565 0.135671
0.168668 0.267630 0.136700
0.186545 0.273621 0.137641
0.204806 0.279532 0.138497
0.223450 0.285364 0.139274
0.246995 0.291113 0.139977
0.275437 0.296779 0.140613
0.304256 0.302361 0.141188
0.333446 0.307858 0.141710
0.363000 0.313271 0.142185
0.392908 0.318600 0.142621
0.423160 0.323847 0.143028
0.453742 0.329013 0.143414
0.484640 0.334100 0.143789
0.515838 0.339111 0.144162
0.547319 0.344048 0.144543
0.579061 0.348915 0.144944
0.611045 0.353716 0.145375
0.643247 0.358455 0.145848
0.675642 0.363137 0.146377
0.708204 0.367768 0.146972
0.740905 0.372353 0.147647
0.773715 0.374963 0.148417
0.806601 0.377540 0.149294
0.839532 0.380092 0.150294
0.872470 0.382625 0.151431
0.905381 0.385148 0.152721
0.938226 0.387670 0.154179
0.970963 0.390200 0.155823
1.000000 0.393131 0.159568
1.000000 0.399314 0.178415
0.141419 0.280777 0.137962
0.159038 0.286892 0.138788
0.177042 0.292926 0.139538
0.195432 0.298876 0.140216
0.214207 0.304741 0.140829
0.233363 0.310520 0.141384
0.252896 0.316212 0.141887
0.281833 0.321817 0.142348
0.311131 0.327334 0.142773
0.340783 0.332766 0.143171
0.370776 0.338113 0.143552
0.401096 0.343377 0.143924
0.431730 0.348559 0.144299
0.462660 0.353663 0.144686
0.493868 0.358691 0.145096
0.525333 0.363648 0.145542
0.557035 0.368536 0.146034
0.588950 0.373361 0.146585
0.621051 0.378127 0.147208
0.653313 0.382841 0.147916
0.685706 0.387507 0.148723
0.718200 0.392131 0.149643
0.750763 0.396722 0.150691
0.783361 0.401286 0.151882
0.815958 0.405831 0.153231
0.848518 0.408429 0.154755
0.881001 0.411025 0.156470
0.913367 0.413627 0.158394
0.945572 0.416246 0.160543
0.977573 0.418892 0.162936
1.000000 0.422520 0.171003
1.000000 0.428555 0.191382
0.147872 0.306796 0.140446
0.166015 0.312858 0.141037
0.184546 0.318833 0.141573
0.203460 0.324717 0.142060
0.222754 0.330511 0.142506
0.242419 0.336215 0.142920
0.262447 0.341829 0.143311
0.287345 0.347353 0.143688
0.317099 0.352789 0.144060
0.347181 0.358140 0.144438
0.377574 0.363406 0.144832
0.408262 0.368591 0.145254
0.439226 0.373698 0.145715
0.470444 0.378730 0.146227
0.501896 0.383692 0.146803
0.533556 0.388588 0.147455
0.565398 0.393423 0.148198
0.597397 0.398202 0.149044
0.629521 0.402932 0.150009
0.661740 0.407620 0.151107
0.694022 0.412271 0.152354
0.726332 0.416893 0.153765
0.758635 0.421494 0.155357
0.790891 0.426083 0.157146
0.823063 0.430668 0.159149
0.855108 0.435258 0.161385
0.886984 0.439863 0.163871
0.918710 0.442548 0.166548
0.950426 0.445232 0.169232
0.982139 0.447913 0.171913
1.000000 0.451895 0.183320
1.000000 0.457716 0.205019
0.153529 0.333373 0.142226
0.172219 0.339354 0.142660
0.191291 0.345240 0.143065
0.210739 0.351032 0.143449
0.230552 0.356731 0.143823
0.250720 0.362336 0.144196
0.271231 0.367850 0.144579
0.292070 0.373274 0.144982
0.322254 0.378611 0.145417
0.352732 0.383863 0.145895
0.383485 0.389033 0.146428
0.414492 0.394126 0.147031
0.445730 0.399145 0.147714
0.477175 0.404095 0.148493
0.508800 0.408982 0.149381
0.540578 0.413810 0.150393
0.572478 0.418586 0.151543
0.604469 0.423316 0.152848
0.636519 0.428008 0.154323
0.668591 0.432668 0.155984
0.700650 0.437306 0.157849
0.732658 0.441928 0.159935
0.764573 0.446544 0.162260
0.796356 0.451163 0.164840
0.828074 0.455784 0.167526
0.859789 0.460402 0.170209
0.891501 0.465017 0.172888
0.923208 0.469627 0.175563
0.954910 0.474233 0.178233
0.986612 0.476897 0.180892
1.000000 0.481143 0.196015
1.000000 0.486747 0.219011
0.158568 0.360376 0.143586
0.177825 0.366245 0.143959
0.197452 0.372015 0.144334
0.217438 0.377688 0.144723
0.237769 0.383265 0.145136
0.258432 0.388748 0.145585
0.279409 0.394140 0.146082
0.300683 0.399442 0.146639
0.326749 0.404660 0.147269
0.357586 0.409796 0.147986
0.388655 0.414855 0.148803
0.419930 0.419841 0.149734
0.451385 0.424760 0.150795
0.482991 0.429617 0.151999
0.514718 0.434418 0.153364
0.546533 0.439171 0.154905
0.578404 0.443882 0.156639
0.610295 0.448558 0.158582
0.642169 0.453208 0.160753
0.673987 0.457840 0.163169
0.705721 0.462463 0.165818
0.737438 0.467084 0.168503
0.769152 0.471701 0.171185
0.800862 0.476314 0.173862
0.832568 0.480923 0.176535
0.864268 0.485526 0.179204
0.895985 0.490125 0.181836
0.927801 0.494722 0.184327
0.959737 0.499312 0.186665
0.991804 0.503890 0.188852
1.000000 0.510313 0.208687
1.000000 0.515684 0.233003
0.163228 0.387650 0.144870
0.183068 0.393375 0.145295
0.203259 0.399000 0.145760
0.223785 0.404525 0.146277
0.244631 0.409955 0.146859
0.265776 0.415291 0.147520
0.287201 0.420537 0.148271
0.308884 0.425697 0.149128
0.330800 0.430775 0.150104
0.361956 0.435777 0.151216
0.393293 0.440707 0.152477
0.424782 0.445572 0.153904
0.456392 0.450377 0.155513
0.488091 0.455129 0.157321
0.519843 0.459835 0.159345
0.551615 0.464503 0.161603
0.583367 0.469142 0.164113
0.615086 0.473764 0.166796
0.646802 0.478383 0.169480
0.678515 0.482999 0.172160
0.710223 0.487610 0.174836
0.741927 0.492217 0.177508
0.773625 0.496819 0.180173
0.805360 0.501421 0.182761
0.837184 0.506026 0.185196
0.869108 0.510630 0.187479
0.901144 0.515226 0.189610
0.933305 0.519809 0.191590
0.965599 0.524376 0.193417
0.998038 0.528920 0.195095
1.000000 0.535773 0.221287
1.000000 0.542805 0.247039
0.167806 0.415017 0.146481
0.188243 0.420566 0.147090
0.209004 0.426014 0.147782
0.230071 0.431364 0.148570
0.251422 0.436618 0.149469
0.273036 0.441781 0.150493
0.294887 0.446858 0.151657
0.316949 0.451853 0.152976
0.339195 0.456772 0.154468
0.366112 0.461620 0.156147
0.397667 0.466404 0.158032
0.429313 0.471131 0.160139
0.461013 0.475808 0.162487
0.492733 0.480443 0.165088
0.524451 0.485064 0.167773
0.556165 0.489682 0.170456
0.587877 0.494296 0.173135
0.619583 0.498906 0.175809
0.651285 0.503511 0.178479
0.682985 0.508112 0.181133
0.714730 0.512722 0.183665
0.746545 0.517340 0.186045
0.778442 0.521962 0.188273
0.810435 0.526580 0.190348
0.842534 0.531190 0.192273
0.874751 0.535787 0.194046
0.907096 0.540366 0.195668
0.939579 0.544923 0.197140
0.972208 0.549453 0.198464
1.000000 0.554318 0.204215
1.000000 0.561237 0.233898
1.000000 0.568186 0.261210
0.172660 0.442272 0.148884
0.193704 0.447614 0.149826
0.215040 0.452854 0.150899
0.236643 0.457998 0.152118
0.258490 0.463050 0.153499
0.280554 0.468014 0.155057
0.302806 0.472897 0.156809
0.325216 0.477703 0.158773
0.347753 0.482441 0.160965
0.370384 0.487116 0.163405
0.402098 0.491743 0.166066
0.433815 0.496363 0.168750
0.465528 0.500980 0.171432
0.497238 0.505593 0.174109
0.528943 0.510201 0.176782
0.560643 0.514804 0.179449
0.592346 0.519409 0.182072
0.624086 0.524031 0.184549
0.655877 0.528667 0.186873
0.687733 0.533310 0.189046
0.719667 0.537954 0.191067
0.751692 0.542595 0.192936
0.783819 0.547226 0.194653
0.816058 0.551844 0.196221
0.848420 0.556443 0.197639
0.880913 0.561018 0.198909
0.913547 0.565567 0.200032
0.946329 0.570083 0.201010
0.979266 0.574563 0.201844
1.000000 0.579879 0.214913
1.000000 0.586683 0.246613
1.000000 0.593521 0.275620
0.178209 0.469192 0.152601
0.199868 0.474292 0.154044
0.221777 0.479293 0.155671
0.243911 0.484200 0.157498
0.266239 0.489020 0.159543
0.288732 0.493759 0.161824
0.311358 0.498422 0.164358
0.334044 0.503044 0.167044
0.356727 0.507662 0.169727
0.379407 0.512278 0.172407
0.406599 0.516889 0.175083
0.438302 0.521496 0.177754
0.470000 0.526097 0.180418
0.501700 0.530712 0.182991
0.533419 0.535351 0.185413
0.565171 0.540008 0.187682
0.596972 0.544676 0.189799
0.628835 0.549351 0.191765
0.660772 0.554025 0.193578
0.692796 0.558695 0.195242
0.724917 0.563354 0.196755
0.757146 0.567999 0.198119
0.789493 0.572623 0.199335
0.821967 0.577224 0.200405
0.854576 0.581795 0.201330
0.887328 0.586334 0.202112
0.920229 0.590836 0.202753
0.953286 0.595297 0.203255
0.986504 0.599715 0.203622
1.000000 0.605425 0.225627
1.000000 0.612080 0.259538
1.000000 0.618776 0.290380
0.184928 0.495526 0.158217
0.207206 0.500350 0.160345
0.229688 0.505079 0.162716
0.252336 0.509723 0.165336
0.275021 0.514343 0.168021
0.297703 0.518961 0.170703
0.320381 0.523575 0.173381
0.343056 0.528185 0.176056
0.365725 0.532789 0.178725
0.388387 0.537392 0.181373
0.411036 0.542024 0.183891
0.442720 0.546684 0.186256
0.474420 0.551366 0.188470
0.506152 0.556064 0.190532
0.537930 0.560772 0.192442
0.569766 0.565484 0.194201
0.601674 0.570195 0.195810
0.633665 0.574900 0.197268
0.665750 0.579593 0.198578
0.697940 0.584269 0.199741
0.730243 0.588924 0.200758
0.762670 0.593554 0.201631
0.795227 0.598154 0.202362
0.827923 0.602719 0.202952
0.860763 0.607247 0.203404
0.893754 0.611733 0.203722
0.926901 0.616173 0.203906
0.960208 0.620566 0.203960
0.993679 0.624907 0.203889
1.000000 0.630916 0.236453
1.000000 0.637385 0.272783
1.000000 0.643909 0.305610
0.193313 0.521023 0.166313
0.215998 0.525643 0.168998
0.238679 0.530259 0.171679
0.261356 0.534872 0.174356
0.284028 0.539480 0.177028
0.306695 0.544082 0.179695
0.329344 0.548695 0.182307
0.351961 0.553347 0.184769
0.374562 0.558032 0.187080
0.397164 0.562743 0.189239
0.419781 0.567475 0.191245
0.446945 0.572220 0.193100
0.478668 0.576973 0.194804
0.510448 0.581729 0.196358
0.542297 0.586482 0.197763
0.574227 0.591227 0.199019
0.606249 0.595958 0.200128
0.638372 0.600671 0.201093
0.670606 0.605361 0.201913
0.702959 0.610024 0.202593
0.735440 0.614655 0.203132
0.768056 0.619251 0.203535
0.800812 0.623808 0.203804
0.833715 0.628321 0.203941
0.866769 0.632788 0.203949
0.899978 0.637204 0.203831
0.933347 0.641569 0.203592
0.966877 0.645877 0.203234
1.000000 0.650159 0.203562
1.000000 0.656307 0.247488
1.000000 0.662553 0.286467
1.000000 0.668872 0.321439
0.202329 0.546168 0.175329
0.225000 0.550774 0.178000
0.247663 0.555375 0.180662
0.270283 0.560008 0.183221
0.292852 0.564684 0.185628
0.315390 0.569398 0.187883
0.337911 0.574142 0.189987
0.360432 0.578910 0.191938
0.382969 0.583697 0.193738
0.405534 0.588495 0.195387
0.428143 0.593299 0.196887
0.450806 0.598103 0.198237
0.482570 0.602902 0.199440
0.514413 0.607691 0.200496
0.546346 0.612465 0.201408
0.578378 0.617218 0.202177
0.610519 0.621947 0.202805
0.642777 0.626646 0.203295
0.675159 0.631312 0.203649
0.707673 0.635941 0.203869
0.740325 0.640529 0.203958
0.773120 0.645072 0.203920
0.806062 0.649566 0.203758
0.839156 0.654009 0.203475
0.872405 0.658398 0.203075
0.905812 0.662730 0.202562
0.939377 0.667001 0.201939
0.973103 0.671211 0.201211
1.000000 0.675693 0.211210
1.000000 0.681544 0.258835
1.000000 0.687528 0.300717
1.000000 0.693613 0.338001
0.211194 0.571332 0.184115
0.233702 0.576037 0.186467
0.256161 0.580784 0.188667
0.278589 0.585565 0.190715
0.301002 0.590374 0.192611
0.323414 0.595204 0.194356
0.345842 0.600050 0.195950
0.368299 0.604905 0.197395
0.390799 0.609764 0.198692
0.413354 0.614621 0.199841
0.435976 0.619470 0.200845
0.458677 0.624307 0.201704
0.485982 0.629126 0.202422
0.517901 0.633923 0.202999
0.549928 0.638693 0.203439
0.582069 0.643431 0.203744
0.614334 0.648134 0.203916
0.646728 0.652798 0.203959
0.679257 0.657418 0.203876
0.711926 0.661992 0.203669
0.744741 0.666515 0.203343
0.777704 0.670986 0.202901
0.810819 0.675400 0.202347
0.844087 0.679755 0.201686
0.877511 0.684048 0.200921
0.911092 0.688278 0.200057
0.944828 0.692441 0.199100
0.978719 0.696536 0.198053
1.000000 0.701067 0.218832
1.000000 0.706571 0.270596
1.000000 0.712255 0.315665
1.000000 0.718074 0.355443
0.219190 0.597013 0.191423
0.241481 0.601866 0.193264
0.263758 0.606745 0.194954
0.286037 0.611642 0.196494
0.308332 0.616551 0.197885
0.330657 0.621467 0.199127
0.353025 0.626385 0.200223
0.375449 0.631297 0.201174
0.397940 0.636199 0.201982
0.420508 0.641087 0.202648
0.443166 0.645954 0.203175
0.465921 0.650796 0.203566
0.488782 0.655609 0.203822
0.520790 0.660388 0.203947
0.552919 0.665129 0.203943
0.585177 0.669829 0.203814
0.617568 0.674483 0.203564
0.650098 0.679088 0.203195
0.682770 0.683641 0.202712
0.715590 0.688138 0.202119
0.748558 0.692577 0.201419
0.781677 0.696955 0.200618
0.814949 0.701269 0.199719
0.848374 0.705517 0.198729
0.881952 0.709698 0.197651
0.915681 0.713808 0.196490
0.949561 0.717847 0.195254
0.983588 0.721813 0.193946
1.000000 0.726223 0.226458
1.000000 0.731327 0.282880
1.000000 0.736671 0.331457
1.000000 0.742196 0.373923
0.226112 0.623271 0.197017
0.248234 0.628238 0.198354
0.270373 0.633215 0.199543
0.292544 0.638195 0.200586
0.314760 0.643173 0.201485
0.337032 0.648144 0.202241
0.359373 0.653101 0.202856
0.381792 0.658041 0.203333
0.404300 0.662957 0.203674
0.426906 0.667847 0.203882
0.449619 0.672704 0.203960
0.472445 0.677524 0.203911
0.495393 0.682304 0.203737
0.522984 0.687040 0.203443
0.555225 0.691728 0.203032
0.587603 0.696364 0.202509
0.620122 0.700946 0.201876
0.652787 0.705469 0.201139
0.685599 0.709932 0.200302
0.718560 0.714331 0.199369
0.751672 0.718665 0.198346
0.784935 0.722930 0.197237
0.818347 0.727125 0.196049
0.851909 0.731248 0.194786
0.885617 0.735297 0.193453
0.919471 0.739271 0.192058
0.953465 0.743169 0.190606
0.987596 0.746989 0.189103
1.000000 0.751100 0.234100
1.000000 0.755748 0.295802
1.000000 0.760714 0.348255
1.000000 0.765916 0.393621
0.231907 0.650053 0.200930
0.253905 0.655100 0.201776
0.275950 0.660141 0.202481
0.298054 0.665171 0.203046
0.320227 0.670185 0.203473
0.342481 0.675178 0.203765
0.364825 0.680145 0.203926
0.387268 0.685082 0.203957
0.409818 0.689983 0.203862
0.432483 0.694845 0.203644
0.455269 0.699664 0.203307
0.478184 0.704435 0.202855
0.501231 0.709156 0.202291
0.524415 0.713822 0.201620
0.556773 0.718431 0.200845
0.589275 0.722979 0.199973
0.621924 0.727464 0.199007
0.654721 0.731883 0.197952
0.687667 0.736233 0.196814
0.720762 0.740513 0.195597
0.754005 0.744720 0.194308
0.787396 0.748852 0.192952
0.820931 0.752908 0.191536
0.854609 0.756887 0.190065
0.888425 0.760787 0.188545
0.922375 0.764607 0.186984
0.956454 0.768346 0.185388
0.990656 0.772004 0.183764
1.000000 0.775639 0.241747
1.000000 0.779770 0.309487
1.000000 0.784317 0.366244
1.000000 0.789169 0.414741
0.236547 0.677297 0.203217
0.258467 0.682388 0.203595
0.280459 0.687459 0.203839
0.302534 0.692506 0.203952
0.324702 0.697523 0.203936
0.346970 0.702507 0.203796
0.369347 0.707452 0.203535
0.391840 0.712355 0.203155
0.414456 0.717211 0.202662
0.437201 0.722017 0.202059
0.460079 0.726769 0.201349
0.483095 0.731464 0.200539
0.506253 0.736098 0.199632
0.529555 0.740668 0.198633
0.557519 0.745173 0.197547
0.590148 0.749608 0.196379
0.622925 0.753972 0.195136
0.655851 0.758262 0.193822
0.688923 0.762477 0.192443
