omv/luts/32_underworld_embers.cube
# Original OMV LUT; redistribution permitted with OMV.
TITLE "Underworld Embers"
LUT_3D_SIZE 8
DOMAIN_MIN 0.000000 0.000000 0.000000
DOMAIN_MAX 0.903226 0.903226 0.903226
0.016000 0.029000 0.035000
0.107799 0.040799 0.046799
0.200681 0.053681 0.059681
0.294359 0.067346 0.073344
0.390875 0.081221 0.086874
0.492896 0.094553 0.099334
0.601660 0.106909 0.110373
0.717969 0.117977 0.119767
0.059494 0.100915 0.078366
0.136759 0.123290 0.091555
0.235346 0.145767 0.103532
0.338740 0.160075 0.113992
0.448055 0.173551 0.122754
0.563965 0.185909 0.129759
0.686706 0.196984 0.135067
0.816074 0.206732 0.138857
0.106171 0.184115 0.117384
0.171307 0.208043 0.125507
0.278137 0.231125 0.131881
0.391080 0.253102 0.136609
0.510241 0.273831 0.139915
0.635288 0.285549 0.142143
0.765448 0.296097 0.143755
0.899508 0.305692 0.145334
0.141419 0.280777 0.137962
0.214207 0.304741 0.140829
0.311131 0.327334 0.142773
0.431730 0.348559 0.144299
0.557035 0.368536 0.146034
0.685706 0.387507 0.148723
0.815958 0.405831 0.153231
0.945572 0.416246 0.160543
0.163228 0.387650 0.144870
0.244631 0.409955 0.146859
0.330800 0.430775 0.150104
0.456392 0.450377 0.155513
0.583367 0.469142 0.164113
0.710223 0.487610 0.174836
0.837184 0.506026 0.185196
0.965599 0.524376 0.193417
0.184928 0.495526 0.158217
0.275021 0.514343 0.168021
0.365725 0.532789 0.178725
0.474420 0.551366 0.188470
0.601674 0.570195 0.195810
0.730243 0.588924 0.200758
0.860763 0.607247 0.203404
0.993679 0.624907 0.203889
0.219190 0.597013 0.191423
0.308332 0.616551 0.197885
0.397940 0.636199 0.201982
0.488782 0.655609 0.203822
0.617568 0.674483 0.203564
0.748558 0.692577 0.201419
0.881952 0.709698 0.197651
1.000000 0.726223 0.226458
0.240031 0.704929 0.203961
0.328177 0.725114 0.202989
0.418203 0.744567 0.200220
0.510442 0.763053 0.195935
0.623104 0.780390 0.190470
0.756143 0.796448 0.184208
0.891259 0.811146 0.177588
1.000000 0.823458 0.256845
0.019820 0.032820 0.072369
0.094013 0.045078 0.089787
0.187176 0.058240 0.108111
0.281350 0.072087 0.121993
0.379273 0.085834 0.136082
0.482890 0.098877 0.149789
0.593342 0.110824 0.162666
0.711327 0.121406 0.174389
0.064345 0.113577 0.121972
0.124047 0.136053 0.141143
0.223449 0.150697 0.154592
0.327871 0.164762 0.167080
0.438326 0.177884 0.178327
0.555386 0.189819 0.188173
0.679186 0.200442 0.196579
0.809421 0.209750 0.203627
0.110403 0.197427 0.171329
0.176246 0.221105 0.182078
0.265852 0.243835 0.191398
0.379666 0.265398 0.199295
0.499628 0.277950 0.205892
0.625304 0.289254 0.211433
0.755818 0.299448 0.216284
0.889858 0.308791 0.220927
0.144129 0.294177 0.201836
0.217756 0.317683 0.208015
0.297406 0.339805 0.213257
0.418642 0.360586 0.217969
0.544332 0.380189 0.222679
0.673031 0.398893 0.228033
0.802856 0.409359 0.234796
0.931483 0.419848 0.243854
0.165067 0.400515 0.219653
0.247363 0.422294 0.224516
0.334193 0.442665 0.230288
0.442047 0.461933 0.237778
0.568952 0.480532 0.247758
0.695786 0.498980 0.258464
0.823021 0.517391 0.268418
0.951954 0.535655 0.276379
0.188093 0.507168 0.241109
0.278663 0.525728 0.251663
0.369334 0.544162 0.262302
0.459926 0.562863 0.271552
0.587306 0.581696 0.278770
0.716128 0.600319 0.283951
0.846981 0.618442 0.287141
0.980266 0.635828 0.288436
0.222118 0.608725 0.274417
0.311040 0.628343 0.280891
0.400606 0.647946 0.285339
0.491541 0.667205 0.287825
0.602445 0.685839 0.288465
0.733664 0.703621 0.287428
0.867290 0.720377 0.284934
1.000000 0.736065 0.287074
0.241116 0.716962 0.288264
0.329301 0.736928 0.288271
0.419466 0.756076 0.286675
0.511900 0.774190 0.283716
0.606703 0.791105 0.279683
0.739916 0.806707 0.274920
0.875129 0.820935 0.269821
1.000000 0.833220 0.300419
0.023861 0.036861 0.109958
0.080328 0.049457 0.127715
0.173756 0.062885 0.146304
0.268725 0.076805 0.165784
0.368029 0.090364 0.186132
0.473202 0.103073 0.201544
0.585280 0.114581 0.216636
0.704863 0.124659 0.230985
0.069220 0.126297 0.160925
0.129447 0.141064 0.181426
0.211604 0.155559 0.201939
0.317042 0.169339 0.221965
0.428606 0.182079 0.235962
0.546768 0.193576 0.248835
0.671560 0.203747 0.260445
0.802575 0.212628 0.270774
0.114497 0.210669 0.216855
0.181063 0.234057 0.235627
0.253443 0.256409 0.253211
0.368108 0.269804 0.264351
0.488833 0.281925 0.274233
0.615080 0.292830 0.283002
0.745875 0.302700 0.290922
0.879798 0.311833 0.298379
0.146696 0.307425 0.262928
0.221171 0.330464 0.277543
0.301601 0.352120 0.285966
0.405382 0.372477 0.293667
0.531410 0.391737 0.301073
0.660074 0.402479 0.308731
0.789388 0.412889 0.317307
0.917076 0.423496 0.327496
0.166915 0.413196 0.296371
0.250106 0.434470 0.303799
0.337579 0.454426 0.311708
0.427658 0.473410 0.320808
0.554530 0.491917 0.331401
0.681356 0.510343 0.342058
0.808972 0.528738 0.351655
0.938411 0.539142 0.359612
0.191575 0.518639 0.324575
0.282299 0.537105 0.335299
0.372891 0.555587 0.345735
0.463455 0.574375 0.354746
0.572905 0.593172 0.362087
0.701978 0.611655 0.367709
0.833155 0.629552 0.371615
0.966794 0.646643 0.373860
0.224867 0.620479 0.357616
0.313596 0.640132 0.364334
0.403140 0.659653 0.369328
0.494179 0.678728 0.372621
0.587206 0.697096 0.374285
0.718650 0.714547 0.374446
0.852495 0.730923 0.373281
0.988663 0.746118 0.371021
0.242018 0.728932 0.373409
0.330268 0.748647 0.374509
0.420588 0.767466 0.374164
0.513225 0.785189 0.372572
0.608235 0.801667 0.369979
0.723549 0.816807 0.366688
0.858844 0.830564 0.363048
0.995542 0.842945 0.359464
0.028034 0.041034 0.147679
0.084802 0.053931 0.165738
0.160429 0.067609 0.184589
0.256441 0.081478 0.205014
0.357103 0.094796 0.226956
0.463788 0.107130 0.249650
0.577432 0.118172 0.272452
0.698534 0.127735 0.289679
0.074095 0.131310 0.200668
0.134869 0.146041 0.222966
0.199788 0.160338 0.245767
0.306229 0.173795 0.268473
0.418871 0.186130 0.290605
0.538084 0.197180 0.311808
0.663799 0.206903 0.326683
0.795507 0.215375 0.340273
0.118444 0.223824 0.264416
0.185750 0.246888 0.286246
0.258966 0.261100 0.307045
0.356397 0.274063 0.326621
0.477845 0.285758 0.344899
0.604607 0.296286 0.356764
0.735604 0.305866 0.367542
0.869318 0.314838 0.377519
0.149129 0.320517 0.321224
0.224460 0.343084 0.339035
0.305659 0.364284 0.355640
0.391957 0.384240 0.371249
0.518276 0.395452 0.381027
0.646838 0.406026 0.390585
0.775557 0.416444 0.400490
0.902655 0.427139 0.411139
0.168796 0.425698 0.364543
0.252881 0.446493 0.379344
0.340979 0.466074 0.394118
0.431312 0.484828 0.404312
0.540102 0.503295 0.415037
0.667013 0.521711 0.425556
0.795020 0.532315 0.435044
0.924949 0.542566 0.443235
0.195223 0.530029 0.403061
0.285925 0.548474 0.418925
0.376381 0.567057 0.429151
0.466933 0.585888 0.438183
0.558460 0.604612 0.445871
0.687782 0.622924 0.452124
0.819274 0.640569 0.456901
0.953250 0.657346 0.460215
0.227432 0.632259 0.441144
0.315997 0.651906 0.448317
0.405538 0.671308 0.454034
0.496693 0.690170 0.458274
0.589910 0.708247 0.461069
0.703510 0.725348 0.462500
0.837562 0.741332 0.462702
0.973880 0.756112 0.461862
0.242743 0.740826 0.459456
0.331080 0.760262 0.461741
0.421572 0.778729 0.462707
0.514420 0.796043 0.462505
0.609636 0.812075 0.461343
0.707044 0.826748 0.459476
0.842405 0.840034 0.457214
0.979033 0.851959 0.454917
0.032318 0.045318 0.185511
0.089366 0.058495 0.203850
0.147351 0.072349 0.223196
0.244458 0.086087 0.245123
0.346452 0.099113 0.269110
0.454606 0.111036 0.294295
0.569755 0.121591 0.319936
0.692296 0.130631 0.345413
0.078948 0.136331 0.241463
0.140293 0.150968 0.265980
0.206042 0.165019 0.291411
0.295406 0.178120 0.317057
0.409094 0.190031 0.342344
0.529307 0.200629 0.366814
0.655877 0.209913 0.390132
0.788190 0.218000 0.412080
0.122239 0.236880 0.314130
0.190300 0.251848 0.339166
0.264348 0.265646 0.363249
0.344524 0.278174 0.386087
0.466655 0.289456 0.407507
0.593873 0.299631 0.427454
0.724996 0.308960 0.445996
0.858404 0.317824 0.458156
0.151436 0.333450 0.381853
0.227631 0.355546 0.402737
0.309588 0.376304 0.422159
0.396438 0.388144 0.440228
0.504935 0.399093 0.457175
0.633330 0.409554 0.473346
0.761368 0.420050 0.484049
0.888227 0.430776 0.494776
0.170734 0.438028 0.434311
0.255713 0.458375 0.450928
0.344417 0.477626 0.466927
0.434960 0.496218 0.482799
0.525664 0.514664 0.498664
0.652754 0.525333 0.509079
0.781145 0.535850 0.518712
0.911551 0.545919 0.527354
0.198865 0.541413 0.476381
0.289521 0.559848 0.492206
0.379795 0.578556 0.507527
0.470349 0.597388 0.521982
0.562023 0.616004 0.530223
0.673529 0.634115 0.537277
0.805327 0.651485 0.543061
0.939623 0.660188 0.547544
0.229813 0.644051 0.514790
0.318240 0.663651 0.527773
0.407797 0.682900 0.539532
0.499079 0.701520 0.544843
0.592489 0.719285 0.548856
0.688240 0.736019 0.551609
0.822487 0.751602 0.553196
0.958933 0.765961 0.553759
0.243293 0.752635 0.541292
0.331742 0.771765 0.550000
0.422421 0.789858 0.552316
0.515488 0.806749 0.553510
0.610911 0.822326 0.553747
0.708469 0.836528 0.553240
0.825815 0.849346 0.552255
0.962349 0.860824 0.551111
0.036703 0.049703 0.223445
0.094016 0.063145 0.242048
0.152607 0.077065 0.262448
0.232737 0.090612 0.286366
0.336038 0.103301 0.312807
0.445617 0.114784 0.340811
0.562209 0.124834 0.369537
0.686108 0.133348 0.398267
0.083759 0.141340 0.283551
0.145695 0.155826 0.310667
0.212278 0.169589 0.339024
0.284552 0.182307 0.367829
0.399252 0.193780 0.396405
0.520415 0.203926 0.424197
0.647768 0.212784 0.450770
0.780599 0.220512 0.475808
0.125877 0.242084 0.366089
0.194708 0.256673 0.394438
0.269585 0.270044 0.421830
0.350547 0.282141 0.447874
0.455256 0.293025 0.472298
0.582870 0.302878 0.494949
0.714041 0.312000 0.515793
0.847048 0.320813 0.534917
0.153630 0.346222 0.444763
0.230694 0.367853 0.468553
0.313398 0.380445 0.490543
0.400770 0.391945 0.510745
0.491397 0.402677 0.529287
0.619556 0.413085 0.546419
0.746956 0.423698 0.562536
0.873791 0.434404 0.578404
0.172758 0.450195 0.505475
0.258630 0.470129 0.523469
0.347920 0.489099 0.540173
0.438603 0.507603 0.556119
0.529292 0.518285 0.571958
0.638561 0.528938 0.587603
0.767331 0.539333 0.602777
0.898198 0.549191 0.612071
0.202500 0.552790 0.549694
0.293014 0.571277 0.565489
0.383123 0.590068 0.580995
0.473694 0.608862 0.595933
0.565521 0.627337 0.610075
0.659209 0.645220 0.623242
0.791303 0.654552 0.630150
0.925900 0.662907 0.635885
0.232006 0.655840 0.588982
0.320322 0.675355 0.602787
0.409914 0.694419 0.615567
0.501334 0.712772 0.627214
0.594940 0.730203 0.637675
0.690902 0.746558 0.641785
0.807265 0.761730 0.644755
0.943820 0.775668 0.646685
0.243674 0.764348 0.618960
0.332259 0.783148 0.628985
0.423140 0.800849 0.637833
0.516433 0.817303 0.645571
0.612062 0.832417 0.647158
0.709762 0.846148 0.647927
0.809077 0.858504 0.648100
0.945492 0.869546 0.647954
0.041182 0.054182 0.261472
0.098755 0.067872 0.280363
0.158097 0.081735 0.302627
0.221242 0.095038 0.328980
0.325823 0.107350 0.358240
0.436783 0.118366 0.389347
0.554754 0.127900 0.421362
0.679930 0.135888 0.453466
0.088508 0.146316 0.327153
0.151058 0.160600 0.357202
0.218478 0.174038 0.388741
0.291710 0.186350 0.420877
0.389324 0.197375 0.452835
0.511384 0.207073 0.483960
0.639450 0.215524 0.513718
0.772709 0.222926 0.541694
0.129357 0.247166 0.420368
0.198970 0.261355 0.452092
0.274671 0.274295 0.482775
0.356397 0.285967 0.511926
0.443642 0.296474 0.539173
0.571592 0.306039 0.564265
0.702732 0.315003 0.587068
0.835240 0.323828 0.607570
0.155722 0.358834 0.509880
0.233663 0.372267 0.536366
0.317101 0.384459 0.560633
0.404963 0.395656 0.582594
0.495734 0.406222 0.602278
0.605526 0.416642 0.619835
0.732534 0.427341 0.635857
0.859373 0.438017 0.651705
0.174895 0.462210 0.577817
0.261658 0.481772 0.596703
0.351514 0.500514 0.613546
0.442239 0.511239 0.629432
0.532963 0.521912 0.645296
0.624418 0.532512 0.661258
0.753559 0.542754 0.677027
0.884874 0.552374 0.692314
0.206126 0.564158 0.622997
0.296391 0.582749 0.638907
0.386357 0.601580 0.654836
0.476957 0.620299 0.670461
0.568944 0.638601 0.685510
0.662876 0.648490 0.699764
0.777192 0.657506 0.713054
0.912072 0.665501 0.725264
0.234010 0.667612 0.663817
0.322241 0.687007 0.678600
0.411888 0.705856 0.692519
0.503455 0.723916 0.705427
0.597259 0.740997 0.717225
0.693427 0.756960 0.727868
0.791893 0.771716 0.737362
0.928534 0.777489 0.740604
0.243892 0.775958 0.697652
0.332634 0.794404 0.709032
0.423734 0.811695 0.719254
0.517260 0.827702 0.728341
0.613094 0.842349 0.736372
0.710926 0.855609 0.743475
0.810258 0.867509 0.744669
0.928466 0.878128 0.745348
0.045751 0.058751 0.299589
0.103658 0.072611 0.319288
0.163787 0.086340 0.343991
0.228001 0.099348 0.373182
0.315771 0.111248 0.405582
0.428066 0.121775 0.440032
0.547353 0.130786 0.475494
0.673723 0.138256 0.511052
0.093179 0.151239 0.372468
0.156363 0.165275 0.405742
0.224621 0.178356 0.440675
0.298796 0.190243 0.476271
0.379289 0.200816 0.511660
0.502193 0.210076 0.546085
0.630901 0.218142 0.578915
0.764498 0.225254 0.609633
0.132675 0.252119 0.477020
0.203084 0.265893 0.512138
0.279605 0.278398 0.546050
0.362070 0.289657 0.578164
0.449873 0.299813 0.608010
0.560033 0.309130 0.635237
0.691064 0.317989 0.659612
0.822974 0.326893 0.681024
0.157729 0.363545 0.577112
0.236551 0.376536 0.606039
0.320709 0.388357 0.632248
0.409029 0.399293 0.655551
0.499895 0.409750 0.675879
0.591250 0.420251 0.693282
0.718106 0.430977 0.709171
0.845134 0.441591 0.725092
0.177177 0.474084 0.651094
0.264828 0.493318 0.670345
0.355162 0.504162 0.686872
0.445865 0.514865 0.702736
0.536666 0.525533 0.718814
0.628373 0.536044 0.735323
0.739814 0.546102 0.751885
0.871561 0.555460 0.768166
0.209704 0.575535 0.696315
0.299645 0.594248 0.712593
0.389488 0.613079 0.729164
0.480132 0.631688 0.745659
0.572283 0.642046 0.761765
0.666457 0.651658 0.777219
0.762984 0.660342 0.791809
0.898129 0.667964 0.805377
0.235825 0.679356 0.739381
0.323998 0.698595 0.755278
0.413716 0.717201 0.770439
0.505441 0.734948 0.784673
0.599446 0.751662 0.797839
0.695813 0.767222 0.809850
0.794434 0.773816 0.820668
0.913075 0.779168 0.830309
0.243952 0.787454 0.777394
0.332876 0.805526 0.790147
0.424207 0.822393 0.801725
0.517974 0.837944 0.812110
0.614012 0.852120 0.821337
0.711968 0.864912 0.829491
0.811300 0.876366 0.836710
0.911274 0.886577 0.843183
