omv/luts/33_subterranean_survival.cube
# Original OMV LUT; redistribution permitted with OMV.
TITLE "Subterranean Survival"
LUT_3D_SIZE 8
DOMAIN_MIN 0.000000 0.000000 0.000000
DOMAIN_MAX 0.903226 0.903226 0.903226
0.000000 0.026182 0.039273
0.098941 0.036747 0.052747
0.203035 0.046648 0.062648
0.307911 0.057319 0.073319
0.415218 0.068128 0.084033
0.527243 0.078337 0.094005
0.645116 0.087572 0.102881
0.769583 0.095570 0.110422
0.029345 0.109127 0.077279
0.117453 0.125731 0.087771
0.226346 0.142315 0.097378
0.339370 0.153260 0.105790
0.457547 0.163380 0.112808
0.581511 0.172436 0.118341
0.711501 0.180301 0.122410
0.847368 0.186950 0.125138
0.064576 0.199935 0.108513
0.139396 0.217610 0.114995
0.255223 0.234472 0.119988
0.376446 0.250305 0.123548
0.503193 0.265002 0.125841
0.635197 0.273400 0.127139
0.771801 0.280768 0.127821
0.911954 0.287318 0.128374
0.088234 0.301917 0.124517
0.169702 0.319498 0.126411
0.274671 0.335858 0.127435
0.402758 0.351017 0.128009
0.535127 0.365103 0.128656
0.670612 0.378350 0.130011
0.807654 0.391099 0.132812
0.944304 0.398639 0.137905
0.099696 0.412836 0.128205
0.189032 0.429019 0.129031
0.282747 0.443945 0.130821
0.415690 0.457869 0.134353
0.550057 0.471154 0.140512
0.684415 0.484221 0.148414
0.818804 0.497206 0.156048
0.954095 0.510203 0.162441
0.112091 0.525192 0.136241
0.209720 0.538558 0.143397
0.307913 0.551590 0.151267
0.424318 0.564625 0.158536
0.559456 0.577766 0.164430
0.695380 0.590861 0.169006
0.832147 0.603774 0.172345
0.969760 0.616380 0.174543
0.138046 0.632136 0.160839
0.236652 0.645480 0.166245
0.335756 0.658819 0.170360
0.435453 0.672005 0.173271
0.571914 0.684904 0.175082
0.709000 0.697395 0.175909
0.846644 0.709375 0.175886
0.984728 0.720755 0.175163
0.164305 0.740493 0.174052
0.263361 0.753704 0.175490
0.362904 0.766504 0.175991
0.462906 0.778778 0.175696
0.581353 0.790424 0.174758
0.718110 0.801359 0.173347
0.854926 0.811514 0.171648
0.991559 0.820834 0.169862
0.000000 0.030479 0.103481
0.084142 0.040013 0.115367
0.188516 0.050193 0.124258
0.293830 0.061029 0.135159
0.402323 0.071683 0.146450
0.515711 0.081598 0.157597
0.635040 0.090437 0.168164
0.760961 0.097975 0.177823
0.033119 0.118143 0.140544
0.103544 0.134799 0.150550
0.213106 0.146105 0.161531
0.326999 0.156803 0.171799
0.446156 0.166583 0.181068
0.571119 0.175244 0.189159
0.702038 0.182693 0.196003
0.838672 0.188943 0.201637
0.067609 0.209419 0.175301
0.143026 0.226849 0.184156
0.241514 0.243381 0.191795
0.363502 0.258835 0.198189
0.490961 0.267979 0.203413
0.623535 0.276010 0.207652
0.760474 0.283070 0.211196
0.900639 0.289410 0.214443
0.089834 0.311430 0.200219
0.172053 0.328601 0.205057
0.259673 0.344545 0.209004
0.388353 0.359320 0.212388
0.521100 0.373089 0.215646
0.656656 0.386123 0.219324
0.793373 0.393640 0.224070
0.929210 0.401284 0.230643
0.100566 0.421893 0.213562
0.190738 0.437627 0.216905
0.285093 0.452179 0.220890
0.400322 0.465839 0.226208
0.534687 0.479010 0.233526
0.669012 0.492044 0.241399
0.803605 0.505031 0.248742
0.939212 0.518010 0.254831
0.114318 0.533252 0.228628
0.212404 0.546404 0.236404
0.310572 0.559405 0.244212
0.409090 0.572492 0.251103
0.544418 0.585634 0.256741
0.680525 0.598682 0.261180
0.817455 0.611503 0.264490
0.955201 0.623981 0.266756
0.140760 0.640067 0.253298
0.239441 0.653427 0.258493
0.338628 0.666730 0.262512
0.438405 0.679833 0.265431
0.556866 0.692605 0.267340
0.693987 0.704934 0.268346
0.831627 0.716719 0.268571
0.969653 0.727879 0.268150
0.166789 0.748426 0.266238
0.265852 0.761512 0.267805
0.365390 0.774145 0.268512
0.465361 0.786216 0.268484
0.565675 0.797630 0.267865
0.702314 0.808307 0.266813
0.838949 0.818183 0.265500
0.975326 0.827210 0.264115
0.001769 0.033769 0.171060
0.069445 0.043381 0.179381
0.174080 0.053822 0.188531
0.280066 0.064705 0.198588
0.389726 0.075153 0.209641
0.504445 0.084734 0.222370
0.625177 0.093151 0.234960
0.752487 0.100215 0.246996
0.036891 0.127198 0.205580
0.107720 0.138683 0.216841
0.199896 0.149824 0.228284
0.314651 0.160240 0.239424
0.434764 0.169657 0.251178
0.560685 0.177911 0.261988
0.692476 0.184946 0.271698
0.829803 0.190812 0.280255
0.070506 0.218832 0.246378
0.146537 0.235984 0.256523
0.227689 0.252164 0.265655
0.350428 0.262069 0.274946
0.478568 0.270826 0.283092
0.611665 0.278506 0.290189
0.748876 0.285289 0.296440
0.888972 0.291460 0.302154
0.091306 0.320806 0.279331
0.174286 0.337561 0.285789
0.262619 0.353096 0.292549
0.373806 0.367506 0.298563
0.506892 0.380990 0.304179
0.642466 0.388694 0.309853
0.778787 0.396194 0.316147
0.913848 0.403977 0.323655
0.101456 0.430791 0.300632
0.192468 0.446097 0.306211
0.287450 0.460308 0.312040
0.384940 0.473752 0.318719
0.519308 0.486856 0.326534
0.653611 0.499856 0.334352
0.788501 0.512855 0.341359
0.924406 0.520639 0.347225
0.116853 0.541175 0.321498
0.215077 0.554238 0.329400
0.313281 0.567242 0.337037
0.411973 0.580365 0.343625
0.529413 0.593491 0.349083
0.665688 0.606476 0.353451
0.802766 0.619193 0.356788
0.940625 0.631529 0.359168
0.143474 0.648009 0.345741
0.242224 0.661367 0.350796
0.341486 0.674618 0.354782
0.441332 0.687622 0.357761
0.541780 0.700256 0.359812
0.678921 0.712410 0.361030
0.816538 0.723992 0.361524
0.954486 0.734922 0.361417
0.169224 0.756322 0.358611
0.268288 0.769267 0.360347
0.367811 0.781721 0.361287
0.467740 0.793579 0.361547
0.567972 0.804751 0.361257
0.686412 0.815162 0.360562
0.822847 0.824754 0.359624
0.958947 0.833484 0.358618
0.004925 0.036925 0.234861
0.072907 0.046843 0.243488
0.159731 0.057525 0.252894
0.266583 0.068327 0.263870
0.377391 0.078521 0.276413
0.493406 0.087735 0.289799
0.615491 0.095708 0.303415
0.744122 0.102290 0.318051
0.040640 0.131109 0.271346
0.111897 0.142526 0.284274
0.186694 0.153459 0.297808
0.302303 0.163560 0.311378
0.423347 0.172596 0.324522
0.550187 0.180437 0.336884
0.682791 0.187064 0.349509
0.820738 0.192563 0.360967
0.073260 0.228161 0.319284
0.149925 0.245005 0.332179
0.231806 0.255657 0.344190
0.337215 0.265170 0.355110
0.466006 0.273548 0.364839
0.599577 0.280898 0.374675
0.736997 0.287436 0.383440
0.876943 0.293483 0.391355
0.092658 0.330043 0.361843
0.176411 0.346380 0.371134
0.265450 0.361517 0.379271
0.359122 0.375584 0.386405
0.492510 0.383657 0.394087
0.628047 0.391240 0.401393
0.763901 0.398784 0.408796
0.898470 0.406663 0.416663
0.102387 0.439536 0.391851
0.194245 0.454441 0.398058
0.289842 0.468349 0.404048
0.387626 0.481626 0.411626
0.503917 0.494691 0.419530
0.638298 0.507676 0.427202
0.773481 0.515511 0.433943
0.909666 0.523247 0.439658
0.119546 0.549030 0.415804
0.217737 0.562060 0.422382
0.316037 0.575097 0.429775
0.414892 0.588239 0.436141
0.514432 0.601332 0.441489
0.650861 0.614240 0.445847
0.788069 0.626839 0.449263
0.926023 0.639023 0.451796
0.146183 0.655957 0.438205
0.244995 0.669295 0.443188
0.344323 0.682477 0.447197
0.444227 0.695368 0.450283
0.544713 0.707851 0.452514
0.663795 0.719820 0.453970
0.801371 0.731189 0.454750
0.939222 0.741883 0.454966
0.171606 0.764175 0.451190
0.270664 0.776966 0.453129
0.370163 0.789228 0.454327
0.470039 0.800862 0.454888
0.570174 0.811783 0.454929
0.670399 0.821923 0.454586
0.806616 0.831226 0.454006
0.942419 0.839655 0.453354
0.008197 0.040197 0.298777
0.076457 0.050392 0.307683
0.145586 0.061234 0.317566
0.253347 0.071878 0.329960
0.365283 0.081775 0.344392
0.482557 0.090591 0.360052
0.605945 0.098103 0.376240
0.735829 0.104198 0.392368
0.044348 0.135015 0.338074
0.116056 0.146313 0.353041
0.191547 0.156996 0.368968
0.289935 0.166757 0.385197
0.411885 0.175396 0.401177
0.539601 0.182821 0.416465
0.672962 0.189050 0.430727
0.811454 0.194206 0.443735
0.075868 0.237395 0.394119
0.153183 0.248746 0.409893
0.235794 0.259017 0.424841
0.323859 0.268140 0.438667
0.453268 0.276151 0.451182
0.587265 0.283195 0.462305
0.724828 0.289525 0.472061
0.864542 0.295499 0.481873
0.093899 0.339138 0.446432
0.178436 0.355059 0.458444
0.268176 0.369813 0.469061
0.362375 0.378404 0.478347
0.477960 0.386267 0.486472
0.613404 0.393781 0.493717
0.748719 0.401433 0.501754
0.883080 0.409338 0.509660
0.103385 0.448136 0.484477
0.196090 0.462668 0.492244
0.292290 0.476316 0.499257
0.390320 0.489482 0.505933
0.488514 0.502514 0.512514
0.623075 0.510340 0.519976
0.758536 0.518156 0.526530
0.894982 0.525828 0.532165
0.122230 0.556875 0.511391
0.220395 0.569875 0.517911
0.318833 0.582965 0.523759
0.417840 0.596106 0.528688
0.517533 0.609151 0.533990
0.636036 0.621967 0.538394
0.773358 0.634437 0.541933
0.911388 0.641296 0.544656
0.148880 0.663903 0.533304
0.247747 0.677204 0.536986
0.347133 0.690302 0.539780
0.447085 0.703067 0.543016
0.547595 0.715386 0.545457
0.648602 0.727161 0.547174
0.786121 0.738308 0.548253
0.923855 0.748760 0.548793
0.173933 0.771980 0.545284
0.272977 0.784603 0.546162
0.372443 0.796663 0.547636
0.472253 0.808063 0.548506
0.572278 0.818726 0.548878
0.672336 0.828587 0.548874
0.790253 0.837597 0.548631
0.925738 0.845723 0.548302
0.011570 0.043570 0.362796
0.080090 0.054025 0.371961
0.149722 0.064907 0.382843
0.240322 0.075342 0.397086
0.353367 0.084904 0.413767
0.471866 0.093297 0.431989
0.596503 0.100335 0.450966
0.727572 0.105941 0.470019
0.047997 0.138897 0.405977
0.120180 0.150028 0.423317
0.196370 0.160427 0.441899
0.277529 0.169823 0.460976
0.400358 0.178055 0.479910
0.528908 0.185067 0.498169
0.662966 0.190912 0.515330
0.801928 0.195750 0.531078
0.078327 0.241362 0.470967
0.156308 0.252361 0.489710
0.239650 0.262245 0.507613
0.328418 0.270980 0.524291
0.440349 0.278641 0.539466
0.574722 0.285409 0.552968
0.712362 0.291572 0.564734
0.851763 0.297526 0.574808
0.095042 0.348090 0.533051
0.180372 0.363603 0.547631
0.270805 0.372831 0.560503
0.365508 0.381139 0.571643
0.463252 0.388836 0.581133
0.598547 0.396336 0.589162
0.733352 0.404126 0.596062
0.867677 0.412000 0.602645
0.104474 0.456600 0.578331
0.198030 0.470793 0.587262
0.294818 0.484226 0.594828
0.393005 0.497327 0.601521
0.491178 0.505165 0.608051
0.607932 0.513002 0.614008
0.743655 0.520784 0.619158
0.880344 0.528379 0.624775
0.124902 0.564709 0.606967
0.223089 0.577713 0.613362
0.321661 0.590838 0.619028
0.420811 0.603963 0.623879
0.520643 0.616944 0.627906
0.621205 0.629655 0.631115
0.758624 0.636821 0.634818
0.896711 0.643508 0.637761
0.151561 0.671843 0.628491
0.250477 0.685091 0.632219
0.349912 0.698089 0.635135
0.449899 0.710715 0.637265
0.550421 0.722859 0.638654
0.651402 0.734429 0.640648
0.770781 0.745347 0.642031
0.908378 0.755550 0.642892
0.176201 0.779732 0.640904
0.275224 0.792176 0.642036
0.374646 0.804021 0.642508
0.474379 0.815179 0.642400
0.574281 0.825576 0.643096
0.674155 0.835152 0.643415
0.773753 0.843865 0.643482
0.908900 0.851686 0.643437
0.015037 0.047037 0.426908
0.083806 0.057731 0.436351
0.154044 0.068526 0.448973
0.227479 0.078704 0.465458
0.341612 0.087897 0.484710
0.461298 0.095845 0.505743
0.587132 0.102400 0.527685
0.719316 0.107522 0.549768
0.051572 0.142738 0.475251
0.124251 0.153657 0.495260
0.201147 0.163741 0.516719
0.283131 0.172754 0.538795
0.388749 0.180573 0.560761
0.518089 0.187177 0.581997
0.652785 0.192657 0.601991
0.792141 0.197209 0.620339
0.080635 0.245216 0.549890
0.159299 0.255846 0.571656
0.243371 0.265338 0.592494
0.332825 0.273695 0.611930
0.427243 0.281028 0.629599
0.561944 0.287553 0.645243
0.699594 0.293595 0.658709
0.838599 0.299586 0.669953
0.096099 0.356901 0.621634
0.182231 0.366855 0.638590
0.273351 0.375743 0.653452
0.368533 0.383803 0.666109
0.466460 0.391381 0.676554
0.583484 0.398929 0.684887
0.717973 0.406812 0.691650
0.852280 0.414649 0.698188
0.105682 0.464936 0.673215
0.200091 0.478829 0.682874
0.297453 0.492098 0.690485
0.395678 0.500000 0.697097
0.493918 0.507824 0.703523
0.592861 0.515658 0.709336
0.728828 0.523390 0.714440
0.865743 0.530895 0.718808
0.127561 0.572529 0.702529
0.225817 0.585570 0.708769
0.324513 0.598711 0.714328
0.423795 0.611802 0.719167
0.523754 0.624705 0.723263
0.624426 0.632137 0.726612
0.743860 0.639150 0.729223
0.881984 0.645655 0.731120
0.154220 0.679770 0.723795
0.253178 0.692948 0.727619
0.352652 0.705833 0.730698
0.452665 0.718306 0.733045
0.553184 0.730265 0.734692
0.654124 0.741622 0.735684
0.755346 0.752303 0.736083
0.892786 0.757091 0.737256
0.178406 0.787427 0.736774
0.277401 0.799679 0.738176
0.376770 0.811300 0.738945
0.476414 0.822207 0.739146
0.576177 0.832331 0.738863
0.675852 0.841618 0.738192
0.775177 0.850031 0.738537
0.891901 0.857545 0.738735
0.018591 0.050591 0.491108
0.087650 0.061438 0.501309
0.158521 0.072072 0.516185
0.232850 0.081952 0.535267
0.329986 0.090745 0.557371
0.450823 0.098231 0.581427
0.577800 0.104299 0.606471
0.711030 0.108944 0.631650
0.055058 0.146521 0.546074
0.128255 0.157189 0.569007
0.205862 0.166930 0.593528
0.288660 0.175547 0.618715
0.377039 0.182949 0.643752
0.507127 0.189156 0.667931
0.642401 0.194294 0.690653
0.782074 0.198594 0.711424
0.082794 0.248949 0.630937
0.162155 0.259200 0.655738
0.246956 0.268300 0.679451
0.337078 0.276292 0.701514
0.432014 0.283320 0.721473
0.548926 0.289639 0.738981
0.686520 0.295611 0.753797
0.825045 0.301701 0.765789
0.097085 0.360411 0.712094
0.184027 0.369983 0.731196
0.275825 0.378558 0.747746
0.371462 0.386410 0.761544
0.469530 0.393922 0.772495
0.568226 0.401581 0.780612
0.702582 0.409486 0.787228
0.836995 0.417293 0.793680
0.107037 0.473157 0.768912
0.202300 0.486792 0.778825
0.300147 0.494792 0.786082
0.398338 0.502661 0.792661
0.496734 0.510487 0.798965
0.595916 0.518302 0.804706
0.714047 0.525970 0.809827
0.851168 0.533371 0.814289
0.130217 0.580346 0.798066
0.228570 0.593438 0.804174
0.327382 0.606578 0.809695
0.426786 0.619620 0.814579
0.526859 0.627270 0.818795
0.627626 0.634570 0.822323
0.729057 0.641420 0.825161
0.867200 0.647734 0.827322
0.156853 0.687679 0.819243
0.255845 0.700771 0.823210
0.355350 0.713529 0.826486
0.455377 0.725838 0.829075
0.555881 0.737602 0.830996
0.656764 0.748737 0.832283
0.757875 0.754014 0.832984
0.877073 0.758543 0.833164
0.180546 0.795061 0.832901
0.279504 0.807109 0.834586
0.378811 0.818496 0.835653
0.478354 0.829144 0.836156
0.577965 0.838989 0.836166
0.677425 0.847983 0.835768
0.776458 0.856093 0.835063
0.874737 0.863300 0.834166
