omv/luts/33_subterranean_survival.cube
# Original OMV LUT; redistribution permitted with OMV.
TITLE "Subterranean Survival"
LUT_3D_SIZE 32
DOMAIN_MIN 0.0 0.0 0.0
DOMAIN_MAX 1.0 1.0 1.0
0.000000 0.026182 0.039273
0.021539 0.029991 0.045991
0.047255 0.032158 0.048158
0.073062 0.034417 0.050417
0.098941 0.036747 0.052747
0.124883 0.039141 0.055141
0.150881 0.041591 0.057591
0.176933 0.044095 0.060095
0.203035 0.046648 0.062648
0.229185 0.049250 0.065250
0.255381 0.051897 0.067897
0.281620 0.054588 0.070588
0.307911 0.057319 0.073319
0.334372 0.060053 0.076043
0.361061 0.062771 0.078743
0.388002 0.065465 0.081408
0.415218 0.068128 0.084033
0.442731 0.070753 0.086612
0.470561 0.073334 0.089137
0.498726 0.075864 0.091603
0.527243 0.078337 0.094005
0.556127 0.080749 0.096338
0.585393 0.083095 0.098597
0.615052 0.085371 0.100779
0.645116 0.087572 0.102881
0.675594 0.089695 0.104898
0.706494 0.091738 0.106829
0.737822 0.093697 0.108671
0.769583 0.095570 0.110422
0.801781 0.097356 0.112081
0.834416 0.099054 0.113648
0.867489 0.100661 0.115121
0.003257 0.047193 0.051257
0.024644 0.050838 0.053612
0.050607 0.054543 0.056026
0.076626 0.057013 0.058497
0.102696 0.059535 0.061019
0.128816 0.062106 0.063590
0.154983 0.064725 0.066208
0.181194 0.067388 0.068872
0.207450 0.070095 0.071579
0.233774 0.072835 0.074313
0.260258 0.075581 0.077029
0.286935 0.078321 0.079717
0.313829 0.081048 0.082369
0.340965 0.083753 0.084978
0.368364 0.086430 0.087537
0.396049 0.089072 0.090042
0.424038 0.091672 0.092485
0.452350 0.094224 0.094862
0.481001 0.096722 0.097169
0.510006 0.099163 0.099401
0.539379 0.101541 0.101554
0.569131 0.103851 0.103625
0.599274 0.106090 0.105611
0.629815 0.108255 0.107510
0.660762 0.110343 0.109319
0.692122 0.112352 0.111037
0.723898 0.114278 0.112662
0.756094 0.116121 0.114195
0.788710 0.117879 0.115634
0.821747 0.119552 0.116979
0.855202 0.121138 0.118231
0.889072 0.122639 0.119390
0.011409 0.067280 0.059409
0.028465 0.071111 0.061949
0.054602 0.074990 0.064538
0.080786 0.078915 0.067173
0.107014 0.082885 0.069852
0.133284 0.085607 0.072574
0.159634 0.088359 0.075305
0.186113 0.091125 0.078012
0.212749 0.093896 0.080687
0.239568 0.096664 0.083324
0.266596 0.099419 0.085916
0.293856 0.102156 0.088456
0.321371 0.104866 0.090938
0.349161 0.107542 0.093358
0.377245 0.110180 0.095710
0.405641 0.112771 0.097990
0.434364 0.115313 0.100194
0.463430 0.117798 0.102317
0.492852 0.120223 0.104358
0.522641 0.122584 0.106313
0.552806 0.124877 0.108179
0.583357 0.127098 0.109955
0.614301 0.129245 0.111639
0.645642 0.131316 0.113231
0.677385 0.133308 0.114729
0.709532 0.135220 0.116134
0.742085 0.137051 0.117445
0.775041 0.138800 0.118664
0.808400 0.140466 0.119790
0.842157 0.142050 0.120826
0.876307 0.143553 0.121774
0.910843 0.144975 0.122635
0.020143 0.087950 0.068143
0.037355 0.091935 0.070838
0.059125 0.095963 0.073571
0.085475 0.100024 0.076293
0.111919 0.104110 0.078990
0.138486 0.108211 0.081652
0.165203 0.112317 0.084273
0.192097 0.115131 0.086847
0.219193 0.117934 0.089367
0.246513 0.120719 0.091827
0.274080 0.123480 0.094223
0.301914 0.126209 0.096549
0.330034 0.128900 0.098802
0.358455 0.131548 0.100976
0.387196 0.134146 0.103070
0.416268 0.136692 0.105080
0.445686 0.139179 0.107002
0.475459 0.141604 0.108836
0.505599 0.143963 0.110579
0.536112 0.146254 0.112230
0.567005 0.148473 0.113787
0.598283 0.150618 0.115252
0.629950 0.152687 0.116622
0.662008 0.154679 0.117899
0.694456 0.156592 0.119084
0.727295 0.158426 0.120178
0.760520 0.160182 0.121181
0.794129 0.161858 0.122097
0.828114 0.163455 0.122928
0.862470 0.164976 0.123677
0.897187 0.166420 0.124346
0.932254 0.167790 0.124940
0.029345 0.109127 0.077279
0.046693 0.113250 0.079963
0.064130 0.117398 0.082611
0.090719 0.121561 0.085216
0.117453 0.125731 0.087771
0.144360 0.129898 0.090270
0.171463 0.134056 0.092707
0.198784 0.138198 0.095078
0.226346 0.142315 0.097378
0.254168 0.145111 0.099603
0.282269 0.147871 0.101748
0.310664 0.150589 0.103812
0.339370 0.153260 0.105790
0.368400 0.155878 0.107680
0.397766 0.158440 0.109481
0.427478 0.160942 0.111191
0.457547 0.163380 0.112808
0.487979 0.165750 0.114331
0.518781 0.168052 0.115761
0.549957 0.170281 0.117098
0.581511 0.172436 0.118341
0.613442 0.174517 0.119493
0.645753 0.176521 0.120553
0.678440 0.178449 0.121525
0.711501 0.180301 0.122410
0.744931 0.182075 0.123210
0.778725 0.183774 0.123929
0.812873 0.185399 0.124571
0.847368 0.186950 0.125138
0.882198 0.188430 0.125636
0.917351 0.189841 0.126068
0.952813 0.191186 0.126441
0.038682 0.130851 0.086152
0.056199 0.135094 0.088687
0.073860 0.139343 0.091164
0.096206 0.143590 0.093578
0.123260 0.147828 0.095924
0.150529 0.152050 0.098197
0.178034 0.156248 0.100393
0.205793 0.160416 0.102509
0.233826 0.164548 0.104542
0.262148 0.168640 0.106488
0.290774 0.172684 0.108346
0.319717 0.175388 0.110114
0.348989 0.178036 0.111790
0.378600 0.180624 0.113373
0.408559 0.183151 0.114863
0.438873 0.185611 0.116259
0.469548 0.188004 0.117561
0.500588 0.190326 0.118771
0.531995 0.192576 0.119889
0.563770 0.194752 0.120917
0.595913 0.196855 0.121857
0.628421 0.198882 0.122711
0.661292 0.200835 0.123481
0.694520 0.202714 0.124171
0.728098 0.204518 0.124785
0.762019 0.206251 0.125327
0.796272 0.207912 0.125801
0.830847 0.209505 0.126211
0.865730 0.211032 0.126563
0.900907 0.212495 0.126863
0.936363 0.213898 0.127117
0.972080 0.215244 0.127332
0.047827 0.153195 0.094440
0.065559 0.157536 0.096760
0.083483 0.161868 0.099005
0.101618 0.166183 0.101173
0.129019 0.170475 0.103259
0.156671 0.174737 0.105261
0.184593 0.178963 0.107175
0.212799 0.183148 0.109001
0.241305 0.187287 0.110735
0.270122 0.191376 0.112377
0.299264 0.195410 0.113926
0.328738 0.199385 0.115382
0.358554 0.203298 0.116744
0.388718 0.205857 0.118012
0.419235 0.208348 0.119189
0.450109 0.210769 0.120274
0.481342 0.213120 0.121269
0.512935 0.215398 0.122178
0.544887 0.217604 0.123001
0.577194 0.219736 0.123742
0.609854 0.221794 0.124404
0.642860 0.223780 0.124991
0.676206 0.225693 0.125507
0.709883 0.227536 0.125957
0.743881 0.229310 0.126346
0.778187 0.231017 0.126678
0.812790 0.232659 0.126961
0.847674 0.234240 0.127200
0.882822 0.235763 0.127401
0.918218 0.237232 0.127573
0.953841 0.238651 0.127722
0.989671 0.240024 0.127857
0.056525 0.176211 0.101942
0.074516 0.180631 0.103998
0.092739 0.185028 0.105968
0.111211 0.189394 0.107850
0.134467 0.193724 0.109643
0.162521 0.198013 0.111344
0.190872 0.202255 0.112952
0.219531 0.206447 0.114467
0.248510 0.210585 0.115889
0.277817 0.214663 0.117216
0.307461 0.218680 0.118451
0.337448 0.222632 0.119594
0.367783 0.226518 0.120647
0.398468 0.230335 0.121610
0.429505 0.234081 0.122487
0.460896 0.236465 0.123280
0.492637 0.238777 0.123991
0.524726 0.241016 0.124626
0.557160 0.243183 0.125187
0.589931 0.245277 0.125678
0.623032 0.247301 0.126105
0.656454 0.249255 0.126473
0.690187 0.251141 0.126787
0.724219 0.252961 0.127053
0.758535 0.254719 0.127277
0.793121 0.256416 0.127467
0.827959 0.258057 0.127630
0.863032 0.259645 0.127773
0.898320 0.261185 0.127904
0.933802 0.262681 0.128032
0.969454 0.264139 0.128166
1.000000 0.266313 0.130177
0.064576 0.199935 0.108513
0.082867 0.204414 0.110272
0.101424 0.208856 0.111940
0.120263 0.213257 0.113514
0.139396 0.217610 0.114995
0.167868 0.221912 0.116383
0.196658 0.226159 0.117677
0.225774 0.230346 0.118878
0.255223 0.234472 0.119988
0.285011 0.238533 0.121008
0.315143 0.242526 0.121939
0.345621 0.246451 0.122785
0.376446 0.250305 0.123548
0.407619 0.254088 0.124231
0.439136 0.257798 0.124838
0.470996 0.261436 0.125373
0.503193 0.265002 0.125841
0.535720 0.267206 0.126246
0.568569 0.269339 0.126593
0.601732 0.271403 0.126889
0.635197 0.273400 0.127139
0.668951 0.275332 0.127350
0.702980 0.277202 0.127529
0.737269 0.279013 0.127684
0.771801 0.280768 0.127821
0.806556 0.282471 0.127950
0.841515 0.284128 0.128079
0.876655 0.285742 0.128218
0.911954 0.287318 0.128374
0.947387 0.288863 0.128560
0.982926 0.290383 0.128784
1.000000 0.294467 0.136375
0.071836 0.224381 0.114064
0.090465 0.228899 0.115511
0.109389 0.233369 0.116865
0.128620 0.237786 0.118125
0.148167 0.242147 0.119293
0.172555 0.246448 0.120369
0.201791 0.250685 0.121357
0.231365 0.254858 0.122257
0.261279 0.258962 0.123072
0.291537 0.262996 0.123806
0.322139 0.266960 0.124461
0.353084 0.270851 0.125041
0.384370 0.274670 0.125551
0.415993 0.278416 0.125995
0.447948 0.282090 0.126378
0.480228 0.285692 0.126706
0.512825 0.289223 0.126985
0.545728 0.292685 0.127220
0.578926 0.296080 0.127419
0.612406 0.298120 0.127588
0.646153 0.300098 0.127735
0.680152 0.302017 0.127869
0.714384 0.303881 0.127997
0.748831 0.305693 0.128128
0.783472 0.307459 0.128272
0.818284 0.309184 0.128438
0.853245 0.310872 0.128636
0.888328 0.312529 0.128877
0.923506 0.314162 0.129171
0.958752 0.315776 0.129531
0.994036 0.317379 0.129967
1.000000 0.322945 0.143291
0.078214 0.249547 0.118561
0.097218 0.254083 0.119695
0.116539 0.258560 0.120739
0.136186 0.262977 0.121694
0.156164 0.267328 0.122563
0.176479 0.271613 0.123349
0.206167 0.275829 0.124053
0.236196 0.279973 0.124681
0.266569 0.284046 0.125235
0.297282 0.288045 0.125720
0.328333 0.291971 0.126142
0.359719 0.295823 0.126504
0.391433 0.299601 0.126813
0.423467 0.303308 0.127075
0.455814 0.306943 0.127296
0.488463 0.310508 0.127483
0.521401 0.314006 0.127643
0.554615 0.317439 0.127785
0.588091 0.320809 0.127915
0.621811 0.324120 0.128044
0.655758 0.327376 0.128179
0.689911 0.329291 0.128329
0.724251 0.331159 0.128506
0.758754 0.332985 0.128718
0.793395 0.334775 0.128977
0.828150 0.336534 0.129294
0.862991 0.338270 0.129680
0.897889 0.339987 0.130147
0.932813 0.341694 0.130707
0.967733 0.343398 0.131373
1.000000 0.345441 0.133447
1.000000 0.351707 0.151047
0.083674 0.275407 0.122021
0.103086 0.279939 0.122859
0.122832 0.284405 0.123614
0.142916 0.288802 0.124290
0.163340 0.293128 0.124891
0.184107 0.297381 0.125419
0.209732 0.301560 0.125881
0.240214 0.305665 0.126280
0.271033 0.309694 0.126622
0.302185 0.313649 0.126914
0.333664 0.317528 0.127160
0.365460 0.321334 0.127368
0.397567 0.325068 0.127544
0.429971 0.328731 0.127697
0.462661 0.332325 0.127833
0.495624 0.335853 0.127962
0.528843 0.339318 0.128092
0.562302 0.342723 0.128231
0.595981 0.346072 0.128390
0.629862 0.349369 0.128579
0.663922 0.352619 0.128807
0.698139 0.355827 0.129085
0.732487 0.358999 0.129426
0.766940 0.360849 0.129840
0.801471 0.362675 0.130339
0.836051 0.364483 0.130936
0.870648 0.366280 0.131644
0.905231 0.368075 0.132476
0.939765 0.369874 0.133445
0.974215 0.371687 0.134566
1.000000 0.374564 0.140484
1.000000 0.380712 0.159784
0.088234 0.301917 0.124517
0.108086 0.306424 0.125091
0.128280 0.310857 0.125595
0.148820 0.315216 0.126033
0.169702 0.319498 0.126411
0.190927 0.323704 0.126734
0.212489 0.327832 0.127008
0.243417 0.331883 0.127240
0.274671 0.335858 0.127435
0.306242 0.339757 0.127602
0.338122 0.343582 0.127748
0.370298 0.347335 0.127881
0.402758 0.351017 0.128009
0.435488 0.354632 0.128141
0.468471 0.358182 0.128286
0.501690 0.361671 0.128455
0.535127 0.365103 0.128656
0.568760 0.368481 0.128902
0.602568 0.371812 0.129202
0.636527 0.375100 0.129568
0.670612 0.378350 0.130011
0.704796 0.381568 0.130545
0.739051 0.384761 0.131180
0.773348 0.387936 0.131932
0.807654 0.391099 0.132812
0.841939 0.392969 0.133835
0.876166 0.394843 0.135015
0.910300 0.396730 0.136367
0.944304 0.398639 0.137905
0.978139 0.400579 0.139646
1.000000 0.403911 0.148571
1.000000 0.409894 0.169585
0.091964 0.329011 0.126177
0.112284 0.333470 0.126535
0.132950 0.337850 0.126839
0.153961 0.342151 0.127097
0.175312 0.346372 0.127315
0.196997 0.350513 0.127499
0.219010 0.354575 0.127657
0.245858 0.358559 0.127797
0.277530 0.362467 0.127927
0.309499 0.366300 0.128056
0.341752 0.370060 0.128192
0.374273 0.373751 0.128344
0.407046 0.377376 0.128524
0.440054 0.380937 0.128740
0.473276 0.384440 0.129004
0.506693 0.387888 0.129327
0.540281 0.391286 0.129719
0.574016 0.394639 0.130194
0.607874 0.397953 0.130764
0.641826 0.401234 0.131440
0.675844 0.404489 0.132237
0.709898 0.407724 0.133167
0.743956 0.410947 0.134246
0.777986 0.414165 0.135486
0.811952 0.417387 0.136904
0.845818 0.420620 0.138515
0.879545 0.423875 0.140333
0.913149 0.425859 0.142311
0.946742 0.427839 0.144291
0.980330 0.429814 0.146265
1.000000 0.433275 0.157229
1.000000 0.439004 0.179825
0.094990 0.356604 0.127180
0.115804 0.360992 0.127385
0.136961 0.365297 0.127559
0.158457 0.369519 0.127710
0.180282 0.373659 0.127845
0.202429 0.377718 0.127974
0.224887 0.381698 0.128104
0.247643 0.385601 0.128245
0.279716 0.389429 0.128406
0.312058 0.393184 0.128598
0.344653 0.396870 0.128830
0.377481 0.400491 0.129114
0.410524 0.404051 0.129461
0.443760 0.407553 0.129882
0.477166 0.411004 0.130390
0.510717 0.414407 0.130997
0.544388 0.417770 0.131715
0.578150 0.421098 0.132559
0.611976 0.424397 0.133542
0.645833 0.427675 0.134678
0.679691 0.430939 0.135981
0.713515 0.434196 0.137468
0.747270 0.437456 0.139152
0.780920 0.440726 0.141049
0.814516 0.444000 0.143032
0.848107 0.447268 0.145010
0.881692 0.450531 0.146982
0.915271 0.453787 0.148948
0.948842 0.457036 0.150907
0.982410 0.458987 0.152855
1.000000 0.462525 0.166039
1.000000 0.468008 0.190278
0.097490 0.384588 0.127761
0.118821 0.388881 0.127892
0.140486 0.393088 0.128020
0.162477 0.397211 0.128153
0.184782 0.401252 0.128301
0.207389 0.405211 0.128472
0.230283 0.409093 0.128677
0.253448 0.412898 0.128927
0.281385 0.416632 0.129233
0.314073 0.420298 0.129605
0.346976 0.423899 0.130056
0.380072 0.427440 0.130599
0.413339 0.430927 0.131245
0.446750 0.434364 0.132007
0.480281 0.437757 0.132900
0.513901 0.441113 0.133937
0.547583 0.444439 0.135132
0.581295 0.447740 0.136501
0.615004 0.451025 0.138057
0.648677 0.454302 0.139817
0.682287 0.457578 0.141771
0.715882 0.460850 0.143753
0.749471 0.464116 0.145729
0.783054 0.467376 0.147699
0.816630 0.470630 0.149662
0.850199 0.473876 0.151618
0.883775 0.477117 0.153550
0.917417 0.480361 0.155398
0.951129 0.483607 0.157157
0.984913 0.486852 0.158830
1.000000 0.491775 0.174849
1.000000 0.496998 0.200822
0.099696 0.412836 0.128205
0.121564 0.417010 0.128360
0.143752 0.421097 0.128542
0.166246 0.425099 0.128762
0.189032 0.429019 0.129031
0.212094 0.432860 0.129360
0.235413 0.436626 0.129760
0.258971 0.440319 0.130243
0.282747 0.443945 0.130821
0.315751 0.447508 0.131508
0.348927 0.451012 0.132317
0.382248 0.454464 0.133260
0.415690 0.457869 0.134353
0.449222 0.461234 0.135610
0.482815 0.464564 0.137045
0.516438 0.467869 0.138673
0.550057 0.471154 0.140512
0.583655 0.474429 0.142493
0.617247 0.477699 0.144473
0.650834 0.480963 0.146447
0.684415 0.484221 0.148414
0.717988 0.487472 0.150375
0.751554 0.490715 0.152328
0.785147 0.493958 0.154233
0.818804 0.497206 0.156048
0.852526 0.500457 0.157776
0.886314 0.503708 0.159417
0.920170 0.506958 0.160971
0.954095 0.510203 0.162441
0.988089 0.513442 0.163826
1.000000 0.518543 0.183706
1.000000 0.524773 0.211543
0.101893 0.441200 0.128854
0.124317 0.445229 0.129143
0.147039 0.449172 0.129496
0.170042 0.453031 0.129925
0.193307 0.456811 0.130442
0.216817 0.460514 0.131058
0.240548 0.464146 0.131788
0.264479 0.467710 0.132644
0.288584 0.471213 0.133640
0.317355 0.474659 0.134791
0.350764 0.478055 0.136111
0.384266 0.481407 0.137614
0.417831 0.484721 0.139318
0.451425 0.488006 0.141232
0.485021 0.491279 0.143215
0.518612 0.494547 0.145192
0.552196 0.497809 0.147164
0.585774 0.501065 0.149129
0.619345 0.504313 0.151087
0.652913 0.507555 0.153032
0.686523 0.510802 0.154904
0.720191 0.514055 0.156688
0.753917 0.517311 0.158384
0.787705 0.520570 0.159993
0.821554 0.523827 0.161516
0.855468 0.527081 0.162955
0.889445 0.530331 0.164310
0.923487 0.533572 0.165582
0.957595 0.536805 0.166773
0.991769 0.540025 0.167883
1.000000 0.545274 0.192705
1.000000 0.551316 0.222540
0.104421 0.469510 0.130102
0.127415 0.473369 0.130654
0.150680 0.477144 0.131310
0.174194 0.480837 0.132084
0.197936 0.484455 0.132989
0.221883 0.488000 0.134040
0.246010 0.491480 0.135251
0.270291 0.494898 0.136636
0.294697 0.498262 0.138211
0.319200 0.501578 0.139990
0.352793 0.504857 0.141954
0.386387 0.508129 0.143935
0.419975 0.511395 0.145911
0.453558 0.514654 0.147880
0.487133 0.517907 0.149843
0.520701 0.521153 0.151798
0.554277 0.524396 0.153724
0.587899 0.527647 0.155563
0.621573 0.530907 0.157315
0.655301 0.534171 0.158979
0.689083 0.537437 0.160557
0.722923 0.540703 0.162050
0.756820 0.543968 0.163458
0.790777 0.547227 0.164782
0.824794 0.550481 0.166025
0.858871 0.553725 0.167186
0.893010 0.556959 0.168268
0.927210 0.560180 0.169271
0.961473 0.563387 0.170198
0.995796 0.566577 0.171048
1.000000 0.571910 0.201939
1.000000 0.577728 0.233908
0.107671 0.497578 0.132398
0.131250 0.501240 0.133354
0.155063 0.504821 0.134462
0.179089 0.508325 0.135734
0.203301 0.511758 0.137186
0.227673 0.515126 0.138834
0.252176 0.518434 0.140693
0.276741 0.521708 0.142676
0.301300 0.524978 0.144655
0.325854 0.528241 0.146629
0.354918 0.531499 0.148596
0.388491 0.534749 0.150556
0.422057 0.537992 0.152508
0.455643 0.541239 0.154404
0.489274 0.544497 0.156211
0.522950 0.547763 0.157931
0.556674 0.551035 0.159564
0.590447 0.554311 0.161111
0.624273 0.557587 0.162572
0.658151 0.560862 0.163950
0.692083 0.564134 0.165244
0.726070 0.567399 0.166457
0.760114 0.570657 0.167589
0.794214 0.573904 0.168642
0.828372 0.577140 0.169618
0.862587 0.580361 0.170516
0.896859 0.583566 0.171340
0.931189 0.586754 0.172090
0.965575 0.589922 0.172768
1.000000 0.593069 0.173396
1.000000 0.598396 0.211494
1.000000 0.603953 0.245736
0.112091 0.525192 0.136241
0.136262 0.528630 0.137763
0.160629 0.531992 0.139485
0.185157 0.535286 0.141415
0.209720 0.538558 0.143397
0.234278 0.541826 0.145374
0.258829 0.545087 0.147345
0.283375 0.548342 0.149310
0.307913 0.551590 0.151267
0.332447 0.554832 0.153208
0.357011 0.558086 0.155072
0.390644 0.561351 0.156848
0.424318 0.564625 0.158536
0.458034 0.567906 0.160137
0.491795 0.571192 0.161652
0.525602 0.574479 0.163083
0.559456 0.577766 0.164430
0.593361 0.581050 0.165695
0.627315 0.584328 0.166879
0.661322 0.587600 0.167982
0.695380 0.590861 0.169006
0.729492 0.594112 0.169953
0.763657 0.597349 0.170824
0.797875 0.600570 0.171621
0.832147 0.603774 0.172345
0.866472 0.606959 0.172997
0.900849 0.610122 0.173580
0.935279 0.613263 0.174094
0.969760 0.616380 0.174543
1.000000 0.619686 0.180347
1.000000 0.624674 0.221449
1.000000 0.629935 0.258110
0.118137 0.552137 0.142137
0.142698 0.555408 0.144118
0.167254 0.558673 0.146093
0.191803 0.561932 0.148061
0.216346 0.565185 0.150023
0.240881 0.568430 0.151978
0.265420 0.571675 0.153897
0.289989 0.574936 0.155729
0.314589 0.578209 0.157472
0.339224 0.581493 0.159129
0.363895 0.584784 0.160698
0.393123 0.588081 0.162183
0.426908 0.591380 0.163583
0.460736 0.594679 0.164900
0.494608 0.597976 0.166135
0.528527 0.601268 0.167289
0.562492 0.604554 0.168364
0.596506 0.607831 0.169360
0.630569 0.611097 0.170279
0.664681 0.614350 0.171123
0.698842 0.617588 0.171893
0.733054 0.620809 0.172590
0.767315 0.624011 0.173217
0.801625 0.627192 0.173775
0.835985 0.630351 0.174265
0.870392 0.633486 0.174690
0.904846 0.636595 0.175051
0.939347 0.639676 0.175351
0.973892 0.642729 0.175591
1.000000 0.646083 0.187522
1.000000 0.650689 0.231868
1.000000 0.655617 0.271105
0.124777 0.578777 0.148777
0.149317 0.582026 0.150736
0.173849 0.585269 0.152686
0.198394 0.588521 0.154574
0.222962 0.591790 0.156374
0.247556 0.595073 0.158085
0.272181 0.598367 0.159710
0.296836 0.601669 0.161249
0.321527 0.604978 0.162703
0.346253 0.608289 0.164072
0.371018 0.611602 0.165359
0.395824 0.614913 0.166565
0.429703 0.618220 0.167690
0.463624 0.621521 0.168735
0.497590 0.624814 0.169703
0.531601 0.628096 0.170595
0.565657 0.631366 0.171412
0.599760 0.634621 0.172155
0.633908 0.637859 0.172827
0.668103 0.641079 0.173428
0.702344 0.644278 0.173961
0.736630 0.647455 0.174427
0.770962 0.650608 0.174829
0.805338 0.653735 0.175168
0.839758 0.656836 0.175445
0.874220 0.659907 0.175664
0.908722 0.662948 0.175825
0.943264 0.665957 0.175933
0.977842 0.668933 0.175987
1.000000 0.672208 0.194946
1.000000 0.676385 0.242809
1.000000 0.680946 0.284791
0.131364 0.605371 0.155240
0.155928 0.608650 0.157007
0.180513 0.611943 0.158687
0.205122 0.615248 0.160280
0.229758 0.618562 0.161788
0.254423 0.621883 0.163211
0.279121 0.625209 0.164550
0.303852 0.628535 0.165808
0.328618 0.631861 0.166984
0.353422 0.635184 0.168080
0.378265 0.638501 0.169097
0.403147 0.641810 0.170037
0.432587 0.645109 0.170901
0.466585 0.648396 0.171691
0.500625 0.651668 0.172408
0.534708 0.654924 0.173054
0.568834 0.658162 0.173630
0.603004 0.661380 0.174138
0.637215 0.664575 0.174581
0.671470 0.667747 0.174959
0.705766 0.670893 0.175276
0.740103 0.674012 0.175531
0.774480 0.677103 0.175729
0.808896 0.680162 0.175871
0.843348 0.683190 0.175958
0.877836 0.686185 0.175994
0.912357 0.689145 0.175980
0.946910 0.692069 0.175920
0.981492 0.694956 0.175814
1.000000 0.698009 0.202620
1.000000 0.701709 0.254312
1.000000 0.705870 0.299230
0.138046 0.632136 0.160839
0.162658 0.635464 0.162316
0.187295 0.638798 0.163708
0.211959 0.642138 0.165018
0.236652 0.645480 0.166245
0.261377 0.648821 0.167392
0.286134 0.652160 0.168459
0.310927 0.655493 0.169448
0.335756 0.658819 0.170360
0.360622 0.662136 0.171197
0.385526 0.665440 0.171960
0.410470 0.668731 0.172651
0.435453 0.672005 0.173271
0.469508 0.675262 0.173823
0.503604 0.678498 0.174307
0.537739 0.681713 0.174726
0.571914 0.684904 0.175082
0.606129 0.688069 0.175376
0.640382 0.691207 0.175610
0.674672 0.694316 0.175787
0.709000 0.697395 0.175909
0.743362 0.700441 0.175977
0.777758 0.703454 0.175995
0.812186 0.706433 0.175964
0.846644 0.709375 0.175886
0.881130 0.712279 0.175765
0.915641 0.715145 0.175602
0.950174 0.717970 0.175401
0.984728 0.720755 0.175163
1.000000 0.723438 0.210515
1.000000 0.726612 0.266405
1.000000 0.730336 0.314477
0.144766 0.659078 0.165474
0.169418 0.662435 0.166672
0.194098 0.665793 0.167789
0.218806 0.669148 0.168828
0.243546 0.672499 0.169789
0.268318 0.675843 0.170673
0.293124 0.679177 0.171483
0.317964 0.682500 0.172220
0.342841 0.685809 0.172885
0.367754 0.689103 0.173480
0.392704 0.692378 0.174007
0.417691 0.695634 0.174467
0.442716 0.698867 0.174863
0.472294 0.702077 0.175196
0.506425 0.705262 0.175468
0.540593 0.708419 0.175681
0.574796 0.711547 0.175838
0.609034 0.714645 0.175940
0.643305 0.717710 0.175989
0.677608 0.720742 0.175989
0.711942 0.723738 0.175941
0.746304 0.726699 0.175847
0.780693 0.729621 0.175710
0.815106 0.732503 0.175533
0.849542 0.735346 0.175318
0.883996 0.738147 0.175068
0.918467 0.740905 0.174785
0.952952 0.743620 0.174472
0.987446 0.746290 0.174132
1.000000 0.748451 0.218564
1.000000 0.751044 0.279100
1.000000 0.754297 0.330580
0.151436 0.686150 0.169187
0.176119 0.689519 0.170120
0.200832 0.692881 0.170977
0.225575 0.696234 0.171760
0.250349 0.699575 0.172470
0.275156 0.702904 0.173110
0.299997 0.706216 0.173680
0.324872 0.709511 0.174182
0.349782 0.712786 0.174619
0.374726 0.716039 0.174991
0.399706 0.719269 0.175302
0.424720 0.722473 0.175552
0.449768 0.725649 0.175744
0.474850 0.728797 0.175881
0.508997 0.731913 0.175964
0.543176 0.734997 0.175995
0.577386 0.738048 0.175977
0.611624 0.741062 0.175912
0.645891 0.744040 0.175802
0.680182 0.746980 0.175650
0.714498 0.749880 0.175459
0.748834 0.752739 0.175231
0.783190 0.755556 0.174969
0.817561 0.758329 0.174675
0.851945 0.761059 0.174352
0.886340 0.763743 0.174003
0.920741 0.766380 0.173630
0.955145 0.768971 0.173238
0.989549 0.771513 0.172828
1.000000 0.773010 0.226651
1.000000 0.774961 0.292387
1.000000 0.777707 0.347584
0.157973 0.713306 0.172027
0.182679 0.716666 0.172711
0.207415 0.720014 0.173325
0.232181 0.723346 0.173870
0.256979 0.726661 0.174348
0.281809 0.729955 0.174762
0.306672 0.733228 0.175111
0.331567 0.736477 0.175400
0.356495 0.739701 0.175629
0.381455 0.742897 0.175801
0.406447 0.746064 0.175917
0.431470 0.749200 0.175981
0.456524 0.752303 0.175994
0.481607 0.755371 0.175958
0.511233 0.758404 0.175877
0.545403 0.761400 0.175752
0.579597 0.764357 0.175585
0.613815 0.767274 0.175381
0.648052 0.770149 0.175140
