omv/luts/33_subterranean_survival.cube
# Original OMV LUT; redistribution permitted with OMV.
TITLE "Subterranean Survival"
LUT_3D_SIZE 5
DOMAIN_MIN 0.000000 0.000000 0.000000
DOMAIN_MAX 0.903226 0.903226 0.903226
0.000000 0.026182 0.039273
0.176933 0.044095 0.060095
0.361061 0.062771 0.078743
0.556127 0.080749 0.096338
0.769583 0.095570 0.110422
0.056525 0.176211 0.101942
0.219531 0.206447 0.114467
0.429505 0.234081 0.122487
0.656454 0.249255 0.126473
0.898320 0.261185 0.127904
0.094990 0.356604 0.127180
0.247643 0.385601 0.128245
0.477166 0.411004 0.130390
0.713515 0.434196 0.137468
0.948842 0.457036 0.150907
0.118137 0.552137 0.142137
0.289989 0.574936 0.155729
0.494608 0.597976 0.166135
0.733054 0.620809 0.172590
0.973892 0.642729 0.175591
0.164305 0.740493 0.174052
0.337973 0.763349 0.175946
0.513057 0.784685 0.175297
0.752317 0.803974 0.172941
0.991559 0.820834 0.169862
0.001001 0.033001 0.155130
0.151469 0.050243 0.170114
0.337613 0.069123 0.187671
0.536744 0.086210 0.209109
0.754594 0.099671 0.229530
0.062291 0.192643 0.219033
0.195582 0.222151 0.236340
0.407968 0.239630 0.252769
0.636990 0.253632 0.265704
0.879740 0.264680 0.275795
0.096799 0.372864 0.269642
0.251785 0.400547 0.279055
0.451015 0.424994 0.288126
0.686830 0.447927 0.299862
0.921963 0.461675 0.313505
0.122836 0.565868 0.304901
0.294805 0.588699 0.317917
0.468284 0.611757 0.327609
0.707165 0.634351 0.333951
0.948288 0.655827 0.337327
0.168620 0.754352 0.335499
0.342288 0.776760 0.337919
0.517249 0.797452 0.338130
0.724534 0.815951 0.336857
0.963056 0.831925 0.334970
0.006548 0.038548 0.266806
0.126260 0.056647 0.282647
0.315031 0.075247 0.303344
0.518051 0.091244 0.328429
0.739969 0.103265 0.354313
0.067679 0.208894 0.343255
0.202941 0.228468 0.368740
0.386043 0.244770 0.391779
0.616904 0.257659 0.411185
0.860149 0.268002 0.429035
0.098422 0.388659 0.422620
0.255751 0.415112 0.436975
0.424542 0.438801 0.448888
0.659918 0.452628 0.462628
0.895436 0.466309 0.475812
0.127499 0.579563 0.469886
0.299722 0.602499 0.479956
0.473614 0.625482 0.489322
0.681242 0.647763 0.495845
0.922551 0.668735 0.499798
0.172777 0.768083 0.497563
0.346404 0.789971 0.500676
0.521178 0.809965 0.501822
0.696401 0.827637 0.501612
0.934098 0.842702 0.500803
0.012428 0.044428 0.378815
0.133128 0.063127 0.396108
0.293127 0.081062 0.422446
0.499856 0.095811 0.455133
0.725509 0.106351 0.489758
0.072649 0.215858 0.473052
0.209947 0.234399 0.507488
0.363679 0.249507 0.539488
0.596136 0.261385 0.567037
0.839479 0.271238 0.589124
0.099954 0.404004 0.581071
0.259627 0.429349 0.601114
0.429440 0.443488 0.615933
0.632971 0.457293 0.627616
0.869225 0.470912 0.638031
0.132161 0.593261 0.637012
0.304699 0.616304 0.646570
0.478948 0.639126 0.653687
0.655243 0.661023 0.658378
0.896639 0.672405 0.663059
0.176758 0.781661 0.664848
0.350299 0.802963 0.666512
0.524822 0.822209 0.666358
0.699513 0.839020 0.667141
0.904665 0.853161 0.667248
0.018591 0.050591 0.491108
0.140537 0.069469 0.512023
0.271728 0.086501 0.546011
0.481980 0.099883 0.587631
0.711030 0.108944 0.631650
0.077174 0.222510 0.608961
0.216569 0.239925 0.652754
0.372449 0.253864 0.693443
0.574641 0.264868 0.728183
0.817680 0.274486 0.755132
0.101499 0.418928 0.744300
0.263512 0.434295 0.768151
0.434188 0.448188 0.783349
0.606084 0.461932 0.794780
0.843271 0.475457 0.804878
0.136882 0.607027 0.804003
0.309700 0.630083 0.813424
0.484248 0.652662 0.820838
0.660744 0.665079 0.826148
0.870515 0.675856 0.829399
0.180546 0.795061 0.832901
0.353957 0.815716 0.835442
0.528164 0.834171 0.836218
0.702235 0.850094 0.835616
0.874737 0.863300 0.834166
