omv/luts/34_emergency_red.cube
# Original OMV LUT; redistribution permitted with OMV.
TITLE "Emergency Red"
LUT_3D_SIZE 5
DOMAIN_MIN 0.000000 0.000000 0.000000
DOMAIN_MAX 0.903226 0.903226 0.903226
0.004000 0.016000 0.032000
0.211405 0.033728 0.049728
0.422207 0.053928 0.069909
0.648123 0.072260 0.087985
0.899427 0.085526 0.100761
0.070501 0.140222 0.093336
0.248869 0.182277 0.103843
0.495707 0.220366 0.107924
0.765628 0.233279 0.106366
1.000000 0.249344 0.119759
0.108397 0.300949 0.104778
0.268129 0.340800 0.099263
0.540820 0.376094 0.095385
0.822168 0.408929 0.098513
1.000000 0.452424 0.177511
0.122595 0.483498 0.102595
0.306791 0.516412 0.115059
0.538855 0.549170 0.124884
0.820303 0.581099 0.131165
1.000000 0.624321 0.260593
0.159505 0.657896 0.132594
0.342908 0.689691 0.134320
0.528499 0.719471 0.133195
0.811013 0.746769 0.129868
1.000000 0.785628 0.357339
0.009628 0.021628 0.109886
0.170660 0.040402 0.139950
0.384188 0.060593 0.172780
0.615775 0.077419 0.195883
0.873149 0.088634 0.217138
0.076823 0.168258 0.192690
0.210427 0.209150 0.223944
0.460563 0.225300 0.239393
0.733263 0.236605 0.249987
1.000000 0.248062 0.260341
0.109359 0.328488 0.252795
0.272138 0.366641 0.258676
0.499013 0.400796 0.264306
0.779381 0.433510 0.273897
1.000000 0.454190 0.311899
0.126897 0.508123 0.278510
0.311020 0.540997 0.290589
0.495843 0.573568 0.300218
0.777623 0.605040 0.307003
1.000000 0.642331 0.371359
0.162061 0.682303 0.308756
0.345421 0.713479 0.311666
0.530985 0.742457 0.312022
0.765891 0.768846 0.310301
1.000000 0.800262 0.422582
0.015695 0.027695 0.188212
0.130191 0.047352 0.219159
0.347399 0.066837 0.256025
0.584403 0.081920 0.298271
0.847387 0.091003 0.341197
0.082662 0.195980 0.287334
0.219003 0.215180 0.329609
0.424887 0.229664 0.368358
0.700024 0.239469 0.402110
0.991695 0.245992 0.419463
0.110033 0.355417 0.386401
0.275849 0.392009 0.413424
0.456689 0.425322 0.437380
0.736265 0.437814 0.449814
1.000000 0.453062 0.464572
0.131167 0.532716 0.443103
0.315196 0.565553 0.466216
0.500183 0.597837 0.476162
0.734826 0.628777 0.483824
1.000000 0.660160 0.501643
0.164345 0.706525 0.486001
0.347665 0.737012 0.490277
0.533174 0.765144 0.492153
0.720414 0.790601 0.491938
1.000000 0.813795 0.496686
0.022090 0.034090 0.266864
0.137775 0.054306 0.299551
0.311581 0.072562 0.343867
0.553741 0.085718 0.396295
0.821863 0.092642 0.451006
0.087958 0.202975 0.389522
0.227106 0.220654 0.443885
0.388598 0.233477 0.494787
0.665822 0.241942 0.539625
0.957481 0.247911 0.577157
0.110538 0.381764 0.527467
0.279372 0.416988 0.562296
0.461366 0.429484 0.590321
0.693119 0.442087 0.614409
0.973235 0.454191 0.637973
0.135372 0.557293 0.596366
0.319284 0.590044 0.619645
0.504418 0.621950 0.641636
0.691878 0.652291 0.661761
0.976849 0.660237 0.668367
0.166349 0.730535 0.641856
0.349634 0.760271 0.658892
0.535059 0.787520 0.673545
0.721992 0.812033 0.674660
0.956461 0.833772 0.673879
0.028780 0.040780 0.345812
0.146150 0.060951 0.383198
0.276493 0.077687 0.437718
0.523539 0.088785 0.502158
0.796320 0.093578 0.569561
0.092667 0.209499 0.499986
0.234685 0.225557 0.567009
0.399056 0.236775 0.629709
0.630589 0.244116 0.684353
0.921665 0.249902 0.728569
0.111011 0.407577 0.675049
0.282835 0.421355 0.715146
0.465749 0.433749 0.743814
0.650014 0.446307 0.767710
0.930939 0.458023 0.791734
0.139446 0.581878 0.749763
0.323253 0.614435 0.773709
0.508515 0.645880 0.796815
0.696162 0.655241 0.818335
0.933783 0.662405 0.837734
0.168073 0.754309 0.798974
0.351323 0.783242 0.817509
0.536634 0.809579 0.833536
0.723199 0.833143 0.847022
0.909450 0.853969 0.858143
