omv/luts/34_emergency_red.cube
# Original OMV LUT; redistribution permitted with OMV.
TITLE "Emergency Red"
LUT_3D_SIZE 8
DOMAIN_MIN 0.000000 0.000000 0.000000
DOMAIN_MAX 0.903226 0.903226 0.903226
0.004000 0.016000 0.032000
0.122119 0.025732 0.041732
0.241275 0.036500 0.052500
0.361259 0.048081 0.064080
0.484566 0.059561 0.075498
0.614439 0.069907 0.085685
0.752397 0.078664 0.094203
0.899427 0.085526 0.100761
0.040478 0.083446 0.068345
0.135203 0.107278 0.079375
0.260867 0.130786 0.088998
0.392270 0.141786 0.096828
0.530776 0.151467 0.102628
0.677215 0.159551 0.106304
0.831883 0.165907 0.107910
0.994543 0.170546 0.107643
0.079309 0.160649 0.099183
0.153817 0.185139 0.104213
0.289206 0.208388 0.107121
0.431954 0.230147 0.108015
0.582202 0.250312 0.107144
0.739555 0.257312 0.104906
0.903083 0.262944 0.101841
1.000000 0.277072 0.125157
0.103318 0.250993 0.107884
0.186916 0.275074 0.106462
0.304946 0.297502 0.103853
0.456854 0.318348 0.100650
0.614459 0.337824 0.097593
0.776138 0.356292 0.095565
0.939739 0.374254 0.095598
1.000000 0.392829 0.155717
0.110458 0.353111 0.099476
0.204425 0.375484 0.096684
0.304173 0.396292 0.095280
0.462116 0.415924 0.096346
0.621749 0.434912 0.101110
0.781245 0.453762 0.108342
0.940763 0.472510 0.115356
1.000000 0.502057 0.200298
0.117282 0.458376 0.097583
0.221813 0.477555 0.103748
0.327084 0.496374 0.110955
0.459471 0.515135 0.117673
0.619371 0.533803 0.123249
0.779968 0.552213 0.127662
0.941460 0.570221 0.130924
1.000000 0.600163 0.248058
0.140422 0.557865 0.119837
0.245335 0.576760 0.124990
0.350555 0.595482 0.128982
0.456337 0.613869 0.131832
0.617050 0.631781 0.133583
0.778596 0.649101 0.134301
0.940989 0.665733 0.134071
1.000000 0.695423 0.299990
0.159505 0.657896 0.132594
0.264059 0.676277 0.133960
0.369281 0.694082 0.134321
0.475242 0.711199 0.133774
0.609029 0.727538 0.132436
0.770551 0.743033 0.130448
0.932540 0.757639 0.127974
1.000000 0.785628 0.357339
0.007144 0.019144 0.076434
0.098581 0.029291 0.093032
0.218025 0.040348 0.110542
0.338572 0.052072 0.122364
0.463544 0.063227 0.134486
0.595320 0.073077 0.146209
0.735295 0.081218 0.156973
0.884331 0.087392 0.166367
0.044624 0.099203 0.120331
0.112820 0.122998 0.138833
0.239439 0.134646 0.150263
0.372059 0.145238 0.160569
0.511923 0.154401 0.169391
0.659735 0.161906 0.176516
0.815669 0.167670 0.181876
0.979364 0.171755 0.185551
0.082587 0.176753 0.163967
0.157928 0.200858 0.172188
0.267217 0.223622 0.178670
0.411005 0.244844 0.183401
0.562210 0.252857 0.186509
0.720314 0.259364 0.188271
0.884265 0.264601 0.189107
1.000000 0.276875 0.203629
0.104675 0.267023 0.184709
0.189278 0.290544 0.187287
0.281158 0.312420 0.188655
0.433834 0.332770 0.189287
0.591900 0.351856 0.189802
0.753614 0.370088 0.190962
0.916697 0.376407 0.193677
1.000000 0.393778 0.233223
0.110723 0.368571 0.189451
0.205771 0.390378 0.190105
0.306320 0.410737 0.191718
0.437566 0.430083 0.195253
0.597119 0.448990 0.201636
0.756586 0.467812 0.208845
0.916269 0.486506 0.215654
1.000000 0.513189 0.271941
0.119158 0.472687 0.197229
0.224270 0.491625 0.204270
0.329512 0.510415 0.211426
0.434861 0.529163 0.217897
0.594869 0.547761 0.223377
0.755602 0.566050 0.227837
0.917241 0.583891 0.231271
1.000000 0.610673 0.311810
0.142656 0.571959 0.220009
0.247519 0.590815 0.225120
0.352740 0.609441 0.229206
0.458556 0.627681 0.232268
0.592222 0.645404 0.234331
0.753812 0.662499 0.235440
0.916225 0.678881 0.235667
1.000000 0.705053 0.353021
0.160999 0.671864 0.233133
0.265531 0.690064 0.234842
0.370750 0.707646 0.235621
0.476706 0.724508 0.235547
0.583373 0.740567 0.234721
0.744833 0.755764 0.233265
0.906705 0.770062 0.231325
1.000000 0.794090 0.393934
0.010473 0.022473 0.121053
0.075146 0.032952 0.137984
0.194866 0.044286 0.155769
0.316335 0.055975 0.174575
0.442946 0.066742 0.194505
0.576575 0.076050 0.208317
0.718494 0.083544 0.221784
0.869444 0.089018 0.234373
0.048783 0.114975 0.166491
0.117579 0.127043 0.186631
0.218064 0.138383 0.206840
0.351889 0.148525 0.226492
0.493073 0.157143 0.238658
0.642201 0.164058 0.249455
0.799320 0.169238 0.258696
0.963947 0.172793 0.266337
0.085687 0.192741 0.218158
0.161882 0.216422 0.236308
0.245072 0.238677 0.253005
0.389876 0.247743 0.261661
0.541993 0.255227 0.268738
0.700780 0.261269 0.274391
0.865062 0.266153 0.278921
1.000000 0.275951 0.287781
0.105854 0.282866 0.257963
0.191473 0.305824 0.270948
0.284290 0.327161 0.276150
0.410603 0.347045 0.280374
0.569076 0.365788 0.284118
0.730747 0.372236 0.288025
0.893212 0.378604 0.292884
1.000000 0.393983 0.315920
0.110997 0.383830 0.281762
0.207129 0.405105 0.285483
0.308460 0.425063 0.289638
0.412965 0.444191 0.295067
0.572481 0.463061 0.302158
0.731927 0.481850 0.309324
0.891848 0.500472 0.315946
1.000000 0.514002 0.348826
0.121420 0.486839 0.297549
0.226718 0.505686 0.304783
0.331944 0.524457 0.311825
0.437351 0.543173 0.318156
0.570364 0.561683 0.323642
0.731225 0.579834 0.328235
0.892998 0.597497 0.331911
1.000000 0.621142 0.380794
0.144830 0.586047 0.320254
0.249647 0.604844 0.325419
0.354870 0.623355 0.329680
0.460717 0.641433 0.333020
0.567327 0.658954 0.335445
0.728951 0.675816 0.336983
0.891372 0.691939 0.337685
1.000000 0.714563 0.410690
0.162405 0.685776 0.334007
0.266917 0.703779 0.336105
0.372131 0.721127 0.337332
0.478078 0.737724 0.337747
0.584714 0.753496 0.337434
0.719005 0.768391 0.336495
0.880743 0.782379 0.335060
1.000000 0.802279 0.432440
0.013926 0.025926 0.165797
0.078905 0.036711 0.183034
0.171807 0.048304 0.201097
0.294499 0.059767 0.221072
0.422720 0.070087 0.242959
0.558152 0.078812 0.265814
0.701943 0.085636 0.288838
0.854711 0.090401 0.304926
0.052930 0.119120 0.213620
0.122354 0.131003 0.235961
0.196713 0.141981 0.258962
0.331727 0.151634 0.281877
0.474196 0.159687 0.304107
0.624579 0.166009 0.325199
0.782802 0.170618 0.338391
0.948256 0.173672 0.349972
0.088601 0.208596 0.274825
0.165671 0.231819 0.296685
0.249856 0.241936 0.317277
0.368556 0.250458 0.336346
0.521538 0.257429 0.353781
0.680939 0.263039 0.363164
0.845461 0.267621 0.371128
1.000000 0.274194 0.378271
0.106863 0.298518 0.327632
0.193510 0.320916 0.344473
0.287253 0.341733 0.359763
0.387169 0.361187 0.373734
0.545994 0.368027 0.380314
0.707542 0.374373 0.386475
0.869288 0.380877 0.392885
1.000000 0.393255 0.404613
0.111309 0.398896 0.363311
0.208526 0.419678 0.376121
0.310618 0.439293 0.388740
0.415436 0.458274 0.395436
0.547832 0.477123 0.402671
0.707330 0.495869 0.409751
0.867490 0.502788 0.416289
1.000000 0.513790 0.432142
0.123885 0.500917 0.391627
0.229154 0.519735 0.405283
0.334373 0.538495 0.412205
0.439837 0.557160 0.418504
0.545850 0.575564 0.424088
0.706830 0.593562 0.428893
0.868725 0.611033 0.432874
1.000000 0.631572 0.456477
0.146942 0.600122 0.420623
0.251715 0.618839 0.425930
0.356940 0.637219 0.430439
0.462814 0.655120 0.434114
0.569460 0.672427 0.436944
0.704010 0.689046 0.438938
0.866424 0.704906 0.440130
1.000000 0.723936 0.474757
0.163721 0.699625 0.435242
0.268216 0.717418 0.437765
0.373423 0.734521 0.439462
0.479357 0.750845 0.440375
0.585953 0.766324 0.440566
0.693063 0.780913 0.440123
0.854654 0.794591 0.439154
1.000000 0.810089 0.474056
0.017491 0.029491 0.210652
0.082757 0.040564 0.228177
0.149034 0.052291 0.246819
0.273014 0.063426 0.268643
0.402817 0.073247 0.293035
0.540000 0.081353 0.318929
0.685591 0.087489 0.345408
0.840082 0.091545 0.371699
0.057036 0.123224 0.262033
0.127118 0.134856 0.287088
0.202455 0.145425 0.313294
0.311545 0.154558 0.339786
0.455260 0.162030 0.365844
0.606839 0.167762 0.390895
0.766082 0.171817 0.414509
0.932259 0.174406 0.436402
0.091322 0.224307 0.334104
0.169287 0.235430 0.359854
0.254465 0.245010 0.384424
0.347034 0.252993 0.407437
0.500834 0.259473 0.428661
0.660779 0.264689 0.448012
0.825448 0.269024 0.465549
0.992881 0.273005 0.475023
0.107717 0.313978 0.400126
0.195401 0.335824 0.420671
0.290058 0.356147 0.439347
0.390639 0.363600 0.456266
0.522660 0.370208 0.471684
0.684006 0.376527 0.486005
0.844931 0.383259 0.493322
1.000000 0.391404 0.500511
0.111691 0.413781 0.446783
0.209993 0.434116 0.461747
0.312824 0.453448 0.475796
0.417901 0.472353 0.489514
0.523173 0.491173 0.503173
0.682797 0.498250 0.510177
0.843183 0.505062 0.516737
1.000000 0.512312 0.523456
0.126342 0.514987 0.479245
0.231577 0.533775 0.492862
0.336794 0.552522 0.506172
0.442312 0.571116 0.518991
0.548416 0.589397 0.524759
0.682409 0.607229 0.529845
0.844414 0.624498 0.534187
1.000000 0.630614 0.540923
0.148985 0.614176 0.508262
0.253719 0.632795 0.520242
0.358945 0.651027 0.531515
0.464844 0.668739 0.535575
0.571517 0.685822 0.538844
0.678984 0.702190 0.541314
0.841378 0.717778 0.543000
1.000000 0.733143 0.547976
0.164946 0.713408 0.530406
0.269426 0.730978 0.539836
0.374625 0.747825 0.542017
0.480541 0.763868 0.543426
0.587088 0.779048 0.544106
0.694103 0.793329 0.544128
0.828435 0.806697 0.543580
0.989756 0.819161 0.542576
0.021158 0.033158 0.255609
0.086700 0.044506 0.273410
0.153671 0.056189 0.293334
0.251835 0.066932 0.317599
0.383189 0.076208 0.344989
0.522073 0.083666 0.374320
0.669388 0.089101 0.404551
0.825505 0.092452 0.434791
0.061079 0.127265 0.312023
0.131847 0.138586 0.340249
0.208166 0.148702 0.370020
0.291317 0.157289 0.400350
0.436240 0.164172 0.430399
0.588952 0.169319 0.459474
0.749132 0.172846 0.487023
0.915924 0.175011 0.512643
0.093845 0.228249 0.396110
0.172723 0.238862 0.425877
0.258890 0.247898 0.454452
0.352400 0.255353 0.481338
0.479872 0.261370 0.506184
0.640291 0.266237 0.528783
0.805013 0.270385 0.549074
0.971957 0.274393 0.567140
0.108428 0.329248 0.475382
0.197159 0.350555 0.499426
0.292716 0.358801 0.521184
0.393926 0.365914 0.540647
0.499086 0.372354 0.557953
0.660150 0.378728 0.573381
0.820304 0.385724 0.587401
0.979772 0.392933 0.601062
0.112175 0.428499 0.531934
0.211562 0.448436 0.548516
0.315109 0.467554 0.563359
0.420359 0.486423 0.577133
0.525608 0.493596 0.590757
0.658315 0.500601 0.604209
0.818917 0.507289 0.617339
0.980527 0.513528 0.623563
0.128789 0.529047 0.566853
0.233983 0.547817 0.580431
0.339199 0.566531 0.593782
0.444768 0.585036 0.606761
0.550958 0.603179 0.619242
0.657955 0.620831 0.631123
0.820057 0.626273 0.635873
0.983095 0.631035 0.639886
0.150958 0.628203 0.596116
0.255655 0.646707 0.608389
0.360882 0.664775 0.620031
0.466801 0.682285 0.630970
0.573495 0.699133 0.641157
0.680965 0.715243 0.644114
0.816228 0.730556 0.646291
0.979124 0.745041 0.647706
0.166080 0.727119 0.619515
0.270546 0.744454 0.629421
0.375735 0.761036 0.638545
0.481628 0.776792 0.646893
0.588120 0.791669 0.648039
0.695027 0.805641 0.648486
0.802084 0.818700 0.648306
0.963139 0.830862 0.647593
0.024922 0.036922 0.300664
0.090738 0.048526 0.318774
0.158578 0.059974 0.340982
0.230917 0.070267 0.368228
0.363793 0.078958 0.399057
0.504323 0.085745 0.432166
0.653288 0.090471 0.466394
0.810933 0.093127 0.500728
0.065035 0.131219 0.363857
0.136516 0.142176 0.395659
0.213824 0.151801 0.429301
0.298114 0.159822 0.463678
0.417107 0.166112 0.497828
0.570891 0.170689 0.530937
0.731923 0.173716 0.562334
0.899224 0.175504 0.591495
0.096166 0.232024 0.460931
0.175976 0.242111 0.494789
0.263127 0.250603 0.527345
0.357551 0.257547 0.557981
0.458645 0.263133 0.586225
0.619466 0.267700 0.611752
0.784148 0.271728 0.634377
0.950486 0.275846 0.654066
0.109013 0.344329 0.553309
0.198799 0.353505 0.580594
0.295242 0.361324 0.605078
0.397045 0.368149 0.626631
0.502382 0.374492 0.645269
0.635984 0.381006 0.661154
0.795666 0.388182 0.675021
0.955118 0.395355 0.688651
0.112798 0.443064 0.618496
0.213269 0.462661 0.636106
0.317508 0.481637 0.651056
0.422806 0.488871 0.664742
0.528088 0.496001 0.678351
0.633876 0.502915 0.691901
0.794683 0.509464 0.705239
0.956504 0.515523 0.718215
0.131224 0.543095 0.654450
0.236366 0.561855 0.668046
0.341581 0.580516 0.681537
0.447199 0.598914 0.694760
0.553469 0.616903 0.707571
0.660556 0.622751 0.719850
0.795646 0.627970 0.731498
0.958744 0.632486 0.742441
0.152857 0.642196 0.684227
0.257519 0.660567 0.696857
0.362747 0.678459 0.708916
0.468682 0.695754 0.720315
0.575390 0.712359 0.730987
0.682852 0.728204 0.740887
0.790971 0.743239 0.749995
0.953760 0.745826 0.751859
0.167123 0.740754 0.709035
0.271575 0.757843 0.719430
0.376754 0.774152 0.729043
0.482618 0.789614 0.737861
0.589045 0.804186 0.745893
0.695833 0.817847 0.753170
0.802697 0.830598 0.753296
0.936370 0.842464 0.752798
0.028780 0.040780 0.345812
0.094961 0.052509 0.364883
0.163714 0.063624 0.390078
0.237316 0.073417 0.420790
0.344584 0.081487 0.455447
0.486708 0.087584 0.492623
0.637246 0.091601 0.531039
0.796320 0.093578 0.569561
0.068886 0.135066 0.417777
0.141106 0.145611 0.453508
0.219405 0.154714 0.491276
0.304817 0.162154 0.529854
0.397839 0.167853 0.568162
0.552631 0.171878 0.605263
0.714429 0.174443 0.640367
0.882130 0.175905 0.672830
0.098286 0.235625 0.528632
0.179044 0.245174 0.566601
0.267174 0.253128 0.603059
0.362484 0.259582 0.637269
0.464247 0.264778 0.668638
0.598298 0.269100 0.696717
0.762844 0.273081 0.721206
0.928458 0.277396 0.741946
0.109490 0.347614 0.633793
0.200339 0.356297 0.664008
0.297652 0.363730 0.690808
0.400010 0.370328 0.713942
0.505463 0.376648 0.733306
0.611523 0.383395 0.748941
0.771018 0.390630 0.762630
0.930565 0.397739 0.776266
0.113596 0.457494 0.706177
0.215148 0.476813 0.724172
0.319973 0.484102 0.738682
0.425243 0.491307 0.752340
0.530609 0.498381 0.766009
0.636567 0.505187 0.779753
0.770469 0.511583 0.793381
0.932488 0.517450 0.806724
0.133641 0.557135 0.742044
0.238719 0.575881 0.755763
0.343935 0.594470 0.769485
0.449599 0.612744 0.783028
0.555942 0.618954 0.796230
0.663111 0.624598 0.808952
0.771176 0.629586 0.821078
0.934316 0.633850 0.832515
0.154678 0.656150 0.772630
0.259309 0.674373 0.785671
0.364536 0.692073 0.798189
0.470484 0.709144 0.810073
0.577198 0.725497 0.821241
0.684642 0.741071 0.831628
0.792699 0.744212 0.841196
0.928267 0.746513 0.849926
0.168073 0.754309 0.798974
0.272515 0.771142 0.809863
0.377680 0.787169 0.819955
0.483511 0.802333 0.829219
0.589865 0.816597 0.837645
0.696521 0.829948 0.845246
0.803177 0.842395 0.852060
0.909450 0.853969 0.858143
