omv/luts/34_emergency_red.cube
# Original OMV LUT; redistribution permitted with OMV.
TITLE "Emergency Red"
LUT_3D_SIZE 32
DOMAIN_MIN 0.0 0.0 0.0
DOMAIN_MAX 1.0 1.0 1.0
0.004000 0.016000 0.032000
0.033387 0.018290 0.034290
0.062892 0.020699 0.036699
0.092473 0.023183 0.039183
0.122119 0.025732 0.041732
0.151825 0.028341 0.044341
0.181588 0.031007 0.047007
0.211405 0.033728 0.049728
0.241275 0.036500 0.052500
0.271195 0.039324 0.055324
0.301164 0.042197 0.058197
0.331182 0.045117 0.061117
0.361259 0.048081 0.064080
0.391573 0.051026 0.067020
0.422207 0.053928 0.069909
0.453194 0.056776 0.072738
0.484566 0.059561 0.075498
0.516350 0.062274 0.078179
0.548574 0.064907 0.080776
0.581263 0.067454 0.083280
0.614439 0.069907 0.085685
0.648123 0.072260 0.087985
0.682334 0.074507 0.090175
0.717087 0.076643 0.092249
0.752397 0.078664 0.094203
0.788278 0.080566 0.096035
0.824737 0.082346 0.097740
0.861785 0.084000 0.099316
0.899427 0.085526 0.100761
0.937666 0.086923 0.102073
0.976505 0.088190 0.103253
1.000000 0.091473 0.106153
0.012104 0.031846 0.040104
0.034998 0.037320 0.042675
0.064725 0.042854 0.045306
0.094508 0.045540 0.047992
0.124344 0.048280 0.050731
0.154232 0.051071 0.053523
0.184171 0.053913 0.056364
0.214158 0.056803 0.059255
0.244192 0.059741 0.062192
0.274315 0.062711 0.065156
0.304666 0.065664 0.068078
0.335287 0.068588 0.070947
0.366214 0.071472 0.073751
0.397479 0.074307 0.076483
0.429112 0.077084 0.079135
0.461142 0.079794 0.081699
0.493596 0.082429 0.084167
0.526496 0.084983 0.086535
0.559865 0.087448 0.088795
0.593724 0.089818 0.090943
0.628090 0.092088 0.092974
0.662979 0.094253 0.094885
0.698404 0.096308 0.096670
0.734378 0.098250 0.098329
0.770910 0.100075 0.099857
0.808008 0.101781 0.101254
0.845677 0.103365 0.102518
0.883920 0.104826 0.103649
0.922738 0.106164 0.104646
0.962132 0.107377 0.105511
1.000000 0.108749 0.106533
1.000000 0.115250 0.112799
0.020983 0.048467 0.048983
0.037290 0.054129 0.051742
0.067197 0.059842 0.054551
0.097153 0.065604 0.057411
0.127157 0.071415 0.060319
0.157209 0.074370 0.063273
0.187370 0.077348 0.066226
0.217716 0.080321 0.069129
0.248285 0.083279 0.071975
0.279114 0.086211 0.074755
0.310236 0.089108 0.077458
0.341683 0.091958 0.080079
0.373485 0.094754 0.082609
0.405670 0.097488 0.085041
0.438264 0.100151 0.087370
0.471289 0.102737 0.089590
0.504767 0.105239 0.091696
0.538719 0.107650 0.093684
0.573160 0.109966 0.095549
0.608107 0.112182 0.097289
0.643572 0.114293 0.098900
0.679567 0.116296 0.100381
0.716100 0.118187 0.101730
0.753179 0.119964 0.102945
0.790808 0.121625 0.104028
0.828990 0.123168 0.104976
0.867726 0.124594 0.105793
0.907014 0.125900 0.106478
0.946850 0.127088 0.107033
0.987230 0.128159 0.107461
1.000000 0.132963 0.112375
1.000000 0.139568 0.119418
0.030464 0.065690 0.058464
0.046937 0.071518 0.061389
0.070235 0.077391 0.064353
0.100400 0.083290 0.067289
0.130701 0.089198 0.070173
0.161180 0.095105 0.072995
0.191874 0.100999 0.075748
0.222817 0.103967 0.078422
0.254044 0.106901 0.081011
0.285585 0.109794 0.083506
0.317470 0.112635 0.085902
0.349726 0.115417 0.088192
0.382378 0.118132 0.090371
0.415449 0.120774 0.092434
0.448960 0.123335 0.094377
0.482929 0.125809 0.096197
0.517373 0.128192 0.097890
0.552307 0.130479 0.099454
0.587744 0.132665 0.100887
0.623693 0.134748 0.102188
0.660164 0.136723 0.103355
0.697162 0.138589 0.104388
0.734692 0.140343 0.105289
0.772756 0.141984 0.106057
0.811354 0.143512 0.106695
0.850483 0.144927 0.107203
0.890141 0.146228 0.107586
0.930320 0.147416 0.107845
0.971012 0.148494 0.107986
1.000000 0.151131 0.110346
1.000000 0.157770 0.118250
1.000000 0.164487 0.126160
0.040478 0.083446 0.068345
0.057149 0.089397 0.071208
0.073951 0.095361 0.074006
0.104473 0.101325 0.076731
0.135203 0.107278 0.079375
0.166175 0.113210 0.081930
0.197424 0.119111 0.084390
0.228978 0.124973 0.086748
0.260867 0.130786 0.088998
0.293117 0.133639 0.091135
0.325753 0.136427 0.093156
0.358798 0.139145 0.095054
0.392270 0.141786 0.096828
0.426189 0.144343 0.098475
0.460571 0.146812 0.099991
0.495429 0.149188 0.101376
0.530776 0.151467 0.102628
0.566621 0.153645 0.103747
0.602973 0.155720 0.104732
0.639836 0.157689 0.105584
0.677215 0.159551 0.106304
0.715110 0.161304 0.106895
0.753522 0.162948 0.107357
0.792448 0.164482 0.107694
0.831883 0.165907 0.107910
0.871819 0.167224 0.108008
0.912249 0.168434 0.107993
0.953161 0.169541 0.107869
0.994543 0.170546 0.107643
1.000000 0.176459 0.115396
1.000000 0.183203 0.124307
1.000000 0.190030 0.133171
0.050762 0.101711 0.077704
0.067696 0.107756 0.080316
0.084833 0.113793 0.082837
0.108983 0.119809 0.085260
0.140176 0.125796 0.087580
0.171670 0.131745 0.089789
0.203491 0.137647 0.091885
0.235666 0.143495 0.093861
0.268220 0.149280 0.095715
0.301172 0.154996 0.097443
0.334544 0.160637 0.099042
0.368352 0.163294 0.100511
0.402613 0.165866 0.101847
0.437339 0.168346 0.103051
0.472542 0.170733 0.104121
0.508232 0.173022 0.105057
0.544414 0.175210 0.105861
0.581095 0.177296 0.106534
0.618277 0.179277 0.107078
0.655962 0.181152 0.107494
0.694147 0.182922 0.107787
0.732831 0.184585 0.107959
0.772006 0.186143 0.108015
0.811667 0.187597 0.107960
0.851803 0.188948 0.107798
0.892403 0.190199 0.107537
0.933452 0.191353 0.107181
0.974937 0.192412 0.106739
1.000000 0.195680 0.110541
1.000000 0.202428 0.120683
1.000000 0.209268 0.130693
1.000000 0.216195 0.140592
0.060890 0.120602 0.086117
0.078145 0.126723 0.088397
0.095667 0.132817 0.090566
0.113484 0.138873 0.092618
0.145173 0.144883 0.094550
0.177212 0.150839 0.096359
0.209622 0.156735 0.098040
0.242425 0.162563 0.099592
0.275640 0.168317 0.101013
0.309285 0.173992 0.102301
0.343373 0.179583 0.103456
0.377918 0.185086 0.104477
0.412931 0.190496 0.105365
0.448419 0.192907 0.106121
0.484391 0.195220 0.106747
0.520849 0.197432 0.107244
0.557797 0.199542 0.107615
0.595235 0.201550 0.107863
0.633160 0.203453 0.107993
0.671570 0.205254 0.108008
0.710457 0.206952 0.107913
0.749815 0.208548 0.107715
0.789632 0.210045 0.107418
0.829897 0.211445 0.107030
0.870595 0.212751 0.106558
0.911710 0.213966 0.106009
0.953224 0.215094 0.105392
0.995115 0.216141 0.104717
1.000000 0.222202 0.114936
1.000000 0.229025 0.126352
1.000000 0.235947 0.137551
1.000000 0.242959 0.148560
0.070501 0.140222 0.093336
0.088132 0.146402 0.095223
0.106084 0.152537 0.096986
0.124381 0.158618 0.098620
0.149821 0.164639 0.100125
0.182424 0.170593 0.101497
0.215434 0.176474 0.102737
0.248869 0.182277 0.103843
0.282741 0.187996 0.104816
0.317063 0.193628 0.105656
0.351846 0.199169 0.106364
0.387096 0.204616 0.106942
0.422821 0.209965 0.107393
0.459024 0.215216 0.107719
0.495707 0.220366 0.107924
0.532869 0.222512 0.108011
0.570508 0.224555 0.107986
0.608620 0.226498 0.107853
0.647197 0.228340 0.107618
0.686232 0.230083 0.107287
0.725713 0.231728 0.106867
0.765628 0.233279 0.106366
0.805961 0.234738 0.105792
0.846696 0.236110 0.105153
0.887813 0.237397 0.104458
0.929292 0.238606 0.103716
0.971109 0.239741 0.102939
1.000000 0.242577 0.106600
1.000000 0.249344 0.119759
1.000000 0.256224 0.132549
1.000000 0.263208 0.145019
1.000000 0.270286 0.157210
0.079309 0.160649 0.099183
0.097366 0.166869 0.100640
0.115790 0.173028 0.101964
0.134601 0.179120 0.103155
0.153817 0.185139 0.104213
0.187002 0.191080 0.105137
0.220621 0.196938 0.105929
0.254686 0.202708 0.106590
0.289206 0.208388 0.107121
0.324188 0.213974 0.107526
0.359639 0.219464 0.107808
0.395560 0.224855 0.107969
0.431954 0.230147 0.108015
0.468819 0.235339 0.107949
0.506153 0.240430 0.107778
0.543949 0.245421 0.107508
0.582202 0.250312 0.107144
0.620901 0.252203 0.106694
0.660036 0.253998 0.106165
0.699592 0.255700 0.105566
0.739555 0.257312 0.104906
0.779906 0.258837 0.104193
0.820626 0.260281 0.103437
0.861693 0.261648 0.102649
0.903083 0.262944 0.101841
0.944771 0.264174 0.101023
0.986727 0.265346 0.100207
1.000000 0.270279 0.110394
1.000000 0.277072 0.125157
1.000000 0.283984 0.139416
1.000000 0.291006 0.153239
1.000000 0.298129 0.166678
0.087099 0.181933 0.103555
0.105630 0.188173 0.104565
0.124566 0.194339 0.105441
0.143921 0.200426 0.106184
0.163709 0.206429 0.106798
0.190714 0.212345 0.107283
0.224946 0.218170 0.107643
0.259637 0.223901 0.107880
0.294792 0.229535 0.107999
0.330414 0.235071 0.108003
0.366503 0.240508 0.107899
0.403057 0.245844 0.107691
0.440072 0.251080 0.107386
0.477544 0.256217 0.106990
0.515464 0.261255 0.106510
0.553823 0.266196 0.105955
0.592607 0.271042 0.105332
0.631804 0.275795 0.104652
0.671397 0.280460 0.103922
0.711368 0.282136 0.103153
0.751696 0.283732 0.102357
0.792359 0.285253 0.101543
0.833333 0.286703 0.100725
0.874590 0.288089 0.099914
0.916103 0.289419 0.099122
0.957840 0.290698 0.098365
0.999769 0.291935 0.097655
1.000000 0.298548 0.114798
1.000000 0.305337 0.131280
1.000000 0.312256 0.147103
1.000000 0.319292 0.162354
1.000000 0.326435 0.177106
0.093730 0.204094 0.106423
0.112779 0.210334 0.106989
0.132262 0.216488 0.107428
0.152188 0.222553 0.107743
0.172565 0.228527 0.107937
0.193401 0.234405 0.108013
0.228247 0.240186 0.107978
0.263557 0.245868 0.107835
0.299331 0.251450 0.107591
0.335567 0.256932 0.107252
0.372260 0.262313 0.106825
0.409404 0.267593 0.106316
0.446991 0.272775 0.105736
0.485010 0.277860 0.105091
0.523449 0.282849 0.104391
0.562293 0.287747 0.103646
0.601524 0.292556 0.102866
0.641125 0.297280 0.102062
0.681074 0.301924 0.101245
0.721348 0.306494 0.100428
0.761923 0.310993 0.099622
0.802770 0.312527 0.098842
0.843860 0.314004 0.098100
0.885163 0.315432 0.097411
0.926645 0.316820 0.096790
0.968269 0.318175 0.096252
1.000000 0.320741 0.100688
1.000000 0.327334 0.119974
1.000000 0.334089 0.138289
1.000000 0.340986 0.155769
1.000000 0.348010 0.172524
1.000000 0.355148 0.188648
0.099135 0.227126 0.107827
0.118742 0.233343 0.107978
0.138803 0.239467 0.108013
0.159323 0.245494 0.107938
0.180304 0.251421 0.107758
0.201750 0.257249 0.107478
0.230433 0.262974 0.107106
0.266351 0.268598 0.106648
0.302724 0.274120 0.106113
0.339545 0.279541 0.105508
0.376806 0.284863 0.104842
0.414494 0.290086 0.104125
0.452598 0.295213 0.103366
0.491102 0.300248 0.102576
0.529988 0.305193 0.101766
0.569236 0.310054 0.100947
0.608826 0.314834 0.100133
0.648733 0.319539 0.099335
0.688933 0.324174 0.098567
0.729396 0.328746 0.097842
0.770093 0.333262 0.097176
0.810992 0.337730 0.096584
0.852060 0.342157 0.096080
0.893259 0.343649 0.095681
0.934551 0.345118 0.095404
0.975897 0.346574 0.095266
1.000000 0.350076 0.104624
1.000000 0.356583 0.126099
1.000000 0.363271 0.146365
1.000000 0.370117 0.165593
1.000000 0.377102 0.183925
1.000000 0.384212 0.201478
0.103318 0.250993 0.107884
0.123520 0.257166 0.107667
0.144186 0.263238 0.107353
0.165319 0.269208 0.106949
0.186916 0.275074 0.106462
0.208974 0.280835 0.105900
0.231488 0.286493 0.105272
0.267998 0.292048 0.104586
0.304946 0.297502 0.103853
0.342320 0.302856 0.103081
0.380108 0.308113 0.102282
0.418292 0.313275 0.101468
0.456854 0.318348 0.100650
0.495775 0.323333 0.099840
0.535033 0.328238 0.099051
0.574603 0.333066 0.098297
0.614459 0.337824 0.097593
0.654572 0.342519 0.096951
0.694911 0.347156 0.096389
0.735445 0.351745 0.095922
0.776138 0.356292 0.095565
0.816954 0.360807 0.095337
0.857854 0.365299 0.095254
0.898797 0.369778 0.095335
0.939739 0.374254 0.095598
0.980636 0.375836 0.096062
1.000000 0.379856 0.109566
1.000000 0.386241 0.133384
1.000000 0.392829 0.155717
1.000000 0.399594 0.176785
1.000000 0.406511 0.196757
1.000000 0.413538 0.215699
0.106355 0.275631 0.106781
0.127185 0.281737 0.106266
0.148482 0.287737 0.105679
0.170244 0.293630 0.105029
0.192463 0.299416 0.104324
0.215132 0.305097 0.103575
0.238240 0.310674 0.102793
0.268549 0.316148 0.101987
0.306045 0.321524 0.101170
0.343937 0.326803 0.100353
0.382206 0.331990 0.099549
0.420832 0.337088 0.098772
0.459792 0.342104 0.098034
0.499061 0.347041 0.097351
0.538611 0.351907 0.096737
0.578415 0.356707 0.096207
0.618440 0.361449 0.095778
0.658654 0.366141 0.095467
0.699021 0.370790 0.095289
0.739503 0.375407 0.095264
0.780062 0.379999 0.095408
0.820655 0.384577 0.095742
0.861240 0.389152 0.096285
0.901770 0.393735 0.097056
0.942197 0.398337 0.098076
0.982472 0.402971 0.099366
1.000000 0.410030 0.115760
1.000000 0.416243 0.142042
1.000000 0.422656 0.166406
1.000000 0.429237 0.189134
1.000000 0.435960 0.210459
1.000000 0.442805 0.230571
0.108397 0.300949 0.104778
0.129884 0.306963 0.104056
0.151832 0.312868 0.103294
0.174235 0.318664 0.102502
0.197079 0.324353 0.101690
0.220354 0.329936 0.100872
0.244043 0.335418 0.100058
0.268129 0.340800 0.099263
0.306142 0.346086 0.098498
0.344512 0.351282 0.097778
0.383215 0.356392 0.097119
0.422226 0.361422 0.096533
0.461517 0.366378 0.096039
0.501059 0.371266 0.095650
0.540820 0.376094 0.095385
0.580766 0.380869 0.095261
0.620861 0.385600 0.095296
0.661067 0.390297 0.095507
0.701344 0.394967 0.095915
0.741650 0.399622 0.096538
0.781940 0.404272 0.097397
0.822168 0.408929 0.098513
0.862286 0.413604 0.099907
0.902244 0.418309 0.101599
0.942124 0.423027 0.103414
0.981999 0.427741 0.105225
1.000000 0.434817 0.122779
1.000000 0.443700 0.151270
1.000000 0.452424 0.177511
1.000000 0.458761 0.201852
1.000000 0.465265 0.224564
1.000000 0.471911 0.245872
0.109667 0.326825 0.102208
0.131836 0.332723 0.101393
0.154452 0.338510 0.100574
0.177503 0.344188 0.099766
0.200973 0.349760 0.098980
0.224845 0.355229 0.098230
0.249097 0.360599 0.097531
0.273708 0.365875 0.096896
0.305429 0.371061 0.096342
0.344234 0.376165 0.095884
0.383319 0.381190 0.095539
0.422654 0.386146 0.095323
0.462208 0.391038 0.095254
0.501946 0.395875 0.095351
0.541831 0.400665 0.095632
0.581824 0.405418 0.096116
0.621886 0.410143 0.096823
0.661972 0.414849 0.097773
0.702038 0.419549 0.098988
0.742038 0.424253 0.100488
0.781938 0.428970 0.102260
0.821816 0.433687 0.104074
0.861689 0.438399 0.105883
0.901558 0.443106 0.107687
0.941420 0.447807 0.109485
0.981277 0.452502 0.111277
1.000000 0.459538 0.129730
1.000000 0.468496 0.160599
1.000000 0.477275 0.188831
1.000000 0.485902 0.214851
1.000000 0.494396 0.238997
1.000000 0.500825 0.261539
0.110458 0.353111 0.099476
0.133331 0.358866 0.098702
0.156629 0.364511 0.097969
0.180334 0.370049 0.097291
0.204425 0.375484 0.096684
0.228881 0.380820 0.096163
0.253675 0.386063 0.095744
0.278782 0.391218 0.095444
0.304173 0.396292 0.095280
0.343364 0.401292 0.095270
0.382776 0.406225 0.095431
0.422372 0.411100 0.095783
0.462116 0.415924 0.096346
0.501968 0.420707 0.097139
0.541887 0.425459 0.098183
0.581829 0.430191 0.099500
0.621749 0.434912 0.101110
0.661631 0.439631 0.102921
0.701507 0.444346 0.104733
0.741379 0.449056 0.106540
0.781245 0.453762 0.108342
0.821106 0.458461 0.110138
0.860959 0.463153 0.111927
0.900834 0.467837 0.113677
0.940763 0.472510 0.115356
0.980750 0.477170 0.116963
1.000000 0.484190 0.136494
1.000000 0.493226 0.169932
1.000000 0.502057 0.200298
1.000000 0.510714 0.228107
1.000000 0.519222 0.253766
1.000000 0.527599 0.277600
0.111139 0.379629 0.097061
0.134734 0.385215 0.096484
0.158723 0.390693 0.095998
0.183083 0.396067 0.095620
0.207788 0.401343 0.095368
0.232811 0.406527 0.095258
0.258122 0.411626 0.095308
0.283691 0.416645 0.095536
0.309484 0.421594 0.095963
0.342238 0.426479 0.096607
0.381917 0.431310 0.097489
0.421706 0.436096 0.098630
0.461563 0.440847 0.100051
0.501444 0.445573 0.101767
0.541323 0.450291 0.103581
0.581198 0.455004 0.105392
0.621068 0.459713 0.107197
0.660932 0.464416 0.108997
0.700790 0.469113 0.110790
0.740644 0.473802 0.112572
0.780529 0.478485 0.114296
0.820460 0.483160 0.115949
0.860440 0.487823 0.117531
0.900474 0.492473 0.119040
0.940565 0.497106 0.120477
0.980718 0.501721 0.121841
1.000000 0.508774 0.143012
1.000000 0.517881 0.179261
1.000000 0.526756 0.211930
1.000000 0.535434 0.241650
1.000000 0.543946 0.268909
1.000000 0.552313 0.294094
0.112150 0.406174 0.095513
0.136481 0.411562 0.095310
0.161167 0.416847 0.095256
0.186178 0.422034 0.095369
0.211486 0.427129 0.095668
0.237057 0.432141 0.096171
0.262857 0.437077 0.096900
0.288851 0.441944 0.097874
0.314999 0.446753 0.099114
0.341262 0.451511 0.100642
0.381137 0.456234 0.102428
0.421015 0.460950 0.104241
0.460888 0.465662 0.106049
0.500756 0.470369 0.107853
0.540618 0.475070 0.109650
0.580473 0.479764 0.111441
0.620331 0.484452 0.113208
0.660220 0.489136 0.114906
0.700146 0.493813 0.116533
0.740113 0.498481 0.118088
0.780127 0.503137 0.119572
0.820190 0.507779 0.120982
0.860308 0.512404 0.122320
0.900483 0.517009 0.123585
0.940719 0.521593 0.124778
0.981018 0.526153 0.125898
1.000000 0.533273 0.149251
1.000000 0.542445 0.188586
1.000000 0.551355 0.223751
1.000000 0.560045 0.255516
1.000000 0.568550 0.284468
1.000000 0.576896 0.311066
0.114002 0.432510 0.095455
0.139081 0.437672 0.095826
0.164466 0.442737 0.096409
0.190123 0.447711 0.097225
0.216017 0.452604 0.098293
0.242113 0.457422 0.099635
0.268370 0.462176 0.101274
0.294701 0.466895 0.103088
0.321029 0.471610 0.104900
0.347352 0.476320 0.106707
0.380443 0.481024 0.108508
0.420303 0.485723 0.110303
0.460156 0.490414 0.112091
0.500018 0.495103 0.113835
0.539903 0.499789 0.115507
0.579817 0.504471 0.117108
0.619766 0.509146 0.118637
0.659753 0.513810 0.120093
0.699783 0.518461 0.121478
0.739860 0.523097 0.122789
0.779987 0.527716 0.124028
0.820169 0.532314 0.125194
0.860407 0.536890 0.126287
0.900705 0.541442 0.127308
0.941066 0.545967 0.128257
0.981490 0.550463 0.129134
1.000000 0.557667 0.155169
1.000000 0.566898 0.197907
1.000000 0.575832 0.235786
1.000000 0.584523 0.269742
1.000000 0.593010 0.300486
1.000000 0.601323 0.328563
0.117282 0.458376 0.097583
0.143116 0.463281 0.098749
0.169198 0.468098 0.100196
0.195483 0.472837 0.101934
0.221813 0.477555 0.103748
0.248139 0.482268 0.105558
0.274460 0.486976 0.107363
0.300775 0.491678 0.109162
0.327084 0.496374 0.110955
0.353387 0.501064 0.112734
0.379699 0.505756 0.114452
0.419575 0.510447 0.116098
0.459471 0.515135 0.117673
0.499395 0.519817 0.119175
0.539350 0.524491 0.120606
0.579340 0.529154 0.121964
0.619371 0.533803 0.123249
0.659446 0.538436 0.124461
0.699568 0.543050 0.125600
0.739741 0.547643 0.126667
0.779968 0.552213 0.127662
0.820251 0.556758 0.128584
0.860593 0.561275 0.129435
0.900995 0.565764 0.130215
0.941460 0.570221 0.130924
0.981989 0.574645 0.131563
1.000000 0.581932 0.160705
1.000000 0.591214 0.207219
1.000000 0.600163 0.248058
1.000000 0.608844 0.284371
1.000000 0.617301 0.317013
1.000000 0.625569 0.346639
0.122595 0.483498 0.102595
0.148924 0.488214 0.104408
0.175248 0.492926 0.106216
0.201567 0.497632 0.108019
0.227880 0.502332 0.109816
0.254187 0.507025 0.111606
0.280488 0.511716 0.113368
0.306791 0.516412 0.115059
0.333102 0.521109 0.116680
0.359427 0.525805 0.118228
0.385771 0.530497 0.119705
0.418913 0.535183 0.121108
0.458859 0.539858 0.122440
0.498838 0.544522 0.123698
0.538855 0.549170 0.124884
0.578913 0.553801 0.125997
0.619016 0.558413 0.127038
0.659167 0.563002 0.128006
0.699369 0.567568 0.128902
0.739624 0.572107 0.129727
0.779935 0.576618 0.130481
0.820303 0.581099 0.131165
0.860730 0.585548 0.131779
0.901218 0.589963 0.132324
0.941768 0.594342 0.132801
0.982379 0.598684 0.133211
1.000000 0.606040 0.165778
1.000000 0.615365 0.216508
1.000000 0.624321 0.260593
1.000000 0.632979 0.299446
1.000000 0.641394 0.334106
1.000000 0.649606 0.365351
0.128674 0.508287 0.108674
0.154985 0.512985 0.110468
0.181288 0.517676 0.112255
0.207582 0.522371 0.113992
0.233870 0.527072 0.115657
0.260159 0.531777 0.117252
0.286454 0.536483 0.118774
0.312762 0.541186 0.120224
0.339086 0.545884 0.121602
0.365433 0.550574 0.122906
0.391807 0.555253 0.124138
0.418212 0.559919 0.125298
0.458202 0.564568 0.126384
0.498230 0.569200 0.127399
0.538300 0.573810 0.128341
0.578417 0.578397 0.129211
0.618581 0.582959 0.130010
0.658796 0.587494 0.130738
0.699064 0.592000 0.131396
0.739387 0.596474 0.131985
0.779766 0.600915 0.132505
0.820203 0.605321 0.132958
0.860698 0.609691 0.133344
0.901252 0.614023 0.133664
0.941864 0.618315 0.133920
0.982536 0.622567 0.134112
1.000000 0.629956 0.170276
1.000000 0.639321 0.225748
1.000000 0.648273 0.273412
1.000000 0.656898 0.315016
1.000000 0.665259 0.351822
1.000000 0.673402 0.384763
0.134667 0.533028 0.114606
0.160934 0.537738 0.116246
0.187194 0.542452 0.117814
0.213454 0.547169 0.119310
0.239719 0.551885 0.120734
0.265994 0.556598 0.122085
0.292285 0.561303 0.123363
0.318597 0.565999 0.124569
0.344935 0.570683 0.125702
0.371302 0.575352 0.126762
0.397702 0.580004 0.127750
0.424140 0.584636 0.128666
0.457392 0.589247 0.129510
0.497462 0.593833 0.130283
0.537578 0.598392 0.130986
0.577743 0.602923 0.131619
0.617958 0.607423 0.132182
0.658225 0.611891 0.132678
0.698546 0.616325 0.133106
0.738922 0.620723 0.133468
0.779353 0.625084 0.133764
0.819841 0.629405 0.133997
0.860384 0.633686 0.134167
0.900984 0.637925 0.134276
0.941638 0.642120 0.134325
0.982348 0.646272 0.134315
1.000000 0.653643 0.174040
1.000000 0.663045 0.234900
1.000000 0.671985 0.286538
1.000000 0.680567 0.331134
1.000000 0.688863 0.370231
1.000000 0.696924 0.404948
0.140422 0.557865 0.119837
0.166639 0.562595 0.121234
0.192860 0.567323 0.122559
0.219090 0.572046 0.123811
0.245335 0.576760 0.124990
0.271600 0.581464 0.126096
0.297889 0.586154 0.127130
0.324206 0.590827 0.128092
0.350555 0.595482 0.128982
0.376939 0.600116 0.129800
0.403362 0.604727 0.130547
0.429827 0.609312 0.131224
0.456337 0.613869 0.131832
0.496441 0.618397 0.132371
0.536593 0.622892 0.132841
0.576796 0.627354 0.133245
0.617050 0.631781 0.133583
0.657357 0.636171 0.133856
0.697716 0.640521 0.134066
0.738130 0.644832 0.134214
0.778596 0.649101 0.134301
0.819117 0.653326 0.134328
0.859689 0.657508 0.134298
0.900314 0.661644 0.134212
0.940989 0.665733 0.134071
0.981714 0.669775 0.133879
1.000000 0.677060 0.176853
1.000000 0.686499 0.243903
1.000000 0.695423 0.299990
1.000000 0.703952 0.347860
1.000000 0.712171 0.389409
1.000000 0.720140 0.425989
0.145844 0.582803 0.124248
0.172018 0.587537 0.125401
0.198205 0.592261 0.126481
0.224411 0.596973 0.127488
0.250640 0.601670 0.128424
0.276897 0.606349 0.129288
0.303184 0.611008 0.130080
0.329505 0.615644 0.130802
0.355864 0.620255 0.131454
0.382263 0.624840 0.132036
0.408704 0.629395 0.132550
0.435191 0.633919 0.132996
0.461725 0.638409 0.133376
0.495081 0.642865 0.133690
0.535260 0.647284 0.133940
0.575490 0.651665 0.134127
0.615772 0.656005 0.134252
0.656104 0.660304 0.134317
0.696488 0.664560 0.134324
0.736923 0.668772 0.134273
0.777408 0.672938 0.134167
0.817943 0.677058 0.134007
0.858525 0.681129 0.133796
0.899154 0.685152 0.133535
0.939827 0.689126 0.133226
0.980543 0.693049 0.132872
1.000000 0.700160 0.178410
1.000000 0.709643 0.252667
1.000000 0.718546 0.313785
1.000000 0.727015 0.365260
1.000000 0.735148 0.409444
1.000000 0.743013 0.447979
0.150867 0.607811 0.127837
0.177004 0.612532 0.128747
0.203164 0.617236 0.129584
0.229350 0.621920 0.130351
0.255566 0.626583 0.131047
0.281815 0.631221 0.131674
0.308101 0.635834 0.132231
0.334426 0.640417 0.132720
0.360792 0.644970 0.133142
0.387202 0.649490 0.133498
0.413658 0.653976 0.133789
0.440160 0.658425 0.134015
0.466710 0.662835 0.134180
0.493310 0.667206 0.134283
0.533506 0.671535 0.134326
0.573753 0.675822 0.134312
0.614049 0.680064 0.134241
0.654394 0.684260 0.134115
0.694787 0.688410 0.133936
0.735227 0.692511 0.133706
0.775712 0.696564 0.133428
0.816242 0.700566 0.133102
0.856814 0.704518 0.132732
0.897426 0.708418 0.132319
0.938074 0.712266 0.131867
0.978757 0.716061 0.131376
1.000000 0.722891 0.178276
1.000000 0.732432 0.261061
1.000000 0.741316 0.327936
1.000000 0.749719 0.383414
1.000000 0.757758 0.430443
1.000000 0.765509 0.471033
0.155435 0.632855 0.130613
0.181542 0.637545 0.131283
0.207679 0.642212 0.131884
0.233848 0.646853 0.132417
0.260054 0.651465 0.132881
0.286297 0.656047 0.133279
0.312582 0.660597 0.133611
0.338909 0.665113 0.133879
0.365280 0.669592 0.134082
0.391698 0.674033 0.134224
0.418162 0.678435 0.134306
0.444673 0.682795 0.134328
0.471233 0.687112 0.134292
0.497840 0.691384 0.134201
0.531270 0.695611 0.134056
0.571521 0.699790 0.133858
0.611818 0.703922 0.133610
0.652161 0.708003 0.133314
0.692547 0.712035 0.132972
