omv/luts/35_frozen_platform.cube
# Original OMV LUT; redistribution permitted with OMV.
TITLE "Frozen Platform"
LUT_3D_SIZE 5
DOMAIN_MIN 0.000000 0.000000 0.000000
DOMAIN_MAX 0.903226 0.903226 0.903226
0.000000 0.036000 0.066000
0.167629 0.050080 0.080080
0.338185 0.066670 0.096633
0.516613 0.083048 0.112499
0.708177 0.097339 0.125808
0.053414 0.192283 0.117693
0.211055 0.217986 0.129861
0.399985 0.241877 0.138736
0.601080 0.256518 0.144662
0.812897 0.268751 0.148718
0.090816 0.373805 0.146276
0.243282 0.398557 0.150060
0.446261 0.420569 0.154616
0.654246 0.440784 0.162737
0.861573 0.460540 0.175443
0.117209 0.565209 0.167209
0.283703 0.584884 0.180109
0.471042 0.604467 0.192893
0.678598 0.623982 0.205584
0.885098 0.643297 0.218059
0.164911 0.747282 0.210160
0.332577 0.765772 0.222513
0.498515 0.783721 0.234379
0.702764 0.800929 0.245486
0.904333 0.817132 0.255497
0.004257 0.040257 0.214773
0.152768 0.055542 0.214252
0.324810 0.072382 0.215890
0.506130 0.088194 0.234517
0.700822 0.101545 0.252372
0.058587 0.205617 0.256996
0.197238 0.230824 0.258410
0.387881 0.247138 0.273324
0.590458 0.260917 0.285681
0.802916 0.272478 0.295965
0.093072 0.387020 0.289617
0.247228 0.410781 0.299407
0.430860 0.432041 0.308953
0.638502 0.451986 0.320438
0.845610 0.464903 0.333334
0.121621 0.576396 0.325170
0.288240 0.596010 0.337943
0.455458 0.615581 0.350369
0.662939 0.635046 0.362442
0.869150 0.654253 0.374099
0.170259 0.758086 0.366740
0.337673 0.776411 0.378217
0.503135 0.794133 0.389088
0.686423 0.811033 0.399141
0.887251 0.826823 0.408098
0.009154 0.045154 0.364186
0.138124 0.061221 0.364447
0.312048 0.077960 0.368364
0.496132 0.093049 0.375426
0.693719 0.105393 0.383017
0.063476 0.218833 0.415609
0.203515 0.236638 0.422894
0.375493 0.252101 0.428371
0.579388 0.265055 0.431196
0.792212 0.276063 0.447062
0.095196 0.399887 0.468889
0.251054 0.422711 0.468055
0.415240 0.443355 0.465470
0.622595 0.456401 0.478401
0.829676 0.469301 0.491128
0.125999 0.587548 0.498902
0.292908 0.607135 0.495605
0.460256 0.626683 0.507492
0.647280 0.646081 0.518814
0.853153 0.665154 0.529568
0.175633 0.768839 0.522797
0.342719 0.786980 0.533331
0.507640 0.804451 0.543188
0.669913 0.821009 0.552215
0.869958 0.836348 0.560193
0.014377 0.050377 0.513925
0.144146 0.066989 0.515325
0.299762 0.083340 0.523306
0.486480 0.097581 0.535826
0.686727 0.108881 0.549693
0.068052 0.225102 0.578231
0.209531 0.242176 0.591943
0.362786 0.256769 0.603858
0.567829 0.268962 0.612538
0.780739 0.279567 0.617271
0.097257 0.412415 0.652100
0.254823 0.434383 0.655362
0.419782 0.447803 0.654877
0.606653 0.460782 0.652137
0.813767 0.473734 0.648717
0.130416 0.598674 0.688374
0.297693 0.618256 0.684607
0.465100 0.637769 0.679994
0.631608 0.657079 0.674653
0.837095 0.669216 0.684445
0.181009 0.779536 0.709908
0.347691 0.797473 0.703650
0.512008 0.814665 0.696692
0.673536 0.830846 0.704746
0.852435 0.845689 0.711847
0.019852 0.055852 0.663916
0.150549 0.072695 0.667974
0.287827 0.088471 0.681456
0.477047 0.101767 0.700392
0.679712 0.112015 0.721007
0.072297 0.231153 0.745246
0.215262 0.247421 0.765680
0.370054 0.261153 0.783839
0.555750 0.272680 0.797689
0.768460 0.283058 0.805923
0.099333 0.424622 0.838750
0.258610 0.439070 0.844757
0.424232 0.452232 0.844554
0.590703 0.465146 0.841605
0.797880 0.478195 0.837620
0.135011 0.609800 0.877664
0.302580 0.629369 0.873251
0.469976 0.648831 0.867815
0.636231 0.661257 0.861535
0.820962 0.673204 0.854526
0.186361 0.790171 0.896431
0.352566 0.807881 0.889172
0.516215 0.824762 0.881237
0.676947 0.840529 0.872590
0.834658 0.854831 0.863134
