omv/luts/35_frozen_platform.cube
# Original OMV LUT; redistribution permitted with OMV.
TITLE "Frozen Platform"
LUT_3D_SIZE 8
DOMAIN_MIN 0.000000 0.000000 0.000000
DOMAIN_MAX 0.903226 0.903226 0.903226
0.000000 0.036000 0.066000
0.095301 0.043559 0.073559
0.191833 0.052350 0.082350
0.289051 0.061817 0.091816
0.388040 0.071483 0.101357
0.490397 0.080807 0.110364
0.596931 0.089495 0.118573
0.708177 0.097339 0.125808
0.029375 0.122192 0.095331
0.115926 0.136221 0.104713
0.216016 0.150316 0.113456
0.319045 0.160254 0.121327
0.425750 0.169638 0.128178
0.536591 0.178280 0.133945
0.651745 0.186074 0.138640
0.771113 0.192990 0.142356
0.060653 0.216711 0.123944
0.138916 0.231699 0.130404
0.243889 0.246121 0.135775
0.352723 0.259808 0.140099
0.465519 0.272669 0.143497
0.582091 0.280821 0.146166
0.701973 0.288202 0.148384
0.824419 0.294952 0.150504
0.083245 0.319679 0.141434
0.166223 0.334611 0.144540
0.264722 0.348641 0.147009
0.378474 0.361772 0.149146
0.495320 0.374086 0.151334
0.614429 0.385740 0.154030
0.734687 0.396971 0.157771
0.854700 0.404220 0.163171
0.096908 0.428957 0.149914
0.185564 0.442762 0.152230
0.277395 0.455603 0.155240
0.394713 0.467652 0.159510
0.513098 0.479163 0.165681
0.631490 0.490458 0.173103
0.749813 0.501675 0.180438
0.868177 0.512945 0.187749
0.111400 0.538722 0.161501
0.206134 0.550263 0.168392
0.301266 0.561524 0.175782
0.408071 0.572724 0.183101
0.526690 0.583935 0.190407
0.645299 0.595144 0.197688
0.763706 0.606329 0.204928
0.881751 0.617460 0.212101
0.136165 0.643735 0.185762
0.231918 0.654847 0.193061
0.327745 0.665902 0.200330
0.423437 0.676885 0.207549
0.542039 0.687773 0.214690
0.660173 0.698537 0.221720
0.777711 0.709142 0.228596
0.894558 0.719544 0.235273
0.164911 0.747282 0.210160
0.260887 0.757904 0.217264
0.356405 0.768373 0.224243
0.451320 0.778658 0.231053
0.557130 0.788723 0.237643
0.673744 0.798525 0.243958
0.789490 0.808014 0.249932
0.904333 0.817132 0.255497
0.002300 0.038300 0.150881
0.086583 0.046454 0.150002
0.183369 0.055498 0.150014
0.280921 0.065116 0.159670
0.380756 0.074704 0.169627
0.484084 0.083841 0.179479
0.591653 0.092262 0.188901
0.703935 0.099785 0.197655
0.032706 0.129479 0.172315
0.107907 0.143576 0.173245
0.208468 0.153739 0.182974
0.312111 0.163514 0.192176
0.419510 0.172663 0.200642
0.531061 0.181025 0.208245
0.646878 0.188520 0.214933
0.766792 0.195145 0.220737
0.063412 0.224407 0.195352
0.142094 0.239227 0.203514
0.235968 0.253414 0.210786
0.345347 0.266827 0.217145
0.458652 0.275530 0.222649
0.575632 0.283409 0.227432
0.695758 0.290555 0.231709
0.818217 0.297139 0.235767
0.084946 0.327404 0.219242
0.168461 0.342035 0.224464
0.255862 0.355755 0.229034
0.370044 0.368596 0.233194
0.487167 0.380664 0.237260
0.606336 0.392144 0.241629
0.726372 0.399427 0.246774
0.845814 0.406723 0.253243
0.098085 0.436318 0.234666
0.187348 0.449780 0.238793
0.279649 0.462329 0.243385
0.385621 0.474163 0.248944
0.504017 0.485565 0.255952
0.622377 0.496828 0.263344
0.740721 0.508051 0.270641
0.859095 0.519342 0.277867
0.113588 0.545288 0.251318
0.208655 0.556655 0.258655
0.303762 0.567882 0.266010
0.399060 0.579087 0.273280
0.517733 0.590299 0.280480
0.636343 0.601503 0.287603
0.754706 0.612673 0.294638
0.872669 0.623779 0.301567
0.138889 0.650071 0.275910
0.234732 0.661165 0.283083
0.330590 0.672197 0.290175
0.426261 0.683151 0.297174
0.533183 0.694001 0.304058
0.651209 0.704715 0.310799
0.768607 0.715256 0.317362
0.885287 0.725579 0.323707
0.167963 0.753461 0.299695
0.263879 0.764035 0.306530
0.359291 0.774445 0.313211
0.454060 0.784660 0.319700
0.548076 0.794640 0.325953
0.664481 0.804342 0.331921
0.779997 0.813711 0.337545
0.894596 0.822690 0.342763
0.004931 0.040931 0.236093
0.077962 0.049446 0.235575
0.174976 0.058718 0.235814
0.273018 0.068402 0.236772
0.373683 0.077873 0.238455
0.477957 0.086792 0.249443
0.586525 0.094924 0.260317
0.699796 0.102117 0.270777
0.036032 0.136807 0.258678
0.111514 0.147053 0.260511
0.200937 0.157116 0.262464
0.305189 0.166701 0.264186
0.413266 0.175597 0.274436
0.525499 0.183669 0.283991
0.641937 0.190865 0.292738
0.762346 0.197209 0.300642
0.066069 0.232055 0.286052
0.145184 0.246681 0.287035
0.227962 0.260617 0.287273
0.337875 0.269877 0.295712
0.451668 0.278295 0.303316
0.569024 0.285911 0.310155
0.689349 0.292844 0.316379
0.811763 0.299288 0.322213
0.086553 0.335030 0.307607
0.170614 0.349353 0.305888
0.258529 0.362767 0.312482
0.361513 0.375329 0.318534
0.478887 0.387173 0.324298
0.598078 0.394639 0.330106
0.717841 0.401884 0.336367
0.836738 0.409254 0.343512
0.099276 0.443558 0.320650
0.189153 0.456692 0.326387
0.281916 0.468972 0.332309
0.376522 0.480623 0.338851
0.494925 0.491957 0.346215
0.613255 0.503188 0.353572
0.731644 0.514435 0.360802
0.850018 0.521875 0.367904
0.116002 0.551744 0.341486
0.211164 0.563035 0.348906
0.306300 0.574242 0.356219
0.401696 0.585451 0.363402
0.508797 0.596663 0.370460
0.627397 0.607858 0.377394
0.745707 0.619010 0.384199
0.863577 0.630085 0.390863
0.141662 0.656401 0.365986
0.237580 0.667475 0.372999
0.333455 0.678484 0.379887
0.429092 0.689405 0.386643
0.524321 0.700213 0.393251
0.642229 0.710873 0.399690
0.759479 0.721345 0.405932
0.875983 0.731582 0.411941
0.171026 0.759625 0.389067
0.266869 0.770146 0.395616
0.362161 0.780494 0.401987
0.456771 0.790634 0.408148
0.550594 0.800525 0.414064
0.655169 0.810120 0.419689
0.770447 0.819364 0.424972
0.884794 0.828195 0.429856
0.007717 0.043717 0.321459
0.081038 0.052522 0.321232
0.166653 0.062000 0.321686
0.265315 0.071662 0.323312
0.366795 0.080977 0.326067
0.471990 0.089651 0.329420
0.581520 0.097477 0.332925
0.695732 0.104331 0.345251
0.039338 0.140285 0.345567
0.115116 0.150507 0.348597
0.193409 0.160437 0.352053
0.298264 0.169808 0.355518
0.407002 0.178435 0.358660
0.519888 0.186212 0.361224
0.636906 0.193111 0.372065
0.757759 0.199185 0.382054
0.068620 0.239646 0.378068
0.148182 0.254055 0.381024
0.231478 0.263856 0.383330
0.330303 0.272830 0.384835
0.444562 0.280967 0.385472
0.562261 0.288334 0.394280
0.682739 0.295075 0.402313
0.805051 0.301411 0.409732
0.088072 0.342552 0.406522
0.172689 0.356565 0.406840
0.261114 0.369680 0.406320
0.352885 0.381980 0.405074
0.470485 0.389753 0.412325
0.589659 0.397107 0.419310
0.709100 0.404357 0.426374
0.827647 0.411776 0.433776
0.100501 0.450681 0.425828
0.190994 0.463505 0.423915
0.284212 0.475542 0.421852
0.379045 0.487045 0.429045
0.485823 0.498339 0.436468
0.604154 0.509555 0.443775
0.722582 0.516955 0.450898
0.840946 0.524412 0.457844
0.118532 0.558145 0.440790
0.213662 0.569404 0.439146
0.308884 0.580604 0.446390
0.404364 0.591815 0.453447
0.499879 0.603024 0.460331
0.618458 0.614208 0.467048
0.736705 0.625338 0.473601
0.854475 0.636379 0.479983
0.144481 0.662725 0.455973
0.240459 0.673779 0.462795
0.336337 0.684760 0.469453
0.431926 0.695646 0.475945
0.527065 0.706408 0.482261
0.633232 0.717009 0.488388
0.750322 0.727407 0.494303
0.866643 0.737552 0.499977
0.174097 0.765772 0.478265
0.269851 0.776238 0.484515
0.365010 0.786519 0.490567
0.459449 0.796580 0.496398
0.553069 0.806376 0.501977
0.645803 0.815858 0.507265
0.760834 0.824969 0.512218
0.874922 0.833644 0.516786
0.010617 0.046617 0.406940
0.084191 0.055675 0.406965
0.158478 0.065298 0.407786
0.257785 0.074881 0.410434
0.360066 0.084007 0.414547
0.466156 0.092412 0.419533
0.576612 0.099918 0.424885
0.691716 0.106427 0.430176
0.042610 0.143769 0.433148
0.118702 0.153927 0.437643
0.197481 0.163693 0.442816
0.291321 0.172828 0.448191
0.400702 0.181174 0.453369
0.514212 0.188652 0.458035
0.631769 0.195262 0.461947
0.753012 0.201080 0.464944
0.071062 0.247169 0.471470
0.151084 0.257472 0.476494
0.234899 0.266998 0.480909
0.322626 0.275685 0.484503
0.437329 0.283550 0.487142
0.555336 0.290684 0.488772
0.675921 0.297259 0.489414
0.798075 0.303522 0.498199
0.089511 0.349970 0.506932
0.174692 0.363674 0.509206
0.263624 0.376499 0.510470
0.355781 0.384683 0.510772
0.461964 0.392283 0.510241
0.581084 0.399563 0.509081
0.700151 0.406863 0.516605
0.818546 0.414287 0.524029
0.101775 0.457693 0.532019
0.192889 0.470227 0.531231
0.286553 0.482050 0.529907
0.381576 0.493447 0.528350
0.476708 0.504708 0.526708
0.595078 0.512061 0.533933
0.713533 0.519483 0.540914
0.831879 0.526952 0.547670
0.121052 0.564536 0.549117
0.216161 0.575762 0.547432
0.311510 0.586967 0.545534
0.407060 0.598179 0.543398
0.502592 0.609383 0.550077
0.609526 0.620552 0.556554
0.727698 0.631656 0.562834
0.845360 0.638786 0.568918
0.147343 0.669042 0.563919
0.243365 0.680073 0.561490
0.339232 0.691025 0.558863
0.434761 0.701873 0.565072
0.529797 0.712584 0.571084
0.624212 0.723122 0.576890
0.741134 0.733440 0.582476
0.857265 0.743487 0.587817
0.177170 0.771901 0.576316
0.272822 0.782308 0.573222
0.367834 0.792519 0.578950
0.462089 0.802495 0.584450
0.555496 0.812190 0.589696
0.647992 0.821553 0.594657
0.751154 0.830523 0.599295
0.864976 0.839036 0.603565
0.013614 0.049614 0.492517
0.087414 0.058898 0.492769
0.162069 0.068584 0.494322
0.250404 0.078047 0.498302
0.353472 0.086953 0.504031
0.460431 0.095068 0.510857
0.571776 0.102242 0.518210
0.687724 0.108405 0.525602
0.045836 0.147245 0.521574
0.122258 0.157301 0.527774
0.201529 0.166876 0.534854
0.284347 0.175756 0.542273
0.394353 0.183813 0.549573
0.508456 0.190992 0.556372
0.626512 0.197320 0.562368
0.748092 0.202901 0.567335
0.073394 0.250748 0.566319
0.153888 0.260799 0.573477
0.238224 0.270043 0.580014
0.326454 0.278445 0.585657
0.429965 0.286047 0.590209
0.548246 0.292969 0.593550
0.668893 0.299406 0.595639
0.790829 0.305633 0.596511
0.090879 0.357282 0.608801
0.176631 0.370680 0.612922
0.266067 0.379357 0.615808
0.358593 0.387318 0.617446
0.453334 0.394776 0.617898
0.572358 0.402021 0.617306
0.691071 0.409394 0.615910
0.809432 0.416787 0.614271
0.103119 0.464600 0.639095
0.194856 0.476865 0.639147
0.288958 0.488507 0.638224
0.384097 0.499839 0.636677
0.479201 0.507197 0.634995
0.586024 0.514574 0.633060
0.704497 0.522015 0.630830
0.822814 0.529494 0.637368
0.123561 0.570916 0.657432
0.218711 0.582122 0.655680
0.314176 0.593331 0.653633
0.409783 0.604543 0.651304
0.505318 0.615737 0.648719
0.600596 0.626888 0.645899
0.718685 0.634091 0.651890
0.836230 0.641177 0.657665
0.150244 0.675352 0.671744
0.246295 0.686359 0.669072
0.342136 0.697279 0.666170
0.437592 0.708084 0.663049
0.532514 0.718741 0.659715
0.626781 0.729209 0.665196
0.731912 0.739441 0.670451
0.847844 0.749383 0.675465
0.180242 0.778012 0.683213
0.275776 0.788356 0.679800
0.370629 0.798492 0.676168
0.464688 0.808378 0.672306
0.557870 0.817966 0.677226
0.650119 0.827203 0.681872
0.741405 0.836026 0.686212
0.854953 0.844366 0.690206
0.016695 0.052695 0.578179
0.090705 0.062183 0.578661
0.165791 0.071842 0.581472
0.243149 0.081147 0.587066
0.346989 0.089807 0.594642
0.454791 0.097615 0.603487
0.566988 0.104450 0.612969
0.683730 0.110267 0.622537
0.049005 0.150698 0.610987
0.125772 0.160619 0.619103
0.205540 0.169978 0.628249
0.288942 0.178589 0.637822
0.387941 0.186350 0.647300
0.502609 0.193233 0.656237
0.621121 0.199292 0.664269
0.742984 0.204656 0.671105
0.075615 0.254247 0.662662
0.156593 0.264032 0.671990
0.241450 0.272991 0.680636
0.330172 0.281112 0.688262
0.422469 0.288466 0.694607
0.540989 0.295197 0.699488
0.661649 0.301528 0.702801
0.783310 0.307760 0.704516
0.092185 0.364489 0.712084
0.178517 0.373717 0.717913
0.268451 0.382131 0.722232
0.361330 0.389894 0.724962
0.456213 0.397243 0.726104
0.563490 0.404495 0.725734
0.681980 0.411916 0.724238
0.800308 0.419277 0.722559
0.104551 0.471407 0.746912
0.196914 0.483432 0.747491
0.291444 0.494927 0.746605
0.386607 0.502348 0.744994
0.481723 0.509694 0.743238
0.576990 0.517095 0.741135
0.695470 0.524552 0.738696
0.813750 0.532037 0.735956
0.126058 0.577284 0.765735
0.221312 0.588484 0.763866
0.316880 0.599695 0.761636
0.412530 0.610904 0.759084
0.508056 0.622087 0.756243
0.603280 0.629345 0.753140
0.709663 0.636513 0.749794
0.827082 0.643548 0.746219
0.153179 0.681655 0.779435
0.249244 0.692635 0.776496
0.345047 0.703519 0.773302
0.440417 0.714278 0.769872
0.535213 0.724876 0.766215
0.629321 0.735269 0.762336
0.722653 0.745409 0.758232
0.838378 0.751368 0.762926
0.183307 0.784102 0.789919
0.278709 0.794380 0.786182
0.373389 0.804436 0.782222
0.467242 0.814226 0.778033
0.560188 0.823702 0.773606
0.652180 0.832805 0.768919
0.743194 0.841472 0.772980
0.844848 0.849632 0.776724
0.019852 0.055852 0.663916
0.094088 0.065481 0.664967
0.169621 0.075058 0.669403
0.247612 0.084172 0.676863
0.340595 0.092562 0.686489
0.449214 0.100049 0.697505
0.562224 0.106539 0.709215
0.679712 0.112015 0.721007
0.052106 0.154115 0.701513
0.129234 0.163871 0.711730
0.209503 0.172993 0.723074
0.293482 0.181323 0.734882
0.381456 0.188785 0.746565
0.496657 0.195378 0.757618
0.615582 0.201183 0.767609
0.737675 0.206354 0.776188
0.077725 0.257659 0.760531
0.159199 0.267169 0.772039
0.244576 0.275841 0.782751
0.333780 0.283690 0.792265
0.426450 0.290812 0.800257
0.533561 0.297378 0.806480
0.654188 0.303639 0.810765
0.775514 0.309919 0.813021
0.093440 0.367721 0.816718
0.180358 0.376659 0.824090
0.270786 0.384830 0.829624
0.364001 0.392422 0.833177
0.458997 0.399699 0.834686
0.554486 0.407003 0.834163
0.672878 0.414426 0.832555
0.791192 0.421780 0.830797
0.106092 0.478124 0.855316
0.199083 0.489936 0.856080
0.293974 0.497458 0.854942
0.389104 0.504846 0.853298
0.484276 0.512200 0.851413
0.579589 0.519623 0.849109
0.686453 0.527093 0.846432
0.804685 0.534579 0.843424
0.128561 0.583642 0.874015
0.223963 0.594847 0.871973
0.319618 0.606060 0.869528
0.415299 0.617262 0.866726
0.510804 0.624559 0.863607
0.605962 0.631791 0.860204
0.700629 0.638919 0.856542
0.817913 0.645899 0.852642
0.156147 0.687949 0.886978
0.252211 0.698900 0.883752
0.347960 0.709745 0.880252
0.443232 0.720453 0.876502
0.537891 0.730987 0.872519
0.631829 0.741300 0.868313
0.724967 0.747471 0.863887
0.828864 0.753310 0.859239
0.186361 0.790171 0.896431
0.281618 0.800378 0.892366
0.376112 0.810349 0.888080
0.469745 0.820039 0.883574
0.562445 0.829395 0.878842
0.654170 0.838357 0.873872
0.744904 0.846860 0.868645
0.834658 0.854831 0.863134
