omv/luts/35_frozen_platform.cube
# Original OMV LUT; redistribution permitted with OMV.
TITLE "Frozen Platform"
LUT_3D_SIZE 32
DOMAIN_MIN 0.0 0.0 0.0
DOMAIN_MAX 1.0 1.0 1.0
0.000000 0.036000 0.066000
0.023578 0.037643 0.067643
0.047390 0.039519 0.069519
0.071307 0.041501 0.071501
0.095301 0.043559 0.073559
0.119358 0.045680 0.075680
0.143469 0.047856 0.077856
0.167629 0.050080 0.080080
0.191833 0.052350 0.082350
0.216080 0.054660 0.084660
0.240365 0.057010 0.087010
0.264687 0.059397 0.089397
0.289051 0.061817 0.091816
0.313536 0.064246 0.094233
0.338185 0.066670 0.096633
0.363014 0.069085 0.099009
0.388040 0.071483 0.101357
0.413277 0.073859 0.103670
0.438740 0.076208 0.105945
0.464443 0.078526 0.108178
0.490397 0.080807 0.110364
0.516613 0.083048 0.112499
0.543102 0.085246 0.114581
0.569872 0.087396 0.116607
0.596931 0.089495 0.118573
0.624286 0.091542 0.120478
0.651942 0.093532 0.122320
0.679905 0.095465 0.124097
0.708177 0.097339 0.125808
0.736761 0.099151 0.127451
0.765659 0.100901 0.129026
0.794870 0.102588 0.130533
0.006242 0.056436 0.072242
0.027357 0.059486 0.074325
0.051434 0.062595 0.076466
0.075564 0.064789 0.078660
0.099740 0.067031 0.080902
0.123960 0.069315 0.083186
0.148221 0.071641 0.085512
0.172520 0.074004 0.087875
0.196855 0.076404 0.090275
0.221243 0.078833 0.092698
0.245746 0.081273 0.095109
0.270385 0.083716 0.097501
0.295180 0.086156 0.099867
0.320147 0.088587 0.102203
0.345302 0.091002 0.104503
0.370660 0.093397 0.106763
0.396235 0.095766 0.108979
0.422041 0.098106 0.111147
0.448088 0.100411 0.113263
0.474389 0.102678 0.115325
0.500951 0.104902 0.117330
0.527785 0.107081 0.119274
0.554897 0.109212 0.121156
0.582295 0.111292 0.122975
0.609982 0.113319 0.124727
0.637965 0.115290 0.126414
0.666245 0.117204 0.128032
0.694826 0.119059 0.129583
0.723707 0.120855 0.131065
0.752890 0.122590 0.132479
0.782371 0.124264 0.133824
0.812151 0.125877 0.135102
0.013471 0.077858 0.079471
0.031857 0.081083 0.081728
0.056093 0.084351 0.084028
0.080368 0.087658 0.086368
0.104680 0.091003 0.088745
0.129028 0.093415 0.091157
0.153434 0.095855 0.093578
0.177932 0.098313 0.095983
0.202542 0.100781 0.098366
0.227282 0.103252 0.100722
0.252171 0.105721 0.103045
0.277225 0.108181 0.105331
0.302460 0.110627 0.107575
0.327891 0.113053 0.109774
0.353531 0.115455 0.111924
0.379394 0.117829 0.114021
0.405491 0.120169 0.116062
0.431832 0.122472 0.118044
0.458427 0.124735 0.119966
0.485284 0.126955 0.121826
0.512410 0.129127 0.123620
0.539811 0.131251 0.125349
0.567493 0.133323 0.127011
0.595460 0.135341 0.128605
0.623714 0.137304 0.130130
0.652257 0.139211 0.131588
0.681090 0.141060 0.132976
0.710213 0.142851 0.134297
0.739623 0.144584 0.135551
0.769319 0.146257 0.136739
0.799296 0.147872 0.137862
0.829550 0.149429 0.138922
0.021229 0.099810 0.087229
0.039748 0.103167 0.089619
0.061205 0.106560 0.092040
0.085611 0.109984 0.094455
0.110084 0.113433 0.096853
0.134643 0.116899 0.099227
0.159309 0.120376 0.101571
0.184100 0.122888 0.103882
0.209035 0.125398 0.106153
0.234130 0.127900 0.108381
0.259400 0.130388 0.110563
0.284859 0.132858 0.112693
0.310522 0.135304 0.114770
0.336401 0.137722 0.116790
0.362506 0.140109 0.118751
0.388849 0.142459 0.120651
0.415438 0.144770 0.122487
0.442281 0.147039 0.124257
0.469385 0.149262 0.125962
0.496757 0.151438 0.127599
0.524400 0.153564 0.129168
0.552319 0.155638 0.130669
0.580516 0.157658 0.132101
0.608992 0.159623 0.133465
0.637748 0.161533 0.134761
0.666783 0.163387 0.135991
0.696096 0.165183 0.137155
0.725683 0.166923 0.138255
0.755540 0.168606 0.139293
0.785662 0.170234 0.140270
0.816044 0.171806 0.141190
0.846677 0.173324 0.142054
0.029375 0.122192 0.095331
0.047994 0.125670 0.097720
0.066677 0.129172 0.100084
0.091250 0.132692 0.102417
0.115926 0.136221 0.104713
0.140723 0.139754 0.106970
0.165660 0.143285 0.109181
0.190753 0.146807 0.111344
0.216016 0.150316 0.113456
0.241464 0.152840 0.115512
0.267110 0.155340 0.117511
0.292967 0.157813 0.119450
0.319045 0.160254 0.121327
0.345354 0.162661 0.123139
0.371902 0.165029 0.124886
0.398699 0.167356 0.126566
0.425750 0.169638 0.128178
0.453061 0.171874 0.129722
0.480635 0.174060 0.131198
0.508478 0.176196 0.132605
0.536591 0.178280 0.133945
0.564974 0.180310 0.135217
0.593628 0.182287 0.136422
0.622553 0.184208 0.137563
0.651745 0.186074 0.138640
0.681202 0.187884 0.139656
0.710920 0.189640 0.140612
0.740892 0.191341 0.141511
0.771113 0.192990 0.142356
0.801574 0.194586 0.143150
0.832267 0.196131 0.143897
0.863182 0.197627 0.144600
0.037610 0.145042 0.103257
0.056346 0.148625 0.105540
0.075183 0.152219 0.107780
0.097042 0.155815 0.109975
0.121941 0.159409 0.112119
0.146993 0.162995 0.114211
0.172211 0.166567 0.116247
0.197612 0.170121 0.118224
0.223206 0.173652 0.120141
0.249007 0.177156 0.121994
0.275024 0.180629 0.123783
0.301268 0.183100 0.125505
0.327746 0.185532 0.127161
0.354467 0.187924 0.128748
0.381437 0.190272 0.130268
0.408660 0.192574 0.131718
0.436141 0.194828 0.133101
0.463883 0.197032 0.134416
0.491888 0.199184 0.135663
0.520156 0.201284 0.136845
0.548688 0.203331 0.137962
0.577483 0.205324 0.139017
0.606536 0.207263 0.140010
0.635846 0.209147 0.140945
0.665407 0.210979 0.141825
0.695214 0.212757 0.142651
0.725260 0.214483 0.143427
0.755537 0.216159 0.144158
0.786035 0.217785 0.144845
0.816745 0.219365 0.145495
0.847655 0.220899 0.146111
0.878753 0.222391 0.146698
0.045686 0.168397 0.110761
0.064569 0.172067 0.112887
0.083588 0.175733 0.114959
0.102757 0.179391 0.116974
0.127898 0.183035 0.118929
0.153217 0.186660 0.120823
0.178729 0.190263 0.122653
0.204443 0.193838 0.124417
0.230371 0.197382 0.126116
0.256522 0.200891 0.127747
0.282904 0.204362 0.129309
0.309523 0.207792 0.130804
0.336387 0.211179 0.132230
0.363500 0.213553 0.133587
0.390865 0.215879 0.134878
0.418486 0.218155 0.136101
0.446364 0.220380 0.137259
0.474500 0.222554 0.138353
0.502892 0.224675 0.139385
0.531540 0.226742 0.140357
0.560440 0.228757 0.141272
0.589590 0.230718 0.142131
0.618982 0.232626 0.142939
0.648613 0.234482 0.143698
0.678474 0.236288 0.144413
0.708557 0.238044 0.145086
0.738853 0.239752 0.145723
0.769351 0.241413 0.146328
0.800039 0.243032 0.146905
0.830906 0.244609 0.147461
0.861937 0.246147 0.147999
0.893117 0.247651 0.148527
0.053414 0.192283 0.117693
0.072477 0.196020 0.119626
0.091703 0.199743 0.121496
0.111108 0.203447 0.123303
0.133605 0.207127 0.125043
0.159208 0.210779 0.126717
0.185021 0.214400 0.128323
0.211055 0.217986 0.129861
0.237317 0.221533 0.131331
0.263814 0.225039 0.132732
0.290552 0.228502 0.134065
0.317535 0.231919 0.135331
0.344766 0.235288 0.136530
0.372249 0.238608 0.137665
0.399985 0.241877 0.138736
0.427973 0.244126 0.139746
0.456213 0.246323 0.140697
0.484702 0.248467 0.141591
0.513438 0.250558 0.142431
0.542417 0.252597 0.143221
0.571633 0.254583 0.143963
0.601080 0.256518 0.144662
0.630749 0.258402 0.145322
0.660634 0.260237 0.145947
0.690723 0.262026 0.146541
0.721007 0.263769 0.147110
0.751472 0.265469 0.147658
0.782107 0.267129 0.148192
0.812897 0.268751 0.148718
0.843827 0.270340 0.149240
0.874880 0.271898 0.149767
0.906040 0.273429 0.150305
0.060653 0.216711 0.123944
0.079923 0.220499 0.125661
0.099384 0.224262 0.127310
0.119045 0.227997 0.128891
0.138916 0.231699 0.130404
0.164813 0.235366 0.131849
0.190937 0.238993 0.133225
0.217293 0.242579 0.134533
0.243889 0.246121 0.135775
0.270726 0.249617 0.136951
0.297810 0.253064 0.138062
0.325142 0.256461 0.139111
0.352723 0.259808 0.140099
0.380553 0.263102 0.141029
0.408631 0.266344 0.141903
0.436954 0.269533 0.142724
0.465519 0.272669 0.143497
0.494321 0.274784 0.144223
0.523355 0.276848 0.144907
0.552614 0.278860 0.145553
0.582091 0.280821 0.146166
0.611775 0.282735 0.146751
0.641658 0.284601 0.147311
0.671728 0.286423 0.147854
0.701973 0.288202 0.148384
0.732380 0.289941 0.148908
0.762934 0.291644 0.149431
0.793619 0.293313 0.149961
0.824419 0.294952 0.150504
0.855317 0.296566 0.151068
0.886292 0.298158 0.151659
0.917327 0.299732 0.152286
0.067298 0.241683 0.129450
0.086805 0.245504 0.130938
0.106524 0.249292 0.132358
0.126461 0.253043 0.133709
0.146624 0.256753 0.134993
0.169924 0.260421 0.136211
0.196364 0.264044 0.137363
0.223045 0.267620 0.138451
0.249971 0.271147 0.139477
0.277143 0.274623 0.140444
0.304561 0.278047 0.141353
0.332226 0.281419 0.142208
0.360136 0.284738 0.143011
0.388288 0.288004 0.143766
0.416678 0.291215 0.144476
0.445302 0.294374 0.145146
0.474153 0.297480 0.145780
0.503225 0.300535 0.146382
0.532510 0.303540 0.146957
0.561997 0.305528 0.147511
0.591677 0.307469 0.148048
0.621539 0.309365 0.148575
0.651569 0.311219 0.149098
0.681755 0.313034 0.149623
0.712081 0.314811 0.150157
0.742531 0.316556 0.150707
0.773089 0.318271 0.151279
0.803736 0.319961 0.151883
0.834454 0.321629 0.152525
0.865221 0.323280 0.153214
0.896017 0.324920 0.153958
0.926820 0.326552 0.154766
0.073287 0.267188 0.134184
0.093059 0.271025 0.135444
0.113057 0.274821 0.136638
0.133289 0.278572 0.137766
0.153758 0.282277 0.138832
0.174469 0.285933 0.139836
0.201230 0.289540 0.140782
0.228237 0.293094 0.141671
0.255489 0.296596 0.142506
0.282986 0.300045 0.143291
0.310726 0.303439 0.144030
0.338706 0.306779 0.144725
0.366922 0.310064 0.145381
0.395369 0.313296 0.146003
0.424040 0.316475 0.146594
0.452929 0.319601 0.147161
0.482026 0.322677 0.147708
0.511323 0.325703 0.148241
0.540808 0.328682 0.148766
0.570470 0.331616 0.149289
0.600295 0.334507 0.149816
0.630271 0.336391 0.150355
0.660381 0.338238 0.150912
0.690610 0.340051 0.151495
0.720940 0.341835 0.152112
0.751353 0.343593 0.152770
0.781829 0.345330 0.153478
0.812348 0.347050 0.154244
0.842888 0.348759 0.155078
0.873426 0.350461 0.155989
0.903939 0.352162 0.156985
0.934401 0.353867 0.158078
0.078597 0.293200 0.138161
0.098658 0.297035 0.139204
0.118959 0.300822 0.140187
0.139501 0.304558 0.141112
0.160288 0.308243 0.141981
0.181321 0.311875 0.142798
0.205503 0.315452 0.143565
0.232833 0.318975 0.144287
0.260405 0.322442 0.144968
0.288216 0.325853 0.145611
0.316262 0.329209 0.146221
0.344538 0.332510 0.146803
0.373036 0.335757 0.147362
0.401749 0.338951 0.147903
0.430669 0.342093 0.148433
0.459785 0.345184 0.148956
0.489086 0.348227 0.149480
0.518560 0.351225 0.150011
0.548195 0.354179 0.150555
0.577975 0.357092 0.151121
0.607886 0.359968 0.151715
0.637910 0.362811 0.152346
0.668031 0.365623 0.153021
0.698229 0.367441 0.153750
0.728484 0.369238 0.154540
0.758777 0.371018 0.155400
0.789084 0.372785 0.156341
0.819382 0.374546 0.157372
0.849648 0.376306 0.158502
0.879856 0.378071 0.159741
0.909980 0.379846 0.161102
0.939991 0.381639 0.162593
0.083245 0.319679 0.141434
0.103620 0.323494 0.142284
0.124240 0.327255 0.143083
0.145108 0.330961 0.143833
0.166223 0.334611 0.144540
0.187584 0.338204 0.145206
0.209188 0.341740 0.145837
0.236837 0.345219 0.146436
0.264722 0.348641 0.147009
0.292835 0.352006 0.147561
0.321170 0.355316 0.148097
0.349720 0.358571 0.148624
0.378474 0.361772 0.149146
0.407423 0.364922 0.149672
0.436556 0.368023 0.150207
0.465859 0.371077 0.150758
0.495320 0.374086 0.151334
0.524924 0.377053 0.151940
0.554654 0.379982 0.152586
0.584495 0.382877 0.153280
0.614429 0.385740 0.154030
0.644435 0.388577 0.154844
0.674495 0.391391 0.155733
0.704586 0.394187 0.156705
0.734687 0.396971 0.157771
0.764774 0.398780 0.158940
0.794822 0.400587 0.160222
0.824806 0.402398 0.161629
0.854700 0.404220 0.163171
0.884474 0.406059 0.164859
0.914113 0.407919 0.166693
0.943716 0.409780 0.168555
0.087287 0.346570 0.144095
0.107996 0.350347 0.144787
0.128955 0.354065 0.145440
0.150161 0.357724 0.146058
0.171612 0.361325 0.146647
0.193304 0.364865 0.147212
0.215232 0.368347 0.147758
0.240293 0.371770 0.148290
0.268480 0.375136 0.148814
0.296881 0.378445 0.149337
0.325487 0.381699 0.149865
0.354287 0.384900 0.150405
0.383270 0.388050 0.150965
0.412422 0.391152 0.151550
0.441730 0.394207 0.152170
0.471180 0.397219 0.152833
0.500754 0.400191 0.153546
0.530437 0.403128 0.154318
0.560208 0.406032 0.155159
0.590051 0.408908 0.156077
0.619942 0.411760 0.157082
0.649862 0.414594 0.158184
0.679787 0.417413 0.159393
0.709694 0.420225 0.160719
0.739558 0.423034 0.162174
0.769353 0.425847 0.163768
0.799051 0.428669 0.165512
0.828662 0.430533 0.167371
0.858263 0.432392 0.169231
0.887859 0.434246 0.171085
0.917449 0.436094 0.172933
0.947033 0.437936 0.174775
0.090816 0.373805 0.146276
0.111880 0.377525 0.146856
0.133192 0.381183 0.147413
0.154748 0.384779 0.147953
0.176541 0.388314 0.148481
0.198567 0.391787 0.149004
0.220817 0.395201 0.149528
0.243282 0.398557 0.150060
0.271760 0.401855 0.150606
0.300432 0.405098 0.151174
0.329288 0.408288 0.151772
0.358313 0.411427 0.152406
0.387494 0.414518 0.153086
0.416816 0.417564 0.153820
0.446261 0.420569 0.154616
0.475813 0.423536 0.155484
0.505454 0.426469 0.156432
0.535162 0.429372 0.157471
0.564918 0.432250 0.158611
0.594700 0.435108 0.159862
0.624484 0.437951 0.161233
0.654246 0.440784 0.162737
0.683962 0.443613 0.164385
0.713606 0.446444 0.166186
0.743210 0.449275 0.168049
0.772810 0.452100 0.169907
0.802404 0.454920 0.171759
0.831992 0.457733 0.173604
0.861573 0.460540 0.175443
0.891147 0.462373 0.177276
0.920722 0.464209 0.179106
0.950298 0.466052 0.180935
0.093966 0.401300 0.148146
0.115403 0.404944 0.148672
0.137082 0.408523 0.149195
0.158996 0.412039 0.149721
0.181137 0.415493 0.150257
0.203496 0.418885 0.150810
0.226063 0.422217 0.151388
0.248827 0.425492 0.151998
0.274679 0.428711 0.152648
0.303605 0.431877 0.153347
0.332687 0.434993 0.154102
0.361911 0.438062 0.154923
0.391259 0.441087 0.155819
0.420713 0.444071 0.156800
0.450255 0.447020 0.157874
0.479865 0.449938 0.159053
0.509521 0.452828 0.160346
0.539201 0.455696 0.161765
0.568882 0.458547 0.163320
0.598540 0.461386 0.165023
0.628155 0.464220 0.166865
0.657758 0.467049 0.168726
0.687356 0.469872 0.170582
0.716948 0.472689 0.172431
0.746533 0.475501 0.174275
0.776111 0.478305 0.176111
0.805686 0.481105 0.177942
0.835265 0.483910 0.179772
0.864848 0.486721 0.181601
0.894431 0.489538 0.183429
0.924010 0.492360 0.185257
0.953583 0.494219 0.187084
0.096908 0.428957 0.149914
0.118735 0.432506 0.150456
0.140793 0.435988 0.151017
0.163073 0.439407 0.151606
0.185564 0.442762 0.152230
0.208255 0.446057 0.152896
0.231133 0.449294 0.153614
0.254184 0.452475 0.154393
0.277395 0.455603 0.155240
0.306554 0.458681 0.156166
0.335839 0.461713 0.157179
0.365232 0.464702 0.158291
0.394713 0.467652 0.159510
0.424262 0.470569 0.160848
0.453858 0.473456 0.162315
0.483478 0.476319 0.163922
0.513098 0.479163 0.165681
0.542704 0.481995 0.167543
0.572306 0.484822 0.169402
0.601901 0.487643 0.171256
0.631490 0.490458 0.173103
0.661073 0.493267 0.174944
0.690649 0.496068 0.176778
0.720227 0.498869 0.178608
0.749813 0.501675 0.180438
0.779404 0.504486 0.182267
0.808998 0.507301 0.184095
0.838590 0.510121 0.185922
0.868177 0.512945 0.187749
0.897758 0.515772 0.189574
0.927328 0.518602 0.191398
0.956886 0.521436 0.193221
0.099855 0.456664 0.151829
0.122085 0.460096 0.152467
0.144532 0.463463 0.153151
0.167183 0.466766 0.153890
0.190025 0.470007 0.154693
0.213043 0.473189 0.155568
0.236224 0.476316 0.156524
0.259551 0.479389 0.157572
0.283005 0.482413 0.158722
0.309473 0.485392 0.159983
0.338935 0.488329 0.161366
0.368466 0.491229 0.162883
0.398045 0.494097 0.164544
0.427648 0.496939 0.166358
0.457253 0.499769 0.168221
0.486852 0.502594 0.170078
0.516445 0.505413 0.171929
0.546032 0.508226 0.173774
0.575613 0.511032 0.175613
0.605187 0.513832 0.177444
0.634771 0.516634 0.179274
0.664366 0.519439 0.181104
0.693968 0.522249 0.182932
0.723574 0.525062 0.184760
0.753180 0.527879 0.186587
0.782784 0.530698 0.188413
0.812382 0.533521 0.190238
0.841972 0.536345 0.192062
0.871551 0.539171 0.193884
0.901116 0.541999 0.195703
0.930664 0.544828 0.197521
0.960193 0.547657 0.199336
0.103054 0.484291 0.154175
0.125701 0.487587 0.155002
0.148544 0.490819 0.155906
0.171570 0.493988 0.156895
0.194761 0.497098 0.157978
0.218102 0.500151 0.159167
0.241576 0.503152 0.160472
0.265162 0.506104 0.161903
0.288843 0.509011 0.163471
0.312595 0.511878 0.165187
0.342198 0.514714 0.167037
0.371801 0.517543 0.168897
0.401398 0.520365 0.170752
0.430989 0.523182 0.172602
0.460573 0.525993 0.174444
0.490151 0.528796 0.176280
0.519728 0.531595 0.178111
0.549321 0.534397 0.179940
0.578926 0.537203 0.181769
0.608541 0.540010 0.183598
0.638161 0.542821 0.185426
0.667783 0.545634 0.187252
0.697405 0.548449 0.189078
0.727022 0.551265 0.190902
0.756633 0.554083 0.192725
0.786234 0.556902 0.194546
0.815823 0.559721 0.196365
0.845396 0.562540 0.198182
0.874952 0.565360 0.199996
0.904487 0.568178 0.201807
0.934000 0.570995 0.203615
0.963488 0.573810 0.205418
0.106793 0.511696 0.157278
0.129868 0.514836 0.158399
0.153114 0.517913 0.159628
0.176515 0.520930 0.160978
0.200054 0.523890 0.162457
0.223710 0.526798 0.164078
0.247464 0.529657 0.165851
0.271263 0.532489 0.167715
0.295057 0.535315 0.169573
0.318846 0.538136 0.171426
0.345531 0.540951 0.173273
0.375114 0.543759 0.175114
0.404689 0.546560 0.176947
0.434273 0.549359 0.178777
0.463877 0.552161 0.180606
0.493494 0.554964 0.182435
0.523123 0.557770 0.184263
0.552759 0.560577 0.186091
0.582399 0.563385 0.187917
0.612040 0.566194 0.189742
0.641678 0.569004 0.191566
0.671312 0.571815 0.193388
0.700936 0.574626 0.195209
0.730550 0.577436 0.197027
0.760150 0.580246 0.198843
0.789733 0.583054 0.200656
0.819298 0.585861 0.202466
0.848840 0.588666 0.204272
0.878359 0.591469 0.206074
0.907853 0.594268 0.207872
0.937318 0.597063 0.209665
0.966753 0.599855 0.211452
0.111400 0.538722 0.161501
0.134911 0.541684 0.163030
0.158564 0.544586 0.164705
0.182337 0.547433 0.166530
0.206134 0.550263 0.168392
0.229926 0.553087 0.170249
0.253712 0.555906 0.172100
0.277492 0.558718 0.173944
0.301266 0.561524 0.175782
0.325035 0.564323 0.177613
0.348824 0.567122 0.179443
0.378439 0.569923 0.181272
0.408071 0.572724 0.183101
0.437715 0.575526 0.184929
0.467369 0.578329 0.186756
0.497028 0.581132 0.188582
0.526690 0.583935 0.190407
0.556351 0.586738 0.192230
0.586008 0.589541 0.194051
0.615659 0.592343 0.195871
0.645299 0.595144 0.197688
0.674926 0.597944 0.199503
0.704538 0.600741 0.201315
0.734133 0.603536 0.203124
0.763706 0.606329 0.204928
0.793257 0.609118 0.206729
0.822783 0.611903 0.208525
0.852281 0.614684 0.210316
0.881751 0.617460 0.212101
0.911189 0.620231 0.213881
0.940593 0.622995 0.215653
0.969964 0.625753 0.217418
0.117209 0.565209 0.167209
0.141004 0.568036 0.169069
0.164794 0.570859 0.170923
0.188578 0.573675 0.172772
0.212356 0.576485 0.174614
0.236127 0.579288 0.176449
0.259902 0.582086 0.178279
0.283703 0.584884 0.180109
0.307526 0.587683 0.181938
0.331367 0.590481 0.183766
0.355223 0.593279 0.185594
0.381993 0.596077 0.187421
0.411673 0.598875 0.189246
0.441357 0.601671 0.191070
0.471042 0.604467 0.192893
0.500725 0.607261 0.194714
0.530401 0.610054 0.196533
0.560069 0.612845 0.198349
0.589726 0.615634 0.200163
0.619368 0.618420 0.201974
0.648993 0.621203 0.203781
0.678598 0.623982 0.205584
0.708182 0.626757 0.207384
0.737741 0.629528 0.209178
0.767274 0.632294 0.210967
0.796778 0.635055 0.212750
0.826251 0.637809 0.214527
0.855692 0.640557 0.216297
0.885098 0.643297 0.218059
0.914468 0.646030 0.219814
0.943801 0.648754 0.221559
0.973094 0.651469 0.223295
0.123443 0.591443 0.173443
0.147218 0.594251 0.175283
0.170987 0.597051 0.177116
0.194774 0.599849 0.178945
0.218589 0.602645 0.180775
0.242428 0.605441 0.182604
0.266287 0.608236 0.184432
0.290162 0.611029 0.186259
0.314050 0.613822 0.188085
0.337947 0.616613 0.189911
0.361848 0.619402 0.191734
0.385752 0.622190 0.193556
0.415461 0.624975 0.195377
0.445165 0.627758 0.197195
0.474862 0.630539 0.199010
0.504549 0.633316 0.200823
0.534222 0.636090 0.202632
0.563879 0.638860 0.204438
0.593517 0.641626 0.206240
0.623134 0.644387 0.208037
0.652728 0.647143 0.209830
0.682295 0.649894 0.211617
0.711834 0.652639 0.213398
0.741344 0.655377 0.215172
0.770821 0.658107 0.216939
0.800264 0.660830 0.218699
0.829671 0.663545 0.220450
0.859041 0.666250 0.222192
0.888371 0.668946 0.223925
0.917662 0.671631 0.225647
0.946910 0.674305 0.227358
0.976116 0.676967 0.229057
0.129653 0.617610 0.179612
0.153484 0.620404 0.181441
0.177341 0.623197 0.183269
0.201220 0.625987 0.185097
0.225116 0.628776 0.186924
0.249026 0.631562 0.188750
0.272946 0.634346 0.190575
0.296874 0.637128 0.192398
0.320804 0.639906 0.194219
0.344734 0.642682 0.196039
0.368661 0.645455 0.197856
0.392582 0.648224 0.199670
0.419396 0.650990 0.201482
0.449101 0.653751 0.203290
0.478791 0.656508 0.205095
0.508463 0.659260 0.206895
0.538115 0.662007 0.208690
0.567743 0.664748 0.210481
0.597346 0.667483 0.212266
0.626922 0.670211 0.214044
0.656467 0.672933 0.215816
0.685981 0.675646 0.217581
0.715461 0.678351 0.219337
0.744906 0.681047 0.221085
0.774313 0.683734 0.222824
0.803681 0.686410 0.224553
0.833009 0.689076 0.226271
0.862294 0.691730 0.227978
0.891537 0.694372 0.229672
0.920735 0.697001 0.231354
0.949888 0.699616 0.233022
0.978995 0.702216 0.234675
0.136165 0.643735 0.185762
0.160084 0.646518 0.187589
0.184018 0.649297 0.189415
0.207964 0.652074 0.191239
0.231918 0.654847 0.193061
0.255876 0.657617 0.194882
0.279836 0.660382 0.196701
0.303793 0.663144 0.198517
0.327745 0.665902 0.200330
0.351688 0.668655 0.202141
0.375620 0.671404 0.203948
0.399537 0.674147 0.205750
0.423437 0.676885 0.207549
0.453124 0.679617 0.209343
0.482788 0.682343 0.211131
0.512427 0.685061 0.212914
0.542039 0.687773 0.214690
0.571622 0.690477 0.216460
0.601173 0.693173 0.218221
0.630691 0.695860 0.219975
0.660173 0.698537 0.221720
0.689617 0.701205 0.223455
0.719023 0.703862 0.225180
0.748388 0.706508 0.226894
0.777711 0.709142 0.228596
0.806991 0.711763 0.230286
0.836226 0.714371 0.231963
0.865416 0.716965 0.233625
0.894558 0.719544 0.235273
0.923653 0.722108 0.236904
0.952699 0.724655 0.238519
0.981696 0.727184 0.240116
0.143000 0.669796 0.191902
0.166982 0.672560 0.193724
0.190969 0.675320 0.195544
0.214959 0.678075 0.197362
0.238948 0.680826 0.199177
0.262932 0.683572 0.200990
0.286909 0.686312 0.202799
0.310874 0.689047 0.204604
0.334826 0.691777 0.206406
0.358762 0.694500 0.208203
0.382678 0.697216 0.209995
0.406572 0.699926 0.211781
0.430442 0.702629 0.213561
0.457188 0.705323 0.215335
0.486808 0.708010 0.217102
0.516397 0.710688 0.218861
0.545952 0.713357 0.220611
0.575472 0.716015 0.222352
0.604954 0.718664 0.224084
0.634398 0.721301 0.225805
0.663801 0.723927 0.227515
0.693161 0.726541 0.229213
0.722478 0.729142 0.230898
0.751750 0.731729 0.232570
0.780975 0.734302 0.234227
0.810153 0.736859 0.235869
0.839283 0.739401 0.237494
0.868363 0.741926 0.239103
0.897394 0.744434 0.240693
0.926373 0.746923 0.242264
0.955301 0.749392 0.243816
0.984178 0.751842 0.245346
0.150106 0.695761 0.198023
0.174127 0.698499 0.199837
0.198145 0.701233 0.201649
0.222156 0.703960 0.203457
0.246156 0.706681 0.205261
0.270144 0.709396 0.207061
0.294115 0.712104 0.208856
0.318068 0.714805 0.210646
0.341999 0.717499 0.212430
0.365907 0.720185 0.214208
0.389787 0.722862 0.215979
0.413639 0.725531 0.217743
0.437459 0.728191 0.219499
0.461246 0.730841 0.221246
0.490804 0.733481 0.222984
0.520324 0.736110 0.224712
0.549806 0.738728 0.226429
0.579246 0.741333 0.228135
0.608644 0.743927 0.229828
0.637997 0.746507 0.231508
0.667306 0.749073 0.233175
0.696567 0.751625 0.234826
0.725780 0.754161 0.236462
0.754945 0.756681 0.238082
0.784059 0.759184 0.239684
0.813122 0.761670 0.241267
0.842134 0.764137 0.242832
0.871093 0.766585 0.244375
0.900000 0.769012 0.245897
0.928853 0.771418 0.247397
0.957653 0.773802 0.248873
0.986399 0.776162 0.250324
0.157429 0.721599 0.204114
0.181466 0.724306 0.205916
0.205490 0.727006 0.207715
0.229498 0.729698 0.209508
0.253488 0.732383 0.211296
0.277457 0.735060 0.213078
0.301402 0.737729 0.214854
0.325321 0.740389 0.216622
0.349211 0.743040 0.218383
0.373070 0.745681 0.220136
0.396895 0.748313 0.221880
0.420685 0.750933 0.223614
0.444437 0.753543 0.225338
0.468150 0.756141 0.227051
0.494724 0.758726 0.228753
0.524159 0.761299 0.230441
0.553549 0.763858 0.232117
0.582894 0.766404 0.233778
0.612191 0.768934 0.235424
