omv/luts/36_dry_sea_white_sun.cube
# Original OMV LUT; redistribution permitted with OMV.
TITLE "Dry Sea White Sun"
LUT_3D_SIZE 5
DOMAIN_MIN 0.000000 0.000000 0.000000
DOMAIN_MAX 0.903226 0.903226 0.903226
0.029143 0.020571 0.000000
0.191330 0.050362 0.026362
0.349701 0.077375 0.053329
0.514308 0.102897 0.078211
0.690853 0.125486 0.099572
0.121730 0.183631 0.086438
0.263972 0.221865 0.106345
0.436561 0.257529 0.122138
0.620485 0.278655 0.134191
0.814389 0.296564 0.143585
0.179744 0.357460 0.137839
0.314044 0.392096 0.146674
0.498213 0.423112 0.155478
0.686809 0.451392 0.167029
0.874231 0.478360 0.182424
0.218544 0.531705 0.172544
0.364962 0.558399 0.188002
0.531602 0.584578 0.204023
0.717319 0.610480 0.220945
0.900494 0.636161 0.238444
0.274566 0.688311 0.227270
0.420711 0.712484 0.244874
0.563789 0.736177 0.262402
0.743823 0.759294 0.279221
0.920061 0.781609 0.294562
0.042116 0.032116 0.107471
0.180233 0.059588 0.130426
0.339454 0.086298 0.153188
0.506515 0.110949 0.180482
0.685833 0.132334 0.206096
0.129456 0.204289 0.194594
0.252373 0.241770 0.214752
0.426383 0.265081 0.236313
0.611528 0.285076 0.254530
0.805837 0.302026 0.269884
0.183576 0.377110 0.260404
0.319339 0.410462 0.274974
0.483957 0.440414 0.288492
0.672028 0.468093 0.303125
0.859043 0.483533 0.318572
0.223859 0.548311 0.308827
0.370254 0.574785 0.324174
0.516555 0.600856 0.339854
0.701909 0.626683 0.355892
0.884497 0.652278 0.372080
0.280822 0.704030 0.361783
0.426528 0.728042 0.377949
0.568920 0.751557 0.393773
0.727820 0.774434 0.408737
0.903240 0.796401 0.422190
0.051578 0.041578 0.216288
0.169099 0.068776 0.238970
0.329658 0.094975 0.263556
0.499079 0.118619 0.290250
0.680956 0.138739 0.316605
0.136778 0.224740 0.310670
0.260765 0.250046 0.336421
0.415829 0.272245 0.359568
0.602040 0.291139 0.379275
0.796487 0.307244 0.399941
0.187196 0.396314 0.396227
0.324443 0.428430 0.411191
0.469418 0.457447 0.423591
0.657027 0.473414 0.439414
0.843727 0.488725 0.454651
0.229085 0.564827 0.449537
0.375644 0.591128 0.460129
0.521855 0.617107 0.475101
0.686474 0.642861 0.489981
0.868446 0.668356 0.504679
0.287128 0.719693 0.495361
0.432312 0.743544 0.509946
0.573957 0.766864 0.524016
0.711683 0.789470 0.537169
0.886269 0.811043 0.548874
0.060875 0.050875 0.324939
0.178420 0.077875 0.348007
0.320191 0.103353 0.376274
0.491869 0.125876 0.408121
0.676086 0.144695 0.440474
0.143675 0.233641 0.430658
0.268797 0.257958 0.462564
0.404866 0.279021 0.491881
0.591983 0.296874 0.517175
0.786296 0.312277 0.537725
0.190677 0.415080 0.535898
0.329421 0.446034 0.554683
0.474980 0.462985 0.568903
0.641938 0.478647 0.580131
0.828296 0.493945 0.590454
0.234312 0.581263 0.594665
0.381126 0.607435 0.604701
0.527176 0.633334 0.614131
0.671010 0.659010 0.623113
0.852340 0.673095 0.636193
0.293461 0.735303 0.636958
0.438040 0.758986 0.645351
0.578878 0.782091 0.653151
0.715715 0.804388 0.664591
0.869128 0.825515 0.674736
0.070097 0.060097 0.433517
0.187942 0.086786 0.458671
0.310938 0.111384 0.492091
0.484764 0.132701 0.530060
0.671094 0.150210 0.568888
0.150132 0.242238 0.554946
0.276449 0.265488 0.593303
0.413794 0.285421 0.628597
0.581328 0.302321 0.658792
0.775231 0.317191 0.682570
0.194098 0.433423 0.678915
0.334349 0.452029 0.700169
0.480390 0.468390 0.714390
0.626765 0.483820 0.725244
0.812765 0.499192 0.734817
0.239712 0.597647 0.739561
0.386693 0.623712 0.748681
0.532511 0.649536 0.756817
0.675835 0.663835 0.764247
0.836173 0.677777 0.771115
0.299793 0.750858 0.777485
0.443686 0.774362 0.784160
0.583659 0.797225 0.790258
0.719571 0.819172 0.795613
0.851795 0.839795 0.799925
