omv/luts/36_dry_sea_white_sun.cube
# Original OMV LUT; redistribution permitted with OMV.
TITLE "Dry Sea White Sun"
LUT_3D_SIZE 8
DOMAIN_MIN 0.000000 0.000000 0.000000
DOMAIN_MAX 0.903226 0.903226 0.903226
0.029143 0.020571 0.000000
0.123439 0.038600 0.014600
0.213927 0.054249 0.030249
0.304246 0.069722 0.045721
0.395747 0.084897 0.060740
0.490146 0.099405 0.074851
0.588321 0.112997 0.087844
0.690853 0.125486 0.099572
0.085312 0.114080 0.051278
0.164193 0.136073 0.065994
0.256173 0.157827 0.079720
0.350709 0.172573 0.092266
0.448579 0.186511 0.103510
0.550271 0.199460 0.113399
0.655987 0.211313 0.121955
0.765644 0.222037 0.129275
0.132546 0.207490 0.096514
0.201857 0.229524 0.107267
0.297572 0.250743 0.116665
0.396867 0.270979 0.124756
0.499858 0.290136 0.131663
0.606377 0.301743 0.137586
0.715973 0.312308 0.142799
0.827911 0.321964 0.147654
0.167257 0.306426 0.127399
0.240338 0.327560 0.133920
0.328697 0.347528 0.139549
0.432080 0.366324 0.144587
0.538341 0.384020 0.149415
0.646661 0.400763 0.154488
0.755940 0.416777 0.160339
0.864794 0.425914 0.167579
0.190092 0.408756 0.146347
0.268087 0.427837 0.151207
0.349059 0.445657 0.156497
0.455331 0.462377 0.162780
0.562495 0.478237 0.170692
0.669504 0.493633 0.179633
0.776258 0.508806 0.188400
0.882635 0.523955 0.197446
0.211360 0.508322 0.165436
0.294813 0.524103 0.173974
0.378504 0.539407 0.182827
0.473695 0.554503 0.191653
0.580418 0.569497 0.200823
0.686741 0.584419 0.210304
0.792400 0.599285 0.220047
0.897183 0.614099 0.229988
0.241063 0.600109 0.194953
0.325127 0.614872 0.204241
0.409006 0.629477 0.213824
0.492392 0.643953 0.223647
0.598264 0.658314 0.233641
0.703201 0.672559 0.243722
0.807062 0.686675 0.253794
0.909764 0.700634 0.263743
0.274566 0.688311 0.227270
0.358399 0.702182 0.237306
0.441359 0.715899 0.247396
0.523269 0.729460 0.257436
0.615618 0.742848 0.267311
0.718339 0.756034 0.276889
0.819806 0.768974 0.286026
0.920061 0.781609 0.294562
0.037950 0.027950 0.060724
0.117176 0.043950 0.074144
0.207579 0.059515 0.087128
0.298014 0.074933 0.102579
0.390191 0.089912 0.117879
0.485419 0.104134 0.132722
0.584504 0.117369 0.146826
0.687958 0.129453 0.159979
0.090474 0.125814 0.110762
0.157848 0.147766 0.123352
0.250163 0.162911 0.137955
0.345193 0.177408 0.151734
0.443648 0.191026 0.164500
0.545950 0.203612 0.176136
0.652233 0.215081 0.186598
0.762349 0.225428 0.195918
0.136682 0.219311 0.156507
0.206306 0.241092 0.168871
0.290825 0.261993 0.180081
0.390572 0.281869 0.190119
0.493986 0.294200 0.199046
0.600833 0.305443 0.206995
0.710595 0.315680 0.214178
0.822474 0.325072 0.220884
0.170007 0.317991 0.193492
0.243541 0.338734 0.202043
0.320723 0.358301 0.209685
0.424461 0.376712 0.216657
0.530929 0.394063 0.223275
0.639243 0.410530 0.229931
0.748237 0.419911 0.237094
0.856462 0.428984 0.245310
0.192053 0.419645 0.219089
0.270587 0.438284 0.225671
0.351964 0.455708 0.232453
0.446829 0.472106 0.239932
0.553948 0.487754 0.248593
0.660871 0.503065 0.257452
0.767539 0.518209 0.266227
0.873781 0.533366 0.275227
0.214117 0.518066 0.242938
0.297847 0.533589 0.251847
0.381463 0.548809 0.260623
0.465079 0.563865 0.269478
0.571767 0.578832 0.278558
0.677992 0.593734 0.287841
0.783500 0.608583 0.297289
0.888093 0.623376 0.306850
0.244247 0.609403 0.272758
0.328366 0.624109 0.281916
0.412218 0.638667 0.291264
0.495513 0.653103 0.300760
0.589625 0.667425 0.310347
0.694373 0.681629 0.319953
0.798018 0.695695 0.329494
0.900487 0.709592 0.338871
0.278133 0.697301 0.304243
0.361850 0.711118 0.313846
0.444638 0.724783 0.323439
0.526332 0.738288 0.332933
0.606821 0.751611 0.342222
0.709277 0.764720 0.351190
0.810474 0.777563 0.359703
0.910466 0.790079 0.367614
0.043485 0.033485 0.123034
0.110872 0.049259 0.136227
0.201220 0.064768 0.149155
0.291947 0.080088 0.162184
0.384795 0.094840 0.175535
0.480833 0.108749 0.191405
0.580797 0.121608 0.206863
0.685131 0.133277 0.221630
0.095575 0.137548 0.173128
0.163080 0.152965 0.186501
0.244129 0.167920 0.199678
0.339652 0.182140 0.212332
0.438678 0.195422 0.226790
0.541563 0.207634 0.240290
0.648375 0.218719 0.252722
0.758901 0.228696 0.264055
0.140680 0.231055 0.222858
0.210634 0.252558 0.234404
0.283960 0.273124 0.244943
0.384152 0.286181 0.256975
0.487970 0.298137 0.267914
0.595113 0.309026 0.277831
0.704999 0.318954 0.286874
0.816762 0.328109 0.295266
0.172633 0.329426 0.263662
0.246632 0.349772 0.271636
0.324249 0.368940 0.281214
0.416716 0.386977 0.289990
0.523366 0.404004 0.298216
0.631638 0.413772 0.306220
0.740299 0.423008 0.314408
0.847922 0.432051 0.323212
0.194006 0.430381 0.293033
0.273086 0.448591 0.301136
0.354861 0.465641 0.309156
0.438301 0.481747 0.317527
0.545372 0.497243 0.326468
0.652210 0.512470 0.335246
0.758795 0.527614 0.344010
0.864895 0.536328 0.352888
0.217081 0.527662 0.320759
0.300853 0.543047 0.329692
0.384446 0.558195 0.338424
0.468091 0.573217 0.347229
0.563120 0.588160 0.356148
0.669237 0.603043 0.365171
0.774587 0.617874 0.374271
0.878984 0.632645 0.383410
0.247483 0.618676 0.350463
0.331638 0.633328 0.359422
0.415450 0.647843 0.368477
0.498639 0.662240 0.377597
0.580980 0.676523 0.386737
0.685532 0.690683 0.395840
0.788954 0.704696 0.404833
0.891188 0.718525 0.413629
0.281720 0.706271 0.380925
0.365305 0.720037 0.390059
0.447906 0.733649 0.399131
0.529372 0.747095 0.408063
0.609605 0.760350 0.416763
0.700176 0.773375 0.425125
0.801098 0.786115 0.433030
0.900825 0.798503 0.440343
0.048898 0.038898 0.185221
0.116154 0.054541 0.198283
0.194858 0.070012 0.211182
0.286022 0.085177 0.224730
0.379536 0.099670 0.239034
0.476365 0.113242 0.253617
0.577175 0.125709 0.268062
0.682343 0.136955 0.284602
0.100602 0.142816 0.235977
0.168263 0.158111 0.250435
0.238056 0.172843 0.265012
0.334070 0.186764 0.279317
0.433653 0.199693 0.293028
0.537095 0.211525 0.305900
0.644398 0.222228 0.320339
0.755282 0.231847 0.333670
0.144535 0.242713 0.290493
0.214835 0.263915 0.303923
0.288586 0.277680 0.316442
0.377602 0.290365 0.327904
0.481803 0.301951 0.338241
0.589210 0.312497 0.350039
0.699176 0.322139 0.360802
0.810770 0.331085 0.370690
0.175144 0.340728 0.337900
0.249617 0.360674 0.347824
0.327669 0.379449 0.356651
0.408851 0.397125 0.364492
0.515658 0.407400 0.374116
0.623850 0.416952 0.383206
0.732129 0.426084 0.392105
0.839348 0.435090 0.401090
0.195968 0.440966 0.373237
0.275598 0.458763 0.380051
0.357767 0.475464 0.386448
0.441376 0.491311 0.395376
0.536767 0.506702 0.404315
0.643533 0.521873 0.413031
0.750028 0.530570 0.421709
0.855980 0.539294 0.430394
0.220143 0.537175 0.401240
0.303829 0.552475 0.407507
0.387459 0.567568 0.416190
0.471119 0.582560 0.424869
0.554477 0.597481 0.433560
0.660475 0.612346 0.442265
0.765660 0.627159 0.450971
0.869858 0.641905 0.459652
0.250768 0.627930 0.428031
0.334942 0.642533 0.436728
0.418698 0.657006 0.445436
0.501768 0.671364 0.454137
0.583942 0.685607 0.462798
0.676676 0.699721 0.471375
0.779870 0.713676 0.479806
0.881863 0.727431 0.488018
0.285323 0.715224 0.457297
0.368758 0.728938 0.465933
0.451159 0.742495 0.474465
0.532385 0.755880 0.482826
0.612352 0.769062 0.490937
0.691031 0.781997 0.498705
0.791674 0.794626 0.506023
0.891134 0.806876 0.512768
0.054245 0.044245 0.247342
0.121419 0.059806 0.260322
0.188577 0.075220 0.273380
0.280217 0.090188 0.287815
0.374391 0.104393 0.303365
0.471990 0.117607 0.319479
0.573613 0.129669 0.335676
0.679570 0.140486 0.351543
0.105545 0.148055 0.299478
0.173385 0.163191 0.315294
0.243545 0.177673 0.331491
0.328434 0.191273 0.347611
0.428559 0.203838 0.363270
0.532531 0.215286 0.378155
0.640286 0.225612 0.392030
0.751477 0.234886 0.404733
0.148247 0.254276 0.359484
0.218908 0.268707 0.374893
0.293087 0.282111 0.389434
0.370919 0.294421 0.402897
0.475482 0.305644 0.415149
0.583122 0.315864 0.426133
0.693123 0.325242 0.435868
0.804490 0.334015 0.447032
0.177547 0.351895 0.413603
0.252504 0.371440 0.425396
0.330988 0.389829 0.435919
0.412485 0.400711 0.445220
0.507811 0.410711 0.453422
0.615886 0.420083 0.460727
0.723733 0.429155 0.469993
0.830745 0.438100 0.478938
0.197957 0.451405 0.454425
0.278143 0.468807 0.462273
0.360697 0.485188 0.469316
0.444439 0.500827 0.475859
0.528132 0.516132 0.482132
0.634842 0.524824 0.490770
0.741239 0.533530 0.499286
0.847039 0.542263 0.507714
0.223176 0.546660 0.484273
0.306792 0.561875 0.490456
0.390500 0.576930 0.496463
0.474162 0.591895 0.502363
0.557450 0.606796 0.510764
0.651708 0.621644 0.519100
0.756721 0.636436 0.527371
0.860715 0.644703 0.535561
0.254100 0.637166 0.510591
0.338275 0.651722 0.516387
0.421959 0.666155 0.522119
0.504898 0.680475 0.530363
0.586894 0.694677 0.538518
0.667803 0.708740 0.546550
0.770762 0.722633 0.554413
0.872513 0.736308 0.562044
0.288936 0.724159 0.535924
0.372206 0.737820 0.541458
0.454392 0.751322 0.549435
0.535367 0.764642 0.557222
0.615060 0.777746 0.564750
0.693453 0.790584 0.571941
0.782199 0.803093 0.578698
0.881389 0.815196 0.584912
0.059552 0.049552 0.309423
0.126672 0.065059 0.322350
0.194001 0.080372 0.335964
0.274511 0.095110 0.351606
0.369336 0.109001 0.368663
0.467684 0.121839 0.386520
0.570086 0.133484 0.404626
0.676786 0.143872 0.422504
0.110395 0.153252 0.363787
0.178434 0.168195 0.381203
0.248970 0.182399 0.399210
0.322731 0.195662 0.417284
0.423384 0.207853 0.434976
0.527857 0.218917 0.451907
0.636024 0.228874 0.467778
0.747471 0.237820 0.482364
0.151814 0.259284 0.429892
0.222852 0.273379 0.447346
0.297461 0.286416 0.463922
0.375712 0.298352 0.479347
0.469005 0.309221 0.493424
0.576843 0.319133 0.506031
0.686835 0.328275 0.517124
0.797919 0.336910 0.526736
0.179851 0.362926 0.490737
0.255302 0.382072 0.504289
0.334216 0.393636 0.516346
0.416014 0.404195 0.526891
0.499832 0.413950 0.535987
0.607751 0.423179 0.543768
0.715187 0.432220 0.550478
0.822112 0.441080 0.556758
0.199992 0.461703 0.536466
0.280738 0.478734 0.545063
0.363671 0.494824 0.552415
0.447475 0.510313 0.558894
0.531085 0.519085 0.565080
0.626140 0.527778 0.571003
0.732431 0.536492 0.576706
0.838072 0.545236 0.584817
0.226180 0.556116 0.567277
0.309794 0.571261 0.573366
0.393570 0.586281 0.579203
0.477219 0.601222 0.584839
0.560426 0.616105 0.590313
0.642935 0.630934 0.595654
0.747768 0.639253 0.603452
0.851554 0.647488 0.611126
0.257476 0.646385 0.592950
0.341635 0.660897 0.598373
0.425232 0.675292 0.603668
0.508027 0.689573 0.608842
0.589834 0.703730 0.613887
0.670523 0.717740 0.621363
0.761629 0.731565 0.628655
0.863134 0.745152 0.635713
0.292555 0.733076 0.616795
0.375644 0.746685 0.621789
0.457602 0.760128 0.626622
0.538314 0.773379 0.631255
0.617723 0.786399 0.638213
0.695824 0.799133 0.644847
0.772668 0.811514 0.651076
0.871587 0.823458 0.656801
0.064833 0.054833 0.371479
0.131920 0.070302 0.384393
0.199498 0.085457 0.399118
0.268883 0.099934 0.416255
0.364349 0.113487 0.435055
0.463425 0.125932 0.454834
0.566572 0.137154 0.474978
0.673968 0.147112 0.494943
0.115141 0.158394 0.429045
0.183402 0.173114 0.448277
0.254322 0.187017 0.468257
0.328564 0.199926 0.488394
0.418114 0.211737 0.508175
0.523062 0.222419 0.527157
0.631600 0.232018 0.544977
0.743251 0.240656 0.561345
0.155237 0.264184 0.501763
0.226665 0.277929 0.521300
0.301707 0.290593 0.539897
0.380368 0.302159 0.557218
0.462368 0.312687 0.573000
0.570372 0.322313 0.587059
0.680310 0.331249 0.599286
0.791052 0.339785 0.609651
0.182066 0.373820 0.569254
0.258020 0.386121 0.584426
0.337361 0.397326 0.597827
0.419444 0.407586 0.609376
0.503341 0.417127 0.619069
0.599453 0.426254 0.626981
0.706612 0.435257 0.633515
0.813448 0.444036 0.639705
0.202095 0.471868 0.619218
0.283405 0.488551 0.628250
0.366708 0.504385 0.635546
0.450481 0.513320 0.641900
0.534036 0.522036 0.647977
0.617427 0.530734 0.653692
0.723604 0.539458 0.659100
0.829081 0.548211 0.664257
0.229155 0.565542 0.650252
0.312839 0.580633 0.656199
0.396668 0.595623 0.661794
0.480289 0.610543 0.667105
0.563404 0.625407 0.672183
0.645767 0.633767 0.677067
0.738802 0.642060 0.681782
0.842375 0.650261 0.686339
0.260892 0.655588 0.675079
0.345018 0.670059 0.680082
0.428514 0.684415 0.684903
0.511153 0.698656 0.689560
0.592761 0.712767 0.694060
0.673221 0.726719 0.698393
0.752470 0.740470 0.702537
0.853725 0.747510 0.709035
0.296176 0.741976 0.697318
0.379068 0.755530 0.701758
0.460783 0.768912 0.706026
0.541222 0.782090 0.710092
0.620337 0.795019 0.713916
0.698139 0.807642 0.717441
0.774691 0.819884 0.723178
0.861724 0.831660 0.728462
0.070097 0.060097 0.433517
0.137194 0.075507 0.446793
0.205050 0.090463 0.463009
0.274926 0.104651 0.481900
0.359411 0.117845 0.502649
0.459191 0.129884 0.524505
0.563049 0.140678 0.546787
0.671094 0.150210 0.568888
0.119776 0.163470 0.495381
0.188278 0.177937 0.516616
0.259591 0.191519 0.538702
0.334308 0.204064 0.560984
0.412739 0.215491 0.582883
0.518132 0.225796 0.603894
0.627002 0.235051 0.623586
0.738804 0.243404 0.641608
0.158516 0.268969 0.575130
0.230349 0.282353 0.596760
0.305826 0.294642 0.617336
0.384886 0.305845 0.636458
0.467185 0.316048 0.653799
0.563708 0.325412 0.669110
0.673544 0.334176 0.682221
0.783889 0.342656 0.693035
0.184203 0.378127 0.649092
0.260669 0.390043 0.665719
0.340434 0.400907 0.680245
0.422787 0.410893 0.692527
0.506735 0.420255 0.702496
0.591002 0.429325 0.710163
0.698007 0.438265 0.716524
0.804740 0.447002 0.722591
0.204285 0.481906 0.702526
0.286162 0.498270 0.711652
0.369770 0.507447 0.718608
0.453458 0.516296 0.724877
0.536988 0.524988 0.730784
0.620318 0.533694 0.736223
0.714761 0.542428 0.741275
0.820067 0.551189 0.746011
0.232122 0.574941 0.733187
0.315927 0.589994 0.738915
0.399792 0.604957 0.744204
0.483372 0.619857 0.749133
0.566383 0.628253 0.753769
0.648592 0.636592 0.758162
0.729822 0.644857 0.762350
0.833177 0.653018 0.766355
0.264346 0.664776 0.756953
0.348422 0.679208 0.761495
0.431802 0.693526 0.765810
0.514272 0.707725 0.769929
0.595671 0.721785 0.773871
0.675895 0.735674 0.777640
0.754893 0.742893 0.781225
0.844283 0.749831 0.784603
0.299793 0.750858 0.777485
0.382472 0.764356 0.781365
0.463931 0.777673 0.785069
0.544085 0.790772 0.788582
0.622899 0.803604 0.791874
0.700395 0.816107 0.794903
0.776650 0.828201 0.797611
0.851795 0.839795 0.799925
