omv/luts/36_dry_sea_white_sun.cube
# Original OMV LUT; redistribution permitted with OMV.
TITLE "Dry Sea White Sun"
LUT_3D_SIZE 32
DOMAIN_MIN 0.0 0.0 0.0
DOMAIN_MAX 1.0 1.0 1.0
0.029143 0.020571 0.000000
0.055161 0.026451 0.002451
0.078005 0.030586 0.006586
0.100750 0.034621 0.010621
0.123439 0.038600 0.014600
0.146092 0.042543 0.018543
0.168720 0.046462 0.022462
0.191330 0.050362 0.026362
0.213927 0.054249 0.030249
0.236514 0.058127 0.034127
0.259094 0.061997 0.037997
0.281669 0.065862 0.041862
0.304246 0.069722 0.045721
0.326909 0.073563 0.049547
0.349701 0.077375 0.053329
0.372641 0.081155 0.057061
0.395747 0.084897 0.060740
0.419035 0.088597 0.064362
0.442522 0.092251 0.067923
0.466221 0.095855 0.071420
0.490146 0.099405 0.074851
0.514308 0.102897 0.078211
0.538718 0.106328 0.081498
0.563387 0.109696 0.084710
0.588321 0.112997 0.087844
0.613529 0.116228 0.090899
0.639018 0.119388 0.093873
0.664791 0.122474 0.096764
0.690853 0.125486 0.099572
0.717207 0.128420 0.102295
0.743855 0.131277 0.104934
0.770796 0.134056 0.107487
0.046075 0.045752 0.012075
0.065846 0.051330 0.016039
0.088488 0.056876 0.019972
0.111109 0.060787 0.023883
0.133714 0.064682 0.027778
0.156307 0.068565 0.031662
0.178892 0.072440 0.035537
0.201469 0.076308 0.039405
0.224043 0.080172 0.043268
0.246631 0.084029 0.047119
0.269298 0.087872 0.050929
0.292069 0.091695 0.054693
0.314963 0.095492 0.058406
0.338000 0.099259 0.062065
0.361196 0.102992 0.065665
0.384567 0.106685 0.069204
0.408130 0.110334 0.072677
0.431897 0.113935 0.076082
0.455881 0.117485 0.079416
0.480095 0.120980 0.082676
0.504547 0.124416 0.085860
0.529248 0.127790 0.088965
0.554206 0.131100 0.091991
0.579427 0.134344 0.094935
0.604918 0.137518 0.097796
0.630683 0.140621 0.100573
0.656726 0.143652 0.103266
0.683050 0.146609 0.105873
0.709655 0.149490 0.108396
0.736542 0.152296 0.110833
0.763710 0.155025 0.113186
0.791158 0.157678 0.115456
0.059303 0.068658 0.025303
0.076097 0.074161 0.029193
0.098686 0.079654 0.033073
0.121268 0.085139 0.036946
0.143844 0.090618 0.040812
0.166416 0.094480 0.044674
0.189009 0.098339 0.048512
0.211659 0.102191 0.052305
0.234389 0.106030 0.056051
0.257218 0.109851 0.059745
0.280165 0.113649 0.063383
0.303250 0.117419 0.066961
0.326489 0.121157 0.070476
0.349898 0.124856 0.073925
0.373491 0.128514 0.077304
0.397282 0.132126 0.080611
0.421283 0.135688 0.083844
0.445506 0.139197 0.087000
0.469960 0.142649 0.090076
0.494654 0.146042 0.093072
0.519597 0.149373 0.095986
0.544794 0.152638 0.098817
0.570251 0.155837 0.101563
0.595973 0.158966 0.104225
0.621963 0.162025 0.106802
0.648223 0.165012 0.109293
0.674755 0.167926 0.111700
0.701557 0.170767 0.114022
0.728629 0.173533 0.116261
0.755969 0.176225 0.118418
0.783572 0.178843 0.120494
0.811436 0.181387 0.122491
0.072354 0.091386 0.038354
0.089122 0.096864 0.042218
0.108789 0.102338 0.046076
0.131369 0.107817 0.049898
0.153982 0.113297 0.053675
0.176649 0.118772 0.057402
0.199393 0.124236 0.061076
0.222233 0.128070 0.064693
0.245189 0.131883 0.068248
0.268277 0.135670 0.071740
0.291516 0.139425 0.075163
0.314919 0.143144 0.078517
0.338501 0.146822 0.081797
0.362276 0.150457 0.085002
0.386255 0.154042 0.088129
0.410449 0.157576 0.091176
0.434868 0.161055 0.094143
0.459520 0.164476 0.097026
0.484412 0.167836 0.099826
0.509552 0.171133 0.102542
0.534943 0.174364 0.105173
0.560591 0.177528 0.107718
0.586498 0.180623 0.110179
0.612665 0.183647 0.112555
0.639095 0.186601 0.114847
0.665785 0.189483 0.117056
0.692735 0.192292 0.119183
0.719943 0.195029 0.121230
0.747403 0.197694 0.123198
0.775112 0.200287 0.125090
0.803064 0.202809 0.126909
0.831251 0.205261 0.128656
0.085312 0.114080 0.051278
0.102059 0.119581 0.055038
0.118839 0.125084 0.058746
0.141478 0.130584 0.062399
0.164193 0.136073 0.065994
0.187002 0.141548 0.069527
0.209923 0.147001 0.072994
0.232975 0.152430 0.076393
0.256173 0.157827 0.079720
0.279532 0.161577 0.082973
0.303066 0.165287 0.086149
0.326788 0.168954 0.089248
0.350709 0.172573 0.092266
0.374840 0.176142 0.095202
0.399190 0.179656 0.098055
0.423767 0.183113 0.100825
0.448579 0.186511 0.103510
0.473631 0.189846 0.106109
0.498928 0.193118 0.108624
0.524474 0.196323 0.111054
0.550271 0.199460 0.113399
0.576321 0.202529 0.115661
0.602624 0.205527 0.117840
0.629180 0.208456 0.119937
0.655987 0.211313 0.121955
0.683041 0.214100 0.123896
0.710339 0.216815 0.125761
0.737875 0.219461 0.127553
0.765644 0.222037 0.129275
0.793637 0.224545 0.130929
0.821847 0.226986 0.132521
0.850263 0.229362 0.134052
0.097980 0.136963 0.063715
0.114744 0.142500 0.067288
0.131582 0.148028 0.070797
0.151417 0.153541 0.074239
0.174266 0.159034 0.077612
0.197243 0.164502 0.080913
0.220365 0.169940 0.084138
0.243645 0.175343 0.087287
0.267096 0.180707 0.090356
0.290733 0.186029 0.093344
0.314564 0.191303 0.096251
0.338602 0.194914 0.099073
0.362854 0.198472 0.101812
0.387328 0.201973 0.104466
0.412032 0.205416 0.107035
0.436970 0.208796 0.109519
0.462147 0.212114 0.111917
0.487568 0.215365 0.114232
0.513233 0.218551 0.116464
0.539144 0.221668 0.118613
0.565301 0.224716 0.120681
0.591703 0.227695 0.122671
0.618348 0.230604 0.124583
0.645232 0.233443 0.126421
0.672352 0.236212 0.128188
0.699701 0.238913 0.129885
0.727273 0.241545 0.131516
0.755060 0.244111 0.133085
0.783054 0.246611 0.134596
0.811245 0.249047 0.136052
0.839620 0.251421 0.137458
0.868169 0.253737 0.138820
0.110169 0.160130 0.075476
0.126994 0.165693 0.078822
0.143929 0.171236 0.082096
0.160992 0.176753 0.085293
0.184005 0.182240 0.088413
0.207174 0.187693 0.091453
0.230513 0.193106 0.094412
0.254035 0.198477 0.097288
0.277749 0.203801 0.100080
0.301666 0.209075 0.102788
0.325794 0.214295 0.105411
0.350141 0.219460 0.107949
0.374713 0.224565 0.110402
0.399515 0.227996 0.112770
0.424552 0.231364 0.115054
0.449827 0.234668 0.117255
0.475341 0.237904 0.119375
0.501095 0.241074 0.121415
0.527089 0.244175 0.123376
0.553322 0.247207 0.125261
0.579791 0.250169 0.127073
0.606493 0.253063 0.128813
0.633422 0.255888 0.130486
0.660573 0.258644 0.132094
0.687939 0.261334 0.133642
0.715513 0.263957 0.135132
0.743283 0.266516 0.136570
0.771242 0.269012 0.137959
0.799376 0.271447 0.139305
0.827674 0.273824 0.140613
0.856122 0.276146 0.141888
0.884705 0.278415 0.143136
0.121730 0.183631 0.086438
0.138655 0.189206 0.089529
0.155723 0.194750 0.092540
0.172948 0.200260 0.095469
0.193245 0.205730 0.098314
0.216626 0.211157 0.101076
0.240198 0.216536 0.103753
0.263972 0.221865 0.106345
0.287954 0.227141 0.108852
0.312152 0.232360 0.111274
0.336573 0.237520 0.113611
0.361221 0.242619 0.115865
0.386100 0.247655 0.118037
0.411213 0.252625 0.120127
0.436561 0.257529 0.122138
0.462145 0.260753 0.124071
0.487963 0.263909 0.125929
0.514016 0.266996 0.127714
0.540298 0.270013 0.129430
0.566808 0.272962 0.131079
0.593539 0.275843 0.132664
0.620485 0.278655 0.134191
0.647639 0.281401 0.135661
0.674994 0.284081 0.137081
0.702538 0.286698 0.138454
0.730262 0.289252 0.139785
0.758154 0.291746 0.141081
0.786201 0.294182 0.142345
0.814389 0.296564 0.143585
0.842703 0.298895 0.144805
0.871127 0.301176 0.146014
0.899645 0.303414 0.147217
0.132546 0.207490 0.096514
0.149608 0.213063 0.099329
0.166840 0.218595 0.102060
0.184253 0.224083 0.104706
0.201857 0.229524 0.107267
0.225467 0.234913 0.109743
0.249285 0.240248 0.112134
0.273319 0.245525 0.114441
0.297572 0.250743 0.116665
0.322051 0.255900 0.118807
0.346759 0.260992 0.120868
0.371697 0.266019 0.122850
0.396867 0.270979 0.124756
0.422270 0.275872 0.126587
0.447905 0.280696 0.128347
0.473768 0.285450 0.130038
0.499858 0.290136 0.131663
0.526170 0.293140 0.133227
0.552698 0.296075 0.134732
0.579437 0.298942 0.136184
0.606377 0.301743 0.137586
0.633512 0.304478 0.138943
0.660830 0.307149 0.140261
0.688321 0.309758 0.141544
0.715973 0.312308 0.142799
0.743773 0.314800 0.144031
0.771706 0.317238 0.145246
0.799757 0.319625 0.146452
0.827911 0.321964 0.147654
0.856148 0.324259 0.148861
0.884451 0.326514 0.150079
0.912800 0.328734 0.151316
0.142534 0.231718 0.105649
0.159767 0.237271 0.108179
0.177192 0.242776 0.110624
0.194818 0.248228 0.112984
0.212651 0.253625 0.115261
0.233602 0.258964 0.117454
0.257677 0.264242 0.119566
0.281976 0.269457 0.121599
0.306502 0.274607 0.123553
0.331257 0.279692 0.125431
0.356243 0.284708 0.127236
0.381459 0.289656 0.128970
0.406903 0.294535 0.130637
0.432574 0.299344 0.132239
0.458469 0.304084 0.133781
0.484581 0.308754 0.135267
0.510906 0.313355 0.136700
0.537437 0.317887 0.138085
0.564165 0.322352 0.139427
0.591083 0.325139 0.140732
0.618179 0.327861 0.142004
0.645442 0.330522 0.143250
0.672861 0.333122 0.144475
0.700421 0.335666 0.145686
0.728109 0.338155 0.146890
0.755907 0.340592 0.148093
0.783800 0.342982 0.149303
0.811770 0.345329 0.150527
0.839798 0.347635 0.151773
0.867863 0.349906 0.153049
0.895945 0.352146 0.154364
0.924021 0.354360 0.155727
0.151649 0.256303 0.113822
0.169084 0.261820 0.116069
0.186729 0.267281 0.118233
0.204589 0.272681 0.120315
0.222669 0.278020 0.122319
0.240974 0.283295 0.124245
0.265312 0.288503 0.126097
0.289880 0.293644 0.127875
0.314677 0.298717 0.129585
0.339703 0.303719 0.131228
0.364957 0.308651 0.132807
0.390435 0.313513 0.134328
0.416134 0.318304 0.135794
0.442050 0.323024 0.137209
0.468175 0.327674 0.138578
0.494502 0.332255 0.139906
0.521025 0.336768 0.141198
0.547732 0.341215 0.142460
0.574614 0.345597 0.143698
0.601659 0.349916 0.144917
0.628855 0.354175 0.146125
0.656187 0.356763 0.147327
0.683640 0.359296 0.148532
0.711200 0.361778 0.149746
0.738848 0.364211 0.150977
0.766567 0.366601 0.152234
0.794336 0.368951 0.153523
0.822137 0.371264 0.154854
0.849946 0.373548 0.156236
0.877742 0.375805 0.157678
0.905501 0.378042 0.159190
0.933198 0.380264 0.160780
0.159881 0.281219 0.121054
0.177547 0.286683 0.123029
0.195435 0.292082 0.124928
0.213549 0.297415 0.126752
0.231892 0.302680 0.128506
0.250464 0.307876 0.130190
0.272169 0.313002 0.131810
0.297007 0.318057 0.133368
0.322072 0.323039 0.134868
0.347361 0.327950 0.136315
0.372870 0.332788 0.137713
0.398594 0.337555 0.139066
0.424526 0.342250 0.140381
0.450659 0.346875 0.141661
0.476984 0.351430 0.142913
0.503492 0.355918 0.144144
0.530171 0.360341 0.145358
0.557011 0.364699 0.146563
0.583997 0.368996 0.147765
0.611116 0.373235 0.148973
0.638353 0.377418 0.150192
0.665691 0.381548 0.151431
0.693112 0.385630 0.152699
0.720600 0.388054 0.154002
0.748132 0.390438 0.155351
0.775690 0.392785 0.156754
0.803250 0.395101 0.158220
0.830791 0.397391 0.159759
0.858288 0.399660 0.161381
0.885715 0.401914 0.163095
0.913047 0.404159 0.164913
0.940257 0.406401 0.166845
0.167257 0.306426 0.127399
0.185181 0.311816 0.129127
0.203335 0.317135 0.130787
0.221721 0.322384 0.132384
0.240338 0.327560 0.133920
0.259186 0.332663 0.135401
0.278262 0.337692 0.136829
0.303369 0.342647 0.138210
0.328697 0.347528 0.139549
0.354239 0.352335 0.140850
0.379989 0.357070 0.142120
0.405939 0.361732 0.143364
0.432080 0.366324 0.144587
0.458403 0.370847 0.145797
0.484895 0.375302 0.147001
0.511546 0.379692 0.148204
0.538341 0.384020 0.149415
0.565266 0.388287 0.150640
0.592306 0.392498 0.151889
0.619443 0.396655 0.153169
0.646661 0.400763 0.154488
0.673940 0.404824 0.155855
0.701261 0.408844 0.157280
0.728601 0.412827 0.158771
0.755940 0.416777 0.160339
0.783254 0.419088 0.161993
0.810518 0.421377 0.163745
0.837707 0.423650 0.165603
0.864794 0.425914 0.167579
0.891753 0.428174 0.169685
0.918565 0.430436 0.171920
0.945332 0.432686 0.174170
0.173844 0.331864 0.132950
0.192050 0.337161 0.134466
0.210490 0.342382 0.135927
0.229163 0.347529 0.137337
0.248067 0.352599 0.138702
0.267197 0.357593 0.140027
0.286548 0.362510 0.141316
0.309019 0.367352 0.142575
0.334601 0.372119 0.143811
0.360384 0.376812 0.145029
0.386359 0.381432 0.146236
0.412514 0.385981 0.147438
0.438839 0.390461 0.148644
0.465321 0.394874 0.149859
0.491946 0.399223 0.151092
0.518700 0.403510 0.152351
0.545567 0.407738 0.153644
0.572530 0.411912 0.154979
0.599570 0.416034 0.156367
0.626668 0.420109 0.157815
0.653805 0.424140 0.159333
0.680959 0.428134 0.160931
0.708107 0.432093 0.162619
0.735226 0.436025 0.164408
0.762290 0.439934 0.166308
0.789275 0.443825 0.168330
0.816154 0.447707 0.170486
0.842934 0.449966 0.172741
0.869696 0.452212 0.174986
0.896442 0.454442 0.177216
0.923172 0.456656 0.179430
0.949886 0.458854 0.181628
0.179744 0.357460 0.137839
0.198255 0.362644 0.139189
0.217000 0.367748 0.140500
0.235974 0.372774 0.141778
0.255172 0.377721 0.143028
0.274588 0.382590 0.144256
0.294215 0.387381 0.145469
0.314044 0.392096 0.146674
0.339873 0.396736 0.147876
0.365883 0.401302 0.149084
0.392063 0.405797 0.150305
0.418401 0.410223 0.151547
0.444882 0.414582 0.152817
0.471491 0.418877 0.154125
0.498213 0.423112 0.155478
0.525029 0.427290 0.156886
0.551922 0.431415 0.158359
0.578871 0.435490 0.159905
0.605857 0.439521 0.161535
0.632857 0.443511 0.163258
0.659849 0.447467 0.165086
0.686809 0.451392 0.167029
0.713711 0.455293 0.169099
0.740531 0.459176 0.171305
0.767302 0.463044 0.173560
0.794058 0.466896 0.175800
0.820798 0.470733 0.178024
0.847522 0.474555 0.180232
0.874231 0.478360 0.182424
0.900922 0.480536 0.184602
0.927588 0.482712 0.186792
0.954222 0.484891 0.189004
0.185100 0.383125 0.142236
0.203937 0.388175 0.143477
0.223002 0.393143 0.144699
0.242288 0.398030 0.145908
0.261788 0.402836 0.147111
0.281493 0.407563 0.148315
0.301393 0.412212 0.149527
0.321478 0.416785 0.150755
0.344637 0.421284 0.152006
0.370859 0.425712 0.153288
0.397225 0.430070 0.154612
0.423720 0.434362 0.155984
0.450327 0.438590 0.157414
0.477030 0.442760 0.158913
0.503809 0.446874 0.160488
0.530644 0.450936 0.162151
0.557515 0.454952 0.163911
0.584399 0.458925 0.165780
0.611273 0.462861 0.167768
0.638114 0.466765 0.169886
0.664902 0.470644 0.172128
0.691667 0.474506 0.174377
0.718418 0.478353 0.176611
0.745152 0.482184 0.178830
0.771871 0.486000 0.181032
0.798573 0.489799 0.183218
0.825258 0.493585 0.185396
0.851921 0.497373 0.187594
0.878555 0.501162 0.189815
0.905158 0.504955 0.192058
0.931724 0.508750 0.194323
0.958249 0.510935 0.196609
0.190092 0.408756 0.146347
0.209273 0.413651 0.147549
0.228672 0.418461 0.148755
0.248280 0.423190 0.149972
0.268087 0.427837 0.151207
0.288081 0.432405 0.152469
0.308251 0.436896 0.153765
0.328581 0.441313 0.155105
0.349059 0.445657 0.156497
0.375474 0.449932 0.157951
0.402003 0.454141 0.159477
0.428629 0.458288 0.161083
0.455331 0.462377 0.162780
0.482091 0.466412 0.164578
0.508887 0.470397 0.166489
0.535696 0.474337 0.168523
0.562495 0.478237 0.170692
0.589271 0.482110 0.172948
0.616031 0.485966 0.175192
0.642775 0.489808 0.177421
0.669504 0.493633 0.179633
0.696217 0.497443 0.181830
0.722913 0.501236 0.184010
0.749595 0.505021 0.186194
0.776258 0.508806 0.188400
0.802898 0.512592 0.190629
0.829510 0.516378 0.192880
0.856091 0.520166 0.195153
0.882635 0.523955 0.197446
0.909138 0.527746 0.199760
0.935597 0.531538 0.202094
0.962008 0.535333 0.204447
0.194938 0.434233 0.150419
0.214480 0.438950 0.151663
0.234226 0.443583 0.152936
0.254163 0.448134 0.154247
0.274280 0.452603 0.155605
0.294562 0.456995 0.157019
0.314994 0.461311 0.158498
0.335560 0.465555 0.160051
0.356244 0.469730 0.161689
0.379929 0.473839 0.163422
0.406597 0.477887 0.165260
0.433325 0.481878 0.167215
0.460089 0.485816 0.169296
0.486868 0.489707 0.171513
0.513638 0.493574 0.173767
0.540392 0.497425 0.176005
0.567131 0.501260 0.178228
0.593854 0.505080 0.180435
0.620561 0.508884 0.182626
0.647252 0.512672 0.184803
0.673933 0.516455 0.186995
0.700601 0.520236 0.189209
0.727251 0.524017 0.191446
0.753877 0.527796 0.193705
0.780476 0.531575 0.195985
0.807042 0.535354 0.198286
0.833572 0.539133 0.200608
0.860062 0.542912 0.202949
0.886507 0.546692 0.205309
0.912904 0.550472 0.207687
0.939249 0.554252 0.210082
0.965540 0.558033 0.212494
0.199895 0.459421 0.154736
0.219813 0.463940 0.156113
0.239915 0.468374 0.157550
0.260187 0.472726 0.159054
0.280615 0.476999 0.160637
0.301181 0.481195 0.162309
0.321868 0.485319 0.164079
0.342658 0.489375 0.165958
0.363530 0.493365 0.167957
0.384464 0.497295 0.170088
0.411239 0.501174 0.172336
0.438003 0.505035 0.174584
0.464752 0.508881 0.176816
0.491485 0.512711 0.179033
0.518202 0.516524 0.181234
0.544903 0.520322 0.183419
0.571592 0.524107 0.185598
0.598277 0.527887 0.187798
0.624954 0.531663 0.190021
0.651617 0.535437 0.192266
0.678261 0.539208 0.194533
0.704882 0.542977 0.196820
0.731474 0.546744 0.199129
0.758034 0.550510 0.201458
0.784557 0.554275 0.203806
0.811040 0.558038 0.206172
0.837477 0.561801 0.208557
0.863867 0.565563 0.210958
0.890206 0.569324 0.213376
0.916489 0.573084 0.215809
0.942716 0.576843 0.218257
0.968882 0.580601 0.220717
0.205258 0.484172 0.159621
0.225564 0.488469 0.161235
0.246031 0.492682 0.162941
0.266642 0.496815 0.164750
0.287380 0.500871 0.166671
0.308224 0.504855 0.168717
0.329157 0.508769 0.170899
0.350124 0.512640 0.173156
0.371076 0.516495 0.175398
0.392012 0.520335 0.177625
0.415836 0.524159 0.179836
0.442548 0.527967 0.182032
0.469243 0.531759 0.184211
0.495935 0.535540 0.186396
0.522628 0.539316 0.188605
0.549318 0.543086 0.190836
0.575998 0.546851 0.193089
0.602664 0.550613 0.195363
0.629310 0.554371 0.197659
0.655932 0.558125 0.199974
0.682525 0.561877 0.202310
0.709085 0.565626 0.204665
0.735608 0.569372 0.207038
0.762089 0.573117 0.209429
0.788526 0.576859 0.211837
0.814914 0.580599 0.214260
0.841251 0.584337 0.216699
0.867533 0.588073 0.219151
0.893758 0.591807 0.221616
0.919922 0.595538 0.224093
0.946024 0.599267 0.226580
0.972061 0.602993 0.229077
0.211360 0.508322 0.165436
0.232066 0.512373 0.167401
0.252904 0.516343 0.169495
0.273851 0.520238 0.171722
0.294813 0.524103 0.173974
0.315759 0.527953 0.176211
0.336690 0.531787 0.178432
0.357605 0.535605 0.180637
0.378504 0.539407 0.182827
0.399390 0.543194 0.185004
0.420283 0.546971 0.187198
0.446989 0.550741 0.189415
0.473695 0.554503 0.191653
0.500396 0.558260 0.193914
0.527087 0.562011 0.196196
0.553763 0.565756 0.198499
0.580418 0.569497 0.200823
0.607047 0.573233 0.203165
0.633647 0.576965 0.205527
0.660213 0.580694 0.207907
0.686741 0.584419 0.210304
0.713228 0.588140 0.212717
0.739668 0.591859 0.215146
0.766060 0.595574 0.217590
0.792400 0.599285 0.220047
0.818685 0.602994 0.222516
0.844912 0.606699 0.224997
0.871079 0.610401 0.227488
0.897183 0.614099 0.229988
0.923222 0.617792 0.232495
0.949194 0.621482 0.235008
0.975099 0.625167 0.237526
0.218544 0.531705 0.172544
0.239500 0.535564 0.174790
0.260441 0.539408 0.177021
0.281366 0.543237 0.179237
0.302275 0.547049 0.181436
0.323168 0.550845 0.183620
0.344057 0.554627 0.185800
0.364962 0.558399 0.188002
0.385878 0.562161 0.190227
0.406798 0.565915 0.192474
0.427718 0.569661 0.194743
0.451534 0.573400 0.197033
0.478242 0.577132 0.199343
0.504933 0.580858 0.201673
0.531602 0.584578 0.204023
0.558245 0.588292 0.206391
0.584858 0.592002 0.208778
0.611435 0.595706 0.211181
0.637973 0.599406 0.213600
0.664469 0.603102 0.216034
0.690919 0.606793 0.218483
0.717319 0.610480 0.220945
0.743666 0.614163 0.223418
0.769958 0.617841 0.225903
0.796191 0.621515 0.228397
0.822363 0.625184 0.230900
0.848473 0.628848 0.233409
0.874517 0.632507 0.235925
0.900494 0.636161 0.238444
0.926403 0.639809 0.240966
0.952241 0.643450 0.243490
0.978009 0.647085 0.246013
0.226039 0.554685 0.180039
0.246943 0.558491 0.182233
0.267831 0.562281 0.184411
0.288730 0.566058 0.186599
0.309651 0.569823 0.188810
0.330587 0.573577 0.191043
0.351532 0.577321 0.193298
0.372480 0.581055 0.195574
0.393425 0.584780 0.197871
0.414362 0.588498 0.200189
0.435286 0.592208 0.202527
0.456192 0.595910 0.204883
0.482881 0.599606 0.207258
0.509542 0.603295 0.209650
0.536171 0.606979 0.212060
0.562765 0.610656 0.214484
0.589318 0.614329 0.216924
0.615827 0.617995 0.219378
0.642289 0.621656 0.221844
0.668701 0.625312 0.224322
0.695059 0.628963 0.226810
0.721361 0.632608 0.229307
0.747603 0.636248 0.231813
0.773784 0.639882 0.234324
0.799901 0.643511 0.236841
0.825953 0.647133 0.239362
0.851937 0.650748 0.241885
0.877852 0.654357 0.244408
0.903697 0.657958 0.246931
0.929470 0.661552 0.249451
0.955170 0.665137 0.251966
0.980798 0.668713 0.254475
0.233413 0.577485 0.187401
0.254354 0.581242 0.189620
0.275313 0.584986 0.191861
0.296286 0.588719 0.194124
0.317266 0.592440 0.196408
0.338247 0.596152 0.198713
0.359223 0.599853 0.201038
0.380189 0.603546 0.203382
0.401140 0.607230 0.205746
0.422072 0.610906 0.208127
0.442978 0.614575 0.210526
0.463856 0.618236 0.212941
0.487603 0.621890 0.215371
0.514216 0.625538 0.217816
0.540787 0.629179 0.220274
0.567314 0.632814 0.222745
0.593791 0.636443 0.225226
0.620218 0.640065 0.227718
0.646589 0.643682 0.230219
0.672903 0.647292 0.232726
0.699157 0.650895 0.235240
0.725349 0.654492 0.237759
0.751476 0.658082 0.240280
0.777536 0.661665 0.242804
0.803528 0.665241 0.245327
0.829451 0.668808 0.247849
0.855303 0.672368 0.250367
0.881082 0.675918 0.252880
0.906789 0.679459 0.255387
0.932423 0.682990 0.257884
0.957982 0.686510 0.260371
0.983467 0.690019 0.262846
0.241063 0.600109 0.194953
0.262078 0.603817 0.197245
0.283097 0.607513 0.199557
0.304116 0.611198 0.201889
0.325127 0.614872 0.204241
0.346127 0.618537 0.206611
0.367110 0.622192 0.208998
0.388071 0.625839 0.211403
0.409006 0.629477 0.213824
0.429909 0.633108 0.216259
0.450777 0.636730 0.218709
0.471606 0.640345 0.221172
0.492392 0.643953 0.223647
0.518938 0.647554 0.226132
0.545434 0.651147 0.228628
0.571877 0.654734 0.231131
0.598264 0.658314 0.233641
0.624593 0.661886 0.236157
0.650859 0.665451 0.238677
0.677063 0.669009 0.241199
0.703201 0.672559 0.243722
0.729271 0.676101 0.246245
0.755272 0.679634 0.248766
0.781203 0.683159 0.251283
0.807062 0.686675 0.253794
0.832848 0.690181 0.256297
0.858561 0.693676 0.258791
0.884199 0.697161 0.261274
0.909764 0.700634 0.263743
0.935253 0.704094 0.266197
0.960668 0.707541 0.268634
0.986009 0.710974 0.271050
0.249042 0.622530 0.202743
0.270103 0.626185 0.205101
0.291154 0.629830 0.207478
0.312191 0.633464 0.209872
0.333209 0.637088 0.212283
0.354203 0.640702 0.214709
0.375168 0.644308 0.217150
0.396100 0.647904 0.219605
0.416995 0.651492 0.222072
0.437849 0.655072 0.224551
0.458659 0.658645 0.227040
0.479420 0.662209 0.229538
0.500129 0.665765 0.232044
0.523687 0.669314 0.234556
0.550091 0.672855 0.237074
0.576434 0.676388 0.239595
0.602715 0.679913 0.242118
0.628931 0.683429 0.244641
0.655080 0.686937 0.247163
0.681160 0.690437 0.249683
0.707170 0.693927 0.252198
0.733109 0.697407 0.254706
0.758975 0.700878 0.257206
0.784767 0.704338 0.259696
0.810484 0.707787 0.262174
0.836127 0.711224 0.264638
0.861695 0.714648 0.267086
0.887187 0.718060 0.269516
0.912604 0.721457 0.271925
0.937946 0.724839 0.274311
0.963214 0.728205 0.276673
0.988409 0.731555 0.279007
0.257316 0.644720 0.210748
0.278393 0.648320 0.213164
0.299449 0.651910 0.215596
0.320478 0.655490 0.218042
0.341476 0.659060 0.220501
0.362439 0.662621 0.222973
0.383363 0.666172 0.225456
0.404244 0.669715 0.227948
0.425078 0.673249 0.230449
0.445862 0.676775 0.232958
0.466592 0.680292 0.235472
0.487266 0.683801 0.237991
0.507880 0.687301 0.240513
0.528433 0.690793 0.243036
0.554727 0.694276 0.245560
0.580956 0.697750 0.248081
0.607115 0.701215 0.250599
0.633205 0.704670 0.253112
0.659223 0.708116 0.255617
0.685169 0.711551 0.258114
0.711040 0.714975 0.260600
0.736837 0.718389 0.263073
0.762558 0.721790 0.265532
0.788203 0.725178 0.267973
0.813771 0.728553 0.270395
0.839264 0.731915 0.272796
0.864681 0.735261 0.275174
0.890022 0.738592 0.277526
0.915288 0.741906 0.279849
0.940480 0.745203 0.282143
0.965599 0.748480 0.284403
0.990646 0.751739 0.286627
0.265840 0.666654 0.218936
0.286907 0.670197 0.221400
0.307940 0.673729 0.223876
0.328935 0.677252 0.226362
0.349889 0.680765 0.228858
0.370797 0.684269 0.231362
0.391657 0.687763 0.233873
0.412463 0.691249 0.236389
0.433215 0.694725 0.238909
0.453907 0.698192 0.241432
0.474539 0.701650 0.243955
0.495106 0.705100 0.246478
0.515608 0.708539 0.248998
0.536041 0.711969 0.251514
0.559308 0.715390 0.254025
0.585406 0.718800 0.256527
0.611431 0.722200 0.259020
0.637381 0.725589 0.261502
0.663256 0.728966 0.263970
