omv/luts/37_dead_city_blue.cube
# Original OMV LUT; redistribution permitted with OMV.
TITLE "Dead City Blue"
LUT_3D_SIZE 5
DOMAIN_MIN 0.000000 0.000000 0.000000
DOMAIN_MAX 0.903226 0.903226 0.903226
0.000000 0.030000 0.048000
0.095388 0.057646 0.075646
0.194171 0.088354 0.106335
0.300165 0.119880 0.137605
0.417346 0.150648 0.167882
0.102084 0.161721 0.148792
0.195453 0.203158 0.178505
0.311661 0.243891 0.206430
0.437934 0.276511 0.232670
0.572994 0.307724 0.257896
0.201823 0.322396 0.241918
0.295360 0.364991 0.267052
0.423902 0.405758 0.293003
0.556415 0.445312 0.321778
0.688375 0.484569 0.354053
0.297414 0.495543 0.333414
0.402042 0.534755 0.365680
0.520135 0.574202 0.394799
0.653727 0.613102 0.419678
0.790808 0.650472 0.440520
0.396465 0.666749 0.427714
0.498381 0.706205 0.447192
0.603435 0.743489 0.463366
0.738960 0.777964 0.477108
0.877080 0.809273 0.489571
0.008850 0.038850 0.111043
0.092015 0.067821 0.133241
0.192327 0.099072 0.158229
0.300917 0.130465 0.192003
0.420826 0.160770 0.226118
0.112867 0.180283 0.211231
0.194001 0.221587 0.238380
0.311764 0.255134 0.271227
0.439359 0.287255 0.302637
0.575033 0.318076 0.332819
0.211054 0.341555 0.313739
0.306002 0.383495 0.343637
0.421798 0.423753 0.373503
0.554037 0.463134 0.404876
0.685891 0.495534 0.437211
0.308450 0.513353 0.416708
0.412843 0.552614 0.448547
0.517357 0.592003 0.477569
0.651249 0.630479 0.503286
0.788727 0.667157 0.525675
0.404606 0.684814 0.511815
0.506497 0.723622 0.533040
0.611675 0.760010 0.551359
0.733689 0.793435 0.567415
0.871526 0.823637 0.582133
0.018333 0.048333 0.174720
0.088935 0.078290 0.197903
0.191084 0.109796 0.225047
0.302152 0.140919 0.255682
0.424590 0.170696 0.287616
0.123530 0.198843 0.283269
0.206001 0.233124 0.315248
0.311709 0.266208 0.346480
0.440481 0.297845 0.376146
0.576537 0.328353 0.410763
0.220221 0.360487 0.402504
0.316571 0.401800 0.429731
0.419527 0.441642 0.455700
0.551527 0.474172 0.488172
0.683711 0.506429 0.520280
0.319452 0.531130 0.506743
0.423467 0.570500 0.531599
0.527973 0.609696 0.561208
0.648597 0.647646 0.588261
0.786412 0.683562 0.612506
0.412379 0.702693 0.597418
0.514294 0.740757 0.620632
0.619602 0.776186 0.641150
0.728069 0.808532 0.659386
0.865547 0.837630 0.676040
0.028201 0.058201 0.238782
0.099798 0.088946 0.263227
0.190328 0.120469 0.293904
0.303756 0.151214 0.329105
0.428521 0.180418 0.366184
0.134042 0.210580 0.358522
0.217873 0.244518 0.395742
0.311464 0.277110 0.432170
0.441261 0.308300 0.466518
0.577463 0.338598 0.498070
0.229372 0.379195 0.494364
0.327112 0.419931 0.524830
0.430676 0.452698 0.552430
0.548984 0.485177 0.578210
0.681782 0.517213 0.603656
0.330333 0.548916 0.603526
0.433883 0.588363 0.628766
0.538402 0.627243 0.652772
0.645738 0.664577 0.674783
0.783825 0.692897 0.701093
0.419792 0.720350 0.698213
0.521778 0.757586 0.716783
0.627221 0.792004 0.732679
0.735654 0.823251 0.752863
0.859143 0.851260 0.771030
0.038394 0.068394 0.303168
0.111086 0.099667 0.330060
0.189956 0.131048 0.365371
0.305624 0.161325 0.405863
0.432511 0.189938 0.448434
0.144385 0.222230 0.437280
0.229594 0.255752 0.479953
0.324547 0.287846 0.521403
0.441670 0.318647 0.559885
0.577779 0.348858 0.594215
0.238561 0.397687 0.588923
0.337674 0.431145 0.621558
0.441746 0.463746 0.649359
0.546468 0.496140 0.675038
0.680036 0.527849 0.701260
0.340920 0.566778 0.700542
0.444065 0.606159 0.726834
0.548616 0.644609 0.752494
0.656189 0.674472 0.776533
0.780937 0.701924 0.798242
0.426856 0.737752 0.800749
0.528960 0.774088 0.821490
0.634541 0.807454 0.839391
0.742900 0.837595 0.854413
0.852321 0.864537 0.866797
