omv/luts/37_dead_city_blue.cube
# Original OMV LUT; redistribution permitted with OMV.
TITLE "Dead City Blue"
LUT_3D_SIZE 8
DOMAIN_MIN 0.000000 0.000000 0.000000
DOMAIN_MAX 0.903226 0.903226 0.903226
0.000000 0.030000 0.048000
0.053987 0.045278 0.063278
0.109308 0.061889 0.079889
0.165521 0.079385 0.097385
0.223473 0.097370 0.115307
0.284395 0.115397 0.133175
0.348890 0.133218 0.150757
0.417346 0.150648 0.167882
0.055931 0.101443 0.103898
0.105630 0.123796 0.121832
0.164911 0.146502 0.139620
0.226791 0.165394 0.157051
0.291815 0.184114 0.173982
0.360312 0.202494 0.190330
0.432392 0.220428 0.206074
0.507945 0.237871 0.221257
0.117310 0.183040 0.163278
0.162890 0.207068 0.180003
0.226909 0.230884 0.196131
0.294149 0.254334 0.211663
0.364656 0.277326 0.226662
0.438258 0.295957 0.241252
0.514563 0.314126 0.255617
0.592962 0.331922 0.270001
0.175038 0.274041 0.217180
0.224995 0.298706 0.232013
0.285881 0.322821 0.246497
0.357458 0.346369 0.260837
0.431530 0.369389 0.275299
0.507421 0.391982 0.290211
0.584237 0.414310 0.305957
0.660864 0.432724 0.322986
0.227818 0.371939 0.266072
0.282569 0.396153 0.280657
0.339839 0.419695 0.295825
0.414373 0.442678 0.311983
0.489728 0.465277 0.329601
0.565071 0.487716 0.348168
0.640421 0.510067 0.366480
0.716569 0.532304 0.383579
0.282126 0.471352 0.318202
0.341659 0.493981 0.336369
0.401485 0.516389 0.354905
0.468966 0.538806 0.372865
0.544433 0.561285 0.389459
0.620588 0.583605 0.404661
0.697766 0.605567 0.418487
0.776193 0.627007 0.430984
0.343470 0.567710 0.379067
0.402300 0.590559 0.395154
0.461322 0.613361 0.409852
0.520947 0.635894 0.423187
0.596965 0.657971 0.435218
0.674087 0.679430 0.446031
0.752401 0.700142 0.455745
0.831889 0.720008 0.464508
0.396465 0.666749 0.427714
0.454368 0.689514 0.439290
0.513180 0.711682 0.449688
0.573067 0.733101 0.459037
0.641827 0.753647 0.467495
0.719411 0.773228 0.475253
0.797918 0.791780 0.482529
0.877080 0.809273 0.489571
0.004937 0.034937 0.083905
0.051775 0.050807 0.095904
0.107417 0.067740 0.108965
0.164011 0.085470 0.126730
0.222743 0.103501 0.145103
0.284534 0.121483 0.163745
0.349937 0.139188 0.182376
0.419293 0.156455 0.200779
0.062090 0.111530 0.137238
0.104371 0.134040 0.151875
0.164127 0.152924 0.170542
0.226585 0.171781 0.189111
0.292240 0.190400 0.207390
0.361370 0.208638 0.225247
0.434034 0.226407 0.242614
0.510074 0.243685 0.259481
0.123387 0.193768 0.195808
0.169380 0.217745 0.213945
0.226134 0.241451 0.231628
0.293863 0.264753 0.248811
0.364823 0.283708 0.265505
0.438790 0.302176 0.281786
0.515322 0.320206 0.297787
0.593757 0.337906 0.313704
0.180544 0.285032 0.254942
0.230972 0.309516 0.271475
0.284560 0.333437 0.287635
0.356505 0.356798 0.303580
0.430816 0.379659 0.319525
0.506767 0.402141 0.335749
0.583414 0.420556 0.352587
0.659592 0.439016 0.370438
0.233055 0.382798 0.309371
0.288300 0.406775 0.325383
0.345946 0.430111 0.341788
0.412945 0.452942 0.358946
0.488301 0.475462 0.377204
0.563614 0.497872 0.395743
0.639108 0.520196 0.413822
0.715537 0.542355 0.430772
0.288179 0.481661 0.365460
0.347964 0.504158 0.383964
0.407753 0.526538 0.402445
0.467459 0.549001 0.420128
0.542980 0.571450 0.436648
0.619251 0.593669 0.451966
0.696581 0.615471 0.466075
0.775173 0.636700 0.478996
0.349332 0.578016 0.426280
0.408014 0.600876 0.442365
0.466981 0.623610 0.457242
0.526619 0.646008 0.470914
0.594949 0.667891 0.483414
0.672143 0.689109 0.494806
0.750523 0.709544 0.505183
0.830044 0.729105 0.514668
0.401162 0.677093 0.475598
0.459035 0.699674 0.487686
0.517864 0.721603 0.498695
0.577792 0.742738 0.508732
0.638850 0.762965 0.517929
0.716446 0.782202 0.526453
0.794913 0.800397 0.534496
0.873959 0.817527 0.542285
0.010177 0.040177 0.120112
0.049680 0.056455 0.132519
0.105622 0.073686 0.145880
0.162720 0.091582 0.160159
0.222217 0.109626 0.175373
0.284853 0.127536 0.195011
0.351134 0.145108 0.214874
0.421349 0.162200 0.234697
0.068287 0.121684 0.174762
0.110902 0.140441 0.190219
0.163393 0.159343 0.206103
0.226421 0.178139 0.222107
0.292690 0.196642 0.241862
0.362427 0.214727 0.261316
0.435641 0.232329 0.280350
0.512124 0.249445 0.298908
0.129415 0.204487 0.237066
0.175829 0.228390 0.252858
0.225315 0.251971 0.268299
0.293524 0.271245 0.287163
0.364917 0.290033 0.305544
0.439220 0.308344 0.323466
0.515940 0.326246 0.341014
0.594364 0.343870 0.358333
0.185996 0.295964 0.297782
0.236900 0.320260 0.312119
0.290927 0.343988 0.329891
0.355482 0.367169 0.347336
0.430008 0.389885 0.364620
0.505987 0.408406 0.381970
0.582423 0.426806 0.399675
0.658169 0.445330 0.418040
0.238313 0.393575 0.353637
0.294051 0.417323 0.370915
0.352063 0.440469 0.388358
0.411510 0.463169 0.406274
0.486865 0.485640 0.424801
0.562153 0.508016 0.443293
0.637856 0.530306 0.461174
0.714555 0.548494 0.478117
0.294405 0.491888 0.412985
0.354260 0.514324 0.431550
0.413987 0.536710 0.449906
0.473665 0.559194 0.467456
0.541499 0.581588 0.484036
0.617882 0.603684 0.499586
0.695357 0.625308 0.514072
0.774102 0.646313 0.527492
0.355085 0.588336 0.473608
0.413632 0.611178 0.489819
0.472552 0.633820 0.504984
0.532205 0.656062 0.519080
0.592847 0.677734 0.532118
0.670109 0.698698 0.544136
0.748544 0.718845 0.555204
0.828083 0.738095 0.565420
0.405739 0.687381 0.523948
0.463592 0.709758 0.536609
0.522446 0.731432 0.548271
0.582416 0.752270 0.559016
0.643510 0.772169 0.568953
0.713369 0.791056 0.578222
0.791785 0.808890 0.586995
0.870698 0.825659 0.595471
0.015581 0.045581 0.156484
0.055436 0.062210 0.169242
0.103922 0.079722 0.182890
0.161626 0.097709 0.197817
0.221873 0.115735 0.213984
0.285332 0.133550 0.230948
0.352459 0.150971 0.248333
0.423492 0.167880 0.269696
0.074509 0.128019 0.212736
0.117467 0.146858 0.229240
0.162694 0.165749 0.246398
0.226284 0.184463 0.263854
0.293151 0.202835 0.281319
0.363469 0.220760 0.298564
0.437199 0.238195 0.319292
0.514080 0.255155 0.339524
0.135391 0.215188 0.279376
0.182231 0.238998 0.296785
0.232191 0.258569 0.313904
0.293126 0.277681 0.330590
0.364932 0.296303 0.346756
0.439541 0.314464 0.366248
0.516410 0.332254 0.385232
0.594776 0.349824 0.403802
0.191399 0.306834 0.345689
0.242780 0.330939 0.361657
0.297241 0.354476 0.377086
0.354392 0.377486 0.392033
0.429110 0.396202 0.410489
0.505084 0.414657 0.428758
0.581266 0.433072 0.447081
0.656734 0.451637 0.465637
0.243603 0.404271 0.406528
0.299833 0.427801 0.421021
0.358203 0.450775 0.435408
0.417821 0.473369 0.453821
0.485419 0.495807 0.472387
0.560740 0.518156 0.490790
0.636654 0.536519 0.508613
0.713612 0.554584 0.525680
0.300718 0.502073 0.464460
0.360543 0.524478 0.479123
0.420181 0.546898 0.497359
0.479836 0.569377 0.514919
0.539983 0.591691 0.531686
0.616474 0.613645 0.547571
0.694086 0.635073 0.562519
0.772971 0.655841 0.576503
0.360727 0.598659 0.521121
0.419151 0.621457 0.537575
0.478031 0.643984 0.553124
0.537704 0.666050 0.567722
0.598399 0.687496 0.581355
0.667980 0.708193 0.594037
0.746460 0.728042 0.605812
0.826003 0.746976 0.616757
0.410195 0.697606 0.572797
0.468040 0.719762 0.586080
0.526924 0.741165 0.598426
0.586939 0.761694 0.609888
0.648066 0.781255 0.620555
0.710181 0.799789 0.630541
0.788534 0.817261 0.639992
0.867299 0.833670 0.649086
0.021117 0.051117 0.192988
0.061292 0.068067 0.206067
0.102379 0.085808 0.220121
0.160707 0.103841 0.235970
0.221690 0.121819 0.253309
0.285949 0.139517 0.271649
0.353889 0.156775 0.290565
0.425701 0.173495 0.309696
0.080743 0.134394 0.251288
0.124055 0.153280 0.269045
0.169760 0.172134 0.287641
0.226164 0.190747 0.306674
0.293610 0.208976 0.325804
0.364484 0.226737 0.344755
0.438695 0.244005 0.363308
0.515929 0.260819 0.381306
0.141310 0.225863 0.322794
0.188584 0.245691 0.341888
0.239015 0.265114 0.360716
0.292665 0.284060 0.379082
0.364863 0.302519 0.396852
0.439748 0.320541 0.413951
0.516728 0.338237 0.430365
0.594987 0.355776 0.450012
0.196755 0.317640 0.394777
0.248619 0.341551 0.412308
0.303507 0.364902 0.429156
0.360981 0.383883 0.445329
0.428124 0.402489 0.460896
0.504058 0.420902 0.475985
0.579945 0.439366 0.494656
0.655289 0.457934 0.513225
0.248937 0.414889 0.460213
0.305660 0.438214 0.475588
0.364377 0.461037 0.490546
0.424135 0.483554 0.505296
0.483962 0.505962 0.519962
0.559372 0.524413 0.538304
0.635490 0.542696 0.556209
0.712695 0.560621 0.573522
0.307023 0.512249 0.519797
0.366802 0.534628 0.534421
0.426326 0.557093 0.548753
0.485964 0.579540 0.562587
0.546167 0.601752 0.579653
0.615021 0.623545 0.595968
0.692760 0.644763 0.611451
0.771772 0.661409 0.626053
0.366253 0.608975 0.576623
0.424567 0.631704 0.589555
0.483416 0.654094 0.601704
0.543111 0.675966 0.616871
0.603858 0.697170 0.631145
0.665753 0.717589 0.644517
0.744268 0.737134 0.657007
0.823801 0.755746 0.668666
0.414533 0.707762 0.626043
0.472379 0.729678 0.636117
0.531300 0.750796 0.649164
0.591361 0.771005 0.661344
0.652519 0.790223 0.672719
0.714625 0.808398 0.683381
0.785161 0.825508 0.693451
0.863760 0.841561 0.703082
0.026771 0.056771 0.229609
0.067244 0.074018 0.242986
0.108740 0.091921 0.257736
0.159943 0.109965 0.274743
0.221648 0.127870 0.293451
0.286683 0.145434 0.313325
0.355405 0.162517 0.333891
0.427953 0.179042 0.354737
0.086981 0.140796 0.290538
0.130655 0.159698 0.309729
0.176839 0.178490 0.329907
0.226047 0.196987 0.350619
0.294056 0.215063 0.371477
0.365460 0.232656 0.392155
0.440114 0.249763 0.412385
0.517658 0.266442 0.431961
0.147170 0.232635 0.367365
0.194885 0.252338 0.388192
0.245784 0.271603 0.408735
0.299879 0.290382 0.428748
0.364705 0.308684 0.448047
0.439838 0.326580 0.466509
0.516888 0.344200 0.484070
0.594993 0.361737 0.500727
0.202072 0.328381 0.445015
0.254420 0.352098 0.464021
0.309730 0.371399 0.482159
0.367511 0.390236 0.499389
0.427055 0.408753 0.515728
0.502916 0.427153 0.531256
0.578519 0.445680 0.546132
0.653832 0.464219 0.560800
0.254330 0.425432 0.514588
0.311544 0.448569 0.530620
0.370599 0.471262 0.545884
0.430440 0.493731 0.560634
0.490239 0.512234 0.575266
0.558038 0.530651 0.589783
0.634353 0.548833 0.604029
0.711794 0.566596 0.621698
0.313318 0.522415 0.575124
0.373000 0.544801 0.589722
0.432417 0.567286 0.604162
0.492042 0.589676 0.618264
0.552301 0.611765 0.631860
0.613513 0.633378 0.644817
0.691372 0.650500 0.660899
0.770498 0.666885 0.676161
0.371663 0.619276 0.632431
0.429879 0.641912 0.645809
0.488703 0.664144 0.658504
0.548424 0.685805 0.670424
0.609221 0.706754 0.681504
0.671166 0.726885 0.695582
0.741965 0.746117 0.708782
0.821472 0.764405 0.721131
0.418755 0.717842 0.683709
0.476613 0.739502 0.694473
0.535576 0.760322 0.704359
0.595685 0.780203 0.713374
0.656871 0.799071 0.725426
0.718959 0.816885 0.736712
0.781666 0.833633 0.747329
0.860084 0.849334 0.757405
0.032532 0.062532 0.266339
0.073289 0.080058 0.280015
0.115243 0.098049 0.295871
0.159316 0.116073 0.314252
0.221727 0.133882 0.334506
0.287515 0.151294 0.356050
0.356987 0.168193 0.378360
0.430230 0.184523 0.400977
0.093210 0.147214 0.330592
0.137256 0.166103 0.351380
0.183920 0.184813 0.373260
0.233665 0.203177 0.395732
0.294478 0.221093 0.418358
0.366383 0.238518 0.440763
0.441446 0.255470 0.462630
0.519254 0.272028 0.483703
0.152970 0.239370 0.413124
0.201131 0.258933 0.435710
0.252495 0.278036 0.457952
0.307023 0.296649 0.479557
0.364457 0.314802 0.500289
0.439805 0.332586 0.519978
0.516887 0.350154 0.538509
0.594787 0.367716 0.555830
0.207356 0.339056 0.496367
0.260191 0.358711 0.516737
0.315914 0.377842 0.536014
0.373987 0.396551 0.554107
0.433648 0.415003 0.570986
0.501660 0.433420 0.586681
0.577083 0.451986 0.601470
0.652379 0.470488 0.616109
0.259794 0.435907 0.569544
0.317499 0.458872 0.585985
0.376880 0.481461 0.601267
0.436736 0.500026 0.615962
0.496539 0.518503 0.630599
0.556726 0.536862 0.645300
0.633232 0.554920 0.659877
0.710897 0.572506 0.674129
0.319600 0.532568 0.630439
0.379129 0.554990 0.645102
0.438448 0.577468 0.659783
0.498065 0.599777 0.674264
0.558380 0.621723 0.688355
0.619688 0.639269 0.701895
0.689916 0.656152 0.714757
0.769142 0.672266 0.726841
0.376955 0.629553 0.688599
0.435084 0.652073 0.702506
0.493892 0.674128 0.715814
0.553641 0.695561 0.728402
0.614487 0.716243 0.740184
0.676476 0.736076 0.751101
0.739547 0.754992 0.761126
0.819014 0.769081 0.774131
0.422861 0.727841 0.741940
0.480742 0.749229 0.753412
0.539754 0.769740 0.764006
0.599911 0.789283 0.773704
0.661121 0.807796 0.782521
0.723185 0.825248 0.790497
0.785793 0.841637 0.801579
0.856270 0.856992 0.811998
0.038394 0.068394 0.303168
0.079448 0.086146 0.317408
0.121872 0.104180 0.334654
0.166549 0.122155 0.354603
0.221910 0.139847 0.376558
0.288427 0.157095 0.399885
0.358615 0.173804 0.424013
0.432511 0.189938 0.448434
0.099423 0.153636 0.371550
0.143849 0.172487 0.394074
0.190993 0.191094 0.417756
0.241267 0.209315 0.442046
0.294865 0.227066 0.466459
0.367245 0.244325 0.490569
0.442680 0.261132 0.514010
0.520706 0.277585 0.536478
0.158708 0.246061 0.460095
0.207322 0.265475 0.484444
0.259147 0.284412 0.508349
0.314095 0.302862 0.531468
0.371857 0.320877 0.553517
0.439648 0.338567 0.574273
0.516721 0.356106 0.593575
0.594368 0.373725 0.611321
0.212613 0.345794 0.548783
0.265937 0.365263 0.570384
0.322068 0.384236 0.590627
0.380415 0.402836 0.609371
0.440168 0.421248 0.626536
0.500296 0.439716 0.642102
0.575638 0.458283 0.656799
0.651026 0.476727 0.671469
0.265346 0.446317 0.624956
0.323539 0.469132 0.641538
0.383194 0.487775 0.656613
0.443019 0.506309 0.671277
0.502854 0.524760 0.686036
0.563170 0.543038 0.701049
0.632117 0.560953 0.716066
0.709994 0.578345 0.730862
0.325849 0.542719 0.685757
0.385182 0.565185 0.700637
0.444413 0.587630 0.715680
0.504026 0.609836 0.730641
0.564397 0.627748 0.745307
0.625796 0.645083 0.759493
0.688384 0.661715 0.773047
0.767697 0.677550 0.785845
0.382126 0.639798 0.745176
0.440180 0.662180 0.759687
0.498979 0.684040 0.773659
0.558760 0.705231 0.786951
0.619654 0.725634 0.799449
0.681680 0.745162 0.811071
0.744755 0.759885 0.821765
0.816424 0.773647 0.831508
0.426856 0.737752 0.800749
0.484770 0.758854 0.812936
0.543835 0.779045 0.824225
0.604042 0.798244 0.834574
0.665273 0.816399 0.843971
0.727304 0.833489 0.852437
0.789800 0.849522 0.860020
0.852321 0.864537 0.866797
