omv/luts/37_dead_city_blue.cube
# Original OMV LUT; redistribution permitted with OMV.
TITLE "Dead City Blue"
LUT_3D_SIZE 32
DOMAIN_MIN 0.0 0.0 0.0
DOMAIN_MAX 1.0 1.0 1.0
0.000000 0.030000 0.048000
0.013268 0.033590 0.051590
0.026743 0.037388 0.055388
0.040323 0.041291 0.059291
0.053987 0.045278 0.063278
0.067723 0.049336 0.067336
0.081525 0.053460 0.071460
0.095388 0.057646 0.075646
0.109308 0.061889 0.079889
0.123283 0.066186 0.084186
0.137311 0.070536 0.088536
0.151389 0.074937 0.092937
0.165521 0.079385 0.097385
0.179771 0.083861 0.101855
0.194171 0.088354 0.106335
0.208734 0.092858 0.110821
0.223473 0.097370 0.115307
0.238398 0.101883 0.119789
0.253520 0.106395 0.124264
0.268850 0.110901 0.128727
0.284395 0.115397 0.133175
0.300165 0.119880 0.137605
0.316167 0.124346 0.142014
0.332407 0.128793 0.146399
0.348890 0.133218 0.150757
0.365623 0.137618 0.155086
0.382607 0.141991 0.159384
0.399848 0.146334 0.163650
0.417346 0.150648 0.167882
0.435104 0.154929 0.172079
0.453121 0.159177 0.176239
0.471399 0.163390 0.180362
0.012734 0.046605 0.060734
0.024489 0.051586 0.064747
0.038250 0.056637 0.068830
0.052074 0.060784 0.072977
0.065958 0.064990 0.077184
0.079899 0.069253 0.081447
0.093893 0.073571 0.085764
0.107939 0.077939 0.090133
0.122035 0.082358 0.094552
0.136195 0.086821 0.099011
0.150466 0.091313 0.103485
0.164868 0.095827 0.107968
0.179412 0.100359 0.112454
0.194113 0.104903 0.116939
0.208982 0.109454 0.121419
0.224030 0.114008 0.125890
0.239269 0.118561 0.130349
0.254706 0.123109 0.134790
0.270352 0.127648 0.139213
0.286214 0.132174 0.143613
0.302300 0.136685 0.147988
0.318615 0.141178 0.152336
0.335165 0.145650 0.156654
0.351955 0.150098 0.160941
0.368988 0.154520 0.165195
0.386267 0.158915 0.169414
0.403794 0.163281 0.173598
0.421571 0.167616 0.177745
0.439598 0.171919 0.181854
0.457873 0.176189 0.185926
0.476397 0.180425 0.189960
0.495166 0.184627 0.193955
0.026502 0.064244 0.074502
0.036536 0.069439 0.078730
0.050496 0.074690 0.083013
0.064510 0.079994 0.087349
0.078575 0.085349 0.091736
0.092688 0.089785 0.096172
0.106870 0.094264 0.100638
0.121147 0.098777 0.105116
0.135533 0.103318 0.109601
0.150044 0.107881 0.114087
0.164692 0.112462 0.118571
0.179490 0.117054 0.123048
0.194450 0.121655 0.127515
0.209584 0.126259 0.131968
0.224900 0.130862 0.136403
0.240410 0.135461 0.140818
0.256121 0.140051 0.145209
0.272041 0.144629 0.149575
0.288177 0.149193 0.153912
0.304535 0.153739 0.158219
0.321120 0.158265 0.162494
0.337937 0.162769 0.166735
0.354988 0.167248 0.170942
0.372278 0.171700 0.175112
0.389806 0.176124 0.179245
0.407575 0.180519 0.183341
0.425585 0.184883 0.187399
0.443834 0.189215 0.191419
0.462321 0.193515 0.195401
0.481043 0.197782 0.199345
0.499998 0.202016 0.203252
0.519181 0.206217 0.207123
0.040940 0.082553 0.088940
0.051152 0.087926 0.093345
0.063348 0.093348 0.097797
0.077539 0.098815 0.102268
0.091804 0.104321 0.106748
0.106159 0.109860 0.111234
0.120620 0.115427 0.115720
0.135200 0.120049 0.120202
0.149913 0.124688 0.124676
0.164772 0.129339 0.129138
0.179787 0.133997 0.133585
0.194971 0.138659 0.138013
0.210332 0.143321 0.142419
0.225880 0.147978 0.146801
0.241624 0.152627 0.151157
0.257571 0.157265 0.155484
0.273727 0.161888 0.159779
0.290098 0.166495 0.164042
0.306690 0.171082 0.168271
0.323506 0.175647 0.172464
0.340549 0.180188 0.176621
0.357823 0.184704 0.180741
0.375328 0.189192 0.184823
0.393065 0.193651 0.188867
0.411034 0.198080 0.192873
0.429235 0.202479 0.196841
0.447664 0.206847 0.200772
0.466320 0.211182 0.204666
0.485199 0.215486 0.208524
0.504296 0.219758 0.212347
0.523606 0.223999 0.216137
0.543123 0.228209 0.219896
0.055931 0.101443 0.103898
0.066298 0.106980 0.108381
0.076735 0.112554 0.112868
0.091132 0.118162 0.117353
0.105630 0.123796 0.121832
0.120244 0.129452 0.126302
0.134988 0.135125 0.130759
0.149873 0.140810 0.135199
0.164911 0.146502 0.139620
0.180112 0.151230 0.144018
0.195487 0.155957 0.148390
0.211043 0.160680 0.152736
0.226791 0.165394 0.157051
0.242735 0.170098 0.161335
0.258884 0.174788 0.165586
0.275242 0.179460 0.169802
0.291815 0.184114 0.173982
0.308606 0.188746 0.178125
0.325617 0.193354 0.182231
0.342852 0.197937 0.186299
0.360312 0.202494 0.190330
0.377997 0.207022 0.194322
0.395906 0.211521 0.198276
0.414038 0.215989 0.202193
0.432392 0.220428 0.206074
0.450964 0.224835 0.209920
0.469750 0.229211 0.213731
0.488746 0.233556 0.217509
0.507945 0.237871 0.221257
0.527343 0.242156 0.224975
0.546931 0.246412 0.228666
0.566702 0.250639 0.232333
0.071249 0.120925 0.118984
0.081780 0.126609 0.123461
0.092411 0.132319 0.127926
0.105091 0.138049 0.132377
0.119833 0.143796 0.136811
0.134713 0.149554 0.141224
0.149743 0.155319 0.145613
0.164933 0.161087 0.149976
0.180293 0.166854 0.154310
0.195831 0.172616 0.158614
0.211555 0.178370 0.162886
0.227473 0.183145 0.167124
0.243590 0.187906 0.171328
0.259912 0.192650 0.175494
0.276443 0.197374 0.179624
0.293186 0.202078 0.183717
0.310146 0.206757 0.187771
0.327322 0.211412 0.191787
0.344718 0.216040 0.195766
0.362331 0.220640 0.199707
0.380163 0.225211 0.203610
0.398212 0.229752 0.207478
0.416474 0.234263 0.211311
0.434948 0.238744 0.215110
0.453628 0.243194 0.218877
0.472510 0.247614 0.222614
0.491588 0.252004 0.226322
0.510856 0.256365 0.230004
0.530305 0.260697 0.233662
0.549929 0.265002 0.237300
0.569716 0.269281 0.240920
0.589658 0.273536 0.244525
0.086687 0.141016 0.133994
0.097403 0.146828 0.138420
0.108243 0.152655 0.142824
0.119220 0.158493 0.147204
0.134215 0.164337 0.151557
0.149367 0.170183 0.155881
0.164687 0.176027 0.160173
0.180182 0.181867 0.164433
0.195861 0.187697 0.168659
0.211729 0.193516 0.172849
0.227792 0.199320 0.177002
0.244057 0.205107 0.181119
0.260527 0.210874 0.185197
0.277205 0.215652 0.189238
0.294094 0.220406 0.193240
0.311195 0.225135 0.197205
0.328510 0.229837 0.201132
0.346038 0.234511 0.205023
0.363779 0.239156 0.208878
0.381730 0.243772 0.212698
0.399889 0.248358 0.216485
0.418253 0.252913 0.220241
0.436816 0.257438 0.223967
0.455575 0.261933 0.227665
0.474523 0.266398 0.231338
0.493653 0.270834 0.234989
0.512957 0.275242 0.238620
0.532427 0.279624 0.242234
0.552053 0.283980 0.245834
0.571825 0.288312 0.249425
0.591732 0.292622 0.253009
0.611761 0.296913 0.256591
0.102084 0.161721 0.148792
0.113003 0.167644 0.153135
0.124068 0.173572 0.157447
0.135289 0.179502 0.161728
0.148611 0.185428 0.165976
0.164042 0.191348 0.170188
0.179654 0.197259 0.174365
0.195453 0.203158 0.178505
0.211445 0.209041 0.182608
0.227635 0.214906 0.186672
0.244027 0.220751 0.190699
0.260623 0.226574 0.194688
0.277427 0.232372 0.198639
0.294439 0.238145 0.202553
0.311661 0.243891 0.206430
0.329091 0.248641 0.210272
0.346729 0.253361 0.214081
0.364573 0.258052 0.217856
0.382619 0.262712 0.221601
0.400865 0.267342 0.225316
0.419305 0.271941 0.229005
0.437934 0.276511 0.232670
0.456746 0.281050 0.236313
0.475733 0.285561 0.239937
0.494888 0.290044 0.243546
0.514202 0.294500 0.247142
0.533665 0.298931 0.250730
0.553266 0.303338 0.254313
0.572994 0.307724 0.257896
0.592836 0.312090 0.261482
0.612781 0.316439 0.265076
0.632813 0.320774 0.268683
0.117310 0.183040 0.163278
0.128451 0.189056 0.167513
0.139756 0.195068 0.171713
0.151233 0.201073 0.175877
0.162890 0.207068 0.180003
0.178604 0.213049 0.184092
0.194509 0.219013 0.188143
0.210609 0.224959 0.192156
0.226909 0.230884 0.196131
0.243412 0.236785 0.200068
0.260118 0.242662 0.203969
0.277031 0.248512 0.207833
0.294149 0.254334 0.211663
0.311472 0.260127 0.215459
0.328999 0.265891 0.219223
0.346728 0.271624 0.222957
0.364656 0.277326 0.226662
0.382778 0.282030 0.230342
0.401089 0.286703 0.233998
0.419585 0.291345 0.237634
0.438258 0.295957 0.241252
0.457101 0.300540 0.244856
0.476106 0.305095 0.248449
0.495263 0.309623 0.252035
0.514563 0.314126 0.255617
0.533996 0.318605 0.259201
0.553548 0.323063 0.262789
0.573208 0.327501 0.266387
0.592962 0.331922 0.270001
0.612796 0.336329 0.273634
0.632695 0.340725 0.277292
0.652643 0.345112 0.280981
0.132269 0.204959 0.177383
0.143649 0.211051 0.181496
0.155207 0.217131 0.185571
0.166951 0.223196 0.189608
0.178885 0.229244 0.193607
0.192949 0.235272 0.197568
0.209147 0.241277 0.201492
0.225545 0.247258 0.205380
0.242146 0.253213 0.209231
0.258950 0.259140 0.213049
0.275958 0.265039 0.216833
0.293168 0.270907 0.220585
0.310579 0.276745 0.224309
0.328189 0.282552 0.228005
0.345994 0.288327 0.231676
0.363990 0.294070 0.235324
0.382171 0.299782 0.238953
0.400533 0.305463 0.242566
0.419067 0.311113 0.246165
0.437767 0.315765 0.249755
0.456624 0.320389 0.253339
0.475628 0.324986 0.256922
0.494770 0.329557 0.260506
0.514038 0.334103 0.264098
0.533420 0.338628 0.267701
0.552903 0.343134 0.271321
0.572475 0.347622 0.274962
0.592120 0.352095 0.278631
0.611822 0.356557 0.282333
0.631567 0.361011 0.286074
0.651336 0.365460 0.289859
0.671112 0.369907 0.293696
0.146895 0.227456 0.191068
0.158530 0.233606 0.195054
0.170354 0.239738 0.199001
0.182373 0.245848 0.202912
0.194589 0.251934 0.206786
0.207006 0.257994 0.210625
0.223495 0.264027 0.214430
0.240186 0.270030 0.218202
0.257079 0.276004 0.221944
0.274173 0.281946 0.225657
0.291466 0.287857 0.229344
0.308955 0.293735 0.233007
0.326637 0.299581 0.236648
0.344507 0.305393 0.240270
0.362560 0.311173 0.243878
0.380790 0.316921 0.247473
0.399189 0.322638 0.251061
0.417750 0.328324 0.254643
0.436463 0.333980 0.258226
0.455320 0.339608 0.261813
0.474310 0.345210 0.265408
0.493422 0.349820 0.269017
0.512642 0.354406 0.272644
0.531959 0.358973 0.276295
0.551358 0.363522 0.279975
0.570825 0.368055 0.283690
0.590344 0.372577 0.287446
0.609899 0.377091 0.291250
0.629471 0.381599 0.295107
0.649044 0.386105 0.299024
0.668597 0.390614 0.303009
0.688112 0.395129 0.307069
0.161153 0.250498 0.204326
0.173057 0.256690 0.208188
0.185158 0.262855 0.212014
0.197460 0.268994 0.215807
0.209963 0.275103 0.219568
0.222668 0.281181 0.223299
0.237510 0.287228 0.227003
0.254487 0.293242 0.230680
0.271663 0.299222 0.234334
0.289033 0.305169 0.237969
0.306594 0.311081 0.241585
0.324342 0.316960 0.245188
0.342271 0.322804 0.248780
0.360373 0.328615 0.252365
0.378643 0.334394 0.255948
0.397072 0.340140 0.259531
0.415651 0.345856 0.263120
0.434369 0.351543 0.266720
0.453217 0.357202 0.270335
0.472183 0.362836 0.273970
0.491253 0.368446 0.277631
0.510416 0.374035 0.281323
0.529657 0.379605 0.285052
0.548960 0.384192 0.288825
0.568310 0.388766 0.292647
0.587691 0.393331 0.296526
0.607084 0.397890 0.300467
0.626471 0.402447 0.304478
0.645833 0.407005 0.308566
0.665150 0.411570 0.312739
0.684401 0.416145 0.317005
0.703563 0.420736 0.321370
0.175038 0.274041 0.217180
0.187224 0.280255 0.220930
0.199612 0.286439 0.224651
0.212203 0.292589 0.228344
0.224995 0.298706 0.232013
0.237988 0.304788 0.235660
0.251178 0.310835 0.239287
0.268434 0.316846 0.242898
0.285881 0.322821 0.246497
0.303512 0.328761 0.250086
0.321324 0.334665 0.253670
0.339308 0.340534 0.257252
0.357458 0.346369 0.260837
0.375765 0.352170 0.264429
0.394219 0.357940 0.268034
0.412811 0.363679 0.271655
0.431530 0.369389 0.275299
0.450363 0.375072 0.278971
0.469298 0.380730 0.282676
0.488322 0.386366 0.286421
0.507421 0.391982 0.290211
0.526578 0.397581 0.294053
0.545778 0.403167 0.297953
0.565003 0.408742 0.301919
0.584237 0.414310 0.305957
0.603460 0.418908 0.310075
0.622652 0.423507 0.314281
0.641794 0.428111 0.318582
0.660864 0.432724 0.322986
0.679840 0.437353 0.327502
0.698709 0.441999 0.332128
0.717549 0.446646 0.336775
0.188576 0.298030 0.229683
0.201056 0.304248 0.233343
0.213740 0.310431 0.236982
0.226624 0.316577 0.240604
0.239707 0.322686 0.244210
0.252985 0.328757 0.247804
0.266454 0.334790 0.251391
0.282043 0.340785 0.254974
0.299748 0.346743 0.258556
0.317625 0.352664 0.262144
0.335666 0.358549 0.265740
0.353864 0.364399 0.269350
0.372208 0.370215 0.272979
0.390688 0.375998 0.276633
0.409293 0.381751 0.280316
0.428011 0.387476 0.284035
0.446829 0.393174 0.287795
0.465732 0.398849 0.291603
0.484707 0.404502 0.295465
0.503739 0.410137 0.299389
0.522809 0.415757 0.303380
0.541902 0.421365 0.307447
0.560999 0.426965 0.311596
0.580082 0.432561 0.315835
0.599129 0.438156 0.320173
0.618122 0.443756 0.324617
0.637038 0.449365 0.329175
0.655885 0.454014 0.333820
0.674724 0.458659 0.338466
0.693558 0.463300 0.343106
0.712386 0.467934 0.347741
0.731208 0.472563 0.352369
0.201823 0.322396 0.241918
0.214608 0.328601 0.245520
0.227593 0.334766 0.249111
0.240774 0.340891 0.252696
0.254148 0.346976 0.256278
0.267707 0.353020 0.259862
0.281447 0.359025 0.263452
0.295360 0.364991 0.267052
0.313308 0.370918 0.270669
0.331413 0.376809 0.274306
0.349663 0.382663 0.277970
0.368049 0.388483 0.281665
0.386559 0.394271 0.285398
0.405181 0.400029 0.289175
0.423902 0.405758 0.293003
0.442706 0.411461 0.296886
0.461581 0.417142 0.300834
0.480509 0.422802 0.304852
0.499475 0.428446 0.308948
0.518460 0.434076 0.313129
0.537446 0.439697 0.317403
0.556415 0.445312 0.321778
0.575346 0.450925 0.326262
0.594219 0.456541 0.330864
0.613060 0.462157 0.335512
0.631898 0.467769 0.340156
0.650730 0.473375 0.344794
0.669556 0.478975 0.349427
0.688375 0.484569 0.354053
0.707190 0.489187 0.358668
0.726057 0.493797 0.363220
0.745001 0.498396 0.367686
0.214865 0.347062 0.254000
0.227963 0.353234 0.257582
0.241255 0.359364 0.261168
0.254736 0.365450 0.264761
0.268398 0.371495 0.268367
0.282235 0.377497 0.271990
0.296237 0.383459 0.275637
0.310396 0.389382 0.279311
0.326637 0.395266 0.283020
0.344950 0.401114 0.286768
0.363387 0.406927 0.290563
0.381935 0.412707 0.294410
0.400581 0.418457 0.298316
0.419312 0.424179 0.302288
0.438111 0.429876 0.306333
0.456962 0.435551 0.310459
0.475850 0.441207 0.314673
0.494755 0.446848 0.318983
0.513660 0.452478 0.323397
0.532545 0.458100 0.327924
0.551395 0.463718 0.332557
0.570235 0.469332 0.337203
0.589071 0.474942 0.341845
0.607901 0.480546 0.346481
0.626724 0.486144 0.351112
0.645541 0.491735 0.355735
0.664364 0.497319 0.360335
0.683242 0.502898 0.364856
0.702188 0.508468 0.369291
0.721206 0.514027 0.373641
0.740302 0.519571 0.377904
0.759482 0.524129 0.382080
0.227818 0.371939 0.266072
0.241237 0.378059 0.269684
0.254841 0.384134 0.273315
0.268621 0.390165 0.276971
0.282569 0.396153 0.280657
0.296676 0.402098 0.284379
0.310930 0.408002 0.288144
0.325322 0.413867 0.291957
0.339839 0.419695 0.295825
0.358340 0.425487 0.299754
0.376938 0.431247 0.303752
0.395621 0.436976 0.307826
0.414373 0.442678 0.311983
0.433177 0.448356 0.316231
0.452016 0.454012 0.320578
0.470873 0.459651 0.325032
0.489728 0.465277 0.329601
0.508571 0.470894 0.334249
0.527410 0.476507 0.338894
0.546243 0.482114 0.343534
0.565071 0.487716 0.348168
0.583892 0.493312 0.352796
0.602706 0.498900 0.357416
0.621539 0.504485 0.361991
0.640421 0.510067 0.366480
0.659359 0.515643 0.370884
0.678359 0.521210 0.375203
0.697427 0.526765 0.379434
0.716569 0.532304 0.383579
0.735790 0.537825 0.387637
0.755094 0.543325 0.391607
0.774486 0.548800 0.395491
0.240829 0.396924 0.278309
0.254575 0.402974 0.282008
0.268493 0.408976 0.285745
0.282572 0.414933 0.289526
0.296801 0.420847 0.293358
0.311170 0.426718 0.297248
0.325666 0.432549 0.301201
0.340275 0.438342 0.305226
0.354985 0.444100 0.309329
0.371716 0.449824 0.313519
0.390451 0.455519 0.317802
0.409240 0.461186 0.322187
0.428064 0.466830 0.326682
0.446905 0.472454 0.331293
0.465747 0.478069 0.335940
0.484583 0.483680 0.340584
0.503415 0.489286 0.345221
0.522240 0.494886 0.349853
0.541059 0.500479 0.354479
0.559873 0.506065 0.359091
0.578711 0.511653 0.363635
0.597587 0.517241 0.368094
0.616509 0.522825 0.372467
0.635483 0.528403 0.376753
0.654515 0.533971 0.380953
0.673612 0.539526 0.385066
0.692778 0.545065 0.389092
0.712019 0.550584 0.393031
0.731339 0.556081 0.396883
0.750741 0.561553 0.400648
0.770231 0.566998 0.404326
0.789812 0.572413 0.407918
0.254074 0.421906 0.290915
0.268153 0.427864 0.294767
0.282386 0.433776 0.298679
0.296761 0.439641 0.302658
0.311266 0.445464 0.306710
0.325887 0.451245 0.310844
0.340611 0.456987 0.315067
0.355422 0.462693 0.319386
0.370304 0.468367 0.323810
0.385241 0.474010 0.328347
0.404082 0.479630 0.332985
0.422922 0.485244 0.337631
0.441757 0.490853 0.342273
0.460586 0.496457 0.346909
0.479409 0.502054 0.351538
0.498225 0.507645 0.356161
0.517040 0.513232 0.360755
0.535875 0.518825 0.365268
0.554737 0.524421 0.369696
0.573634 0.530016 0.374037
0.592574 0.535607 0.378292
0.611563 0.541190 0.382461
0.630606 0.546763 0.386542
0.649710 0.552321 0.390536
0.668881 0.557862 0.394444
0.688121 0.563382 0.398264
0.707437 0.568880 0.401997
0.726832 0.574352 0.405644
0.746310 0.579796 0.409205
0.765874 0.585209 0.412680
0.785526 0.590589 0.416071
0.805270 0.595933 0.419378
0.267761 0.446761 0.304124
0.282175 0.452608 0.308205
0.296722 0.458408 0.312371
0.311390 0.464164 0.316628
0.326163 0.469877 0.320984
0.341026 0.475552 0.325448
0.355964 0.481189 0.330029
0.370935 0.486806 0.334677
0.385902 0.492418 0.339322
0.400864 0.498026 0.343961
0.417756 0.503627 0.348595
0.436577 0.509222 0.353222
0.455390 0.514810 0.357841
0.474203 0.520401 0.362408
0.493025 0.526002 0.366890
0.511864 0.531609 0.371286
0.530730 0.537217 0.375596
0.549628 0.542823 0.379820
0.568565 0.548424 0.383957
0.587548 0.554015 0.388006
0.606583 0.559595 0.391969
0.625676 0.565160 0.395844
0.644831 0.570706 0.399633
0.664054 0.576230 0.403335
0.683348 0.581731 0.406950
0.702718 0.587205 0.410480
0.722167 0.592650 0.413924
0.741698 0.598063 0.417284
0.761313 0.603442 0.420561
0.781016 0.608785 0.423755
0.800807 0.614089 0.426867
0.820688 0.619353 0.429899
0.282126 0.471352 0.318202
0.296877 0.477068 0.322596
0.311738 0.482738 0.327102
0.326689 0.488366 0.331721
0.341659 0.493981 0.336369
0.356624 0.499592 0.341011
0.371584 0.505197 0.345649
0.386538 0.510796 0.350280
0.401485 0.516389 0.354905
0.416425 0.521976 0.359514
0.431356 0.527576 0.364050
0.450157 0.533187 0.368500
0.468966 0.538806 0.372865
0.487791 0.544429 0.377144
0.506639 0.550052 0.381336
0.525518 0.555672 0.385441
0.544433 0.561285 0.389459
0.563393 0.566889 0.393390
0.582402 0.572478 0.397234
0.601465 0.578051 0.400990
0.620588 0.583605 0.404661
0.639776 0.589136 0.408245
0.659032 0.594642 0.411743
0.678361 0.600120 0.415157
0.697766 0.605567 0.418487
0.717249 0.610982 0.421733
0.736813 0.616362 0.424897
0.756461 0.621704 0.427980
0.776193 0.627007 0.430984
0.796012 0.632269 0.433909
0.815917 0.637487 0.436757
0.835910 0.642661 0.439529
0.297414 0.495543 0.333414
0.312382 0.501156 0.338059
0.327345 0.506765 0.342700
0.342303 0.512368 0.347336
0.357255 0.517965 0.351965
0.372199 0.523554 0.356587
0.387130 0.529146 0.361175
0.402042 0.534755 0.365680
0.416943 0.540379 0.370100
0.431843 0.546013 0.374433
0.446749 0.551653 0.378680
0.463604 0.557296 0.382841
0.482417 0.562937 0.386914
0.501258 0.568574 0.390900
0.520135 0.574202 0.394799
0.539053 0.579818 0.398611
0.558019 0.585420 0.402337
0.577037 0.591004 0.405976
0.596113 0.596567 0.409529
0.615250 0.602106 0.412996
0.634454 0.607619 0.416379
0.653727 0.613102 0.419678
0.673073 0.618554 0.422895
0.692495 0.623971 0.426029
0.711995 0.629352 0.429083
0.731575 0.634695 0.432058
0.751236 0.639997 0.434954
0.770981 0.645257 0.437775
0.790808 0.650472 0.440520
0.810719 0.655642 0.443193
0.830714 0.660764 0.445795
0.850792 0.665837 0.448327
0.313022 0.519538 0.349022
0.327971 0.525132 0.353648
0.342912 0.530719 0.358266
0.357826 0.536321 0.362825
0.372710 0.541943 0.367299
0.387574 0.547581 0.371687
0.402426 0.553232 0.375989
0.417276 0.558891 0.380205
0.432132 0.564555 0.384334
0.447001 0.570220 0.388375
0.461890 0.575881 0.392330
0.476807 0.581537 0.396197
0.495628 0.587182 0.399978
0.514490 0.592814 0.403672
0.533397 0.598429 0.407279
0.552355 0.604025 0.410801
0.571369 0.609599 0.414238
0.590442 0.615147 0.417590
0.609580 0.620667 0.420859
0.628784 0.626157 0.424045
0.648060 0.631614 0.427150
0.667408 0.637035 0.430175
0.686832 0.642418 0.433121
0.706333 0.647761 0.435990
0.725913 0.653063 0.438783
0.745573 0.658321 0.441502
0.765313 0.663533 0.444148
0.785133 0.668698 0.446724
0.805034 0.673814 0.449232
0.825013 0.678881 0.451674
0.845072 0.683895 0.454052
0.865207 0.688857 0.456369
0.328505 0.543502 0.364464
0.343353 0.549138 0.368906
0.358172 0.554794 0.373263
0.372970 0.560464 0.377534
0.387757 0.566144 0.381718
0.402541 0.571831 0.385815
0.417329 0.577521 0.389825
0.432131 0.583210 0.393748
0.446952 0.588893 0.397584
0.461800 0.594569 0.401332
0.476681 0.600233 0.404995
0.491600 0.605881 0.408571
0.508500 0.611512 0.412062
0.527385 0.617121 0.415468
0.546323 0.622707 0.418790
0.565320 0.628265 0.422028
0.584380 0.633793 0.425185
0.603505 0.639290 0.428261
0.622698 0.644752 0.431257
0.641963 0.650176 0.434174
0.661301 0.655562 0.437015
0.680714 0.660906 0.439781
0.700203 0.666207 0.442473
0.719769 0.671462 0.445094
0.739413 0.676671 0.447645
0.759135 0.681831 0.450129
0.778934 0.686941 0.452547
0.798809 0.691999 0.454903
0.818759 0.697005 0.457197
0.838783 0.701956 0.459434
0.858878 0.706853 0.461616
0.879043 0.711693 0.463745
0.343470 0.567710 0.379067
0.358186 0.573413 0.383220
0.372891 0.579125 0.387285
0.387593 0.584842 0.391263
0.402300 0.590559 0.395154
0.417019 0.596273 0.398958
0.431759 0.601980 0.402676
0.446524 0.607677 0.406307
0.461322 0.613361 0.409852
0.476158 0.619027 0.413312
0.491038 0.624674 0.416687
0.505966 0.630297 0.419978
0.520947 0.635894 0.423187
0.539857 0.641463 0.426314
0.558828 0.647000 0.429361
0.577863 0.652504 0.432328
0.596965 0.657971 0.435218
0.616137 0.663399 0.438031
0.635380 0.668786 0.440770
0.654696 0.674130 0.443436
0.674087 0.679430 0.446031
0.693553 0.684682 0.448557
0.713094 0.689886 0.451017
0.732710 0.695040 0.453412
0.752401 0.700142 0.455745
0.772167 0.705191 0.458018
0.792004 0.710186 0.460235
0.811913 0.715125 0.462397
0.831889 0.720008 0.464508
0.851932 0.724834 0.466570
0.872038 0.729601 0.468587
0.892202 0.734310 0.470561
0.357787 0.592184 0.392690
0.372394 0.597931 0.396549
0.387005 0.603677 0.400322
0.401630 0.609418 0.404008
0.416274 0.615149 0.407607
0.430945 0.620869 0.411121
0.445648 0.626572 0.414550
0.460389 0.632257 0.417895
0.475174 0.637920 0.421156
0.490007 0.643557 0.424335
0.504892 0.649167 0.427432
0.519834 0.654746 0.430450
0.534836 0.660291 0.433389
0.551837 0.665801 0.436250
0.570840 0.671272 0.439036
0.589911 0.676703 0.441749
0.609052 0.682092 0.444389
0.628265 0.687435 0.446959
0.647551 0.692731 0.449460
0.666910 0.697980 0.451896
0.686343 0.703177 0.454268
0.705850 0.708323 0.456579
0.725429 0.713416 0.458832
0.745080 0.718454 0.461028
0.764801 0.723436 0.463171
0.784591 0.728361 0.465264
0.804446 0.733228 0.467309
0.824365 0.738036 0.469310
0.844344 0.742785 0.471270
0.864380 0.747473 0.473192
0.884468 0.752100 0.475081
0.904604 0.756667 0.476938
0.371411 0.616882 0.405328
0.385929 0.622649 0.408897
0.400468 0.628406 0.412379
0.415033 0.634148 0.415778
0.429631 0.639872 0.419092
0.444267 0.645575 0.422323
0.458947 0.651254 0.425472
0.473676 0.656905 0.428540
0.488456 0.662526 0.431529
0.503294 0.668115 0.434440
0.518191 0.673668 0.437273
0.533151 0.679184 0.440032
0.548176 0.684658 0.442718
0.563269 0.690091 0.445332
0.582303 0.695479 0.447877
0.601408 0.700820 0.450355
0.620584 0.706112 0.452767
0.639832 0.711354 0.455117
0.659153 0.716544 0.457406
0.678546 0.721680 0.459638
0.698010 0.726760 0.461814
0.717545 0.731785 0.463939
0.737147 0.736752 0.466014
0.756817 0.741660 0.468043
0.776550 0.746508 0.470028
0.796344 0.751296 0.471974
0.816196 0.756023 0.473884
0.836102 0.760687 0.475760
0.856059 0.765289 0.477608
0.876060 0.769829 0.479429
0.896102 0.774305 0.481229
0.916180 0.778718 0.483012
0.384309 0.641755 0.416994
0.398760 0.647519 0.420278
0.413244 0.653263 0.423479
0.427768 0.658984 0.426598
0.442335 0.664678 0.429637
0.456952 0.670343 0.432598
0.471621 0.675975 0.435480
0.486347 0.681572 0.438286
0.501132 0.687132 0.441018
0.515981 0.692652 0.443678
0.530895 0.698129 0.446267
0.545877 0.703561 0.448787
0.560928 0.708947 0.451240
0.576049 0.714283 0.453630
0.593177 0.719569 0.455957
0.612312 0.724803 0.458225
0.631518 0.729982 0.460436
0.650795 0.735106 0.462594
0.670143 0.740172 0.464700
