omv/luts/38_exclusion_overcast.cube
# Original OMV LUT; redistribution permitted with OMV.
TITLE "Exclusion Overcast"
LUT_3D_SIZE 5
DOMAIN_MIN 0.000000 0.000000 0.000000
DOMAIN_MAX 0.903226 0.903226 0.903226
0.014000 0.038000 0.028000
0.171836 0.060352 0.050352
0.331942 0.084453 0.074425
0.501030 0.107524 0.097112
0.685702 0.127442 0.116294
0.092500 0.210878 0.104563
0.235556 0.234017 0.122223
0.416469 0.254488 0.135519
0.611911 0.273830 0.144886
0.820158 0.289953 0.151649
0.145410 0.407599 0.147552
0.281015 0.428405 0.153869
0.478104 0.445695 0.160813
0.681086 0.460696 0.171796
0.883128 0.475128 0.188160
0.181567 0.613567 0.177567
0.333719 0.627904 0.194201
0.511275 0.641881 0.211247
0.713087 0.655688 0.228964
0.912927 0.669462 0.247222
0.244311 0.806349 0.235560
0.398271 0.818705 0.253955
0.549600 0.830882 0.272496
0.747252 0.842865 0.290734
0.941345 0.854505 0.308089
0.021212 0.045212 0.098438
0.155076 0.068431 0.132947
0.316739 0.092547 0.169162
0.489192 0.114707 0.195090
0.677543 0.133299 0.219708
0.099742 0.217462 0.193013
0.219452 0.239831 0.228021
0.402338 0.261446 0.248585
0.599486 0.279632 0.265705
0.808422 0.294858 0.279973
0.148688 0.413608 0.271171
0.286269 0.433137 0.284721
0.459632 0.449468 0.297655
0.662125 0.464125 0.312641
0.863892 0.480748 0.329257
0.187239 0.616981 0.318723
0.339571 0.631193 0.335274
0.492507 0.645088 0.351880
0.694161 0.658875 0.368679
0.893584 0.672647 0.385656
0.251632 0.809078 0.374844
0.405313 0.821367 0.391856
0.556081 0.833487 0.408810
0.728174 0.845377 0.425375
0.921506 0.856843 0.441085
0.028887 0.052887 0.169339
0.138469 0.076662 0.204405
0.302223 0.100397 0.243232
0.477895 0.121471 0.285504
0.669648 0.138667 0.328069
0.106588 0.223843 0.274413
0.227864 0.247549 0.316482
0.387823 0.268002 0.356012
0.586479 0.285085 0.391982
0.795772 0.299570 0.412966
0.151774 0.419166 0.377449
0.291348 0.437492 0.408517
0.440867 0.453040 0.437126
0.642961 0.469799 0.453799
0.844613 0.486391 0.470242
0.192877 0.620361 0.448554
0.345603 0.634444 0.476091
0.498675 0.648284 0.491911
0.675270 0.662061 0.507540
0.874238 0.675826 0.523079
0.259062 0.811781 0.513206
0.412367 0.824011 0.528711
0.562502 0.836066 0.544050
0.708986 0.847841 0.559007
0.901527 0.859094 0.573233
0.036795 0.060795 0.240473
0.147035 0.084907 0.276620
0.288232 0.107933 0.320271
0.466973 0.127779 0.369092
0.661845 0.143545 0.419213
0.113005 0.232214 0.360673
0.235916 0.254884 0.410485
0.372881 0.274161 0.457775
0.572843 0.290231 0.500793
0.782153 0.304165 0.538672
0.154751 0.424287 0.488506
0.296331 0.441519 0.524471
0.446721 0.458753 0.555539
0.623762 0.475440 0.583633
0.825304 0.492066 0.610908
0.198581 0.623696 0.567015
0.351809 0.637668 0.593877
0.504933 0.651473 0.619906
0.656409 0.665248 0.645454
0.854882 0.681253 0.659449
0.266571 0.814462 0.627992
0.419408 0.826636 0.653209
0.568839 0.838614 0.678245
0.714501 0.850246 0.691711
0.881386 0.861244 0.704665
0.044883 0.068883 0.311786
0.156001 0.092989 0.350949
0.274617 0.115093 0.401189
0.456271 0.133610 0.457732
0.653974 0.147946 0.515987
0.118974 0.240268 0.452265
0.243582 0.261820 0.510180
0.382319 0.279943 0.564994
0.558540 0.295123 0.614224
0.767524 0.308732 0.656274
0.157718 0.428996 0.603730
0.301309 0.447537 0.642942
0.452440 0.464440 0.674247
0.604546 0.481059 0.702081
0.805973 0.497778 0.728488
0.204545 0.626983 0.685198
0.358175 0.640874 0.711045
0.511271 0.654660 0.735748
0.662407 0.670690 0.759775
0.835510 0.686663 0.783460
0.274131 0.817123 0.741733
0.426407 0.829239 0.765351
0.575062 0.841124 0.788867
0.719856 0.852579 0.812300
0.861057 0.863273 0.835533
