omv/luts/38_exclusion_overcast.cube
# Original OMV LUT; redistribution permitted with OMV.
TITLE "Exclusion Overcast"
LUT_3D_SIZE 8
DOMAIN_MIN 0.000000 0.000000 0.000000
DOMAIN_MAX 0.903226 0.903226 0.903226
0.014000 0.038000 0.028000
0.103841 0.050422 0.040422
0.194569 0.063730 0.053730
0.285786 0.077518 0.067518
0.378931 0.091277 0.081182
0.476018 0.104389 0.094056
0.578052 0.116521 0.105830
0.685702 0.127442 0.116294
0.058610 0.134268 0.072560
0.136486 0.147251 0.085979
0.230742 0.160097 0.098483
0.328439 0.173690 0.109799
0.430490 0.186432 0.119754
0.537467 0.198117 0.128271
0.649598 0.208628 0.135371
0.766767 0.217950 0.141168
0.102634 0.237439 0.113587
0.169875 0.250954 0.123022
0.269635 0.263629 0.131016
0.374001 0.275278 0.137623
0.483098 0.285805 0.142993
0.596711 0.296502 0.147369
0.714276 0.306174 0.151090
0.834886 0.315011 0.154588
0.134498 0.349054 0.139711
0.207115 0.362076 0.144686
0.298603 0.373903 0.148779
0.408643 0.384557 0.152364
0.522378 0.394151 0.155907
0.638798 0.402892 0.159968
0.756549 0.411083 0.165203
0.873931 0.420411 0.172360
0.154249 0.467171 0.153631
0.233500 0.478569 0.157293
0.316553 0.488747 0.161701
0.430685 0.497931 0.167544
0.546054 0.506441 0.175605
0.661404 0.514695 0.185146
0.776666 0.522861 0.194630
0.891786 0.531030 0.204295
0.174065 0.585250 0.170178
0.260507 0.593797 0.179087
0.347435 0.602016 0.188597
0.448634 0.610125 0.198123
0.564184 0.618145 0.207871
0.679559 0.626123 0.217844
0.794473 0.634091 0.228028
0.908698 0.642066 0.238394
0.206047 0.697298 0.201645
0.293862 0.705097 0.211476
0.381706 0.712773 0.221528
0.469257 0.720370 0.231782
0.584635 0.727918 0.242205
0.699241 0.735432 0.252747
0.812916 0.742914 0.263348
0.925557 0.750350 0.273930
0.244311 0.806349 0.235560
0.332550 0.813435 0.246032
0.420073 0.820454 0.256604
0.506683 0.827419 0.267207
0.606433 0.834330 0.277760
0.719235 0.841169 0.288168
0.830865 0.847909 0.298319
0.941345 0.854505 0.308089
0.018025 0.042025 0.068154
0.094103 0.054877 0.087458
0.185011 0.068366 0.107398
0.276544 0.082238 0.121326
0.370660 0.095821 0.135451
0.468878 0.108632 0.149314
0.572127 0.120375 0.162529
0.680997 0.130849 0.174811
0.063350 0.137811 0.120019
0.127296 0.150800 0.140551
0.222074 0.164791 0.154217
0.320473 0.178125 0.167121
0.423328 0.190527 0.179011
0.531132 0.201821 0.189735
0.644033 0.211926 0.199236
0.761834 0.220855 0.207549
0.106498 0.241255 0.171577
0.174208 0.254512 0.183056
0.260363 0.266855 0.193336
0.365356 0.278128 0.202395
0.475041 0.289560 0.210304
0.589121 0.299894 0.217229
0.706953 0.309256 0.223430
0.827550 0.317869 0.229263
0.136935 0.352755 0.205401
0.210174 0.365375 0.212927
0.288066 0.376797 0.219553
0.398601 0.387074 0.225575
0.512648 0.396350 0.231379
0.629116 0.404866 0.237450
0.746571 0.414246 0.244364
0.863233 0.423627 0.252792
0.155939 0.470337 0.227690
0.235905 0.481301 0.233530
0.319508 0.491111 0.239836
0.419749 0.500025 0.247219
0.535112 0.508402 0.256273
0.650430 0.516623 0.265785
0.765680 0.524779 0.275261
0.880744 0.532962 0.284843
0.176906 0.587410 0.250309
0.263747 0.595747 0.259747
0.350654 0.603931 0.269226
0.437780 0.612004 0.278736
0.553374 0.620005 0.288362
0.668720 0.627977 0.298116
0.783550 0.635946 0.307995
0.897645 0.643925 0.317984
0.209603 0.699112 0.282226
0.297547 0.706863 0.291898
0.385435 0.714508 0.301698
0.472957 0.722086 0.311620
0.574053 0.729621 0.321642
0.688521 0.737125 0.331729
0.802024 0.744593 0.341831
0.914472 0.752009 0.351883
0.248480 0.807912 0.315259
0.336658 0.814973 0.325309
0.424058 0.821973 0.335408
0.510494 0.828921 0.345500
0.595839 0.835809 0.355515
0.708406 0.842619 0.365371
0.819790 0.849316 0.374969
0.930024 0.855851 0.384197
0.022290 0.046290 0.108548
0.084433 0.059401 0.128111
0.175503 0.073052 0.148213
0.267556 0.086915 0.168930
0.362627 0.100275 0.190387
0.461948 0.112752 0.205595
0.566370 0.124081 0.220544
0.676404 0.134096 0.234874
0.068064 0.141375 0.161433
0.132296 0.155604 0.183023
0.213410 0.169409 0.204637
0.312506 0.182452 0.225849
0.416146 0.194493 0.239882
0.524743 0.205387 0.252956
0.638366 0.215086 0.264935
0.756737 0.223637 0.275780
0.110223 0.244994 0.218153
0.178420 0.257964 0.238310
0.250973 0.269956 0.257448
0.356583 0.282138 0.269014
0.466830 0.293188 0.279454
0.581337 0.303173 0.288856
0.699382 0.312252 0.297403
0.819897 0.320677 0.305371
0.139244 0.356322 0.266491
0.213118 0.368536 0.282990
0.291607 0.379558 0.292054
0.388427 0.389474 0.300353
0.502753 0.398460 0.308198
0.619223 0.408080 0.315992
0.736321 0.417407 0.324236
0.852297 0.426878 0.333458
0.157638 0.473350 0.303242
0.238327 0.483899 0.311017
0.322470 0.493371 0.318912
0.408796 0.502057 0.327461
0.524159 0.510353 0.336933
0.639446 0.518541 0.346411
0.754696 0.526701 0.355834
0.869696 0.536191 0.365260
0.180017 0.589437 0.330856
0.266976 0.597686 0.340396
0.353925 0.605831 0.349844
0.441162 0.613874 0.359264
0.542591 0.621862 0.368699
0.657899 0.629830 0.378175
0.772634 0.637802 0.387702
0.886591 0.645784 0.397276
0.213237 0.700907 0.362696
0.301291 0.708617 0.372143
0.389205 0.716235 0.381637
0.476683 0.723797 0.391182
0.563483 0.731321 0.400770
0.677804 0.738814 0.410376
0.791127 0.746267 0.419965
0.903375 0.753657 0.429483
0.252688 0.809466 0.394669
0.340787 0.816505 0.404267
0.428046 0.823487 0.413872
0.514295 0.830415 0.423441
0.599418 0.837280 0.432918
0.697547 0.844056 0.442232
0.808676 0.850704 0.451297
0.918661 0.857170 0.460012
0.026667 0.050667 0.149054
0.089018 0.063986 0.168824
0.166049 0.077781 0.189083
0.258790 0.091530 0.210562
0.354802 0.104627 0.233283
0.455196 0.116738 0.256610
0.560747 0.127635 0.280005
0.671887 0.137184 0.296577
0.072733 0.146230 0.203474
0.137273 0.160359 0.226484
0.204733 0.173938 0.249893
0.304521 0.186663 0.273198
0.408926 0.198325 0.295997
0.518281 0.208815 0.317980
0.632576 0.218114 0.332484
0.751455 0.226301 0.345842
0.113803 0.248644 0.266323
0.182505 0.261302 0.288856
0.255653 0.274220 0.310485
0.347675 0.286016 0.331032
0.458458 0.296693 0.350412
0.573352 0.306347 0.362186
0.691555 0.315170 0.372908
0.811919 0.323448 0.382778
0.141435 0.359753 0.322972
0.215955 0.371558 0.341926
0.295038 0.382191 0.359751
0.378125 0.391766 0.376587
0.492699 0.401784 0.386214
0.609124 0.411259 0.395411
0.725806 0.420588 0.404600
0.841345 0.430120 0.414120
0.159367 0.476215 0.367261
0.240785 0.486371 0.383141
0.325459 0.495539 0.398733
0.412041 0.504041 0.408041
0.513196 0.512293 0.417583
0.628474 0.520458 0.427016
0.743716 0.529918 0.436310
0.858644 0.539428 0.445514
0.183267 0.591396 0.405074
0.270194 0.599613 0.421032
0.357255 0.607720 0.430413
0.444586 0.615739 0.439669
0.531837 0.623717 0.448851
0.647095 0.631685 0.457996
0.761726 0.639660 0.467127
0.875539 0.647645 0.476254
0.216946 0.702686 0.443018
0.305090 0.710360 0.452183
0.393013 0.717956 0.461321
0.480432 0.725503 0.470451
0.567117 0.733017 0.479574
0.667086 0.740498 0.488681
0.780222 0.747933 0.497748
0.892264 0.755295 0.506733
0.256930 0.811011 0.473773
0.344931 0.818029 0.482893
0.432034 0.824994 0.491989
0.518081 0.831903 0.501031
0.602970 0.838741 0.509975
0.686653 0.845479 0.518761
0.797521 0.852071 0.527317
0.907251 0.858461 0.535556
0.031126 0.055126 0.189642
0.093657 0.068624 0.209592
0.156749 0.082499 0.230209
0.250217 0.096070 0.252889
0.347153 0.108864 0.277227
0.448591 0.120584 0.302508
0.555228 0.131033 0.328121
0.667416 0.140110 0.353549
0.077342 0.151067 0.246345
0.142212 0.165049 0.271104
0.210219 0.178367 0.296572
0.296498 0.190750 0.322172
0.401648 0.202022 0.347423
0.511727 0.212104 0.371939
0.626646 0.221012 0.395429
0.745969 0.228857 0.417698
0.117236 0.252197 0.316176
0.186459 0.265811 0.341199
0.260205 0.278354 0.365370
0.338627 0.289765 0.388433
0.449920 0.300078 0.410227
0.565161 0.309424 0.430683
0.683467 0.318026 0.449829
0.803610 0.326200 0.461333
0.143517 0.363045 0.381268
0.218695 0.374445 0.402578
0.298367 0.384700 0.422549
0.381897 0.395250 0.441242
0.482493 0.405045 0.458813
0.598827 0.414421 0.475510
0.715030 0.423807 0.485226
0.830383 0.433351 0.494770
0.161149 0.478939 0.432506
0.243299 0.488729 0.449725
0.328496 0.497630 0.466185
0.415291 0.506001 0.482259
0.502221 0.514221 0.498221
0.617517 0.523667 0.507558
0.732741 0.533141 0.516653
0.847590 0.542673 0.525574
0.186507 0.593346 0.472829
0.273417 0.601527 0.488749
0.360641 0.609598 0.504442
0.448050 0.617599 0.519918
0.535303 0.625570 0.528789
0.636305 0.633539 0.537556
0.750824 0.641518 0.546255
0.864486 0.650796 0.554906
0.220726 0.704451 0.510259
0.308941 0.712095 0.525539
0.396856 0.719671 0.540729
0.484201 0.727206 0.549409
0.570758 0.734710 0.558045
0.656366 0.742177 0.566640
0.769306 0.749591 0.575181
0.881137 0.756918 0.583640
0.261201 0.812549 0.546106
0.349085 0.819548 0.561179
0.436016 0.826495 0.569757
0.521848 0.833382 0.578272
0.606492 0.840190 0.586692
0.689912 0.846884 0.594972
0.786320 0.853415 0.603050
0.895790 0.859720 0.610852
0.035654 0.059654 0.230299
0.098345 0.073313 0.250410
0.161808 0.087172 0.271851
0.241807 0.100519 0.296112
0.339651 0.112976 0.322382
0.442103 0.124282 0.349873
0.549782 0.134271 0.377894
0.662960 0.142878 0.405853
0.081876 0.155869 0.290235
0.147097 0.169662 0.317036
0.215659 0.182688 0.344795
0.288423 0.194708 0.372857
0.394296 0.205581 0.400663
0.505064 0.215258 0.427752
0.620557 0.223787 0.453753
0.740259 0.231312 0.478394
0.120521 0.256933 0.367784
0.190281 0.270196 0.395378
0.264626 0.282356 0.422108
0.343630 0.293386 0.447641
0.441212 0.303352 0.471736
0.556758 0.312415 0.494249
0.675111 0.320831 0.515128
0.794963 0.328949 0.534416
0.145501 0.366197 0.441337
0.221346 0.377198 0.464868
0.301605 0.388385 0.486787
0.385559 0.398646 0.507077
0.472144 0.408257 0.525815
0.588339 0.417583 0.543172
0.704090 0.427058 0.559445
0.819408 0.436570 0.575409
0.163006 0.481530 0.498819
0.245894 0.490984 0.517030
0.331603 0.499659 0.533944
0.418532 0.507951 0.550016
0.505433 0.517429 0.565936
0.606577 0.526880 0.581548
0.721772 0.536371 0.596830
0.836534 0.545926 0.605411
0.189736 0.595284 0.540574
0.276709 0.603427 0.556412
0.364082 0.611469 0.571894
0.451554 0.619456 0.587076
0.538795 0.627424 0.602035
0.625531 0.635396 0.616834
0.739927 0.644669 0.625068
0.853432 0.653946 0.633222
0.224575 0.706204 0.577292
0.312840 0.713821 0.592187
0.400730 0.721382 0.606939
0.487986 0.728906 0.621593
0.574403 0.736398 0.636175
0.659834 0.743850 0.644249
0.758376 0.751239 0.652266
0.869992 0.758527 0.660212
0.265495 0.814080 0.611657
0.353244 0.821061 0.626218
0.439987 0.827989 0.640723
0.525591 0.834852 0.655168
0.609979 0.841626 0.663081
0.693127 0.848271 0.670880
0.775067 0.854733 0.678516
0.884274 0.860944 0.685927
0.040241 0.064241 0.271015
0.103084 0.078043 0.291303
0.167006 0.091784 0.314228
0.233532 0.104865 0.340416
0.332268 0.116955 0.368902
0.435704 0.127827 0.398821
0.544379 0.137350 0.429407
0.658489 0.145488 0.459988
0.086322 0.160621 0.335316
0.151915 0.174186 0.364419
0.221038 0.186892 0.394664
0.294474 0.198534 0.425321
0.386855 0.209000 0.455753
0.498276 0.218278 0.485420
0.614292 0.226446 0.513874
0.734308 0.233678 0.540765
0.123655 0.261555 0.421205
0.193970 0.274453 0.451416
0.268916 0.286227 0.480688
0.348487 0.296883 0.508608
0.432331 0.306520 0.534861
0.548140 0.315330 0.559221
0.666483 0.323601 0.581561
0.785973 0.331713 0.601845
0.147399 0.369212 0.503121
0.223921 0.381114 0.528705
0.304761 0.391961 0.552340
0.389120 0.401967 0.573931
0.475854 0.411435 0.593475
0.577668 0.420765 0.611068
0.693138 0.430299 0.627202
0.808421 0.439780 0.643124
0.164964 0.483996 0.566028
0.248592 0.493148 0.584846
0.334802 0.501641 0.601770
0.421761 0.511181 0.617761
0.508672 0.520636 0.633587
0.595653 0.530097 0.648950
0.710810 0.539608 0.663906
0.825476 0.549187 0.678549
0.192952 0.597210 0.608307
0.280073 0.605315 0.623982
0.367577 0.613333 0.639185
0.455095 0.621310 0.654017
0.542311 0.629278 0.668567
0.628963 0.638544 0.682908
0.729035 0.647820 0.697103
0.842376 0.657094 0.711195
0.228487 0.707947 0.644090
0.316785 0.715542 0.658556
0.404633 0.723089 0.672838
0.491785 0.730602 0.686991
0.578050 0.738082 0.701055
0.663293 0.745516 0.715057
0.747431 0.752876 0.729010
0.858825 0.761409 0.736458
0.269807 0.815605 0.676868
0.357403 0.822568 0.690907
0.443942 0.829476 0.704890
0.529304 0.836312 0.718825
0.613424 0.843048 0.732703
0.696292 0.849637 0.746504
0.777952 0.856022 0.753739
0.872698 0.862130 0.760810
0.044883 0.068883 0.311786
0.107910 0.082759 0.332679
0.172316 0.096319 0.357542
0.239561 0.109095 0.385968
0.324977 0.120793 0.416919
0.429366 0.131216 0.449452
0.538993 0.140268 0.482724
0.653974 0.147946 0.515987
0.090668 0.165307 0.381744
0.156654 0.178610 0.413374
0.226345 0.190973 0.446269
0.300445 0.202223 0.479620
0.379312 0.212282 0.512712
0.491348 0.221169 0.544927
0.607837 0.228995 0.575742
0.728101 0.235967 0.604727
0.126641 0.266057 0.476480
0.197524 0.278579 0.509320
0.273072 0.289968 0.541081
0.353197 0.300263 0.571274
0.437469 0.309592 0.599504
0.539305 0.318182 0.625469
0.657581 0.326352 0.648963
0.776636 0.334514 0.669871
0.149223 0.373382 0.566545
0.226432 0.384907 0.593980
0.307848 0.395440 0.619064
0.392592 0.405224 0.641625
0.479441 0.414596 0.661583
0.566825 0.423987 0.678954
0.682174 0.433529 0.694949
0.797419 0.443002 0.710766
0.167046 0.486348 0.633941
0.251418 0.495235 0.652951
0.338052 0.504891 0.669536
0.424979 0.514399 0.685495
0.511940 0.523845 0.701133
0.598940 0.533320 0.716181
0.699855 0.542853 0.730756
0.814419 0.552458 0.744965
0.196182 0.599124 0.676010
0.283507 0.607193 0.691421
0.371123 0.615193 0.706284
0.458673 0.623164 0.720715
0.545851 0.632424 0.734813
0.632407 0.641693 0.748667
0.718147 0.650971 0.762349
0.831317 0.660240 0.775917
0.232460 0.709681 0.710629
0.320771 0.717257 0.724629
0.408560 0.724791 0.738413
0.495594 0.732294 0.752047
0.581695 0.739761 0.765586
0.666740 0.747173 0.779067
0.750659 0.755789 0.792516
0.847633 0.764271 0.805943
0.274131 0.817123 0.741733
0.361556 0.824068 0.755247
0.447876 0.830954 0.768714
0.532982 0.837761 0.782155
0.616824 0.844452 0.795573
0.699403 0.850980 0.808960
0.780776 0.857279 0.822293
0.861057 0.863273 0.835533
