omv/luts/38_exclusion_overcast.cube
# Original OMV LUT; redistribution permitted with OMV.
TITLE "Exclusion Overcast"
LUT_3D_SIZE 32
DOMAIN_MIN 0.0 0.0 0.0
DOMAIN_MAX 1.0 1.0 1.0
0.014000 0.038000 0.028000
0.036281 0.040926 0.030926
0.058732 0.044023 0.034023
0.081259 0.047195 0.037195
0.103841 0.050422 0.040422
0.126469 0.053694 0.043694
0.149135 0.057006 0.047006
0.171836 0.060352 0.050352
0.194569 0.063730 0.053730
0.217331 0.067138 0.057138
0.240121 0.070573 0.060573
0.262938 0.074034 0.064034
0.285786 0.077518 0.067518
0.308771 0.080996 0.070987
0.331942 0.084453 0.074425
0.355322 0.087882 0.077826
0.378931 0.091277 0.081182
0.402789 0.094630 0.084489
0.426911 0.097937 0.087740
0.451316 0.101191 0.090930
0.476018 0.104389 0.094056
0.501030 0.107524 0.097112
0.526366 0.110594 0.100096
0.552037 0.113594 0.103003
0.578052 0.116521 0.105830
0.604419 0.119372 0.108574
0.631146 0.122144 0.111235
0.658239 0.124834 0.113808
0.685702 0.127442 0.116294
0.713538 0.129965 0.118690
0.741749 0.132402 0.120996
0.770335 0.134753 0.123212
0.024364 0.061267 0.038364
0.043415 0.064189 0.041608
0.066057 0.067154 0.044896
0.088736 0.070478 0.048220
0.111449 0.073836 0.051578
0.134193 0.077225 0.054967
0.156966 0.080643 0.058385
0.179766 0.084088 0.061830
0.202591 0.087559 0.065301
0.225464 0.091048 0.068784
0.248465 0.094533 0.072243
0.271621 0.098008 0.075668
0.294955 0.101462 0.079053
0.318488 0.104891 0.082392
0.342240 0.108288 0.085679
0.366231 0.111645 0.088909
0.390476 0.114959 0.092076
0.414993 0.118222 0.095177
0.439796 0.121431 0.098207
0.464898 0.124582 0.101163
0.490312 0.127669 0.104041
0.516048 0.130689 0.106839
0.542116 0.133639 0.109553
0.568523 0.136516 0.112182
0.595277 0.139317 0.114723
0.622383 0.142041 0.117177
0.649845 0.144684 0.119540
0.677665 0.147247 0.121814
0.705845 0.149727 0.123996
0.734386 0.152124 0.126089
0.763285 0.154438 0.128091
0.792540 0.156669 0.130004
0.035439 0.085245 0.049439
0.051067 0.088293 0.052809
0.073821 0.091370 0.056209
0.096604 0.094475 0.059636
0.119413 0.097607 0.063091
0.142248 0.101086 0.066570
0.165139 0.104583 0.070047
0.188129 0.108084 0.073494
0.211244 0.111583 0.076905
0.234508 0.115071 0.080274
0.257941 0.118541 0.083595
0.281566 0.121987 0.086862
0.305402 0.125402 0.090069
0.329468 0.128780 0.093213
0.353780 0.132116 0.096289
0.378353 0.135404 0.099292
0.403204 0.138640 0.102220
0.428343 0.141819 0.105069
0.453784 0.144938 0.107837
0.479536 0.147992 0.110520
0.505609 0.150978 0.113117
0.532010 0.153894 0.115627
0.558746 0.156737 0.118048
0.585821 0.159505 0.120378
0.613240 0.162196 0.122619
0.641004 0.164809 0.124768
0.669114 0.167343 0.126828
0.697571 0.169796 0.128798
0.726373 0.172170 0.130679
0.755515 0.174464 0.132472
0.784995 0.176678 0.134180
0.814806 0.178814 0.135804
0.046891 0.109601 0.060891
0.062613 0.112742 0.064355
0.081908 0.115908 0.067839
0.104794 0.119096 0.071305
0.127749 0.122298 0.074740
0.150798 0.125505 0.078137
0.173967 0.128711 0.081489
0.197278 0.132230 0.084791
0.220754 0.135732 0.088036
0.244414 0.139210 0.091221
0.268279 0.142659 0.094341
0.292366 0.146073 0.097391
0.316692 0.149446 0.100367
0.341273 0.152773 0.103267
0.366121 0.156049 0.106086
0.391250 0.159270 0.108823
0.416672 0.162433 0.111476
0.442396 0.165533 0.114041
0.468431 0.168568 0.116519
0.494784 0.171534 0.118906
0.521461 0.174429 0.121204
0.548467 0.177252 0.123412
0.575805 0.180000 0.125529
0.603476 0.182673 0.127555
0.631483 0.185269 0.129493
0.659823 0.187787 0.131342
0.688495 0.190229 0.133104
0.717495 0.192593 0.134781
0.746819 0.194880 0.136375
0.776460 0.197092 0.137890
0.806410 0.199230 0.139327
0.836662 0.201294 0.140690
0.058610 0.134268 0.072560
0.074407 0.137501 0.075982
0.090269 0.140748 0.079363
0.113320 0.144000 0.082697
0.136486 0.147251 0.085979
0.159790 0.150493 0.089203
0.183254 0.153719 0.092365
0.206899 0.156922 0.095459
0.230742 0.160097 0.098483
0.254802 0.163560 0.101432
0.279095 0.166983 0.104302
0.303636 0.170361 0.107092
0.328439 0.173690 0.109799
0.353515 0.176965 0.112420
0.378876 0.180183 0.114953
0.404532 0.183339 0.117398
0.430490 0.186432 0.119754
0.456758 0.189459 0.122019
0.483340 0.192416 0.124193
0.510243 0.195303 0.126277
0.537467 0.198117 0.128271
0.565015 0.200857 0.130176
0.592888 0.203522 0.131993
0.621083 0.206113 0.133724
0.649598 0.208628 0.135371
0.678430 0.211069 0.136936
0.707573 0.213435 0.138422
0.737022 0.215728 0.139831
0.766767 0.217950 0.141168
0.796799 0.220101 0.142436
0.827109 0.222184 0.143640
0.857684 0.224202 0.144783
0.070295 0.159329 0.083898
0.086197 0.162642 0.087160
0.102213 0.165953 0.090362
0.121912 0.169254 0.093499
0.145316 0.172540 0.096569
0.168897 0.175803 0.099565
0.192674 0.179039 0.102486
0.216663 0.182240 0.105328
0.240880 0.185402 0.108087
0.265341 0.188520 0.110763
0.290057 0.191590 0.113352
0.315042 0.194929 0.115854
0.340306 0.198212 0.118266
0.365858 0.201435 0.120589
0.391706 0.204595 0.122821
0.417856 0.207690 0.124962
0.444313 0.210717 0.127013
0.471082 0.213675 0.128975
0.498165 0.216561 0.130848
0.525563 0.219376 0.132633
0.553276 0.222117 0.134333
0.581302 0.224785 0.135950
0.609639 0.227380 0.137486
0.638282 0.229901 0.138943
0.667225 0.232350 0.140326
0.696462 0.234728 0.141638
0.725985 0.237036 0.142882
0.755783 0.239277 0.144063
0.785846 0.241451 0.145186
0.816162 0.243562 0.146256
0.846717 0.245613 0.147277
0.877495 0.247607 0.148257
0.081665 0.184851 0.094625
0.097714 0.188225 0.097668
0.113918 0.191582 0.100638
0.130296 0.194918 0.103530
0.153965 0.198225 0.106342
0.177844 0.201498 0.109071
0.201948 0.204732 0.111716
0.226291 0.207923 0.114273
0.250888 0.211065 0.116742
0.275748 0.214154 0.119122
0.300882 0.217188 0.121412
0.326300 0.220163 0.123611
0.352007 0.223075 0.125719
0.378012 0.226246 0.127738
0.404318 0.229349 0.129667
0.430929 0.232384 0.131508
0.457847 0.235348 0.133262
0.485072 0.238242 0.134931
0.512605 0.241063 0.136518
0.540443 0.243813 0.138025
0.568583 0.246490 0.139455
0.597021 0.249096 0.140812
0.625749 0.251630 0.142098
0.654762 0.254095 0.143319
0.684050 0.256492 0.144478
0.713604 0.258822 0.145581
0.743411 0.261089 0.146633
0.773460 0.263294 0.147639
0.803735 0.265440 0.148605
0.834223 0.267531 0.149538
0.864906 0.269571 0.150444
0.895765 0.271564 0.151330
0.092500 0.210878 0.104563
0.108736 0.214295 0.107345
0.125164 0.217684 0.110044
0.141801 0.221038 0.112657
0.162210 0.224353 0.115182
0.186405 0.227624 0.117619
0.210850 0.230846 0.119966
0.235556 0.234017 0.122223
0.260534 0.237131 0.124389
0.285791 0.240186 0.126465
0.311334 0.243179 0.128450
0.337170 0.246108 0.130347
0.363303 0.248970 0.132156
0.389735 0.251764 0.133880
0.416469 0.254488 0.135519
0.443505 0.257464 0.137076
0.470842 0.260369 0.138555
0.498477 0.263202 0.139957
0.526408 0.265965 0.141288
0.554628 0.268656 0.142550
0.583131 0.271277 0.143748
0.611911 0.273830 0.144886
0.640957 0.276315 0.145970
0.670260 0.278735 0.147004
0.699807 0.281093 0.147995
0.729585 0.283390 0.148948
0.759581 0.285630 0.149870
0.789777 0.287817 0.150768
0.820158 0.289953 0.151649
0.850704 0.292045 0.152520
0.881396 0.294094 0.153390
0.912212 0.296108 0.154266
0.102634 0.237439 0.113587
0.119095 0.240883 0.116080
0.135781 0.244286 0.118484
0.152703 0.247644 0.120798
0.169875 0.250954 0.123022
0.194403 0.254210 0.125155
0.219201 0.257410 0.127198
0.244276 0.260551 0.129151
0.269635 0.263629 0.131016
0.295284 0.266643 0.132794
0.321226 0.269590 0.134486
0.347465 0.272469 0.136095
0.374001 0.275278 0.137623
0.400834 0.278016 0.139074
0.427963 0.280683 0.140450
0.455386 0.283279 0.141755
0.483098 0.285805 0.142993
0.511094 0.288582 0.144169
0.539367 0.291289 0.145287
0.567910 0.293929 0.146352
0.596711 0.296502 0.147369
0.625761 0.299010 0.148346
0.655048 0.301456 0.149287
0.684558 0.303843 0.150200
0.714276 0.306174 0.151090
0.744186 0.308452 0.151967
0.774271 0.310681 0.152837
0.804511 0.312866 0.153708
0.834886 0.315011 0.154588
0.865375 0.317120 0.155488
0.895955 0.319201 0.156415
0.926601 0.321257 0.157379
0.111947 0.264550 0.121618
0.128671 0.268002 0.123809
0.145645 0.271403 0.125909
0.162879 0.274750 0.127919
0.180382 0.278040 0.129840
0.201710 0.281270 0.131673
0.226870 0.284437 0.133419
0.252318 0.287538 0.135081
0.278057 0.290572 0.136661
0.304091 0.293537 0.138160
0.330419 0.296432 0.139583
0.357042 0.299255 0.140933
0.383957 0.302008 0.142213
0.411162 0.304689 0.143428
0.438652 0.307299 0.144582
0.466421 0.309838 0.145680
0.494463 0.312308 0.146727
0.522768 0.314709 0.147729
0.551327 0.317044 0.148692
0.580128 0.319637 0.149622
0.609159 0.322169 0.150526
0.638407 0.324641 0.151411
0.667855 0.327058 0.152284
0.697488 0.329422 0.153153
0.727287 0.331738 0.154027
0.757232 0.334010 0.154913
0.787304 0.336243 0.155822
0.817481 0.338442 0.156761
0.847738 0.340612 0.157741
0.878052 0.342759 0.158772
0.908396 0.344889 0.159864
0.938742 0.347009 0.161028
0.120369 0.292207 0.128629
0.137391 0.295648 0.130518
0.154682 0.299030 0.132319
0.172252 0.302351 0.134034
0.190104 0.305608 0.135666
0.208245 0.308798 0.137216
0.233774 0.311919 0.138687
0.259596 0.314971 0.140083
0.285712 0.317951 0.141407
0.312120 0.320860 0.142663
0.338819 0.323696 0.143855
0.365806 0.326460 0.144988
0.393075 0.329152 0.146067
0.420620 0.331773 0.147097
0.448433 0.334324 0.148084
0.476506 0.336807 0.149034
0.504829 0.339222 0.149954
0.533389 0.341573 0.150850
0.562175 0.343862 0.151730
0.591170 0.346091 0.152600
0.620361 0.348265 0.153470
0.649730 0.350709 0.154348
0.679258 0.353105 0.155241
0.708926 0.355457 0.156159
0.738713 0.357770 0.157113
0.768596 0.360049 0.158110
0.798552 0.362300 0.159162
0.828556 0.364528 0.160279
0.858580 0.366739 0.161472
0.888598 0.368941 0.162751
0.918580 0.371140 0.164130
0.948496 0.373344 0.165620
0.127878 0.320387 0.134638
0.145229 0.323800 0.136239
0.162866 0.327146 0.137760
0.180792 0.330425 0.139204
0.199010 0.333633 0.140573
0.217522 0.336770 0.141872
0.239876 0.339834 0.143104
0.266072 0.342825 0.144274
0.292558 0.345742 0.145387
0.319330 0.348587 0.146447
0.346383 0.351357 0.147461
0.373710 0.354056 0.148434
0.401304 0.356684 0.149372
0.429155 0.359242 0.150283
0.457253 0.361732 0.151172
0.485585 0.364157 0.152047
0.514138 0.366519 0.152917
0.542898 0.368821 0.153788
0.571847 0.371067 0.154670
0.600971 0.373260 0.155572
0.630248 0.375404 0.156502
0.659659 0.377505 0.157470
0.689183 0.379566 0.158486
0.718798 0.381915 0.159560
0.748477 0.384236 0.160704
0.778198 0.386534 0.161927
0.807931 0.388815 0.163241
0.837650 0.391088 0.164659
0.867324 0.393357 0.166192
0.896924 0.395631 0.167852
0.926416 0.397918 0.169653
0.955767 0.400225 0.171608
0.134498 0.349054 0.139711
0.152209 0.352419 0.141054
0.170216 0.355711 0.142328
0.188517 0.358931 0.143537
0.207115 0.362076 0.144686
0.226007 0.365145 0.145779
0.245189 0.368140 0.146822
0.271755 0.371059 0.147820
0.298603 0.373903 0.148779
0.325724 0.376674 0.149707
0.353111 0.379372 0.150608
0.380754 0.381999 0.151492
0.408643 0.384557 0.152364
0.436763 0.387048 0.153233
0.465103 0.389476 0.154108
0.493647 0.391842 0.154996
0.522378 0.394151 0.155907
0.551278 0.396406 0.156849
0.580329 0.398611 0.157834
0.609509 0.400772 0.158870
0.638798 0.402892 0.159968
0.668172 0.404978 0.161139
0.697606 0.407034 0.162394
0.727074 0.409067 0.163745
0.756549 0.411083 0.165203
0.786004 0.413412 0.166781
0.815406 0.415738 0.168491
0.844727 0.418068 0.170346
0.873931 0.420411 0.172360
0.902987 0.422774 0.174547
0.931873 0.425163 0.176905
0.960716 0.427554 0.179296
0.140302 0.378150 0.143962
0.158402 0.381447 0.145090
0.176800 0.384668 0.146164
0.195494 0.387811 0.147190
0.214483 0.390877 0.148173
0.233759 0.393865 0.149120
0.253319 0.396776 0.150037
0.276702 0.399612 0.150932
0.303900 0.402373 0.151810
0.331354 0.405061 0.152680
0.359054 0.407678 0.153551
0.386985 0.410226 0.154429
0.415135 0.412709 0.155324
0.443487 0.415130 0.156246
0.472025 0.417491 0.157202
0.500730 0.419797 0.158204
0.529583 0.422052 0.159262
0.558564 0.424261 0.160385
0.587649 0.426428 0.161586
0.616815 0.428560 0.162874
0.646038 0.430661 0.164263
0.675291 0.432737 0.165763
0.704545 0.434796 0.167387
0.733774 0.436844 0.169149
0.762945 0.438888 0.171060
0.792028 0.440936 0.173136
0.820989 0.442995 0.175388
0.849841 0.445389 0.177776
0.878682 0.447778 0.180166
0.907517 0.450162 0.182549
0.936347 0.452540 0.184927
0.965170 0.454912 0.187299
0.145410 0.407599 0.147552
0.163923 0.410809 0.148522
0.182733 0.413939 0.149457
0.201835 0.416989 0.150365
0.221223 0.419959 0.151253
0.240889 0.422851 0.152127
0.260823 0.425666 0.152997
0.281015 0.428405 0.153869
0.308551 0.431071 0.154753
0.336320 0.433667 0.155656
0.364307 0.436194 0.156589
0.392497 0.438657 0.157562
0.420873 0.441059 0.158583
0.449415 0.443403 0.159663
0.478104 0.445695 0.160813
0.506919 0.447938 0.162044
0.535837 0.450139 0.163368
0.564834 0.452302 0.164795
0.593885 0.454432 0.166339
0.622963 0.456537 0.168012
0.652039 0.458623 0.169827
0.681086 0.460696 0.171796
0.710071 0.462764 0.173934
0.738964 0.464835 0.176254
0.767808 0.466905 0.178647
0.796647 0.468970 0.181034
0.825480 0.471029 0.183416
0.854307 0.473082 0.185791
0.883128 0.475128 0.188160
0.911942 0.477491 0.190524
0.940744 0.479855 0.192895
0.969530 0.482223 0.195280
0.149988 0.437310 0.150690
0.168938 0.440412 0.151572
0.188178 0.443432 0.152444
0.207700 0.446370 0.153314
0.227494 0.449228 0.154189
0.247549 0.452007 0.155079
0.267854 0.454711 0.155992
0.288394 0.457341 0.156938
0.312704 0.459901 0.157927
0.340766 0.462393 0.158968
0.369014 0.464822 0.160073
0.397430 0.467191 0.161251
0.425994 0.469505 0.162515
0.454684 0.471768 0.163875
0.483476 0.473987 0.165343
0.512346 0.476165 0.166933
0.541269 0.478309 0.168656
0.570217 0.480425 0.170525
0.599162 0.482520 0.172554
0.628075 0.484601 0.174757
0.656932 0.486674 0.177126
0.685775 0.488742 0.179517
0.714612 0.490805 0.181902
0.743443 0.492862 0.184281
0.772267 0.494913 0.186655
0.801086 0.496957 0.189021
0.829898 0.498996 0.191385
0.858702 0.501036 0.193761
0.887495 0.503080 0.196152
0.916270 0.505126 0.198556
0.945024 0.507176 0.200974
0.973751 0.509553 0.203406
0.154249 0.467171 0.153631
0.173658 0.470144 0.154511
0.193343 0.473033 0.155408
0.213295 0.475841 0.156332
0.233500 0.478569 0.157293
0.253944 0.481221 0.158300
0.274612 0.483798 0.159363
0.295488 0.486306 0.160493
0.316553 0.488747 0.161701
0.344885 0.491125 0.162998
0.373366 0.493445 0.164396
0.401974 0.495712 0.165907
0.430685 0.497931 0.167544
0.459476 0.500107 0.169319
0.488320 0.502246 0.171245
0.517188 0.504356 0.173336
0.546054 0.506441 0.175605
0.574900 0.508513 0.177997
0.603740 0.510579 0.180386
0.632575 0.512640 0.182769
0.661404 0.514695 0.185146
0.690227 0.516743 0.187517
0.719042 0.518784 0.189881
0.747856 0.520823 0.192249
0.776666 0.522861 0.194630
0.805470 0.524900 0.197025
0.834261 0.526941 0.199434
0.863034 0.528984 0.201858
0.891786 0.531030 0.204295
0.920511 0.533079 0.206747
0.949206 0.535132 0.209213
0.977867 0.537188 0.211694
0.158457 0.497053 0.156677
0.178342 0.499874 0.157653
0.198486 0.502613 0.158679
0.218874 0.505271 0.159766
0.239492 0.507851 0.160923
0.260322 0.510358 0.162162
0.281344 0.512794 0.163495
0.302541 0.515165 0.164933
0.323890 0.517474 0.166488
0.348917 0.519726 0.168173
0.377599 0.521927 0.170002
0.406362 0.524083 0.171986
0.435179 0.526198 0.174140
0.464023 0.528281 0.176475
0.492867 0.530351 0.178867
0.521706 0.532415 0.181254
0.550538 0.534474 0.183635
0.579365 0.536526 0.186010
0.608185 0.538572 0.188379
0.636999 0.540612 0.190742
0.665818 0.542648 0.193114
0.694639 0.544683 0.195500
0.723458 0.546717 0.197901
0.752268 0.548751 0.200315
0.781065 0.550786 0.202744
0.809845 0.552822 0.205186
0.838602 0.554860 0.207644
0.867332 0.556899 0.210115
0.896032 0.558942 0.212600
0.924697 0.560987 0.215099
0.953324 0.563035 0.217612
0.981910 0.565086 0.220137
0.162917 0.526807 0.160178
0.183295 0.529455 0.161364
0.203908 0.532021 0.162636
0.224740 0.534510 0.164005
0.245770 0.536924 0.165485
0.266978 0.539268 0.167086
0.288344 0.541547 0.168822
0.309844 0.543766 0.170705
0.331455 0.545930 0.172750
0.353149 0.548044 0.174970
0.381991 0.550120 0.177346
0.410833 0.552188 0.179737
0.439670 0.554251 0.182121
0.468500 0.556307 0.184500
0.497325 0.558357 0.186873
0.526142 0.560400 0.189239
0.554959 0.562438 0.191604
0.583788 0.564471 0.193981
0.612624 0.566501 0.196373
0.641461 0.568529 0.198778
0.670294 0.570555 0.201198
0.699119 0.572581 0.203631
0.727929 0.574606 0.206079
0.756722 0.576631 0.208542
0.785491 0.578657 0.211018
0.814233 0.580684 0.213508
0.842944 0.582712 0.216012
0.871620 0.584742 0.218530
0.900257 0.586775 0.221060
0.928852 0.588809 0.223604
0.957402 0.590846 0.226159
0.985904 0.592886 0.228727
0.167986 0.556267 0.164531
0.188871 0.558719 0.166053
0.209962 0.561091 0.167701
0.231238 0.563390 0.169490
0.252678 0.565619 0.171430
0.274258 0.567783 0.173537
0.295953 0.569888 0.175824
0.317701 0.571959 0.178217
0.339444 0.574025 0.180606
0.361182 0.576085 0.182988
0.386462 0.578139 0.185365
0.415284 0.580187 0.187735
0.444099 0.582228 0.190099
0.472924 0.584262 0.192468
0.501767 0.586291 0.194850
0.530621 0.588315 0.197247
0.559481 0.590336 0.199657
0.588341 0.592353 0.202082
0.617197 0.594367 0.204521
0.646042 0.596380 0.206974
0.674872 0.598392 0.209441
0.703684 0.600403 0.211923
0.732471 0.602413 0.214418
0.761230 0.604424 0.216927
0.789958 0.606436 0.219449
0.818649 0.608448 0.221985
0.847302 0.610462 0.224533
0.875912 0.612477 0.227093
0.904476 0.614493 0.229665
0.932991 0.616511 0.232247
0.961456 0.618531 0.234841
0.989866 0.620552 0.237444
0.174065 0.585250 0.170178
0.195469 0.587481 0.172177
0.217044 0.589638 0.174348
0.238760 0.591728 0.176695
0.260507 0.593797 0.179087
0.282248 0.595861 0.181474
0.303983 0.597919 0.183854
0.325713 0.599971 0.186229
0.347435 0.602016 0.188597
0.369155 0.604054 0.190960
0.390897 0.606084 0.193333
0.419758 0.608108 0.195721
0.448634 0.610125 0.198123
0.477521 0.612136 0.200538
0.506411 0.614143 0.202968
0.535301 0.616145 0.205412
0.564184 0.618145 0.207871
0.593056 0.620142 0.210343
0.621912 0.622137 0.212830
0.650748 0.624131 0.215330
0.679559 0.626123 0.217844
0.708340 0.628115 0.220371
0.737089 0.630107 0.222911
0.765801 0.632099 0.225463
0.794473 0.634091 0.228028
0.823102 0.636084 0.230604
0.851684 0.638077 0.233190
0.880217 0.640071 0.235787
0.908698 0.642066 0.238394
0.937125 0.644061 0.241009
0.965496 0.646057 0.243632
0.993808 0.648054 0.246262
0.181567 0.613567 0.177567
0.203312 0.615634 0.179957
0.225051 0.617696 0.182341
0.246784 0.619752 0.184719
0.268511 0.621801 0.187091
0.290231 0.623844 0.189457
0.311959 0.625879 0.191822
0.333719 0.627904 0.194201
0.355505 0.629920 0.196594
0.377310 0.631928 0.199000
0.399130 0.633929 0.201421
0.424506 0.635925 0.203856
0.453434 0.637915 0.206306
0.482358 0.639900 0.208769
0.511275 0.641881 0.211247
0.540179 0.643859 0.213738
0.569065 0.645835 0.216244
0.597930 0.647808 0.218762
0.626768 0.649779 0.221294
0.655577 0.651750 0.223839
0.684351 0.653719 0.226396
0.713087 0.655688 0.228964
0.741782 0.657656 0.231544
0.770433 0.659624 0.234135
0.799037 0.661592 0.236735
0.827591 0.663559 0.239345
0.856092 0.665527 0.241963
0.884538 0.667495 0.244589
0.912927 0.669462 0.247222
0.941257 0.671430 0.249860
0.969526 0.673396 0.252504
0.997733 0.675362 0.255151
0.189584 0.641584 0.185584
0.211308 0.643631 0.187953
0.233027 0.645671 0.190317
0.254771 0.647701 0.192687
0.276553 0.649719 0.195071
0.298364 0.651727 0.197468
0.320200 0.653725 0.199880
0.342053 0.655715 0.202306
0.363919 0.657698 0.204746
0.385790 0.659674 0.207201
0.407662 0.661644 0.209670
0.429530 0.663608 0.212152
0.458485 0.665569 0.214649
0.487425 0.667525 0.217159
0.516346 0.669478 0.219683
0.545244 0.671428 0.222219
0.574114 0.673376 0.224768
0.602952 0.675322 0.227329
0.631755 0.677267 0.229902
0.660519 0.679210 0.232486
0.689240 0.681152 0.235080
0.717916 0.683093 0.237684
0.746544 0.685033 0.240297
0.775120 0.686972 0.242918
0.803643 0.688911 0.245547
0.832110 0.690849 0.248182
0.860519 0.692786 0.250822
0.888868 0.694722 0.253467
0.917155 0.696657 0.256115
0.945380 0.698590 0.258766
0.973541 0.700521 0.261417
1.000000 0.702377 0.266286
0.197595 0.669520 0.193553
0.219401 0.671530 0.195942
0.241243 0.673528 0.198345
0.263112 0.675516 0.200762
0.285002 0.677493 0.203193
0.306908 0.679462 0.205638
0.328824 0.681423 0.208098
0.350743 0.683376 0.210572
0.372662 0.685323 0.213060
0.394573 0.687265 0.215561
0.416473 0.689201 0.218076
0.438357 0.691133 0.220605
0.463768 0.693061 0.223146
0.492702 0.694986 0.225699
0.521607 0.696908 0.228265
0.550478 0.698827 0.230842
0.579312 0.700745 0.233429
0.608106 0.702660 0.236027
0.636856 0.704574 0.238634
0.665558 0.706486 0.241250
0.694211 0.708396 0.243874
0.722812 0.710306 0.246505
0.751358 0.712214 0.249142
0.779847 0.714120 0.251784
0.808276 0.716025 0.254431
0.836645 0.717929 0.257080
0.864951 0.719830 0.259731
0.893194 0.721729 0.262383
0.921372 0.723626 0.265034
0.949484 0.725520 0.267683
0.977529 0.727410 0.270329
1.000000 0.728920 0.281069
0.206047 0.697298 0.201645
0.227979 0.699262 0.204082
0.249929 0.701216 0.206532
0.271892 0.703161 0.208997
0.293862 0.705097 0.211476
0.315834 0.707026 0.213969
0.337801 0.708947 0.216475
0.359761 0.710863 0.218995
0.381706 0.712773 0.221528
0.403632 0.714678 0.224074
0.425536 0.716579 0.226632
0.447412 0.718476 0.229201
0.469257 0.720370 0.231782
0.498163 0.722261 0.234374
0.527031 0.724149 0.236975
0.555856 0.726035 0.239586
0.584635 0.727918 0.242205
0.613366 0.729799 0.244831
0.642046 0.731679 0.247465
0.670672 0.733557 0.250104
0.699241 0.735432 0.252747
0.727752 0.737306 0.255395
0.756203 0.739178 0.258045
0.784591 0.741047 0.260696
0.812916 0.742914 0.263348
0.841176 0.744778 0.265998
0.869370 0.746639 0.268647
0.897497 0.748497 0.271291
0.925557 0.750350 0.273930
0.953549 0.752199 0.276562
0.981473 0.754043 0.279186
1.000000 0.754997 0.296711
0.214995 0.724887 0.209898
0.237019 0.726805 0.212382
0.259047 0.728714 0.214880
0.281074 0.730615 0.217391
0.303094 0.732509 0.219916
0.325104 0.734397 0.222454
0.347097 0.736278 0.225004
0.369069 0.738155 0.227566
0.391015 0.740026 0.230140
0.412932 0.741894 0.232725
0.434816 0.743757 0.235320
0.456662 0.745618 0.237925
0.478467 0.747475 0.240538
0.503776 0.749329 0.243160
0.532586 0.751181 0.245789
0.561345 0.753030 0.248425
0.590052 0.754877 0.251066
0.618703 0.756722 0.253711
0.647295 0.758564 0.256359
0.675828 0.760404 0.259010
0.704299 0.762241 0.261662
0.732706 0.764076 0.264313
0.761049 0.765907 0.266963
0.789325 0.767735 0.269610
0.817534 0.769560 0.272252
0.845675 0.771380 0.274889
0.873747 0.773196 0.277518
0.901750 0.775007 0.280139
0.929684 0.776812 0.282749
0.957549 0.778611 0.285347
0.985346 0.780404 0.287930
1.000000 0.780565 0.313261
0.224392 0.752269 0.218309
0.246477 0.754140 0.220838
0.268552 0.756004 0.223381
0.290613 0.757861 0.225935
0.312656 0.759712 0.228502
0.334675 0.761558 0.231080
0.356665 0.763398 0.233668
0.378624 0.765234 0.236267
0.400547 0.767066 0.238875
0.422430 0.768895 0.241492
0.444270 0.770719 0.244117
0.466064 0.772541 0.246748
0.487807 0.774360 0.249386
0.509499 0.776176 0.252028
0.538231 0.777989 0.254675
0.566907 0.779799 0.257324
0.595522 0.781607 0.259975
0.624076 0.783412 0.262627
0.652565 0.785214 0.265278
0.680990 0.787012 0.267927
0.709348 0.788808 0.270572
0.737638 0.790599 0.273213
0.765860 0.792387 0.275847
0.794012 0.794170 0.278474
0.822094 0.795948 0.281090
0.850106 0.797720 0.283696
0.878047 0.799487 0.286289
0.905919 0.801247 0.288867
0.933720 0.802999 0.291429
0.961452 0.804743 0.293973
0.989115 0.806478 0.296496
1.000000 0.805580 0.330776
0.234184 0.779426 0.226868
0.256298 0.781251 0.229439
0.278391 0.783070 0.232021
0.300458 0.784883 0.234613
0.322494 0.786691 0.237216
0.344495 0.788494 0.239827
0.366458 0.790293 0.242447
0.388378 0.792088 0.245074
0.410252 0.793879 0.247708
0.432078 0.795667 0.250347
0.453851 0.797452 0.252991
0.475570 0.799233 0.255639
0.497231 0.801011 0.258289
0.518833 0.802787 0.260941
0.543921 0.804559 0.263592
0.572493 0.806328 0.266243
0.601000 0.808094 0.268891
0.629440 0.809857 0.271534
0.657811 0.811615 0.274173
