omv/luts/39_emission_warning.cube
# Original OMV LUT; redistribution permitted with OMV.
TITLE "Emission Warning"
LUT_3D_SIZE 5
DOMAIN_MIN 0.000000 0.000000 0.000000
DOMAIN_MAX 0.903226 0.903226 0.903226
0.017000 0.003000 0.041000
0.229026 0.016317 0.054317
0.443855 0.031698 0.069679
0.671543 0.045953 0.083678
0.921167 0.056261 0.093496
0.066621 0.143350 0.087823
0.255208 0.179331 0.095770
0.500479 0.212048 0.098267
0.765976 0.222440 0.095806
1.000000 0.236659 0.107614
0.087101 0.319471 0.093974
0.262305 0.353451 0.087717
0.530454 0.382929 0.082444
0.806559 0.409546 0.082687
1.000000 0.445347 0.148679
0.087172 0.511818 0.085172
0.284801 0.537763 0.093072
0.521480 0.563246 0.100896
0.796540 0.588202 0.108614
1.000000 0.621333 0.210770
0.118540 0.688945 0.111356
0.317501 0.712325 0.118563
0.514520 0.734814 0.125041
0.785632 0.756261 0.130421
1.000000 0.783662 0.282371
0.021219 0.007219 0.189735
0.195693 0.021370 0.192596
0.412805 0.036855 0.197972
0.645323 0.049983 0.216597
0.900177 0.058611 0.234019
0.071017 0.167754 0.234508
0.223451 0.202813 0.239606
0.471569 0.216070 0.252163
0.739500 0.225002 0.260384
1.000000 0.234794 0.268299
0.086582 0.343497 0.262399
0.264522 0.375839 0.266063
0.495791 0.404101 0.268975
0.771169 0.430330 0.274653
1.000000 0.445433 0.303273
0.089888 0.532598 0.277566
0.287670 0.558403 0.285347
0.486212 0.583712 0.292818
0.761201 0.608473 0.299892
1.000000 0.637094 0.342832
0.122262 0.708907 0.302339
0.320914 0.731998 0.308598
0.517354 0.754154 0.313977
0.749292 0.775200 0.318167
1.000000 0.797279 0.363198
0.025771 0.011771 0.338803
0.162592 0.026656 0.342399
0.382777 0.041717 0.351524
0.619917 0.053484 0.365956
0.879610 0.060336 0.381347
0.074944 0.191923 0.398330
0.229700 0.207788 0.413227
0.442178 0.219582 0.425095
0.712258 0.227125 0.432433
0.997015 0.231437 0.446231
0.085821 0.366945 0.460575
0.266502 0.397747 0.461483
0.460713 0.425030 0.459087
0.735500 0.433049 0.467049
1.000000 0.442874 0.476091
0.092567 0.553341 0.481212
0.290692 0.578985 0.477454
0.489397 0.604117 0.484382
0.725852 0.628670 0.490667
0.999097 0.652518 0.496209
0.125996 0.728775 0.492778
0.324246 0.751564 0.498012
0.520027 0.773366 0.502261
0.712723 0.793984 0.505277
0.978751 0.813159 0.506745
0.030590 0.016590 0.488139
0.168393 0.031990 0.493287
0.353546 0.046189 0.509198
0.595095 0.056408 0.532757
0.859226 0.061437 0.558623
0.078356 0.197707 0.568842
0.235510 0.212284 0.594456
0.412240 0.222594 0.617029
0.684177 0.228865 0.634062
0.968983 0.232526 0.644255
0.084926 0.389833 0.665286
0.268348 0.419238 0.672903
0.463701 0.427761 0.673848
0.699795 0.435730 0.670698
0.974250 0.443460 0.666816
0.095291 0.574036 0.696082
0.293848 0.599509 0.691872
0.492630 0.624455 0.686800
0.690477 0.648786 0.680889
0.963263 0.654289 0.685387
0.129711 0.748546 0.705214
0.327469 0.771017 0.698078
0.522513 0.792442 0.689903
0.714285 0.812603 0.691787
0.940879 0.831217 0.692185
0.035657 0.021657 0.637722
0.174823 0.037133 0.647125
0.324906 0.050191 0.672230
0.570641 0.058723 0.706509
0.838804 0.061928 0.743626
0.081219 0.203100 0.746681
0.240842 0.216278 0.783492
0.420096 0.225130 0.816434
0.655200 0.230294 0.842009
0.939569 0.233607 0.857921
0.084024 0.412193 0.875695
0.270177 0.422330 0.887755
0.466482 0.430482 0.888998
0.664087 0.438376 0.885564
0.938667 0.446038 0.881134
0.098221 0.594673 0.910780
0.297116 0.619973 0.905929
0.495890 0.644723 0.900008
0.693441 0.650750 0.893099
0.927320 0.655949 0.885219
0.133379 0.768213 0.917034
0.330555 0.790350 0.908793
0.524782 0.811373 0.899503
0.715564 0.831043 0.889033
0.902667 0.849057 0.877187
