omv/luts/39_emission_warning.cube
# Original OMV LUT; redistribution permitted with OMV.
TITLE "Emission Warning"
LUT_3D_SIZE 8
DOMAIN_MIN 0.000000 0.000000 0.000000
DOMAIN_MAX 0.903226 0.903226 0.903226
0.017000 0.003000 0.041000
0.137844 0.010296 0.048296
0.259510 0.018413 0.056413
0.381871 0.027212 0.065212
0.507033 0.036054 0.073991
0.637803 0.044114 0.081892
0.775549 0.050953 0.088492
0.921167 0.056261 0.093496
0.044549 0.079628 0.068477
0.146394 0.099529 0.076994
0.273390 0.119348 0.084464
0.405301 0.128222 0.090510
0.543356 0.136060 0.094885
0.688313 0.142576 0.097468
0.840459 0.147614 0.098269
0.999610 0.151146 0.097424
0.072707 0.166153 0.092305
0.158202 0.187170 0.096035
0.293380 0.207164 0.097961
0.434988 0.225878 0.098140
0.583176 0.243178 0.096756
0.737621 0.248739 0.094119
0.897529 0.253009 0.090670
1.000000 0.265886 0.111603
0.086497 0.265547 0.097804
0.179816 0.286290 0.095920
0.301540 0.305515 0.092930
0.451205 0.323242 0.089319
0.605944 0.339622 0.085703
0.764353 0.354932 0.082823
0.924556 0.369578 0.081550
1.000000 0.385158 0.133411
0.085082 0.375093 0.087967
0.187642 0.393968 0.084526
0.295384 0.411268 0.082123
0.450638 0.427297 0.081677
0.607517 0.442486 0.084232
0.764346 0.457378 0.088797
0.921106 0.472163 0.093273
1.000000 0.496334 0.164790
0.084037 0.485671 0.082200
0.196289 0.500934 0.085902
0.309209 0.515789 0.090435
0.444147 0.530515 0.094901
0.601288 0.545092 0.099374
0.758458 0.559513 0.103825
0.915443 0.573766 0.108219
1.000000 0.596764 0.200944
0.098969 0.588808 0.096530
0.212615 0.603229 0.100999
0.326368 0.617443 0.105434
0.439992 0.631444 0.109795
0.597154 0.645218 0.114039
0.753804 0.658744 0.118112
0.909793 0.671996 0.121955
1.000000 0.693211 0.241625
0.118540 0.688945 0.111356
0.232417 0.702407 0.115544
0.345786 0.715595 0.119541
0.458475 0.728487 0.123284
0.592280 0.741057 0.126708
0.747087 0.753269 0.129736
0.900875 0.765081 0.132286
1.000000 0.783662 0.282371
0.019360 0.005360 0.125941
0.118584 0.012971 0.127100
0.240491 0.021329 0.129007
0.363322 0.030270 0.138033
0.489887 0.038903 0.147508
0.622280 0.046592 0.156827
0.761757 0.052939 0.165458
0.909106 0.057680 0.173002
0.047678 0.093173 0.147914
0.128026 0.113115 0.150950
0.255811 0.122455 0.160072
0.388751 0.131017 0.168347
0.527968 0.138431 0.175421
0.674110 0.144457 0.181066
0.827354 0.148980 0.185187
0.987408 0.152017 0.187813
0.074895 0.180201 0.171076
0.161092 0.200907 0.177649
0.275190 0.220489 0.182744
0.417700 0.238731 0.186310
0.566726 0.245222 0.188425
0.721836 0.250324 0.189294
0.882125 0.254206 0.189250
1.000000 0.265248 0.201547
0.086914 0.279574 0.187240
0.181116 0.299807 0.188871
0.281745 0.318515 0.189362
0.432100 0.335762 0.189094
0.587269 0.351741 0.188574
0.745739 0.366773 0.188439
0.905525 0.370986 0.189453
1.000000 0.385234 0.222131
0.084557 0.388510 0.188903
0.188096 0.406824 0.188443
0.296580 0.423652 0.188631
0.430293 0.439341 0.190279
0.587145 0.454371 0.194177
0.743938 0.469228 0.198712
0.900737 0.483980 0.203156
1.000000 0.505769 0.248400
0.085053 0.497814 0.191420
0.197840 0.512808 0.195840
0.310734 0.527624 0.200336
0.423868 0.542299 0.204762
0.581078 0.556824 0.209132
0.738258 0.571190 0.213421
0.895199 0.585382 0.217600
1.000000 0.605920 0.276831
0.100753 0.600545 0.206361
0.214503 0.614896 0.210704
0.328292 0.629039 0.214957
0.441892 0.642965 0.219087
0.577039 0.656658 0.223055
0.733562 0.670094 0.226815
0.889382 0.683245 0.230315
1.000000 0.701874 0.305940
0.120664 0.700363 0.220553
0.234468 0.713734 0.224451
0.347707 0.726825 0.228123
0.460218 0.739611 0.231513
0.571867 0.752063 0.234561
0.726417 0.764144 0.237198
0.879918 0.775811 0.239347
1.000000 0.791552 0.327520
0.021852 0.007852 0.211013
0.099408 0.015731 0.212441
0.221547 0.024321 0.214580
0.345147 0.033278 0.217666
0.473095 0.041643 0.221958
0.607069 0.048914 0.233178
0.748218 0.054739 0.244239
0.897219 0.058896 0.254634
0.050796 0.106758 0.234380
0.131614 0.116346 0.238927
0.238263 0.125471 0.243704
0.372224 0.133678 0.248123
0.512573 0.140641 0.258175
0.659851 0.146163 0.267076
0.814125 0.150174 0.274622
0.974994 0.152732 0.280737
0.076914 0.194157 0.264801
0.163835 0.214514 0.268014
0.256856 0.233659 0.269986
0.400250 0.241096 0.277014
0.550077 0.247105 0.282615
0.705794 0.251767 0.286889
0.866389 0.255296 0.290063
1.000000 0.263952 0.296795
0.087171 0.293433 0.285667
0.182269 0.313148 0.284316
0.283732 0.331346 0.288156
0.412816 0.348134 0.291011
0.568370 0.363749 0.293283
0.726835 0.368234 0.295501
0.886118 0.372402 0.298322
1.000000 0.384597 0.315961
0.084047 0.401729 0.291881
0.188570 0.419508 0.294065
0.297781 0.435904 0.296419
0.409919 0.451308 0.299649
0.566761 0.466245 0.304116
0.723523 0.481065 0.308613
0.880390 0.495786 0.312998
1.000000 0.505616 0.337369
0.086428 0.509782 0.301202
0.199380 0.524670 0.305767
0.312310 0.539441 0.310222
0.425564 0.554066 0.314567
0.560893 0.568539 0.318796
0.718068 0.582847 0.322891
0.874953 0.596975 0.326828
1.000000 0.614956 0.358258
0.102592 0.612259 0.316121
0.216428 0.626540 0.320303
0.330236 0.640611 0.324344
0.443795 0.654459 0.328216
0.556913 0.668068 0.331889
0.713296 0.681411 0.335321
0.868935 0.694457 0.338467
1.000000 0.710364 0.375582
0.122796 0.711751 0.329579
0.236508 0.725029 0.333168
0.349602 0.738019 0.336502
0.461919 0.750696 0.339531
0.573333 0.763026 0.342200
0.705679 0.774972 0.344447
0.858882 0.786487 0.346203
1.000000 0.799142 0.375559
0.024442 0.010442 0.296183
0.102250 0.018573 0.297863
0.202688 0.027383 0.300238
0.327303 0.036214 0.304428
0.456612 0.044255 0.310512
0.592126 0.051068 0.317621
0.734885 0.056345 0.325011
0.885458 0.059907 0.338522
0.053882 0.110032 0.321724
0.135198 0.119522 0.328276
0.220720 0.128380 0.335566
0.355692 0.136195 0.342900
0.497145 0.142684 0.349711
0.645509 0.147694 0.355561
0.800744 0.151199 0.366592
0.962339 0.153300 0.376169
0.078758 0.208007 0.360718
0.166424 0.227980 0.367223
0.260305 0.236345 0.372640
0.382629 0.243295 0.376704
0.533218 0.248831 0.379280
0.689484 0.253078 0.386813
0.850307 0.256293 0.392971
1.000000 0.261913 0.397900
0.087278 0.307117 0.393069
0.183285 0.326313 0.395095
0.285575 0.344013 0.395655
0.393361 0.360370 0.394917
0.549252 0.365341 0.399627
0.707646 0.369656 0.403758
0.866340 0.373852 0.407861
1.000000 0.383111 0.415628
0.083580 0.414758 0.409632
0.189091 0.432031 0.407623
0.299013 0.448040 0.405222
0.411476 0.463218 0.409476
0.546366 0.478108 0.414043
0.703137 0.492891 0.418492
0.860065 0.497260 0.422778
1.000000 0.504513 0.432770
0.087988 0.521666 0.417601
0.200906 0.536519 0.415680
0.313940 0.551242 0.420072
0.427297 0.565816 0.424297
0.540730 0.580234 0.428350
0.697886 0.594484 0.432220
0.854701 0.608544 0.435891
1.000000 0.623850 0.446672
0.104482 0.623949 0.425792
0.218386 0.638159 0.429781
0.332196 0.652156 0.433581
0.445699 0.665926 0.437174
0.558708 0.679447 0.440532
0.693001 0.692693 0.443624
0.848447 0.705630 0.446409
1.000000 0.718637 0.452502
0.124930 0.723109 0.438425
0.238534 0.736291 0.441691
0.351465 0.749178 0.444676
0.463574 0.761741 0.447337
0.574740 0.773946 0.449627
0.684867 0.785751 0.451489
0.837762 0.797108 0.452860
0.989513 0.807962 0.453671
0.027121 0.013121 0.381444
0.105171 0.021493 0.383364
0.184062 0.030438 0.386265
0.309748 0.039058 0.392161
0.440396 0.046725 0.400517
0.577408 0.053044 0.410357
0.721715 0.057753 0.420833
0.873777 0.060714 0.431226
0.056912 0.113295 0.410224
0.138756 0.122625 0.419227
0.225096 0.131168 0.429390
0.339132 0.138558 0.439912
0.481657 0.144556 0.450121
0.631057 0.149051 0.459471
0.787182 0.152061 0.467546
0.949413 0.153731 0.474058
0.080421 0.221738 0.458949
0.168852 0.230974 0.468901
0.263594 0.238866 0.477828
0.364829 0.245330 0.485361
0.516141 0.250408 0.491257
0.672898 0.254269 0.495403
0.833870 0.257213 0.497814
0.997355 0.259667 0.505083
0.087247 0.320624 0.502958
0.184174 0.339303 0.508223
0.287284 0.356524 0.511729
0.395679 0.362159 0.513536
0.529925 0.366856 0.513834
0.688180 0.371064 0.512940
0.846199 0.375364 0.517750
1.000000 0.380626 0.522162
0.083183 0.427604 0.529058
0.189687 0.444408 0.528878
0.300304 0.460080 0.527653
0.413037 0.475102 0.525876
0.525958 0.489958 0.523958
0.682783 0.494385 0.528330
0.839759 0.498721 0.532478
0.996666 0.502953 0.536403
0.089539 0.533539 0.540442
0.202434 0.548352 0.538479
0.315620 0.563025 0.536318
0.429064 0.577547 0.533932
0.542520 0.591910 0.537777
0.677709 0.606098 0.541397
0.834441 0.620089 0.544779
0.990621 0.623530 0.547908
0.106418 0.635615 0.548261
0.220371 0.649754 0.545573
0.334166 0.663676 0.542656
0.447597 0.677364 0.545949
0.560484 0.690795 0.548979
0.672674 0.703940 0.551720
0.827915 0.716763 0.554139
0.982238 0.729221 0.556195
0.127061 0.734434 0.553535
0.240538 0.747519 0.550012
0.353291 0.760299 0.552640
0.465177 0.772745 0.554932
0.576080 0.784819 0.556844
0.685913 0.796477 0.558328
0.816552 0.807670 0.559326
0.967963 0.818340 0.559777
0.029886 0.015886 0.466789
0.108167 0.024489 0.468941
0.187624 0.033443 0.473019
0.292442 0.041791 0.481138
0.424406 0.049038 0.492198
0.562874 0.054833 0.505115
0.708666 0.058957 0.518934
0.862136 0.061317 0.532831
0.059867 0.116524 0.500136
0.142265 0.125635 0.511991
0.229431 0.133822 0.525340
0.322520 0.140759 0.539276
0.466086 0.146253 0.553021
0.616471 0.150235 0.565923
0.773416 0.152767 0.577459
0.936191 0.154039 0.587236
0.081900 0.225014 0.559591
0.171117 0.233812 0.573098
0.266718 0.241222 0.585556
0.368780 0.247204 0.596491
0.498839 0.251843 0.605554
0.656027 0.255353 0.612524
0.817068 0.258077 0.617311
0.980152 0.260483 0.619950
0.087091 0.333955 0.615274
0.184950 0.352125 0.623593
0.288870 0.358566 0.629773
0.397846 0.363840 0.633767
0.510398 0.368313 0.635658
0.668447 0.372481 0.635657
0.825828 0.376925 0.634151
0.982622 0.381461 0.632235
0.082888 0.440279 0.649942
0.190386 0.456653 0.651114
0.301681 0.472042 0.650501
0.414589 0.486976 0.648718
0.527480 0.491471 0.646757
0.662460 0.495868 0.644558
0.819470 0.500171 0.642078
0.976357 0.504362 0.645782
0.091078 0.545400 0.663271
0.204022 0.560169 0.661242
0.317347 0.574791 0.658939
0.430861 0.589260 0.656361
0.544326 0.603566 0.653517
0.657533 0.617690 0.650409
0.814170 0.621285 0.653484
0.970212 0.624641 0.656279
0.108396 0.647258 0.670608
0.222379 0.661324 0.667668
0.336144 0.675168 0.664463
0.449487 0.688772 0.660986
0.562236 0.702110 0.657224
0.674246 0.715150 0.659608
0.807334 0.727854 0.661658
0.961411 0.740177 0.663341
0.129183 0.745727 0.674903
0.242517 0.758712 0.671032
0.355076 0.771382 0.666846
0.466723 0.783706 0.662315
0.577351 0.795644 0.663855
0.686876 0.807150 0.664971
0.795248 0.818172 0.665612
0.946309 0.828650 0.665722
0.032733 0.018733 0.552216
0.111243 0.027553 0.554632
0.191403 0.036374 0.560797
0.275348 0.044396 0.571613
0.408604 0.051182 0.585761
0.548483 0.056428 0.602052
0.695698 0.059957 0.619426
0.850491 0.061720 0.636950
0.062728 0.119696 0.591695
0.145708 0.128538 0.606754
0.233707 0.136330 0.623555
0.327771 0.142793 0.641085
0.450410 0.147774 0.658459
0.601728 0.151251 0.674918
0.759421 0.153327 0.689834
0.922649 0.154236 0.702707
0.083194 0.228150 0.662723
0.173214 0.236489 0.679844
0.269675 0.243412 0.695808
0.372541 0.248922 0.710032
0.481307 0.253147 0.722060
0.638865 0.256345 0.731568
0.799896 0.258902 0.738357
0.962479 0.261331 0.742356
0.086826 0.347110 0.729937
0.185626 0.354461 0.741079
0.290348 0.360472 0.749613
0.399875 0.365427 0.755387
0.512619 0.369734 0.758379
0.648457 0.373934 0.758691
0.805445 0.378477 0.756994
0.962205 0.382976 0.755035
0.082727 0.452794 0.772048
0.191221 0.468783 0.774045
0.303176 0.483950 0.773434
0.416128 0.488515 0.771548
0.529039 0.492974 0.769514
0.642164 0.497341 0.767155
0.799195 0.501608 0.764467
0.956049 0.505756 0.761469
0.092603 0.557248 0.786087
0.205671 0.571968 0.783947
0.319116 0.586539 0.781465
0.432684 0.600955 0.778663
0.546143 0.615201 0.775555
0.659289 0.618935 0.772150
0.793883 0.622453 0.768449
0.949777 0.625721 0.764449
0.110410 0.658876 0.792818
0.224407 0.672868 0.789601
0.338123 0.686633 0.786089
0.451363 0.700150 0.782280
0.563960 0.713391 0.778168
0.675777 0.726321 0.773737
0.786700 0.738901 0.768968
0.940519 0.740760 0.770285
0.131291 0.756988 0.796071
0.244464 0.769868 0.791844
0.356813 0.782425 0.787294
0.468207 0.794622 0.782395
0.578545 0.806419 0.777118
0.687751 0.817768 0.771427
0.795779 0.828612 0.771728
0.924545 0.838890 0.771521
0.035657 0.021657 0.637722
0.114462 0.030606 0.641003
0.195362 0.039213 0.649877
0.280365 0.046857 0.663813
0.392952 0.053148 0.681387
0.534198 0.057825 0.701304
0.682771 0.060753 0.722396
0.838804 0.061928 0.743626
0.065478 0.122794 0.685113
0.149066 0.131319 0.703683
0.237905 0.138684 0.724156
0.332931 0.144654 0.745412
0.434610 0.149121 0.766459
0.586807 0.152104 0.786435
0.745174 0.153752 0.804603
0.908764 0.154340 0.820355
0.084303 0.231135 0.768399
0.175144 0.239001 0.789149
0.272461 0.245438 0.808545
0.376111 0.250491 0.825897
0.485478 0.254332 0.840645
0.621410 0.257263 0.852356
0.782349 0.259712 0.860725
0.944330 0.262237 0.865576
0.086468 0.349769 0.846845
0.186219 0.356641 0.860531
0.291731 0.362255 0.871053
0.401779 0.366938 0.878156
0.514666 0.371142 0.881707
0.628223 0.375450 0.881707
0.785050 0.380018 0.879824
0.941803 0.384488 0.877788
0.082733 0.465163 0.895115
0.192224 0.480817 0.897366
0.304737 0.485511 0.896285
0.417655 0.490042 0.894364
0.530638 0.494467 0.892208
0.643828 0.498802 0.889652
0.778931 0.503031 0.886725
0.935741 0.507133 0.883451
0.094136 0.569080 0.908879
0.207376 0.583750 0.906574
0.320925 0.598270 0.903880
0.434531 0.612630 0.900824
0.547968 0.616491 0.897428
0.661041 0.620156 0.893707
0.773579 0.623593 0.889669
0.929312 0.626767 0.885315
0.112456 0.670469 0.914878
0.226449 0.684386 0.911363
0.340100 0.698070 0.907526
0.453221 0.711496 0.903373
0.565653 0.724636 0.898903
0.677262 0.737452 0.894109
0.787945 0.739580 0.888975
0.919560 0.741291 0.883482
0.133379 0.768213 0.917034
0.246374 0.780988 0.912448
0.358497 0.793426 0.907532
0.469623 0.805493 0.902270
0.579658 0.817143 0.896639
0.688532 0.828327 0.890607
0.796206 0.838986 0.884138
0.902667 0.849057 0.877187
