omv/luts/39_emission_warning.cube
# Original OMV LUT; redistribution permitted with OMV.
TITLE "Emission Warning"
LUT_3D_SIZE 32
DOMAIN_MIN 0.0 0.0 0.0
DOMAIN_MAX 1.0 1.0 1.0
0.017000 0.003000 0.041000
0.047108 0.004721 0.042721
0.077298 0.006524 0.044524
0.107545 0.008384 0.046384
0.137844 0.010296 0.048296
0.168192 0.012256 0.050256
0.198586 0.014264 0.052264
0.229026 0.016317 0.054317
0.259510 0.018413 0.056413
0.290036 0.020552 0.058552
0.320604 0.022733 0.060733
0.351213 0.024954 0.062954
0.381871 0.027212 0.065212
0.412728 0.029467 0.067461
0.443855 0.031698 0.069679
0.475280 0.033897 0.071859
0.507033 0.036054 0.073991
0.539138 0.038161 0.076067
0.571620 0.040212 0.078081
0.604502 0.042198 0.080025
0.637803 0.044114 0.081892
0.671543 0.045953 0.083678
0.705737 0.047709 0.085376
0.740402 0.049377 0.086983
0.775549 0.050953 0.088492
0.811191 0.052433 0.089902
0.847336 0.053813 0.091207
0.883993 0.055090 0.092406
0.921167 0.056261 0.093496
0.958861 0.057325 0.094475
0.997078 0.058280 0.095342
1.000000 0.065328 0.100710
0.023074 0.021332 0.047074
0.047907 0.025843 0.049004
0.078272 0.030401 0.050982
0.108683 0.032425 0.053006
0.139139 0.034494 0.055075
0.169639 0.036607 0.057187
0.200180 0.038761 0.059342
0.230763 0.040957 0.061537
0.261386 0.043192 0.063773
0.292082 0.045459 0.066034
0.322966 0.047726 0.068273
0.354077 0.049982 0.070478
0.385445 0.052218 0.072641
0.417099 0.054425 0.074754
0.449067 0.056593 0.076808
0.481374 0.058716 0.078797
0.514044 0.060785 0.080714
0.547099 0.062794 0.082552
0.580557 0.064735 0.084307
0.614438 0.066603 0.085972
0.648757 0.068393 0.087544
0.683530 0.070099 0.089017
0.718767 0.071717 0.090389
0.754482 0.073244 0.091656
0.790680 0.074674 0.092816
0.827372 0.076006 0.093865
0.864560 0.077237 0.094804
0.902249 0.078365 0.095630
0.940440 0.079389 0.096343
0.979134 0.080307 0.096942
1.000000 0.084278 0.100214
1.000000 0.091841 0.106706
0.029754 0.040270 0.053754
0.049258 0.044936 0.055839
0.079773 0.049644 0.057967
0.110330 0.054394 0.060136
0.140927 0.059185 0.062347
0.171565 0.061435 0.064597
0.202290 0.063714 0.066852
0.233165 0.066004 0.069080
0.264226 0.068296 0.071271
0.295502 0.070579 0.073416
0.327027 0.072845 0.075509
0.358827 0.075083 0.077540
0.390929 0.077287 0.079503
0.423358 0.079447 0.081392
0.456138 0.081556 0.083201
0.489289 0.083608 0.084924
0.522831 0.085596 0.086555
0.556782 0.087514 0.088092
0.591156 0.089357 0.089529
0.625969 0.091120 0.090863
0.661231 0.092798 0.092091
0.696954 0.094388 0.093211
0.733144 0.095886 0.094220
0.769810 0.097289 0.095118
0.806956 0.098595 0.095902
0.844583 0.099802 0.096574
0.882694 0.100909 0.097132
0.921287 0.101914 0.097578
0.960360 0.102818 0.097912
0.999909 0.103620 0.098136
1.000000 0.111169 0.105402
1.000000 0.118742 0.112724
0.036936 0.059711 0.060936
0.056581 0.064516 0.063161
0.081750 0.069361 0.065420
0.112474 0.074241 0.067667
0.143306 0.079146 0.069882
0.174282 0.084064 0.072058
0.205435 0.088985 0.074185
0.236797 0.091318 0.076256
0.268399 0.093636 0.078263
0.300267 0.095929 0.080200
0.332428 0.098188 0.082060
0.364907 0.100406 0.083838
0.397725 0.102576 0.085528
0.430904 0.104691 0.087126
0.464463 0.106744 0.088626
0.498418 0.108730 0.090026
0.532784 0.110644 0.091322
0.567575 0.112479 0.092511
0.602802 0.114234 0.093591
0.638476 0.115903 0.094560
0.674603 0.117483 0.095416
0.711189 0.118971 0.096160
0.748240 0.120365 0.096790
0.785756 0.121664 0.097308
0.823739 0.122866 0.097712
0.862186 0.123970 0.098006
0.901096 0.124977 0.098190
0.940462 0.125885 0.098267
0.980278 0.126696 0.098239
1.000000 0.130901 0.102388
1.000000 0.138464 0.110630
1.000000 0.146043 0.118858
0.044549 0.079628 0.068477
0.064336 0.084576 0.070679
0.084227 0.089549 0.072838
0.115224 0.094537 0.074946
0.146394 0.099529 0.076994
0.177767 0.104514 0.078977
0.209373 0.109485 0.080887
0.241239 0.114433 0.082718
0.273390 0.119348 0.084464
0.305851 0.121643 0.086121
0.338643 0.123892 0.087684
0.371787 0.126087 0.089148
0.405301 0.128222 0.090510
0.439201 0.130292 0.091767
0.473502 0.132291 0.092917
0.508217 0.134215 0.093957
0.543356 0.136060 0.094885
0.578929 0.137821 0.095700
0.614943 0.139496 0.096403
0.651403 0.141081 0.096992
0.688313 0.142576 0.097468
0.725675 0.143977 0.097832
0.763488 0.145284 0.098086
0.801750 0.146497 0.098230
0.840459 0.147614 0.098269
0.879607 0.148637 0.098204
0.919188 0.149565 0.098038
0.959193 0.150401 0.097777
0.999610 0.151146 0.097424
1.000000 0.158611 0.106705
1.000000 0.166163 0.115992
1.000000 0.173739 0.125204
0.052272 0.100144 0.075699
0.072251 0.105222 0.077724
0.092400 0.110304 0.079681
0.118231 0.115381 0.081563
0.149775 0.120443 0.083363
0.181574 0.125483 0.085078
0.213653 0.130491 0.086701
0.246036 0.135461 0.088228
0.278744 0.140384 0.089656
0.311796 0.145256 0.090980
0.345210 0.150068 0.092199
0.379003 0.152236 0.093308
0.413188 0.154334 0.094307
0.447777 0.156359 0.095195
0.482781 0.158306 0.095969
0.518209 0.160171 0.096630
0.554067 0.161951 0.097178
0.590359 0.163644 0.097613
0.627090 0.165248 0.097937
0.664260 0.166761 0.098151
0.701868 0.168182 0.098256
0.739912 0.169510 0.098257
0.778388 0.170745 0.098155
0.817290 0.171888 0.097954
0.856609 0.172939 0.097659
0.896335 0.173900 0.097273
0.936458 0.174774 0.096803
0.976963 0.175561 0.096253
1.000000 0.179223 0.100579
1.000000 0.186720 0.111169
1.000000 0.194250 0.121589
1.000000 0.201812 0.131861
0.059730 0.121362 0.082228
0.079958 0.126547 0.083998
0.100412 0.131718 0.085680
0.121118 0.136865 0.087268
0.153069 0.141982 0.088760
0.185319 0.147060 0.090150
0.217890 0.152092 0.091436
0.250800 0.157072 0.092615
0.284067 0.161994 0.093685
0.317706 0.166853 0.094644
0.351730 0.171642 0.095490
0.386152 0.176359 0.096223
0.420980 0.180999 0.096843
0.456224 0.182977 0.097350
0.491889 0.184872 0.097744
0.527980 0.186680 0.098027
0.564498 0.188401 0.098202
0.601445 0.190032 0.098269
0.638820 0.191572 0.098231
0.676619 0.193021 0.098093
0.714838 0.194379 0.097857
0.753469 0.195646 0.097529
0.792505 0.196824 0.097112
0.831935 0.197913 0.096612
0.871746 0.198917 0.096035
0.911925 0.199837 0.095386
0.952455 0.200676 0.094674
0.993319 0.201438 0.093904
1.000000 0.207759 0.103974
1.000000 0.215208 0.115879
1.000000 0.222700 0.127518
1.000000 0.230232 0.138926
0.066621 0.143350 0.087823
0.087150 0.148620 0.089278
0.107955 0.153858 0.090631
0.129058 0.159057 0.091878
0.155962 0.164210 0.093017
0.188686 0.169310 0.094047
0.221763 0.174353 0.094965
0.255208 0.179331 0.095770
0.289033 0.184241 0.096462
0.323251 0.189078 0.097040
0.357870 0.193838 0.097506
0.392897 0.198518 0.097860
0.428339 0.203114 0.098103
0.464199 0.207625 0.098238
0.500479 0.212048 0.098267
0.537179 0.213802 0.098192
0.574298 0.215466 0.098018
0.611831 0.217039 0.097748
0.649774 0.218523 0.097387
0.688118 0.219916 0.096939
0.726856 0.221222 0.096410
0.765976 0.222440 0.095806
0.805465 0.223574 0.095134
0.845309 0.224626 0.094400
0.885491 0.225598 0.093612
0.925992 0.226495 0.092777
0.966794 0.227321 0.091905
1.000000 0.229334 0.093861
1.000000 0.236659 0.107614
1.000000 0.244042 0.120937
1.000000 0.251478 0.133884
1.000000 0.258965 0.146500
0.072707 0.166153 0.092305
0.093587 0.171484 0.093405
0.114785 0.176768 0.094394
0.136318 0.181998 0.095271
0.158202 0.187170 0.096035
0.191419 0.192276 0.096685
0.225015 0.197314 0.097223
0.258998 0.202278 0.097648
0.293380 0.207164 0.097961
0.328165 0.211970 0.098165
0.363360 0.216692 0.098261
0.398967 0.221329 0.098252
0.434988 0.225878 0.098140
0.471423 0.230337 0.097931
0.508269 0.234708 0.097627
0.545522 0.238988 0.097234
0.583176 0.243178 0.096756
0.621224 0.244698 0.096199
0.659655 0.246131 0.095569
0.698459 0.247477 0.094874
0.737621 0.248739 0.094119
0.777127 0.249920 0.093313
0.816960 0.251023 0.092463
0.857101 0.252051 0.091579
0.897529 0.253009 0.090670
0.938221 0.253901 0.089744
0.979154 0.254733 0.088813
1.000000 0.258664 0.096180
1.000000 0.265886 0.111603
1.000000 0.273181 0.126448
1.000000 0.280543 0.140789
1.000000 0.287966 0.154688
0.077815 0.189792 0.095562
0.099093 0.195160 0.096285
0.120722 0.200467 0.096894
0.142716 0.205708 0.097391
0.165088 0.210878 0.097775
0.193331 0.215974 0.098048
0.227452 0.220991 0.098212
0.261976 0.225926 0.098269
0.296906 0.230777 0.098223
0.332245 0.235541 0.098075
0.367994 0.240217 0.097831
0.404151 0.244803 0.097494
0.440715 0.249299 0.097069
0.477680 0.253705 0.096562
0.515040 0.258020 0.095978
0.552786 0.262246 0.095323
0.590909 0.266383 0.094605
0.629396 0.270435 0.093831
0.668234 0.274402 0.093008
0.707406 0.275708 0.092145
0.746895 0.276935 0.091250
0.786682 0.278088 0.090334
0.826746 0.279172 0.089405
0.867063 0.280190 0.088474
0.907609 0.281149 0.087552
0.948356 0.282054 0.086651
0.989277 0.282911 0.085781
1.000000 0.288304 0.098827
1.000000 0.295398 0.116049
1.000000 0.302583 0.132524
1.000000 0.309850 0.148347
1.000000 0.317190 0.163602
0.081835 0.214261 0.097543
0.103553 0.219641 0.097887
0.125650 0.224948 0.098120
0.148134 0.230178 0.098245
0.171014 0.235327 0.098264
0.194294 0.240394 0.098181
0.228948 0.245374 0.097997
0.264009 0.250266 0.097719
0.299478 0.255068 0.097349
0.335353 0.259779 0.096894
0.371631 0.264399 0.096358
0.408306 0.268927 0.095747
0.445372 0.273364 0.095069
0.482819 0.277711 0.094329
0.520638 0.281969 0.093536
0.558815 0.286139 0.092698
0.597335 0.290225 0.091823
0.636184 0.294229 0.090919
0.675341 0.298155 0.089997
0.714789 0.302007 0.089066
0.754504 0.305788 0.088137
0.794464 0.306923 0.087221
0.834642 0.307999 0.086330
0.875012 0.309021 0.085474
0.915544 0.309995 0.084668
0.956208 0.310928 0.083924
0.996970 0.311828 0.083254
1.000000 0.318207 0.101915
1.000000 0.325148 0.121072
1.000000 0.332199 0.139286
1.000000 0.339349 0.156682
1.000000 0.346586 0.173363
0.084723 0.239531 0.098264
0.106921 0.244896 0.098246
0.129518 0.250179 0.098125
0.152516 0.255376 0.097907
0.175921 0.260484 0.097594
0.199734 0.265502 0.097193
0.229437 0.270428 0.096708
0.265030 0.275261 0.096144
0.301025 0.280001 0.095508
0.337415 0.284647 0.094806
0.374194 0.289201 0.094047
0.411351 0.293662 0.093236
0.448875 0.298034 0.092383
0.486754 0.302316 0.091496
0.524972 0.306513 0.090585
0.563513 0.310627 0.089658
0.602358 0.314661 0.088727
0.641486 0.318620 0.087802
0.680875 0.322507 0.086893
0.720502 0.326329 0.086013
0.760339 0.330090 0.085175
0.800359 0.333797 0.084389
0.840533 0.337456 0.083671
0.880829 0.338492 0.083032
0.921213 0.339496 0.082488
0.961651 0.340474 0.082054
1.000000 0.341724 0.082974
1.000000 0.348327 0.105572
1.000000 0.355085 0.126806
1.000000 0.361978 0.146873
1.000000 0.368990 0.165932
1.000000 0.376105 0.184114
0.086497 0.265547 0.097804
0.109213 0.270871 0.097458
0.132338 0.276104 0.097026
0.155872 0.281244 0.096511
0.179816 0.286290 0.095920
0.204167 0.291240 0.095260
0.228920 0.296094 0.094536
0.265036 0.300852 0.093757
0.301540 0.305515 0.092930
0.338421 0.310083 0.092064
0.375669 0.314559 0.091167
0.413269 0.318945 0.090249
0.451205 0.323242 0.089319
0.489461 0.327455 0.088389
0.528017 0.331586 0.087468
0.566853 0.335640 0.086569
0.605944 0.339622 0.085703
0.645268 0.343536 0.084882
0.684796 0.347389 0.084119
0.724501 0.351185 0.083428
0.764353 0.354932 0.082823
0.804319 0.358637 0.082317
0.844366 0.362308 0.081926
0.884457 0.365952 0.081665
0.924556 0.369578 0.081550
0.964623 0.370615 0.081597
1.000000 0.372253 0.084812
1.000000 0.378611 0.109948
1.000000 0.385158 0.133411
1.000000 0.391868 0.155449
1.000000 0.398718 0.176257
1.000000 0.405681 0.195940
0.087241 0.292228 0.096304
0.110507 0.297484 0.095687
0.134187 0.302643 0.095003
0.158276 0.307702 0.094258
0.182770 0.312662 0.093461
0.207661 0.317523 0.092619
0.232942 0.322286 0.091740
0.264086 0.326952 0.090834
0.301080 0.331522 0.089911
0.338425 0.335999 0.088980
0.376107 0.340386 0.088052
0.414107 0.344685 0.087138
0.452406 0.348900 0.086249
0.490981 0.353036 0.085398
0.529810 0.357097 0.084597
0.568868 0.361088 0.083859
0.608126 0.365016 0.083197
0.647557 0.368886 0.082626
0.687129 0.372704 0.082160
0.726810 0.376479 0.081815
0.766566 0.380217 0.081605
0.806359 0.383928 0.081547
0.846153 0.387619 0.081658
0.885907 0.391300 0.081953
0.925579 0.394980 0.082452
0.965126 0.398670 0.083171
1.000000 0.402930 0.087349
1.000000 0.409004 0.115203
1.000000 0.415295 0.140934
1.000000 0.421767 0.164862
1.000000 0.428394 0.187247
1.000000 0.435151 0.208301
0.087101 0.319471 0.093974
0.110949 0.324630 0.093159
0.135205 0.329687 0.092303
0.159864 0.334640 0.091413
0.184915 0.339492 0.090500
0.210348 0.344243 0.089573
0.236150 0.348895 0.088641
0.262305 0.353451 0.087717
0.299766 0.357912 0.086811
0.337545 0.362283 0.085934
0.375624 0.366567 0.085100
0.413978 0.370769 0.084320
0.452586 0.374893 0.083608
0.491420 0.378944 0.082978
0.530454 0.382929 0.082444
0.569657 0.386853 0.082020
0.608998 0.390724 0.081722
0.648445 0.394548 0.081566
0.687963 0.398334 0.081567
0.727513 0.402090 0.081743
0.767059 0.405824 0.082110
0.806559 0.409546 0.082687
0.845970 0.413266 0.083492
0.885251 0.416993 0.084541
0.924465 0.420723 0.085691
0.963673 0.424448 0.086835
1.000000 0.428520 0.090238
1.000000 0.436988 0.120718
1.000000 0.445347 0.148679
1.000000 0.451543 0.174521
1.000000 0.457926 0.198572
1.000000 0.464468 0.221091
0.086290 0.347144 0.091083
0.110745 0.352178 0.090163
0.135599 0.357105 0.089233
0.160839 0.361927 0.088303
0.186452 0.366647 0.087384
0.212423 0.371265 0.086487
0.238734 0.375786 0.085625
0.265367 0.380212 0.084809
0.297784 0.384548 0.084052
0.335964 0.388797 0.083369
0.374397 0.392966 0.082772
0.413058 0.397058 0.082276
0.451918 0.401080 0.081896
0.490947 0.405039 0.081648
0.530113 0.408940 0.081547
0.569383 0.412793 0.081610
0.608721 0.416603 0.081854
0.648090 0.420381 0.082295
0.687450 0.424134 0.082953
0.726761 0.427873 0.083845
0.765993 0.431605 0.084960
0.805205 0.435334 0.086108
0.844411 0.439056 0.087250
0.883611 0.442773 0.088385
0.922804 0.446482 0.089514
0.961990 0.450184 0.090635
1.000000 0.454024 0.092768
1.000000 0.462506 0.126153
1.000000 0.470873 0.156577
1.000000 0.479142 0.184524
1.000000 0.487325 0.210379
1.000000 0.493636 0.234450
0.085082 0.375093 0.087967
0.110170 0.379971 0.087055
0.135636 0.384741 0.086169
0.161466 0.389406 0.085322
0.187642 0.393968 0.084526
0.214143 0.398431 0.083794
0.240950 0.402799 0.083140
0.268039 0.407076 0.082579
0.295384 0.411268 0.082123
0.333927 0.415380 0.081790
0.372671 0.419418 0.081593
0.411585 0.423388 0.081550
0.450638 0.427297 0.081677
0.489794 0.431154 0.081991
0.529019 0.434965 0.082509
0.568273 0.438739 0.083250
0.607517 0.442486 0.084232
0.646734 0.446217 0.085379
0.685944 0.449944 0.086524
0.725148 0.453664 0.087664
0.764346 0.457378 0.088797
0.803536 0.461085 0.089923
0.842719 0.464783 0.091042
0.881906 0.468476 0.092157
0.921106 0.472163 0.093273
0.960317 0.475845 0.094391
0.999533 0.479521 0.095509
1.000000 0.487964 0.131685
1.000000 0.496334 0.164790
1.000000 0.504594 0.194981
1.000000 0.512758 0.222731
1.000000 0.520838 0.248414
0.083818 0.403138 0.085025
0.109557 0.407829 0.084251
0.135650 0.412413 0.083546
0.162075 0.416892 0.082924
0.188811 0.421271 0.082400
0.215834 0.425555 0.081987
0.243119 0.429748 0.081701
0.270638 0.433857 0.081559
0.298363 0.437886 0.081576
0.331745 0.441843 0.081768
0.370751 0.445735 0.082155
0.409864 0.449570 0.082752
0.449047 0.453355 0.083578
0.488260 0.457099 0.084647
0.527474 0.460829 0.085796
0.566682 0.464553 0.086940
0.605884 0.468271 0.088077
0.645079 0.471982 0.089208
0.684267 0.475686 0.090331
0.723449 0.479382 0.091447
0.762644 0.483072 0.092563
0.801855 0.486755 0.093680
0.841077 0.490432 0.094798
0.880307 0.494102 0.095916
0.919542 0.497766 0.097035
0.958778 0.501423 0.098153
0.998011 0.505073 0.099271
1.000000 0.513331 0.137338
1.000000 0.521692 0.173332
1.000000 0.529930 0.205911
1.000000 0.538062 0.235654
1.000000 0.546102 0.263014
0.082900 0.431074 0.082721
0.109309 0.435547 0.082236
0.136037 0.439914 0.081867
0.163059 0.444180 0.081632
0.190350 0.448350 0.081546
0.217882 0.452429 0.081625
0.245625 0.456424 0.081886
0.273547 0.460342 0.082347
0.301614 0.464190 0.083025
0.329792 0.467974 0.083940
0.369002 0.471711 0.085066
0.408213 0.475439 0.086213
0.447419 0.479161 0.087355
0.486619 0.482877 0.088490
0.525811 0.486586 0.089618
0.564996 0.490287 0.090738
0.604182 0.493980 0.091853
0.643387 0.497666 0.092969
0.682610 0.501345 0.094087
0.721847 0.505016 0.095205
0.761093 0.508680 0.096324
0.800345 0.512336 0.097442
0.839599 0.515985 0.098560
0.878853 0.519625 0.099678
0.918102 0.523258 0.100793
0.957343 0.526882 0.101907
0.996574 0.530497 0.103018
1.000000 0.538567 0.143089
1.000000 0.546908 0.182209
1.000000 0.555112 0.217334
1.000000 0.563200 0.249173
1.000000 0.571187 0.278278
0.082796 0.458670 0.081583
0.109888 0.462892 0.081554
0.137258 0.467012 0.081698
0.164877 0.471036 0.082029
0.192715 0.474969 0.082567
0.220739 0.478819 0.083330
0.248915 0.482592 0.084335
0.277162 0.486323 0.085485
0.305404 0.490049 0.086630
0.333640 0.493769 0.087769
0.367353 0.497482 0.088901
0.406543 0.501188 0.090027
0.445725 0.504886 0.091144
0.484919 0.508576 0.092260
0.524137 0.512258 0.093376
0.563374 0.515932 0.094494
0.602626 0.519597 0.095612
0.641890 0.523253 0.096731
0.681161 0.526902 0.097849
0.720436 0.530541 0.098967
0.759711 0.534172 0.100084
0.798983 0.537794 0.101199
0.838249 0.541406 0.102312
0.877505 0.545009 0.103422
0.916749 0.548603 0.104529
0.955976 0.552186 0.105631
0.995185 0.555759 0.106729
1.000000 0.563634 0.148903
1.000000 0.571944 0.191416
1.000000 0.580103 0.229263
1.000000 0.588136 0.263314
1.000000 0.596060 0.294233
0.084037 0.485671 0.082200
0.111825 0.489609 0.082818
0.139840 0.493451 0.083667
0.168044 0.497205 0.084754
0.196289 0.500934 0.085902
0.224529 0.504658 0.087045
0.252762 0.508375 0.088182
0.280989 0.512086 0.089312
0.309209 0.515789 0.090435
0.337424 0.519484 0.091550
0.365663 0.523170 0.092666
0.404895 0.526847 0.093783
0.444147 0.530515 0.094901
0.483417 0.534173 0.096020
0.522699 0.537822 0.097138
0.561991 0.541462 0.098257
0.601288 0.545092 0.099374
0.640586 0.548712 0.100490
0.679883 0.552323 0.101605
0.719175 0.555923 0.102716
0.758458 0.559513 0.103825
0.797730 0.563093 0.104931
0.836986 0.566662 0.106032
0.876225 0.570220 0.107128
0.915443 0.573766 0.108219
0.954638 0.577301 0.109303
0.993807 0.580823 0.110380
1.000000 0.588495 0.154727
1.000000 0.596764 0.200944
1.000000 0.604868 0.241713
1.000000 0.612836 0.278100
1.000000 0.620686 0.310909
0.087172 0.511818 0.085172
0.115416 0.515545 0.086319
0.143653 0.519266 0.087460
0.171884 0.522981 0.088594
0.200109 0.526689 0.089722
0.228325 0.530390 0.090841
0.256548 0.534081 0.091956
0.284801 0.537763 0.093072
0.313080 0.541434 0.094190
0.341383 0.545095 0.095308
0.369704 0.548745 0.096427
0.403523 0.552386 0.097545
0.442837 0.556016 0.098663
0.482157 0.559636 0.099781
0.521480 0.563246 0.100896
0.560803 0.566844 0.102010
0.600122 0.570432 0.103120
0.639433 0.574009 0.104228
0.678734 0.577575 0.105332
0.718020 0.581129 0.106431
0.757290 0.584671 0.107526
0.796540 0.588202 0.108614
0.835767 0.591720 0.109696
0.874969 0.595225 0.110771
0.914143 0.598717 0.111837
0.953286 0.602196 0.112895
0.992397 0.605660 0.113943
1.000000 0.613113 0.160485
1.000000 0.621333 0.210770
1.000000 0.629374 0.254690
1.000000 0.637266 0.293555
1.000000 0.645034 0.328335
0.091005 0.537586 0.089005
0.119227 0.541291 0.090130
0.147441 0.544989 0.091247
0.175677 0.548676 0.092362
0.203946 0.552352 0.093479
0.232244 0.556017 0.094597
0.260565 0.559670 0.095715
0.288907 0.563313 0.096834
0.317264 0.566944 0.097952
0.345634 0.570565 0.099070
0.374011 0.574174 0.100187
0.402393 0.577772 0.101302
0.441743 0.581358 0.102414
0.481090 0.584933 0.103524
0.520431 0.588496 0.104630
0.559761 0.592047 0.105733
0.599079 0.595586 0.106830
0.638381 0.599113 0.107923
0.677663 0.602626 0.109009
0.716924 0.606127 0.110088
0.756159 0.609615 0.111160
0.795368 0.613089 0.112223
0.834546 0.616548 0.113277
0.873691 0.619994 0.114322
0.912801 0.623424 0.115355
0.951875 0.626839 0.116376
0.990909 0.630238 0.117385
1.000000 0.637454 0.166073
1.000000 0.645618 0.220861
1.000000 0.653587 0.268200
1.000000 0.661397 0.309702
1.000000 0.669072 0.346546
0.094814 0.563268 0.092769
0.123101 0.566938 0.093886
0.151418 0.570596 0.095004
0.179760 0.574242 0.096123
0.208124 0.577875 0.097241
0.236506 0.581497 0.098360
0.264900 0.585107 0.099477
0.293304 0.588705 0.100593
0.321713 0.592291 0.101707
0.350124 0.595864 0.102819
0.378532 0.599425 0.103927
0.406936 0.602974 0.105032
0.440814 0.606510 0.106133
0.480163 0.610034 0.107229
0.519498 0.613544 0.108319
0.558814 0.617041 0.109403
0.598108 0.620524 0.110479
0.637379 0.623994 0.111548
0.676621 0.627449 0.112608
0.715835 0.630889 0.113659
0.755015 0.634315 0.114699
0.794162 0.637725 0.115728
0.833271 0.641120 0.116745
0.872341 0.644498 0.117749
0.911369 0.647860 0.118740
0.950354 0.651204 0.119715
0.989294 0.654530 0.120674
1.000000 0.661484 0.171351
1.000000 0.669588 0.231170
1.000000 0.677478 0.282242
1.000000 0.685196 0.326567
1.000000 0.692771 0.365576
0.098969 0.588808 0.096530
0.127357 0.592432 0.097649
0.155763 0.596044 0.098767
0.184184 0.599643 0.099883
0.212615 0.603229 0.100999
0.241053 0.606802 0.102112
0.269494 0.610362 0.103223
0.297933 0.613909 0.104330
0.326368 0.617443 0.105434
0.354794 0.620964 0.106532
0.383209 0.624471 0.107626
0.411610 0.627964 0.108714
0.439992 0.631444 0.109795
0.479321 0.634909 0.110869
0.518627 0.638360 0.111935
0.557905 0.641797 0.112992
0.597154 0.645218 0.114039
0.636371 0.648624 0.115075
0.675553 0.652014 0.116100
0.714698 0.655387 0.117112
0.753804 0.658744 0.118112
0.792869 0.662084 0.119096
0.831890 0.665406 0.120066
0.870865 0.668710 0.121019
0.909793 0.671996 0.121955
0.948672 0.675262 0.122872
0.987500 0.678508 0.123770
1.000000 0.685169 0.176121
1.000000 0.693211 0.241625
1.000000 0.701017 0.296812
1.000000 0.708638 0.344177
1.000000 0.716105 0.385469
0.103487 0.614172 0.100290
0.131947 0.617745 0.101404
0.160415 0.621305 0.102517
0.188886 0.624851 0.103626
0.217357 0.628384 0.104732
0.245824 0.631902 0.105834
0.274284 0.635407 0.106931
0.302733 0.638898 0.108023
0.331168 0.642374 0.109109
0.359586 0.645836 0.110187
0.387982 0.649283 0.111258
0.416356 0.652716 0.112321
0.444703 0.656133 0.113374
0.478504 0.659534 0.114417
0.517757 0.662920 0.115450
0.556976 0.666289 0.116470
0.596158 0.669642 0.117478
0.635300 0.672977 0.118472
0.674400 0.676295 0.119451
0.713457 0.679596 0.120415
0.752468 0.682877 0.121362
0.791431 0.686140 0.122291
0.830345 0.689383 0.123201
0.869207 0.692606 0.124092
0.908017 0.695809 0.124962
0.946772 0.698990 0.125809
0.985471 0.702149 0.126633
1.000000 0.708479 0.180116
1.000000 0.716458 0.252132
1.000000 0.724177 0.311902
1.000000 0.731694 0.362568
1.000000 0.739048 0.406278
0.108302 0.639332 0.104029
0.136806 0.642849 0.105134
0.165307 0.646352 0.106234
0.193801 0.649841 0.107329
0.222284 0.653314 0.108419
0.250755 0.656773 0.109502
0.279208 0.660217 0.110578
0.307641 0.663646 0.111646
0.336050 0.667059 0.112705
0.364434 0.670456 0.113755
0.392788 0.673838 0.114794
0.421110 0.677203 0.115822
0.449398 0.680551 0.116838
0.477649 0.683883 0.117841
0.516827 0.687197 0.118830
0.555964 0.690493 0.119804
0.595057 0.693771 0.120762
0.634104 0.697030 0.121702
0.673102 0.700270 0.122625
0.712050 0.703490 0.123528
0.750947 0.706690 0.124411
0.789789 0.709869 0.125273
0.828577 0.713027 0.126112
0.867308 0.716162 0.126927
0.905981 0.719275 0.127717
0.944595 0.722364 0.128481
0.983148 0.725429 0.129217
1.000000 0.731381 0.182962
1.000000 0.739300 0.262560
1.000000 0.746930 0.327498
1.000000 0.754339 0.381779
1.000000 0.761574 0.428068
0.113344 0.664264 0.107727
0.141863 0.667720 0.108814
0.170369 0.671161 0.109895
0.198859 0.674587 0.110968
0.227329 0.677996 0.112033
0.255775 0.681390 0.113089
0.284196 0.684768 0.114135
0.312587 0.688129 0.115170
0.340946 0.691473 0.116194
0.369271 0.694800 0.117205
0.397559 0.698110 0.118203
0.425807 0.701403 0.119186
0.454012 0.704677 0.120154
0.482173 0.707932 0.121106
0.515772 0.711169 0.122040
0.554805 0.714386 0.122956
0.593788 0.717583 0.123852
0.632718 0.720759 0.124727
0.671593 0.723915 0.125581
