omv/luts/40_rusted_laboratory.cube
# Original OMV LUT; redistribution permitted with OMV.
TITLE "Rusted Laboratory"
LUT_3D_SIZE 5
DOMAIN_MIN 0.000000 0.000000 0.000000
DOMAIN_MAX 0.903226 0.903226 0.903226
0.001000 0.037000 0.035000
0.185252 0.054155 0.052155
0.372508 0.073751 0.071723
0.570120 0.092845 0.090434
0.785263 0.109095 0.105946
0.064457 0.204353 0.096520
0.227621 0.226791 0.110593
0.439379 0.246874 0.120478
0.667491 0.263776 0.126596
0.910053 0.277636 0.130336
0.105988 0.404192 0.128130
0.255924 0.425780 0.131536
0.486925 0.443935 0.136006
0.724770 0.459942 0.145200
0.961908 0.475585 0.160489
0.134546 0.619191 0.150546
0.303735 0.634800 0.166012
0.507927 0.650425 0.178679
0.748170 0.665585 0.187807
0.990804 0.679679 0.193782
0.186848 0.826366 0.190323
0.357802 0.841366 0.195273
0.530212 0.854830 0.197826
0.771380 0.866332 0.198704
1.000000 0.871569 0.237254
0.006413 0.042413 0.126219
0.157842 0.060616 0.151197
0.347003 0.080450 0.178698
0.548466 0.098755 0.201159
0.767803 0.113755 0.222808
0.070457 0.212146 0.202471
0.201557 0.233936 0.230126
0.415642 0.252984 0.248123
0.645781 0.268789 0.262862
0.889251 0.281817 0.274932
0.108240 0.411949 0.267504
0.260485 0.432286 0.278937
0.458974 0.449519 0.290057
0.696420 0.465259 0.303711
0.933405 0.480851 0.319223
0.139867 0.624512 0.309416
0.309179 0.640115 0.324398
0.479957 0.655658 0.336503
0.720632 0.670517 0.345634
0.963557 0.684137 0.352061
0.191772 0.831600 0.348268
0.362737 0.846135 0.353807
0.535043 0.858973 0.357244
0.742006 0.869737 0.359188
0.982565 0.878188 0.360390
0.012303 0.048303 0.217916
0.130682 0.067326 0.243714
0.322308 0.086953 0.274285
0.527463 0.104274 0.309247
0.750691 0.117945 0.345133
0.076087 0.219783 0.306342
0.209073 0.240758 0.341895
0.391543 0.258712 0.375216
0.623491 0.273474 0.405134
0.867503 0.285835 0.424667
0.110336 0.419264 0.399096
0.264907 0.438426 0.424225
0.430751 0.454923 0.447010
0.667872 0.470582 0.462582
0.905249 0.486071 0.477724
0.145161 0.629807 0.461484
0.314717 0.645430 0.482692
0.485898 0.660812 0.494610
0.693060 0.675305 0.504024
0.936181 0.688404 0.511092
0.196541 0.836697 0.506856
0.367478 0.850707 0.513137
0.539620 0.862876 0.517519
0.712295 0.872874 0.520496
0.952069 0.880512 0.522707
0.018507 0.054507 0.309926
0.137826 0.074126 0.337136
0.298248 0.093182 0.373186
0.506931 0.109365 0.415501
0.733738 0.121664 0.459825
0.081310 0.227194 0.415584
0.216255 0.247222 0.459773
0.367035 0.264063 0.501729
0.600567 0.277873 0.539485
0.844750 0.289770 0.572035
0.112367 0.426151 0.535946
0.269272 0.444250 0.566540
0.436204 0.460236 0.592107
0.639297 0.475878 0.614652
0.877401 0.491224 0.636193
0.150458 0.635094 0.606688
0.320310 0.650716 0.627547
0.491841 0.665861 0.646377
0.665415 0.679931 0.663079
0.908636 0.692467 0.670925
0.201138 0.841635 0.652621
0.372006 0.855065 0.666522
0.543922 0.866527 0.678633
0.716098 0.875738 0.682560
0.921112 0.882557 0.685601
0.024982 0.060982 0.402208
0.145465 0.080816 0.432936
0.274657 0.099071 0.476389
0.486700 0.113999 0.527334
0.716771 0.124923 0.580720
0.086104 0.234323 0.530708
0.223073 0.253311 0.583919
0.375952 0.269057 0.634245
0.576968 0.282044 0.678921
0.820942 0.293716 0.716144
0.114437 0.432635 0.677386
0.273680 0.449822 0.711636
0.441554 0.465554 0.737554
0.610787 0.481141 0.759891
0.849805 0.496285 0.781279
0.155806 0.640410 0.751816
0.325924 0.655946 0.772690
0.497749 0.670786 0.791931
0.671531 0.684379 0.809328
0.880885 0.696317 0.824813
0.205546 0.846393 0.799171
0.376303 0.859196 0.813971
0.547931 0.869917 0.826996
0.719526 0.878325 0.838512
0.889676 0.884325 0.848932
