omv/luts/40_rusted_laboratory.cube
# Original OMV LUT; redistribution permitted with OMV.
TITLE "Rusted Laboratory"
LUT_3D_SIZE 8
DOMAIN_MIN 0.000000 0.000000 0.000000
DOMAIN_MAX 0.903226 0.903226 0.903226
0.001000 0.037000 0.035000
0.105881 0.046397 0.044397
0.211809 0.056842 0.054842
0.318493 0.068031 0.066030
0.427473 0.079398 0.077303
0.540922 0.090256 0.087923
0.659942 0.100240 0.097549
0.785263 0.109095 0.105946
0.036234 0.129061 0.070184
0.124747 0.141061 0.081266
0.235172 0.153107 0.091557
0.349523 0.164754 0.100757
0.468799 0.175665 0.108670
0.593620 0.185604 0.115205
0.724232 0.194441 0.120374
0.860504 0.202147 0.124291
0.072841 0.230843 0.103794
0.146463 0.244071 0.111211
0.263473 0.256564 0.117241
0.385674 0.268110 0.121936
0.513201 0.278598 0.125446
0.645811 0.288021 0.128028
0.782887 0.296473 0.130039
0.923434 0.304151 0.131941
0.098127 0.343946 0.123339
0.178172 0.357213 0.126477
0.282832 0.369332 0.128804
0.411754 0.380314 0.130717
0.544854 0.390274 0.132712
0.681026 0.399430 0.135391
0.818786 0.408102 0.139456
0.956274 0.416713 0.145712
0.112023 0.465973 0.131405
0.199813 0.477948 0.133574
0.291893 0.488714 0.136670
0.425754 0.498509 0.141434
0.561092 0.507673 0.148708
0.696496 0.516625 0.157658
0.831953 0.525504 0.166383
0.968295 0.534295 0.174018
0.127632 0.589445 0.143744
0.223714 0.598681 0.151972
0.320382 0.607608 0.160898
0.436561 0.616509 0.169304
0.572745 0.625407 0.176498
0.709701 0.634169 0.182514
0.847493 0.642677 0.187414
0.986130 0.650828 0.191274
0.157123 0.707592 0.172062
0.254188 0.716657 0.178821
0.351740 0.725636 0.184423
0.449881 0.734397 0.188935
0.587368 0.742825 0.192439
0.725485 0.750820 0.195031
0.864173 0.758297 0.196823
1.000000 0.764748 0.204368
0.186848 0.826366 0.190323
0.284351 0.835095 0.193482
0.382348 0.843395 0.195770
0.480819 0.851167 0.197302
0.599045 0.858331 0.198213
0.736896 0.864821 0.198650
0.874834 0.870585 0.198777
1.000000 0.871569 0.237254
0.004007 0.040007 0.087039
0.089981 0.049852 0.100755
0.196177 0.060564 0.115338
0.303278 0.071921 0.126757
0.413375 0.083163 0.138604
0.528117 0.093759 0.150373
0.648521 0.103384 0.161640
0.775232 0.111814 0.172088
0.040165 0.133099 0.127177
0.109668 0.145171 0.142923
0.220720 0.157126 0.154552
0.335897 0.168556 0.165552
0.456109 0.179158 0.175642
0.581889 0.188732 0.184647
0.713397 0.197183 0.192493
0.850415 0.204517 0.199211
0.076013 0.235400 0.169343
0.150205 0.248409 0.179052
0.248559 0.260599 0.187638
0.371500 0.271793 0.195064
0.499722 0.281915 0.201399
0.632895 0.290992 0.206811
0.770313 0.299154 0.211575
0.910895 0.306634 0.216066
0.099932 0.348577 0.197490
0.180711 0.361459 0.203464
0.266721 0.373185 0.208603
0.396233 0.383802 0.213219
0.529721 0.393460 0.217723
0.665992 0.402411 0.222631
0.803474 0.411009 0.228561
0.940221 0.419713 0.236233
0.113188 0.470186 0.214847
0.201808 0.481730 0.219433
0.294533 0.492135 0.224636
0.409413 0.501672 0.231112
0.544785 0.510720 0.239495
0.680165 0.519649 0.248423
0.815823 0.528504 0.256900
0.952475 0.537243 0.264284
0.130209 0.592692 0.233930
0.226754 0.601722 0.242754
0.323405 0.610623 0.251630
0.420400 0.619538 0.259715
0.556768 0.628404 0.266702
0.693904 0.637093 0.272625
0.831859 0.645490 0.277533
0.970630 0.653498 0.281490
0.160192 0.710672 0.262384
0.257328 0.719723 0.268979
0.354961 0.728641 0.274526
0.453181 0.737301 0.279080
0.571379 0.745593 0.282709
0.709535 0.753421 0.285500
0.848224 0.760705 0.287551
0.987318 0.767382 0.288979
0.189680 0.829372 0.280504
0.287192 0.837967 0.283817
0.385189 0.846098 0.286326
0.483636 0.853672 0.288137
0.582445 0.860614 0.289369
0.720187 0.866862 0.290159
0.857954 0.872370 0.290659
0.995499 0.877107 0.291034
0.007233 0.043233 0.139297
0.074178 0.053404 0.153339
0.180626 0.064368 0.168175
0.288360 0.075786 0.183907
0.399556 0.086852 0.200656
0.515560 0.097150 0.213962
0.637303 0.106389 0.227190
0.765342 0.114382 0.239936
0.044085 0.137182 0.180768
0.113958 0.149267 0.197738
0.206294 0.161084 0.214940
0.322290 0.172262 0.231904
0.443416 0.182532 0.244396
0.570119 0.191730 0.256024
0.702470 0.199795 0.266633
0.840164 0.206770 0.276166
0.079053 0.239894 0.228795
0.153834 0.252651 0.244869
0.233535 0.264518 0.260010
0.357205 0.275352 0.270228
0.486093 0.285110 0.279376
0.619785 0.293857 0.287540
0.757486 0.301756 0.294908
0.898028 0.309075 0.301769
0.101618 0.353080 0.269809
0.183142 0.365571 0.282455
0.269854 0.376910 0.290302
0.380583 0.387179 0.297446
0.514425 0.396563 0.304215
0.650744 0.405349 0.311039
0.787882 0.413927 0.318451
0.923920 0.422759 0.327017
0.114380 0.474247 0.299933
0.203836 0.485380 0.306667
0.297197 0.495454 0.313638
0.393070 0.504777 0.321417
0.528471 0.513761 0.330277
0.663838 0.522662 0.339162
0.799785 0.531491 0.347359
0.936731 0.540163 0.354570
0.133094 0.595804 0.324578
0.229785 0.604753 0.333527
0.326475 0.613648 0.342261
0.423637 0.622561 0.350098
0.540823 0.631381 0.356953
0.678124 0.639982 0.362846
0.816226 0.648258 0.367816
0.955112 0.656113 0.371913
0.163259 0.713752 0.352707
0.260460 0.722773 0.359208
0.358167 0.731617 0.364760
0.456456 0.740164 0.369405
0.555352 0.748308 0.373201
0.693533 0.755959 0.376220
0.832205 0.763044 0.378550
0.971230 0.769502 0.380295
0.192463 0.832337 0.370882
0.289980 0.840785 0.374385
0.387966 0.848736 0.377143
0.486377 0.856104 0.379247
0.585113 0.862816 0.380808
0.703375 0.868817 0.381948
0.840955 0.874066 0.382807
0.978236 0.878538 0.383538
0.010586 0.046586 0.191682
0.077820 0.057046 0.206013
0.165161 0.068247 0.221098
0.273704 0.079608 0.237733
0.385984 0.090452 0.255933
0.503218 0.100418 0.274998
0.626252 0.109249 0.294339
0.755556 0.116796 0.309596
0.047977 0.141288 0.235066
0.118245 0.153331 0.253656
0.191873 0.164967 0.272884
0.308682 0.175862 0.292198
0.430701 0.185781 0.311149
0.558288 0.194596 0.329390
0.691429 0.202281 0.342809
0.829730 0.208913 0.355137
0.081955 0.244313 0.290009
0.157343 0.256791 0.308736
0.237750 0.268317 0.326654
0.342781 0.278785 0.343557
0.472308 0.288188 0.359343
0.606473 0.296624 0.370141
0.744397 0.304290 0.379926
0.884822 0.311491 0.388902
0.103193 0.357452 0.340284
0.185474 0.369549 0.355658
0.272885 0.380510 0.369942
0.364812 0.390453 0.383274
0.498972 0.399597 0.392026
0.635288 0.408263 0.400416
0.772015 0.416877 0.408890
0.907607 0.425800 0.417800
0.115622 0.478161 0.378784
0.205919 0.488907 0.391230
0.299905 0.498686 0.403464
0.396100 0.507842 0.412100
0.512148 0.516793 0.421051
0.647595 0.525670 0.429816
0.783830 0.534459 0.437803
0.921051 0.543052 0.444912
0.136140 0.598850 0.411495
0.232807 0.607775 0.424291
0.329590 0.616677 0.432825
0.426910 0.625573 0.440493
0.524901 0.634332 0.447283
0.662355 0.642834 0.453205
0.800587 0.650977 0.458284
0.939571 0.658671 0.462560
0.166319 0.716827 0.443066
0.263579 0.725803 0.449538
0.361351 0.734559 0.455150
0.459700 0.742979 0.459931
0.558637 0.750965 0.463928
0.677473 0.758432 0.467200
0.816111 0.765310 0.469824
0.955047 0.771544 0.471891
0.195196 0.835256 0.461474
0.292709 0.843546 0.465199
0.390677 0.851308 0.468226
0.489041 0.858460 0.470636
0.587690 0.864936 0.472526
0.686456 0.870686 0.474007
0.823830 0.875673 0.475206
0.960828 0.879877 0.476266
0.014046 0.050046 0.244175
0.081547 0.060773 0.258773
0.149884 0.072136 0.274326
0.259277 0.083369 0.292342
0.372624 0.093950 0.312375
0.491056 0.103554 0.333642
0.615334 0.111961 0.355469
0.745839 0.119056 0.377283
0.051823 0.145398 0.290294
0.122510 0.157347 0.310861
0.196793 0.168764 0.332405
0.295054 0.179348 0.354287
0.417942 0.188902 0.375975
0.546376 0.197331 0.397038
0.680252 0.204644 0.417149
0.819090 0.210954 0.436082
0.084715 0.248646 0.353079
0.160730 0.260819 0.374584
0.241845 0.271994 0.395333
0.328222 0.282095 0.415035
0.458358 0.291154 0.433504
0.592953 0.299300 0.450653
0.731039 0.306770 0.466502
0.871270 0.313899 0.477300
0.104667 0.361691 0.412757
0.187717 0.373395 0.430750
0.275823 0.383992 0.447419
0.368281 0.393634 0.462819
0.483368 0.402574 0.477107
0.619630 0.411170 0.490545
0.755878 0.419881 0.499622
0.891285 0.428833 0.508575
0.116937 0.481936 0.458987
0.208080 0.492321 0.472930
0.302680 0.501846 0.486142
0.399147 0.510889 0.499018
0.495816 0.519816 0.511816
0.631441 0.528670 0.520415
0.767947 0.537405 0.528267
0.905426 0.545906 0.535342
0.139180 0.601890 0.494535
0.235829 0.610791 0.507286
0.332743 0.619706 0.519492
0.430210 0.628570 0.530933
0.528350 0.637254 0.537722
0.646587 0.645645 0.543726
0.784934 0.653644 0.548958
0.923997 0.661169 0.553446
0.169367 0.719892 0.525754
0.266680 0.728807 0.536127
0.364509 0.737461 0.545719
0.462907 0.745745 0.550676
0.561872 0.753563 0.554903
0.661348 0.760837 0.558448
0.799936 0.767501 0.561375
0.938763 0.773508 0.563763
0.197873 0.838125 0.548426
0.295377 0.846245 0.556269
0.393317 0.853809 0.559581
0.491624 0.860738 0.562302
0.590172 0.866972 0.564517
0.688782 0.872466 0.566325
0.806578 0.877189 0.567841
0.943272 0.881125 0.569195
0.017603 0.053603 0.296764
0.085356 0.064581 0.311614
0.154163 0.075999 0.328140
0.245048 0.087054 0.347952
0.359444 0.097335 0.370164
0.479042 0.106551 0.393909
0.604514 0.114520 0.418428
0.736157 0.121162 0.443065
0.055607 0.149493 0.346658
0.126736 0.161301 0.369522
0.201683 0.172464 0.393631
0.281388 0.182715 0.418264
0.405123 0.191892 0.442802
0.534363 0.199936 0.466728
0.668920 0.206891 0.489632
0.808225 0.212903 0.511203
0.087333 0.252884 0.418086
0.163992 0.264732 0.442456
0.245816 0.275545 0.466052
0.332881 0.285284 0.488501
0.444241 0.294013 0.509530
0.579219 0.301898 0.528968
0.717404 0.309209 0.546749
0.857366 0.316317 0.562908
0.106051 0.365795 0.487181
0.189882 0.377112 0.507645
0.278676 0.387363 0.526483
0.371645 0.396733 0.543664
0.467624 0.405511 0.559261
0.603778 0.414090 0.573450
0.739573 0.422928 0.586541
0.874953 0.431856 0.599340
0.118350 0.485578 0.540367
0.210343 0.495636 0.555426
0.305546 0.504948 0.569165
0.402187 0.513929 0.582058
0.498844 0.522829 0.594817
0.615365 0.531656 0.607129
0.752128 0.540324 0.618788
0.889847 0.548721 0.625889
0.142211 0.604921 0.577566
0.238885 0.613815 0.590221
0.335925 0.622728 0.602300
0.433530 0.631545 0.613712
0.531808 0.640141 0.624428
0.630814 0.648410 0.634432
0.769260 0.656257 0.639854
0.908382 0.663604 0.644581
0.172397 0.722942 0.608544
0.269757 0.731781 0.619001
0.367636 0.740321 0.628746
0.466072 0.748456 0.637783
0.565052 0.756098 0.646135
0.664509 0.763171 0.649967
0.783674 0.769617 0.653202
0.922373 0.775391 0.655905
0.200492 0.840940 0.631751
0.297980 0.848881 0.639861
0.395884 0.856236 0.647340
0.494121 0.862936 0.654243
0.592555 0.868923 0.656774
0.690994 0.874158 0.658889
0.789193 0.878614 0.660692
0.925563 0.882282 0.662300
0.021250 0.057250 0.349444
0.089245 0.068462 0.364564
0.158611 0.079818 0.382780
0.230987 0.090649 0.404765
0.346414 0.100595 0.429463
0.467145 0.109403 0.455925
0.593763 0.116925 0.483306
0.726478 0.123116 0.510866
0.059315 0.153555 0.404344
0.130909 0.165180 0.429788
0.206528 0.176058 0.456677
0.287023 0.185957 0.484204
0.392225 0.194751 0.511665
0.522233 0.202415 0.538460
0.657414 0.209028 0.564093
0.797115 0.214772 0.588167
0.089808 0.257017 0.485092
0.167126 0.268524 0.512375
0.249660 0.278972 0.538799
0.337399 0.288355 0.563904
0.429953 0.296774 0.587333
0.565267 0.304429 0.608831
0.703490 0.311624 0.628246
0.843103 0.318766 0.645527
0.107359 0.369765 0.563492
0.191980 0.380706 0.586243
0.281458 0.390632 0.606994
0.374916 0.399763 0.625632
0.471103 0.408424 0.642145
0.587742 0.417042 0.656621
0.723259 0.425968 0.669581
0.858629 0.434868 0.682347
0.119888 0.489099 0.622736
0.212735 0.498863 0.638492
0.308527 0.508011 0.652269
0.405219 0.516961 0.665090
0.501945 0.525837 0.677773
0.599358 0.534623 0.689995
0.736362 0.543211 0.701657
0.874303 0.551493 0.712710
0.145232 0.607942 0.660587
0.241971 0.616845 0.673132
0.339130 0.625740 0.685157
0.436864 0.634495 0.696602
0.535267 0.642991 0.707426
0.634383 0.651126 0.717601
0.753555 0.658811 0.727117
0.892719 0.665974 0.735977
0.175405 0.725970 0.691465
0.272806 0.734720 0.702055
0.370725 0.743134 0.711991
0.469189 0.751111 0.721267
0.568173 0.758567 0.729891
0.667594 0.765433 0.737890
0.767320 0.771655 0.745301
0.905872 0.777194 0.748309
0.203051 0.843697 0.715330
0.300515 0.851448 0.723723
0.398374 0.858588 0.731502
0.496531 0.865051 0.738712
0.594837 0.870787 0.745414
0.693089 0.875759 0.751683
0.791028 0.879948 0.753738
0.907699 0.883349 0.755556
0.024982 0.060982 0.402208
0.093251 0.072351 0.418066
0.163202 0.083576 0.438467
0.236419 0.094141 0.462965
0.333505 0.103724 0.490420
0.455334 0.112107 0.519800
0.583048 0.119176 0.550175
0.716771 0.124923 0.580720
0.062934 0.157568 0.463523
0.135016 0.168972 0.491793
0.211313 0.179538 0.521637
0.292590 0.189071 0.552165
0.379235 0.197479 0.582587
0.509969 0.204772 0.612218
0.645719 0.211064 0.640477
0.785742 0.216572 0.666884
0.092139 0.261039 0.554139
0.170134 0.272194 0.584348
0.253379 0.282275 0.613542
0.341774 0.291315 0.641176
0.434846 0.299446 0.666809
0.551095 0.306906 0.690100
0.689293 0.314032 0.710812
0.828477 0.321266 0.728809
0.108605 0.373604 0.641609
0.194025 0.384182 0.666423
0.284180 0.393808 0.688797
0.378106 0.402738 0.708531
0.474463 0.411332 0.725527
0.571533 0.420050 0.739790
0.706936 0.429001 0.752614
0.842416 0.437861 0.765321
0.121579 0.492507 0.705886
0.215281 0.502019 0.721882
0.311574 0.511058 0.735316
0.408241 0.519983 0.748112
0.505120 0.528836 0.760717
0.602766 0.537568 0.772920
0.720639 0.546063 0.784644
0.858785 0.554220 0.795831
0.148251 0.610958 0.743590
0.245080 0.619873 0.756059
0.342352 0.628735 0.768096
0.440204 0.637415 0.779631
0.538720 0.645799 0.790609
0.637932 0.653790 0.800993
0.737815 0.661306 0.810758
0.877001 0.668278 0.819896
0.178385 0.728973 0.774543
0.275821 0.737621 0.785309
0.373773 0.745896 0.795469
0.472255 0.753705 0.805006
0.571228 0.760968 0.813917
0.670599 0.767621 0.822214
0.770223 0.773614 0.829925
0.889253 0.778915 0.837091
0.205546 0.846393 0.799171
0.302980 0.853945 0.807857
0.400784 0.860862 0.815936
0.498849 0.867083 0.823443
0.597014 0.872562 0.830425
0.695062 0.877270 0.836945
0.792724 0.881191 0.843083
0.889676 0.884325 0.848932
