omv/luts/40_rusted_laboratory.cube
# Original OMV LUT; redistribution permitted with OMV.
TITLE "Rusted Laboratory"
LUT_3D_SIZE 32
DOMAIN_MIN 0.0 0.0 0.0
DOMAIN_MAX 1.0 1.0 1.0
0.001000 0.037000 0.035000
0.027054 0.039183 0.037183
0.053254 0.041512 0.039512
0.079535 0.043922 0.041922
0.105881 0.046397 0.044397
0.132285 0.048930 0.046930
0.158743 0.051518 0.049518
0.185252 0.054155 0.052155
0.211809 0.056842 0.054842
0.238413 0.059574 0.057574
0.265061 0.062351 0.060351
0.291752 0.065171 0.063171
0.318493 0.068031 0.066030
0.345393 0.070896 0.068887
0.372508 0.073751 0.071723
0.399860 0.076587 0.074531
0.427473 0.079398 0.077303
0.455367 0.082176 0.080035
0.483562 0.084916 0.082719
0.512075 0.087611 0.085350
0.540922 0.090256 0.087923
0.570120 0.092845 0.090434
0.599682 0.095376 0.092877
0.629619 0.097842 0.095250
0.659942 0.100240 0.097549
0.690662 0.102568 0.099770
0.721784 0.104821 0.101912
0.753316 0.106997 0.103971
0.785263 0.109095 0.105946
0.817628 0.111112 0.107837
0.850412 0.113046 0.109640
0.883617 0.114898 0.111357
0.008816 0.059009 0.042816
0.030345 0.061506 0.045313
0.056769 0.064060 0.047866
0.083246 0.066666 0.050472
0.109773 0.069321 0.053128
0.136347 0.072025 0.055831
0.162967 0.074773 0.058580
0.189631 0.077566 0.061373
0.216337 0.080402 0.064208
0.243110 0.083272 0.067072
0.270031 0.086150 0.069922
0.297133 0.089028 0.072749
0.324439 0.091897 0.075544
0.351973 0.094750 0.078303
0.379757 0.097579 0.081018
0.407811 0.100379 0.083683
0.436154 0.103142 0.086294
0.464804 0.105864 0.088845
0.493776 0.108538 0.091331
0.523087 0.111161 0.093749
0.552748 0.113726 0.096096
0.582771 0.116231 0.098366
0.613168 0.118671 0.100559
0.643945 0.121043 0.102671
0.675112 0.123344 0.104700
0.706673 0.125572 0.106645
0.738633 0.127725 0.108503
0.770995 0.129801 0.110276
0.803761 0.131798 0.111961
0.836930 0.133716 0.113559
0.870501 0.135555 0.115070
0.904471 0.137313 0.116496
0.017433 0.081821 0.051433
0.034300 0.084494 0.054107
0.060891 0.087214 0.056827
0.087527 0.089979 0.059592
0.114207 0.092787 0.062400
0.140928 0.095638 0.065251
0.167724 0.098520 0.068112
0.194638 0.101420 0.070954
0.221699 0.104329 0.073770
0.248932 0.107239 0.076553
0.276361 0.110141 0.079297
0.304010 0.113029 0.081994
0.331899 0.115896 0.084640
0.360050 0.118735 0.087229
0.388480 0.121540 0.089757
0.417207 0.124305 0.092220
0.446246 0.127025 0.094612
0.475612 0.129695 0.096931
0.505318 0.132311 0.099174
0.535374 0.134869 0.101337
0.565790 0.137365 0.103419
0.596576 0.139796 0.105418
0.627737 0.142159 0.107331
0.659280 0.144451 0.109159
0.691208 0.146671 0.110899
0.723523 0.148817 0.112553
0.756227 0.150888 0.114119
0.789319 0.152883 0.115599
0.822798 0.154801 0.116993
0.856660 0.156643 0.118303
0.890899 0.158410 0.119531
0.925511 0.160101 0.120678
0.026609 0.105190 0.060609
0.043627 0.108014 0.063433
0.065525 0.110879 0.066294
0.092319 0.113782 0.069149
0.119198 0.116711 0.071983
0.146191 0.119659 0.074788
0.173324 0.122617 0.077557
0.200624 0.125577 0.080284
0.228113 0.128531 0.082964
0.255815 0.131471 0.085590
0.283751 0.134392 0.088157
0.311940 0.137286 0.090662
0.340401 0.140148 0.093099
0.369149 0.142972 0.095465
0.398202 0.145752 0.097757
0.427572 0.148485 0.099971
0.457271 0.151165 0.102105
0.487311 0.153790 0.104157
0.517701 0.156354 0.106124
0.548448 0.158855 0.108006
0.579560 0.161291 0.109802
0.611042 0.163659 0.111511
0.642896 0.165957 0.113133
0.675125 0.168183 0.114668
0.707730 0.170337 0.116117
0.740710 0.172418 0.117480
0.774061 0.174425 0.118760
0.807781 0.176359 0.119958
0.841865 0.178219 0.121076
0.876305 0.180008 0.122117
0.911093 0.181725 0.123084
0.946219 0.183374 0.123981
0.036234 0.129061 0.070184
0.053373 0.132028 0.073008
0.070594 0.135023 0.075800
0.097602 0.138037 0.078555
0.124747 0.141061 0.081266
0.152054 0.144087 0.083926
0.179545 0.147108 0.086531
0.207244 0.150117 0.089077
0.235172 0.153107 0.091557
0.263346 0.156071 0.093969
0.291785 0.159004 0.096308
0.320506 0.161900 0.098572
0.349523 0.164754 0.100757
0.378850 0.167562 0.102861
0.408498 0.170319 0.104883
0.438478 0.173021 0.106819
0.468799 0.175665 0.108670
0.499468 0.178248 0.110435
0.530492 0.180767 0.112112
0.561875 0.183219 0.113702
0.593620 0.185604 0.115205
0.625729 0.187919 0.116623
0.658202 0.190164 0.117956
0.691037 0.192338 0.119205
0.724232 0.194441 0.120374
0.757783 0.196472 0.121464
0.791684 0.198433 0.122478
0.825927 0.200324 0.123419
0.860504 0.202147 0.124291
0.895405 0.203903 0.125098
0.930619 0.205595 0.125845
0.966131 0.207225 0.126535
0.045944 0.153501 0.079547
0.063233 0.156597 0.082240
0.080656 0.159702 0.084881
0.103077 0.162811 0.087465
0.130518 0.165914 0.089987
0.158163 0.169005 0.092443
0.186032 0.172078 0.094829
0.214144 0.175125 0.097141
0.242516 0.178142 0.099377
0.271164 0.181122 0.101533
0.300102 0.184062 0.103607
0.329344 0.186956 0.105598
0.358901 0.189799 0.107503
0.388782 0.192590 0.109323
0.418997 0.195323 0.111055
0.449553 0.197995 0.112701
0.480455 0.200606 0.114259
0.511707 0.203151 0.115731
0.543312 0.205630 0.117118
0.575271 0.208041 0.118420
0.607584 0.210384 0.119640
0.640249 0.212656 0.120780
0.673263 0.214859 0.121841
0.706621 0.216993 0.122829
0.740318 0.219058 0.123744
0.774345 0.221056 0.124592
0.808693 0.222987 0.125377
0.843352 0.224854 0.126102
0.878310 0.226658 0.126774
0.913553 0.228404 0.127397
0.949066 0.230093 0.127977
0.984833 0.231728 0.128520
0.055431 0.178582 0.088391
0.072916 0.181786 0.090889
0.090582 0.184984 0.093320
0.108449 0.188171 0.095680
0.136215 0.191338 0.097964
0.164222 0.194480 0.100171
0.192485 0.197592 0.102297
0.221020 0.200667 0.104342
0.249841 0.203702 0.106301
0.278961 0.206691 0.108176
0.308392 0.209631 0.109964
0.338141 0.212517 0.111664
0.368218 0.215347 0.113278
0.398630 0.218118 0.114805
0.429380 0.220826 0.116246
0.460474 0.223471 0.117601
0.491913 0.226050 0.118874
0.523699 0.228562 0.120064
0.555829 0.231006 0.121175
0.588303 0.233382 0.122209
0.621117 0.235689 0.123170
0.654265 0.237929 0.124061
0.687741 0.240101 0.124885
0.721536 0.242207 0.125648
0.755642 0.244248 0.126353
0.790048 0.246226 0.127006
0.824740 0.248144 0.127612
0.859705 0.250004 0.128178
0.894927 0.251810 0.128710
0.930390 0.253564 0.129213
0.966075 0.255272 0.129696
1.000000 0.257182 0.130788
0.064457 0.204353 0.096520
0.082183 0.207645 0.098777
0.100130 0.210917 0.100955
0.118315 0.214164 0.103051
0.141594 0.217380 0.105065
0.169982 0.220560 0.106994
0.198653 0.223698 0.108837
0.227621 0.226791 0.110593
0.256894 0.229833 0.112262
0.286483 0.232823 0.113844
0.316395 0.235756 0.115339
0.346637 0.238630 0.116749
0.377213 0.241442 0.118074
0.408127 0.244191 0.119316
0.439379 0.246874 0.120478
0.470972 0.249490 0.121560
0.502902 0.252040 0.122567
0.535169 0.254521 0.123502
0.567768 0.256935 0.124368
0.600692 0.259282 0.125170
0.633936 0.261562 0.125911
0.667491 0.263776 0.126596
0.701347 0.265927 0.127232
0.735492 0.268017 0.127823
0.769913 0.270047 0.128375
0.804596 0.272020 0.128896
0.839526 0.273940 0.129391
0.874684 0.275811 0.129869
0.910053 0.277636 0.130336
0.945611 0.279419 0.130801
0.981337 0.281167 0.131272
1.000000 0.284986 0.137836
0.072841 0.230843 0.103794
0.090850 0.234203 0.105777
0.109114 0.237531 0.107675
0.127647 0.240822 0.109486
0.146463 0.244071 0.111211
0.175251 0.247273 0.112848
0.204343 0.250425 0.114398
0.233748 0.253523 0.115863
0.263473 0.256564 0.117241
0.293525 0.259546 0.118536
0.323908 0.262465 0.119748
0.354623 0.265320 0.120881
0.385674 0.268110 0.121936
0.417059 0.270833 0.122916
0.448778 0.273489 0.123825
0.480826 0.276078 0.124667
0.513201 0.278598 0.125446
0.545894 0.281052 0.126166
0.578900 0.283439 0.126833
0.612209 0.285762 0.127452
0.645811 0.288021 0.128028
0.679694 0.290219 0.128568
0.713845 0.292358 0.129079
0.748248 0.294442 0.129567
0.782887 0.296473 0.130039
0.817746 0.298455 0.130505
0.852804 0.300392 0.130971
0.888041 0.302290 0.131447
0.923434 0.304151 0.131941
0.958961 0.305983 0.132462
0.994595 0.307791 0.133022
1.000000 0.313176 0.145503
0.080453 0.258065 0.110124
0.098784 0.261473 0.111817
0.117399 0.264837 0.113423
0.136308 0.268154 0.114941
0.155521 0.271419 0.116374
0.179885 0.274629 0.117722
0.209407 0.277781 0.118987
0.239254 0.280873 0.120170
0.269429 0.283901 0.121274
0.299935 0.286865 0.122301
0.330773 0.289763 0.123255
0.361943 0.292593 0.124139
0.393441 0.295356 0.124958
0.425266 0.298050 0.125715
0.457411 0.300677 0.126415
0.489871 0.303236 0.127064
0.522638 0.305728 0.127666
0.555702 0.308156 0.128229
0.589052 0.310520 0.128757
0.622676 0.312823 0.129259
0.656561 0.315067 0.129740
0.690690 0.317256 0.130209
0.725049 0.319392 0.130674
0.759617 0.321480 0.131143
0.794376 0.323524 0.131624
0.829304 0.325527 0.132127
0.864379 0.327496 0.132661
0.899576 0.329436 0.133237
0.934871 0.331352 0.133864
0.970236 0.333250 0.134554
1.000000 0.335766 0.137814
1.000000 0.341715 0.153912
0.087213 0.286011 0.115473
0.105905 0.289445 0.116875
0.124901 0.292826 0.118192
0.144211 0.296151 0.119427
0.163841 0.299415 0.120581
0.183795 0.302618 0.121656
0.213754 0.305756 0.122657
0.244044 0.308828 0.123585
0.274664 0.311833 0.124445
0.305613 0.314770 0.125240
0.336890 0.317637 0.125976
0.368489 0.320435 0.126657
0.400407 0.323165 0.127288
0.432635 0.325826 0.127875
0.465166 0.328420 0.128425
0.497990 0.330948 0.128942
0.531095 0.333412 0.129436
0.564470 0.335815 0.129912
0.598099 0.338158 0.130379
0.631966 0.340446 0.130844
0.666056 0.342680 0.131316
0.700349 0.344867 0.131804
0.734825 0.347008 0.132317
0.769462 0.349110 0.132865
0.804238 0.351177 0.133459
0.839128 0.353215 0.134107
0.874106 0.355229 0.134822
0.909144 0.357226 0.135615
0.944214 0.359212 0.136497
0.979285 0.361195 0.137480
1.000000 0.364700 0.145561
1.000000 0.370561 0.163197
0.093096 0.314654 0.119856
0.112182 0.318093 0.120981
0.131590 0.321470 0.122029
0.151324 0.324783 0.123003
0.171386 0.328030 0.123906
0.191780 0.331209 0.124742
0.217342 0.334319 0.125515
0.248073 0.337358 0.126230
0.279130 0.340327 0.126892
0.310509 0.343226 0.127507
0.342204 0.346054 0.128079
0.374208 0.348812 0.128616
0.406513 0.351502 0.129125
0.439107 0.354125 0.129611
0.471980 0.356683 0.130083
0.505118 0.359178 0.130548
0.538506 0.361613 0.131014
0.572129 0.363991 0.131491
0.605968 0.366316 0.131987
0.640005 0.368591 0.132512
0.674220 0.370821 0.133076
0.708589 0.373011 0.133688
0.743091 0.375165 0.134359
0.777699 0.377290 0.135101
0.812387 0.379391 0.135925
0.847128 0.381474 0.136843
0.881892 0.383546 0.137866
0.916648 0.385615 0.139008
0.951364 0.387688 0.140282
0.986006 0.389772 0.141701
1.000000 0.393923 0.154256
1.000000 0.399669 0.173513
0.098127 0.343946 0.123339
0.117640 0.347367 0.124218
0.137485 0.350720 0.125030
0.157662 0.354003 0.125782
0.178172 0.357213 0.126477
0.199013 0.360352 0.127121
0.220181 0.363418 0.127720
0.251348 0.366411 0.128279
0.282832 0.369332 0.128804
0.314625 0.372181 0.129304
0.346716 0.374960 0.129784
0.379097 0.377670 0.130252
0.411754 0.380314 0.130717
0.444674 0.382893 0.131186
0.477842 0.385410 0.131669
0.511241 0.387870 0.132175
0.544854 0.390274 0.132712
0.578660 0.392628 0.133292
0.612640 0.394935 0.133925
0.646769 0.397201 0.134621
0.681026 0.399430 0.135391
0.715383 0.401629 0.136248
0.749814 0.403803 0.137202
0.784292 0.405958 0.138268
0.818786 0.408102 0.139456
0.853264 0.410242 0.140781
0.887695 0.412385 0.142256
0.922044 0.414539 0.143895
0.956274 0.416713 0.145712
0.990350 0.418915 0.147723
1.000000 0.423389 0.164074
1.000000 0.428972 0.184959
0.102381 0.373821 0.126041
0.122351 0.377202 0.126717
0.142657 0.380509 0.127344
0.163296 0.383740 0.127927
0.184265 0.386896 0.128474
0.205558 0.389977 0.128989
0.227169 0.392983 0.129480
0.253929 0.395916 0.129955
0.285827 0.398775 0.130421
0.318014 0.401563 0.130887
0.350478 0.404283 0.131360
0.383204 0.406936 0.131850
0.416176 0.409525 0.132366
0.449379 0.412054 0.132918
0.482793 0.414526 0.133516
0.516399 0.416946 0.134170
0.550174 0.419318 0.134892
0.584097 0.421646 0.135692
0.618143 0.423937 0.136583
0.652286 0.426195 0.137577
0.686498 0.428427 0.138685
0.720752 0.430639 0.139922
0.755016 0.432839 0.141300
0.789260 0.435033 0.142833
0.823449 0.437229 0.144535
0.857549 0.439436 0.146421
0.891525 0.441661 0.148506
0.925388 0.443904 0.150742
0.959241 0.446144 0.152983
0.993091 0.448381 0.155220
1.000000 0.452878 0.174570
1.000000 0.458210 0.196946
0.105988 0.404192 0.128130
0.126442 0.407509 0.128664
0.147229 0.410747 0.129170
0.168345 0.413907 0.129655
0.189781 0.416990 0.130126
0.211530 0.419995 0.130591
0.233582 0.422924 0.131058
0.255924 0.425780 0.131536
0.288221 0.428564 0.132034
0.320781 0.431279 0.132562
0.353589 0.433928 0.133130
0.386627 0.436514 0.133747
0.419876 0.439041 0.134425
0.453316 0.441513 0.135174
0.486925 0.443935 0.136006
0.520679 0.446311 0.136932
0.554554 0.448647 0.137966
0.588523 0.450949 0.139120
0.622559 0.453223 0.140406
0.656633 0.455475 0.141839
0.690714 0.457712 0.143432
0.724770 0.459942 0.145200
0.758767 0.462173 0.147156
0.792671 0.464412 0.149316
0.826526 0.466655 0.151559
0.860379 0.468895 0.153798
0.894227 0.471130 0.156033
0.928070 0.473360 0.158264
0.961908 0.475585 0.160489
0.995743 0.477804 0.162705
1.000000 0.482246 0.185358
1.000000 0.487316 0.209283
0.109125 0.434951 0.129827
0.130087 0.438180 0.130295
0.151375 0.441328 0.130760
0.172980 0.444395 0.131230
0.194891 0.447383 0.131715
0.217096 0.450294 0.132223
0.239582 0.453130 0.132764
0.262333 0.455894 0.133348
0.290173 0.458588 0.133986
0.323083 0.461217 0.134688
0.356205 0.463783 0.135466
0.389519 0.466292 0.136331
0.423002 0.468747 0.137296
0.456631 0.471155 0.138372
0.490380 0.473519 0.139572
0.524222 0.475847 0.140910
0.558130 0.478144 0.142400
0.592073 0.480418 0.144055
0.626022 0.482674 0.145889
0.659942 0.484921 0.147918
0.693810 0.487165 0.150133
0.727665 0.489407 0.152374
0.761515 0.491645 0.154612
0.795362 0.493878 0.156846
0.829203 0.496107 0.159074
0.863039 0.498329 0.161297
0.896883 0.500547 0.163499
0.930791 0.502760 0.165628
0.964768 0.504967 0.167679
0.998817 0.507167 0.169653
1.000000 0.511513 0.196350
1.000000 0.516302 0.221900
0.112023 0.465973 0.131405
0.133516 0.469089 0.131897
0.155321 0.472122 0.132415
0.177424 0.475075 0.132971
0.199813 0.477948 0.133574
0.222472 0.480745 0.134234
0.245384 0.483470 0.134962
0.268531 0.486125 0.135771
0.291893 0.488714 0.136670
0.325126 0.491243 0.137674
0.358530 0.493714 0.138794
0.392081 0.496135 0.140043
0.425754 0.498509 0.141434
0.459520 0.500844 0.142982
0.493352 0.503145 0.144701
0.527220 0.505419 0.146605
0.561092 0.507673 0.148708
0.594949 0.509917 0.150949
0.628802 0.512157 0.153190
0.662652 0.514394 0.155426
0.696496 0.516625 0.157658
0.730336 0.518852 0.159884
0.764169 0.521072 0.162105
0.798030 0.523289 0.164283
0.831953 0.525504 0.166383
0.865939 0.527713 0.168407
0.899991 0.529917 0.170353
0.934109 0.532111 0.172223
0.968295 0.534295 0.174018
1.000000 0.536589 0.177926
1.000000 0.540645 0.207601
1.000000 0.545120 0.234881
0.114964 0.497110 0.133185
0.137007 0.500088 0.133807
0.159342 0.502983 0.134491
0.181952 0.505797 0.135247
0.204820 0.508535 0.136087
0.227928 0.511199 0.137023
0.251255 0.513793 0.138067
0.274780 0.516322 0.139233
0.298480 0.518791 0.140532
0.327168 0.521205 0.141979
0.360819 0.523569 0.143588
0.394567 0.525889 0.145372
0.428381 0.528173 0.147347
0.462232 0.530426 0.149523
0.496088 0.532668 0.151765
0.529940 0.534908 0.154004
0.563787 0.537142 0.156239
0.597630 0.539372 0.158469
0.631468 0.541597 0.160693
0.665303 0.543815 0.162907
0.699180 0.546033 0.165057
0.733113 0.548250 0.167129
0.767104 0.550463 0.169124
0.801155 0.552671 0.171043
0.835266 0.554871 0.172885
0.869440 0.557062 0.174652
0.903677 0.559242 0.176345
0.937979 0.561409 0.177964
0.972345 0.563560 0.179510
1.000000 0.565932 0.187338
1.000000 0.569588 0.219207
1.000000 0.573717 0.248322
0.118281 0.528196 0.135542
0.140891 0.531009 0.136416
0.163767 0.533741 0.137390
0.186888 0.536395 0.138477
0.210234 0.538974 0.139690
0.233784 0.541484 0.141041
0.257513 0.543929 0.142545
0.281397 0.546314 0.144216
0.305409 0.548646 0.146068
0.329520 0.550930 0.148116
0.363372 0.553178 0.150339
0.397226 0.555420 0.152581
0.431076 0.557657 0.154818
0.464922 0.559890 0.157051
0.498763 0.562118 0.159279
0.532598 0.564340 0.161502
0.566441 0.566559 0.163699
0.600330 0.568779 0.165820
0.634269 0.570999 0.167864
0.668261 0.573217 0.169831
0.702306 0.575430 0.171722
0.736407 0.577637 0.173537
0.770565 0.579836 0.175277
0.804781 0.582024 0.176943
0.839057 0.584200 0.178536
0.873392 0.586362 0.180055
0.907789 0.588509 0.181504
0.942246 0.590638 0.182881
0.976765 0.592748 0.184190
1.000000 0.595073 0.197046
1.000000 0.598288 0.231262
1.000000 0.602040 0.262316
0.122358 0.559043 0.138903
0.145550 0.561665 0.140165
0.168974 0.564209 0.141570
0.192609 0.566677 0.143133
0.216429 0.569076 0.144869
0.240410 0.571410 0.146790
0.264526 0.573686 0.148913
0.288704 0.575930 0.151156
0.312880 0.578170 0.153396
0.337051 0.580406 0.155632
0.366057 0.582637 0.157863
0.399896 0.584863 0.160089
0.433729 0.587083 0.162309
0.467583 0.589304 0.164480
0.501479 0.591527 0.166573
0.535420 0.593752 0.168589
0.569407 0.595975 0.170528
0.603443 0.598195 0.172392
0.637529 0.600410 0.174179
0.671667 0.602617 0.175892
0.705859 0.604815 0.177531
0.740105 0.607002 0.179097
0.774406 0.609175 0.180591
0.808764 0.611333 0.182013
0.843178 0.613475 0.183366
0.877650 0.615599 0.184649
0.912178 0.617702 0.185864
0.946764 0.619784 0.187012
0.981406 0.621844 0.188095
1.000000 0.623960 0.207136
1.000000 0.626693 0.243858
1.000000 0.630037 0.276957
0.127632 0.589445 0.143744
0.151416 0.591849 0.145546
0.175395 0.594178 0.147539
0.199536 0.596439 0.149730
0.223714 0.598681 0.151972
0.247888 0.600920 0.154210
0.272058 0.603155 0.156445
0.296223 0.605384 0.158674
0.320382 0.607608 0.160898
0.344539 0.609827 0.163108
0.368724 0.612051 0.165251
0.402623 0.614279 0.167316
0.436561 0.616509 0.169304
0.470540 0.618739 0.171215
0.504562 0.620967 0.173051
0.538630 0.623190 0.174812
0.572745 0.625407 0.176498
0.606908 0.627615 0.178110
0.641121 0.629813 0.179649
0.675385 0.631998 0.181117
0.709701 0.634169 0.182514
0.744069 0.636324 0.183841
0.778491 0.638462 0.185099
0.812965 0.640580 0.186290
0.847493 0.642677 0.187414
0.882074 0.644752 0.188473
0.916707 0.646803 0.189469
0.951393 0.648829 0.190402
0.986130 0.650828 0.191274
1.000000 0.652541 0.217686
1.000000 0.654751 0.257084
1.000000 0.657656 0.292338
0.134546 0.619191 0.150546
0.158723 0.621432 0.152787
0.182895 0.623670 0.155024
0.207064 0.625902 0.157257
0.231227 0.628130 0.159485
0.255384 0.630351 0.161706
0.279546 0.632572 0.163897
0.303735 0.634800 0.166012
0.327955 0.637034 0.168049
0.352208 0.639271 0.170009
0.376497 0.641509 0.171893
0.405663 0.643745 0.173701
0.439708 0.645978 0.175434
0.473796 0.648205 0.177093
0.507927 0.650425 0.178679
0.542104 0.652634 0.180192
0.576327 0.654832 0.181634
0.610598 0.657017 0.183005
0.644917 0.659186 0.184307
0.679285 0.661338 0.185540
0.713703 0.663472 0.186707
0.748170 0.665585 0.187807
0.782687 0.667676 0.188843
0.817254 0.669743 0.189816
0.851869 0.671786 0.190726
0.886533 0.673802 0.191577
0.921244 0.675790 0.192369
0.956001 0.677750 0.193103
0.990804 0.679679 0.193782
1.000000 0.680767 0.228769
1.000000 0.682410 0.271028
1.000000 0.684844 0.308547
0.142069 0.648649 0.158069
0.166230 0.650875 0.160294
0.190385 0.653095 0.162512
0.214551 0.655319 0.164676
0.238740 0.657553 0.166762
0.262954 0.659794 0.168771
0.287196 0.662038 0.170703
0.311469 0.664285 0.172560
0.335775 0.666531 0.174340
0.360116 0.668774 0.176046
0.384496 0.671013 0.177679
0.408914 0.673244 0.179238
0.443051 0.675467 0.180725
0.477230 0.677678 0.182141
0.511453 0.679877 0.183487
0.545720 0.682061 0.184764
0.580032 0.684228 0.185973
0.614391 0.686378 0.187115
0.648795 0.688507 0.188192
0.683246 0.690615 0.189204
0.717743 0.692699 0.190154
0.752286 0.694759 0.191043
0.786874 0.696793 0.191872
0.821507 0.698799 0.192643
0.856184 0.700776 0.193357
0.890903 0.702724 0.194016
0.925664 0.704640 0.194622
0.960465 0.706524 0.195177
0.995303 0.708374 0.195682
1.000000 0.708590 0.240448
1.000000 0.709619 0.285771
1.000000 0.711551 0.325676
0.149554 0.678070 0.165445
0.173738 0.680310 0.167503
0.197942 0.682559 0.169483
0.222168 0.684812 0.171388
0.246421 0.687068 0.173217
0.270702 0.689325 0.174970
0.295014 0.691579 0.176649
0.319358 0.693830 0.178255
0.343738 0.696074 0.179788
0.368154 0.698310 0.181249
0.392609 0.700536 0.182639
0.417103 0.702750 0.183960
0.446477 0.704949 0.185212
0.480730 0.707132 0.186396
0.515027 0.709298 0.187514
0.549366 0.711444 0.188568
0.583748 0.713569 0.189557
0.618173 0.715671 0.190485
0.652641 0.717748 0.191352
0.687152 0.719800 0.192159
0.721706 0.721825 0.192909
0.756300 0.723821 0.193603
0.790935 0.725786 0.194243
0.825609 0.727721 0.194830
0.860321 0.729623 0.195366
0.895069 0.731492 0.195854
0.929852 0.733326 0.196294
0.964666 0.735124 0.196690
0.999511 0.736886 0.197043
1.000000 0.735962 0.252781
1.000000 0.736328 0.301396
1.000000 0.737726 0.343816
0.157123 0.707592 0.172062
0.181351 0.709859 0.173864
0.205603 0.712127 0.175590
0.229882 0.714394 0.177242
0.254188 0.716657 0.178821
0.278526 0.718915 0.180328
0.302896 0.721166 0.181763
0.327300 0.723407 0.183128
0.351740 0.725636 0.184423
0.376218 0.727851 0.185651
0.400733 0.730051 0.186811
0.425287 0.732233 0.187905
0.449881 0.734397 0.188935
0.484192 0.736539 0.189902
0.518544 0.738659 0.190807
0.552936 0.740754 0.191652
0.587368 0.742825 0.192439
0.621839 0.744868 0.193168
0.656350 0.746882 0.193842
0.690899 0.748866 0.194462
0.725485 0.750820 0.195031
0.760107 0.752740 0.195549
0.794764 0.754628 0.196019
0.829453 0.756480 0.196443
0.864173 0.758297 0.196823
0.898922 0.760077 0.197161
0.933698 0.761819 0.197459
0.968498 0.763522 0.197720
1.000000 0.764748 0.204368
1.000000 0.762839 0.265813
1.000000 0.762488 0.317985
1.000000 0.763319 0.363063
0.164718 0.737218 0.177826
0.188984 0.739496 0.179378
0.213276 0.741768 0.180859
0.237597 0.744034 0.182268
0.261948 0.746290 0.183607
0.286331 0.748535 0.184878
0.310748 0.750767 0.186081
0.335200 0.752984 0.187217
0.359687 0.755184 0.188288
0.384211 0.757365 0.189294
0.408772 0.759525 0.190239
0.433370 0.761663 0.191122
0.458006 0.763777 0.191945
0.487519 0.765866 0.192711
0.521907 0.767928 0.193420
0.556332 0.769961 0.194074
0.590794 0.771964 0.194675
0.625291 0.773936 0.195225
0.659822 0.775876 0.195726
0.694386 0.777782 0.196179
0.728981 0.779652 0.196587
0.763607 0.781487 0.196951
0.798259 0.783285 0.197274
0.832938 0.785045 0.197558
0.867640 0.786765 0.197805
0.902362 0.788446 0.198018
0.937102 0.790087 0.198198
0.971857 0.791685 0.198348
1.000000 0.792129 0.212718
1.000000 0.789179 0.279582
1.000000 0.788049 0.335622
1.000000 0.788276 0.383520
0.172255 0.766914 0.182764
0.196550 0.769186 0.184078
0.220874 0.771448 0.185324
0.245228 0.773697 0.186502
0.269613 0.775932 0.187614
0.294031 0.778150 0.188662
0.318483 0.780349 0.189645
0.342968 0.782528 0.190567
0.367489 0.784684 0.191428
0.392045 0.786817 0.192231
0.416636 0.788925 0.192975
0.441263 0.791006 0.193664
0.465924 0.793058 0.194299
0.490620 0.795080 0.194881
0.525026 0.797071 0.195413
0.559465 0.799029 0.195896
0.593936 0.800954 0.196333
0.628437 0.802843 0.196724
0.662966 0.804696 0.197073
0.697523 0.806511 0.197382
0.732103 0.808289 0.197652
0.766707 0.810027 0.197887
0.801331 0.811724 0.198087
0.835972 0.813380 0.198256
0.870627 0.814995 0.198396
0.905295 0.816567 0.198509
0.939970 0.818095 0.198599
0.974651 0.819579 0.198667
1.000000 0.819060 0.221122
1.000000 0.814942 0.294116
1.000000 0.812962 0.354398
1.000000 0.812547 0.405304
0.179655 0.796643 0.186914
0.203972 0.798895 0.188003
0.228318 0.801131 0.189027
0.252696 0.803349 0.189988
0.277104 0.805547 0.190888
0.301546 0.807722 0.191727
0.326020 0.809875 0.192508
0.350527 0.812001 0.193232
0.375067 0.814101 0.193901
0.399640 0.816172 0.194517
0.424246 0.818214 0.195081
0.448884 0.820224 0.195594
0.473553 0.822201 0.196060
0.498252 0.824144 0.196480
0.527819 0.826051 0.196856
0.562252 0.827923 0.197190
0.596712 0.829756 0.197485
0.631195 0.831550 0.197742
0.665700 0.833305 0.197963
