omv/luts/41_pripyat_memory.cube
# Original OMV LUT; redistribution permitted with OMV.
TITLE "Pripyat Memory"
LUT_3D_SIZE 5
DOMAIN_MIN 0.000000 0.000000 0.000000
DOMAIN_MAX 0.903226 0.903226 0.903226
0.034000 0.048000 0.039000
0.169036 0.074649 0.065649
0.305891 0.102681 0.093624
0.450542 0.130187 0.120363
0.608395 0.155436 0.144139
0.126992 0.202784 0.129409
0.250926 0.237128 0.151921
0.406097 0.269486 0.170843
0.573272 0.294652 0.186578
0.750896 0.317180 0.200255
0.202523 0.379587 0.191713
0.320665 0.412281 0.205062
0.488879 0.441953 0.219057
0.661533 0.469502 0.236533
0.833032 0.496322 0.258548
0.263396 0.563461 0.244396
0.393999 0.590196 0.266538
0.545226 0.617030 0.287271
0.717582 0.643740 0.306229
0.890854 0.669903 0.323522
0.336893 0.738485 0.312710
0.467451 0.765067 0.329437
0.598468 0.790706 0.344764
0.770379 0.815072 0.358970
0.942076 0.837907 0.372409
0.042795 0.056795 0.097473
0.158132 0.084067 0.133777
0.296372 0.112192 0.171465
0.443944 0.139072 0.200815
0.604929 0.163326 0.229021
0.136054 0.217580 0.202263
0.240993 0.251372 0.238751
0.397834 0.278346 0.263624
0.566412 0.302576 0.285721
0.744555 0.324344 0.305573
0.208501 0.394038 0.293158
0.328197 0.425649 0.312466
0.476886 0.454463 0.331417
0.648979 0.481624 0.352237
0.820260 0.503836 0.374405
0.270970 0.575550 0.360357
0.401553 0.602276 0.382230
0.532588 0.629120 0.402689
0.705064 0.655687 0.421627
0.878389 0.681582 0.439097
0.343959 0.750577 0.428153
0.474431 0.776880 0.445115
0.605307 0.802120 0.460797
0.756641 0.825992 0.475422
0.927915 0.848262 0.489288
0.051891 0.065891 0.156246
0.147361 0.093618 0.193006
0.287477 0.121548 0.232789
0.437835 0.147648 0.275277
0.601710 0.170839 0.317949
0.144834 0.232239 0.269547
0.251143 0.260828 0.311806
0.389266 0.286883 0.352001
0.559067 0.310209 0.389341
0.737441 0.331333 0.414728
0.214306 0.408111 0.380838
0.335553 0.438688 0.414318
0.464604 0.466776 0.445949
0.636232 0.489200 0.468200
0.807628 0.511352 0.490153
0.278506 0.587603 0.467248
0.409119 0.614378 0.497881
0.540260 0.641177 0.518245
0.692498 0.667557 0.537294
0.865829 0.693146 0.555025
0.350917 0.762590 0.543900
0.481283 0.788570 0.561165
0.611988 0.813376 0.577222
0.742707 0.836726 0.592241
0.913507 0.858412 0.606462
0.061167 0.075167 0.215200
0.157227 0.103210 0.252848
0.279068 0.130686 0.296531
0.432075 0.155883 0.344352
0.598592 0.177970 0.393199
0.153299 0.242190 0.340804
0.261017 0.269985 0.389398
0.380349 0.295099 0.435957
0.551192 0.317582 0.479093
0.729502 0.338207 0.518142
0.220001 0.421813 0.472442
0.342792 0.451434 0.509980
0.472409 0.474441 0.543687
0.623449 0.496739 0.575094
0.795117 0.518855 0.605892
0.286017 0.599646 0.565050
0.416681 0.626483 0.595524
0.547900 0.653185 0.624978
0.679864 0.679335 0.653277
0.853153 0.700067 0.671329
0.357756 0.774507 0.641926
0.487998 0.800124 0.668567
0.618503 0.824464 0.694029
0.748889 0.847268 0.709390
0.898842 0.868354 0.723867
0.070593 0.084593 0.274303
0.167486 0.112715 0.314400
0.271018 0.139556 0.363436
0.426531 0.163752 0.417556
0.595437 0.184726 0.473057
0.161427 0.251903 0.416421
0.270590 0.278827 0.471649
0.391377 0.303006 0.524383
0.542750 0.324735 0.572637
0.720697 0.345032 0.615150
0.225660 0.435162 0.567470
0.349983 0.459416 0.607720
0.480044 0.482044 0.641689
0.610671 0.504252 0.672913
0.782699 0.526330 0.703651
0.293520 0.611728 0.662822
0.424220 0.638571 0.693311
0.555492 0.665129 0.722949
0.687466 0.686492 0.751546
0.840344 0.706853 0.778985
0.364471 0.786313 0.740320
0.494568 0.811530 0.767324
0.624844 0.835373 0.793128
0.754856 0.857611 0.817788
0.883911 0.878085 0.841431
