omv/luts/41_pripyat_memory.cube
# Original OMV LUT; redistribution permitted with OMV.
TITLE "Pripyat Memory"
LUT_3D_SIZE 32
DOMAIN_MIN 0.0 0.0 0.0
DOMAIN_MAX 1.0 1.0 1.0
0.034000 0.048000 0.039000
0.053121 0.051637 0.042637
0.072340 0.055372 0.046372
0.091610 0.059158 0.050158
0.110919 0.062983 0.053983
0.130261 0.066842 0.057842
0.149635 0.070731 0.061731
0.169036 0.074649 0.065649
0.188465 0.078594 0.069594
0.207918 0.082563 0.073563
0.227396 0.086557 0.077557
0.246896 0.090574 0.081574
0.266425 0.094611 0.085610
0.286076 0.098650 0.089632
0.305891 0.102681 0.093624
0.325889 0.106696 0.097583
0.346085 0.110691 0.101502
0.366496 0.114661 0.105378
0.387134 0.118599 0.109205
0.408013 0.122503 0.112981
0.429146 0.126367 0.116701
0.450542 0.130187 0.120363
0.472213 0.133960 0.123963
0.494165 0.137682 0.127498
0.516408 0.141350 0.130967
0.538948 0.144962 0.134367
0.561789 0.148515 0.137697
0.584937 0.152007 0.140955
0.608395 0.155436 0.144139
0.632164 0.158800 0.147250
0.656246 0.162099 0.150287
0.680640 0.165331 0.153249
0.046546 0.068934 0.051546
0.062965 0.073416 0.055384
0.082319 0.077932 0.059255
0.101703 0.081832 0.063155
0.121115 0.085760 0.067082
0.140552 0.089714 0.071036
0.160015 0.093692 0.075015
0.179501 0.097694 0.079017
0.199009 0.101719 0.083041
0.218561 0.105762 0.087077
0.238229 0.109811 0.091089
0.258036 0.113858 0.095070
0.278000 0.117898 0.099015
0.298139 0.121924 0.102918
0.318467 0.125931 0.106777
0.339001 0.129914 0.110586
0.359754 0.133868 0.114342
0.380739 0.137789 0.118041
0.401967 0.141672 0.121681
0.423449 0.145513 0.125258
0.445195 0.149308 0.128769
0.467213 0.153055 0.132213
0.489510 0.156751 0.135588
0.512092 0.160391 0.138891
0.534965 0.163976 0.142123
0.558133 0.167501 0.145281
0.581598 0.170966 0.148365
0.605363 0.174369 0.151374
0.629427 0.177708 0.154309
0.653792 0.180984 0.157170
0.678454 0.184194 0.159957
0.703412 0.187340 0.162671
0.059581 0.090356 0.064581
0.073196 0.094938 0.068519
0.092643 0.099546 0.072482
0.112114 0.104179 0.076469
0.131608 0.108834 0.080479
0.151125 0.112867 0.084512
0.170695 0.116919 0.088541
0.190360 0.120983 0.092542
0.210137 0.125054 0.096510
0.230048 0.129123 0.100441
0.250109 0.133186 0.104329
0.270337 0.137237 0.108170
0.290748 0.141270 0.111960
0.311358 0.145280 0.115696
0.332178 0.149262 0.119374
0.353222 0.153211 0.122990
0.374501 0.157125 0.126544
0.396026 0.160998 0.130031
0.417805 0.164827 0.133450
0.439847 0.168610 0.136799
0.462158 0.172342 0.140076
0.484745 0.176022 0.143281
0.507612 0.179647 0.146412
0.530764 0.183215 0.149469
0.554201 0.186725 0.152451
0.577927 0.190174 0.155359
0.601941 0.193562 0.158193
0.626243 0.196889 0.160954
0.650831 0.200152 0.163641
0.675702 0.203354 0.166258
0.700852 0.206492 0.168804
0.726275 0.209569 0.171283
0.072926 0.112088 0.077926
0.086622 0.116751 0.081945
0.103245 0.121438 0.085981
0.122816 0.126150 0.090001
0.142455 0.130881 0.093991
0.162183 0.135626 0.097946
0.182020 0.140376 0.101861
0.201985 0.144482 0.105733
0.222095 0.148581 0.109556
0.242366 0.152668 0.113327
0.262815 0.156739 0.117042
0.283455 0.160787 0.120697
0.304300 0.164808 0.124292
0.325361 0.168798 0.127821
0.346651 0.172753 0.131283
0.368178 0.176669 0.134677
0.389952 0.180542 0.138000
0.411980 0.184369 0.141251
0.434270 0.188148 0.144429
0.456827 0.191875 0.147533
0.479654 0.195550 0.150563
0.502756 0.199168 0.153519
0.526135 0.202730 0.156400
0.549792 0.206233 0.159207
0.573727 0.209677 0.161940
0.597939 0.213060 0.164602
0.622426 0.216383 0.167193
0.647184 0.219646 0.169715
0.672210 0.222847 0.172169
0.697497 0.225989 0.174559
0.723040 0.229071 0.176886
0.748830 0.232095 0.179153
0.086524 0.134103 0.091457
0.100311 0.138863 0.095435
0.114163 0.143642 0.099376
0.133907 0.148434 0.103276
0.153757 0.153232 0.107130
0.173731 0.158030 0.110935
0.193845 0.162823 0.114686
0.214117 0.167604 0.118380
0.234561 0.172368 0.122013
0.255191 0.176465 0.125584
0.276021 0.180536 0.129089
0.297062 0.184576 0.132527
0.318324 0.188582 0.135895
0.339818 0.192549 0.139192
0.361553 0.196475 0.142417
0.383534 0.200355 0.145568
0.405770 0.204188 0.148645
0.428265 0.207971 0.151648
0.451023 0.211701 0.154576
0.474047 0.215377 0.157430
0.497339 0.218997 0.160210
0.520901 0.222560 0.162918
0.544731 0.226065 0.165553
0.568829 0.229511 0.168119
0.593192 0.232898 0.170616
0.617816 0.236225 0.173046
0.642697 0.239494 0.175413
0.667829 0.242704 0.177718
0.693205 0.245856 0.179964
0.718817 0.248952 0.182156
0.744656 0.251993 0.184295
0.770712 0.254980 0.186387
0.100214 0.156525 0.104685
0.114125 0.161377 0.108521
0.128138 0.166234 0.112307
0.145176 0.171090 0.116037
0.165254 0.175941 0.119710
0.185487 0.180781 0.123321
0.205889 0.185603 0.126868
0.226473 0.190404 0.130349
0.247252 0.195179 0.133761
0.268237 0.199923 0.137104
0.289440 0.204633 0.140375
0.310869 0.208660 0.143573
0.332532 0.212645 0.146697
0.354438 0.216586 0.149747
0.376591 0.220480 0.152722
0.398996 0.224324 0.155624
0.421659 0.228116 0.158451
0.444580 0.231855 0.161204
0.467762 0.235539 0.163886
0.491206 0.239166 0.166495
0.514910 0.242737 0.169036
0.538874 0.246249 0.171508
0.563093 0.249703 0.173915
0.587565 0.253099 0.176259
0.612285 0.256438 0.178542
0.637246 0.259719 0.180768
0.662441 0.262943 0.182940
0.687861 0.266112 0.185062
0.713498 0.269228 0.187138
0.739341 0.272291 0.189171
0.765379 0.275305 0.191167
0.791597 0.278272 0.193131
0.113768 0.179410 0.117381
0.127832 0.184335 0.121031
0.142032 0.189254 0.124620
0.156384 0.194160 0.128143
0.176709 0.199050 0.131599
0.197213 0.203918 0.134986
0.217910 0.208759 0.138303
0.238810 0.213570 0.141547
0.259923 0.218346 0.144719
0.281259 0.223084 0.147816
0.302825 0.227781 0.150839
0.324628 0.232433 0.153787
0.346673 0.237038 0.156661
0.368967 0.240949 0.159462
0.391511 0.244808 0.162189
0.414308 0.248615 0.164844
0.437360 0.252366 0.167428
0.460667 0.256061 0.169944
0.484227 0.259700 0.172392
0.508040 0.263282 0.174776
0.532101 0.266806 0.177097
0.556407 0.270273 0.179359
0.580952 0.273682 0.181565
0.605730 0.277035 0.183719
0.630733 0.280332 0.185823
0.655953 0.283575 0.187883
0.681379 0.286766 0.189902
0.707002 0.289905 0.191886
0.732809 0.292996 0.193839
0.758787 0.296041 0.195766
0.784922 0.299042 0.197674
0.811199 0.302002 0.199567
0.126992 0.202784 0.129409
0.141238 0.207766 0.132841
0.155650 0.212731 0.136202
0.170239 0.217672 0.139493
0.187923 0.222587 0.142710
0.208710 0.227470 0.145855
0.229708 0.232318 0.148925
0.250926 0.237128 0.151921
0.272371 0.241896 0.154842
0.294050 0.246620 0.157689
0.315967 0.251296 0.160463
0.338128 0.255922 0.163164
0.360535 0.260497 0.165793
0.383191 0.265019 0.168352
0.406097 0.269486 0.170843
0.429252 0.273252 0.173267
0.452655 0.276961 0.175628
0.476304 0.280614 0.177927
0.500195 0.284209 0.180169
0.524324 0.287746 0.182355
0.548686 0.291227 0.184490
0.573272 0.294652 0.186578
0.598077 0.298022 0.188622
0.623090 0.301339 0.190628
0.648302 0.304603 0.192600
0.673701 0.307816 0.194543
0.699276 0.310982 0.196463
0.725012 0.314103 0.198364
0.750896 0.317180 0.200255
0.776911 0.320218 0.202139
0.803041 0.323220 0.204025
0.829269 0.326189 0.205919
0.139735 0.226664 0.140672
0.154191 0.231686 0.143864
0.168837 0.236679 0.146981
0.183682 0.241640 0.150024
0.198737 0.246565 0.152993
0.219816 0.251451 0.155887
0.241121 0.256295 0.158708
0.262657 0.261093 0.161455
0.284429 0.265843 0.164129
0.306442 0.270543 0.166733
0.328698 0.275190 0.169266
0.351199 0.279784 0.171733
0.373945 0.284323 0.174134
0.396937 0.288806 0.176472
0.420173 0.293232 0.178750
0.443649 0.297601 0.180971
0.467363 0.301912 0.183138
0.491309 0.305520 0.185255
0.515481 0.309072 0.187327
0.539873 0.312568 0.189357
0.564476 0.316009 0.191350
0.589280 0.319396 0.193310
0.614276 0.322731 0.195244
0.639453 0.326017 0.197157
0.664796 0.329254 0.199054
0.690294 0.332447 0.200941
0.715930 0.335597 0.202825
0.741689 0.338708 0.204713
0.767554 0.341784 0.206612
0.793508 0.344827 0.208529
0.819529 0.347843 0.210471
0.845600 0.350836 0.212446
0.151885 0.251051 0.151114
0.166576 0.256094 0.154055
0.181476 0.261099 0.156923
0.196594 0.266064 0.159716
0.211936 0.270986 0.162437
0.230412 0.275861 0.165085
0.252025 0.280687 0.167663
0.273878 0.285461 0.170172
0.295971 0.290183 0.172614
0.318308 0.294850 0.174992
0.340887 0.299462 0.177308
0.363708 0.304016 0.179565
0.386769 0.308513 0.181766
0.410068 0.312952 0.183915
0.433600 0.317333 0.186015
0.457360 0.321656 0.188071
0.481342 0.325922 0.190086
0.505538 0.330131 0.192067
0.529940 0.334285 0.194017
0.554538 0.337740 0.195943
0.579322 0.341143 0.197849
0.604279 0.344496 0.199742
0.629397 0.347801 0.201627
0.654662 0.351061 0.203512
0.680059 0.354278 0.205403
0.705571 0.357457 0.207307
0.731181 0.360600 0.209232
0.756871 0.363712 0.211186
0.782621 0.366796 0.213176
0.808410 0.369857 0.215210
0.834217 0.372899 0.217298
0.860019 0.375929 0.219448
0.163369 0.275930 0.160715
0.178318 0.280976 0.163409
0.193492 0.285977 0.166032
0.208897 0.290930 0.168584
0.224536 0.295833 0.171069
0.240413 0.300683 0.173487
0.262337 0.305478 0.175842
0.284503 0.310218 0.178136
0.306909 0.314901 0.180372
0.329556 0.319526 0.182554
0.352441 0.324092 0.184685
0.375561 0.328599 0.186768
0.398911 0.333047 0.188809
0.422486 0.337437 0.190811
0.446280 0.341768 0.192780
0.470283 0.346043 0.194721
0.494489 0.350261 0.196639
0.518886 0.354424 0.198539
0.543464 0.358535 0.200428
0.568211 0.362596 0.202313
0.593113 0.366608 0.204199
0.618156 0.369929 0.206094
0.643324 0.373207 0.208005
0.668602 0.376447 0.209940
0.693971 0.379650 0.211905
0.719412 0.382822 0.213911
0.744906 0.385967 0.215964
0.770432 0.389088 0.218073
0.795968 0.392190 0.220248
0.821490 0.395280 0.222499
0.846975 0.398362 0.224833
0.872396 0.401441 0.227263
0.174150 0.301273 0.169497
0.189380 0.306304 0.171957
0.204846 0.311283 0.174352
0.220550 0.316208 0.176684
0.236494 0.321076 0.178957
0.252680 0.325887 0.181173
0.272010 0.330639 0.183335
0.294483 0.335332 0.185448
0.317193 0.339965 0.187516
0.340137 0.344537 0.189542
0.363309 0.349049 0.191532
0.386704 0.353501 0.193490
0.410314 0.357894 0.195421
0.434133 0.362228 0.197332
0.458150 0.366505 0.199228
0.482356 0.370727 0.201115
0.506739 0.374894 0.202999
0.531287 0.379010 0.204888
0.555986 0.383077 0.206788
0.580821 0.387098 0.208706
0.605776 0.391075 0.210651
0.630836 0.395013 0.212630
0.655981 0.398913 0.214652
0.681193 0.402137 0.216725
0.706452 0.405332 0.218857
0.731736 0.408504 0.221058
0.757022 0.411656 0.223338
0.782288 0.414796 0.225706
0.807509 0.417927 0.228173
0.832659 0.421055 0.230747
0.857711 0.424188 0.233441
0.882637 0.427330 0.236266
0.184235 0.327038 0.177519
0.199765 0.332035 0.179770
0.215537 0.336974 0.181966
0.231552 0.341853 0.184110
0.247808 0.346672 0.186206
0.264304 0.351429 0.188258
0.281038 0.356124 0.190270
0.303811 0.360757 0.192248
0.326812 0.365328 0.194196
0.350036 0.369837 0.196119
0.373474 0.374285 0.198024
0.397118 0.378674 0.199916
0.420960 0.383003 0.201801
0.444988 0.387276 0.203686
0.469190 0.391493 0.205578
0.493554 0.395658 0.207484
0.518066 0.399772 0.209411
0.542712 0.403838 0.211367
0.567474 0.407860 0.213361
0.592336 0.411841 0.215400
0.617279 0.415784 0.217494
0.642284 0.419694 0.219650
0.667331 0.423575 0.221879
0.692397 0.427432 0.224190
0.717461 0.431269 0.226592
0.742498 0.434446 0.229097
0.767483 0.437615 0.231714
0.792391 0.440780 0.234454
0.817194 0.443949 0.237328
0.841864 0.447127 0.240348
0.866384 0.450319 0.243513
0.890866 0.453511 0.246705
0.193666 0.353167 0.184879
0.209514 0.358111 0.186958
0.225606 0.362991 0.188995
0.241940 0.367808 0.190994
0.258513 0.372560 0.192960
0.275319 0.377248 0.194899
0.292355 0.381872 0.196814
0.312516 0.386432 0.198714
0.335794 0.390929 0.200602
0.359280 0.395364 0.202487
0.382961 0.399739 0.204374
0.406828 0.404055 0.206270
0.430868 0.408313 0.208182
0.455068 0.412517 0.210119
0.479414 0.416669 0.212088
0.503892 0.420772 0.214098
0.528483 0.424828 0.216156
0.553171 0.428842 0.218271
0.577938 0.432817 0.220453
0.602762 0.436758 0.222710
0.627625 0.440668 0.225053
0.652503 0.444552 0.227492
0.677373 0.448415 0.230036
0.702213 0.452263 0.232697
0.726995 0.456101 0.235484
0.751694 0.459935 0.238410
0.776282 0.463771 0.241486
0.800772 0.466966 0.244676
0.825252 0.470155 0.247865
0.849726 0.473339 0.251049
0.874193 0.476516 0.254226
0.898654 0.479686 0.257396
0.202523 0.379587 0.191713
0.218706 0.384457 0.193669
0.235130 0.389261 0.195598
0.251790 0.393997 0.197508
0.268681 0.398667 0.199402
0.285796 0.403270 0.201289
0.303127 0.407808 0.203173
0.320665 0.412281 0.205062
0.344206 0.416692 0.206964
0.367932 0.421042 0.208884
0.391832 0.425332 0.210832
0.415892 0.429566 0.212815
0.440097 0.433745 0.214841
0.464431 0.437873 0.216919
0.488879 0.441953 0.219057
0.513421 0.445989 0.221265
0.538040 0.449983 0.223553
0.562714 0.453942 0.225930
0.587424 0.457868 0.228405
0.612146 0.461767 0.230991
0.636857 0.465643 0.233696
0.661533 0.469502 0.236533
0.686148 0.473350 0.239512
0.710677 0.477193 0.242644
0.735160 0.481031 0.245838
0.759638 0.484864 0.249025
0.784109 0.488690 0.252206
0.808574 0.492510 0.255381
0.833032 0.496322 0.258548
0.857484 0.499483 0.261707
0.881957 0.502643 0.264837
0.906462 0.505805 0.267930
0.210928 0.406211 0.198199
0.227460 0.410988 0.200090
0.244225 0.415695 0.201974
0.261217 0.420332 0.203860
0.278427 0.424902 0.205753
0.295846 0.429404 0.207660
0.313464 0.433841 0.209590
0.331268 0.438214 0.211550
0.352151 0.442525 0.213547
0.376097 0.446777 0.215591
0.400188 0.450973 0.217690
0.424409 0.455114 0.219852
0.448743 0.459205 0.222088
0.473172 0.463250 0.224407
0.497675 0.467251 0.226819
0.522234 0.471214 0.229333
0.546825 0.475142 0.231961
0.571428 0.479041 0.234713
0.596017 0.482916 0.237600
0.620569 0.486771 0.240634
0.645066 0.490614 0.243808
0.669547 0.494450 0.246999
0.694022 0.498280 0.250184
0.718491 0.502104 0.253362
0.742954 0.505922 0.256534
0.767409 0.509732 0.259699
0.791864 0.513537 0.262851
0.816345 0.517344 0.265967
0.840855 0.521153 0.269047
0.865394 0.524963 0.272089
0.889964 0.528772 0.275095
0.914565 0.531934 0.278063
0.219039 0.432936 0.204548
0.235932 0.437598 0.206445
0.253046 0.442189 0.208360
0.270373 0.446710 0.210299
0.287901 0.451162 0.212272
0.305618 0.455546 0.214285
0.323512 0.459867 0.216348
0.341569 0.464125 0.218469
0.359772 0.468323 0.220657
0.383914 0.472465 0.222923
0.408168 0.476553 0.225274
0.432518 0.480593 0.227722
0.456943 0.484586 0.230276
0.481423 0.488539 0.232948
0.505936 0.492454 0.235748
0.530459 0.496338 0.238687
0.554968 0.500194 0.241778
0.579454 0.504034 0.244970
0.603933 0.507869 0.248159
0.628406 0.511697 0.251342
0.652873 0.515518 0.254518
0.677333 0.519333 0.257688
0.701785 0.523140 0.260850
0.726247 0.526946 0.263990
0.750733 0.530756 0.267093
0.775245 0.534568 0.270159
0.799784 0.538381 0.273188
0.824350 0.542194 0.276180
0.848945 0.546005 0.279135
0.873568 0.549813 0.282053
0.898219 0.553616 0.284934
0.922900 0.557415 0.287779
0.227052 0.459645 0.211013
0.244317 0.464172 0.213000
0.261786 0.468626 0.215030
0.279449 0.473010 0.217113
0.297291 0.477326 0.219258
0.315299 0.481577 0.221473
0.333458 0.485764 0.223768
0.351749 0.489892 0.226153
0.370156 0.493963 0.228639
0.391563 0.497982 0.231235
0.415951 0.501952 0.233952
0.440394 0.505878 0.236801
0.464871 0.509764 0.239794
0.489358 0.513616 0.242939
0.513841 0.517454 0.246132
0.538318 0.521286 0.249318
0.562789 0.525112 0.252499
0.587253 0.528931 0.255673
0.611711 0.532743 0.258840
0.636163 0.536549 0.261997
0.660630 0.540357 0.265124
0.685119 0.544170 0.268213
0.709631 0.547985 0.271266
0.734168 0.551802 0.274281
0.758729 0.555619 0.277260
0.783315 0.559434 0.280201
0.807927 0.563247 0.283106
0.832566 0.567056 0.285974
0.857231 0.570860 0.288806
0.881923 0.574658 0.291601
0.906641 0.578448 0.294361
0.931387 0.582230 0.297085
0.235204 0.486206 0.217886
0.252848 0.490575 0.220055
0.270677 0.494872 0.222299
0.288675 0.499100 0.224626
0.306827 0.503262 0.227046
0.325116 0.507360 0.229571
0.343524 0.511398 0.232210
0.362031 0.515380 0.234974
0.380619 0.519310 0.237874
0.399264 0.523193 0.240922
0.423747 0.527037 0.244102
0.448228 0.530873 0.247292
0.472703 0.534703 0.250477
0.497171 0.538526 0.253655
0.521633 0.542343 0.256827
0.546088 0.546152 0.259991
0.570542 0.549958 0.263140
0.595012 0.553769 0.266253
0.619503 0.557585 0.269329
0.644013 0.561405 0.272368
0.668545 0.565226 0.275370
0.693098 0.569047 0.278335
0.717674 0.572867 0.281263
0.742274 0.576686 0.284154
0.766897 0.580500 0.287009
0.791545 0.584310 0.289828
0.816217 0.588114 0.292610
0.840914 0.591911 0.295357
0.865636 0.595699 0.298068
0.890382 0.599478 0.300743
0.915154 0.603247 0.303384
0.939950 0.607004 0.305990
0.243769 0.512470 0.225495
0.261799 0.516660 0.227953
0.279988 0.520779 0.230518
0.298319 0.524831 0.233201
0.316774 0.528818 0.236013
0.335332 0.532746 0.238966
0.353973 0.536618 0.242070
0.372651 0.540458 0.245264
0.391324 0.544291 0.248453
0.409990 0.548119 0.251635
0.431552 0.551940 0.254811
0.456012 0.555754 0.257980
0.480464 0.559561 0.261141
0.504921 0.563369 0.264278
0.529394 0.567184 0.267377
0.553882 0.571004 0.270440
0.578389 0.574827 0.273465
0.602913 0.578653 0.276454
0.627457 0.582479 0.279405
0.652022 0.586305 0.282320
0.676607 0.590129 0.285198
0.701213 0.593950 0.288040
0.725842 0.597766 0.290845
0.750492 0.601577 0.293614
0.775166 0.605380 0.296348
0.799862 0.609175 0.299046
0.824581 0.612962 0.301709
0.849322 0.616737 0.304337
0.874087 0.620502 0.306931
0.898874 0.624253 0.309491
0.923682 0.627991 0.312017
0.948513 0.631715 0.314510
0.253059 0.538276 0.234209
0.271480 0.542264 0.237071
0.290030 0.546183 0.240078
0.308685 0.550040 0.243234
0.327361 0.553877 0.246426
0.346031 0.557709 0.249612
0.364695 0.561534 0.252792
0.383352 0.565352 0.255965
0.402002 0.569164 0.259131
0.420647 0.572969 0.262287
0.439300 0.576781 0.265410
0.463772 0.580600 0.268496
0.488257 0.584424 0.271545
0.512757 0.588253 0.274557
0.537273 0.592083 0.277532
0.561805 0.595915 0.280471
0.586356 0.599747 0.283372
0.610924 0.603577 0.286237
0.635512 0.607404 0.289065
0.660120 0.611227 0.291857
0.684748 0.615045 0.294614
0.709396 0.618855 0.297334
0.734065 0.622658 0.300020
0.758755 0.626452 0.302670
0.783465 0.630235 0.305285
0.808197 0.634007 0.307867
0.832949 0.637766 0.310414
0.857722 0.641513 0.312928
0.882515 0.645244 0.315409
0.907327 0.648960 0.317858
0.932158 0.652659 0.320275
0.957008 0.656342 0.322661
0.263396 0.563461 0.244396
0.282070 0.567296 0.247586
0.300738 0.571125 0.250770
0.319400 0.574948 0.253948
0.338054 0.578764 0.257119
0.356702 0.582573 0.260282
0.375347 0.586380 0.263428
0.393999 0.590196 0.266538
0.412662 0.594019 0.269611
0.431335 0.597848 0.272646
0.450020 0.601682 0.275645
0.471622 0.605518 0.278606
0.496141 0.609356 0.281531
0.520676 0.613194 0.284419
0.545226 0.617030 0.287271
0.569794 0.620864 0.290086
0.594379 0.624694 0.292865
0.618982 0.628519 0.295608
0.643604 0.632337 0.298316
0.668244 0.636147 0.300988
0.692903 0.639949 0.303626
0.717582 0.643740 0.306229
0.742279 0.647520 0.308798
0.766996 0.651287 0.311333
0.791732 0.655041 0.313835
0.816486 0.658781 0.316305
0.841258 0.662505 0.318742
0.866047 0.666213 0.321147
0.890854 0.669903 0.323522
0.915677 0.673575 0.325866
0.940515 0.677227 0.328180
0.965368 0.680859 0.330465
0.274103 0.588361 0.255103
0.292755 0.592174 0.258271
0.311400 0.595981 0.261432
0.330045 0.599792 0.264565
0.348696 0.603612 0.267661
0.367353 0.607441 0.270720
0.386018 0.611275 0.273742
0.404693 0.615114 0.276727
0.423379 0.618957 0.279675
0.442076 0.622801 0.282587
0.460787 0.626645 0.285461
0.479511 0.630489 0.288300
0.504057 0.634330 0.291102
0.528618 0.638167 0.293868
0.553195 0.641999 0.296598
0.577788 0.645825 0.299293
0.602399 0.649643 0.301953
0.627026 0.653452 0.304578
0.651671 0.657252 0.307168
0.676334 0.661040 0.309725
0.701013 0.664816 0.312248
0.725711 0.668578 0.314738
0.750425 0.672326 0.317196
0.775156 0.676058 0.319621
0.799903 0.679774 0.322015
0.824666 0.683472 0.324378
0.849445 0.687152 0.326712
0.874237 0.690813 0.329015
0.899043 0.694453 0.331290
0.923862 0.698072 0.333537
0.948692 0.701669 0.335756
0.973533 0.705243 0.337949
0.284742 0.613206 0.265696
0.303387 0.617032 0.268779
0.322037 0.620865 0.271825
0.340693 0.624706 0.274833
0.359356 0.628551 0.277805
0.378027 0.632400 0.280740
0.396707 0.636251 0.283637
0.415398 0.640102 0.286499
0.434101 0.643953 0.289324
0.452817 0.647801 0.292113
0.471546 0.651646 0.294866
0.490288 0.655486 0.297583
0.511949 0.659320 0.300265
0.536528 0.663146 0.302912
0.561123 0.666964 0.305525
0.585733 0.670771 0.308103
0.610359 0.674568 0.310647
0.635001 0.678352 0.313158
0.659659 0.682123 0.315636
0.684332 0.685879 0.318082
0.709021 0.689620 0.320496
0.733726 0.693344 0.322879
0.758444 0.697050 0.325231
0.783177 0.700738 0.327554
0.807923 0.704407 0.329847
0.832682 0.708055 0.332111
0.857453 0.711681 0.334348
0.882234 0.715286 0.336557
0.907025 0.718868 0.338741
0.931825 0.722426 0.340898
0.956631 0.725959 0.343031
0.981443 0.729467 0.345141
0.295358 0.638140 0.275919
0.314006 0.641992 0.278877
0.332661 0.645848 0.281799
0.351323 0.649706 0.284683
0.369993 0.653565 0.287532
0.388672 0.657423 0.290344
0.407363 0.661279 0.293119
0.426064 0.665132 0.295859
0.444778 0.668980 0.298564
0.463505 0.672822 0.301233
0.482245 0.676656 0.303867
0.500998 0.680482 0.306467
0.519766 0.684298 0.309033
0.544354 0.688103 0.311565
0.568958 0.691896 0.314064
0.593575 0.695675 0.316530
0.618207 0.699440 0.318965
0.642853 0.703189 0.321367
0.667514 0.706922 0.323739
0.692187 0.710636 0.326080
0.716874 0.714333 0.328392
0.741574 0.718009 0.330674
0.766285 0.721665 0.332929
0.791007 0.725299 0.335155
0.815739 0.728912 0.337355
0.840480 0.732500 0.339529
0.865229 0.736065 0.341678
0.889985 0.739606 0.343802
0.914746 0.743120 0.345903
0.939511 0.746608 0.347982
0.964278 0.750070 0.350039
0.989046 0.753504 0.352075
0.305922 0.663166 0.285725
0.324569 0.667032 0.288560
0.343224 0.670899 0.291358
0.361888 0.674763 0.294121
0.380561 0.678624 0.296848
0.399244 0.682481 0.299540
0.417938 0.686331 0.302196
0.436644 0.690174 0.304818
0.455362 0.694009 0.307405
0.474093 0.697833 0.309959
0.492836 0.701647 0.312479
0.511593 0.705448 0.314966
0.530363 0.709236 0.317420
0.552049 0.713010 0.319843
0.576652 0.716767 0.322234
0.601267 0.720508 0.324595
0.625895 0.724231 0.326925
0.650536 0.727936 0.329226
0.675187 0.731620 0.331498
0.699850 0.735284 0.333742
0.724524 0.738926 0.335959
0.749206 0.742545 0.338150
0.773897 0.746141 0.340314
0.798596 0.749713 0.342454
0.823300 0.753260 0.344570
0.848010 0.756781 0.346662
0.872723 0.760275 0.348733
0.897439 0.763742 0.350782
0.922155 0.767181 0.352812
0.946870 0.770591 0.354822
0.971582 0.773972 0.356814
0.996290 0.777324 0.358789
0.316390 0.688253 0.295118
0.335033 0.692123 0.297832
0.353684 0.695988 0.300511
0.372345 0.699847 0.303155
0.391016 0.703699 0.305764
0.409697 0.707542 0.308339
0.428390 0.711376 0.310880
0.447094 0.715199 0.313388
0.465809 0.719009 0.315863
0.484537 0.722805 0.318306
0.503277 0.726587 0.320717
0.522029 0.730354 0.323097
0.540793 0.734103 0.325447
0.559568 0.737835 0.327766
0.584161 0.741547 0.330057
0.608765 0.745240 0.332319
0.633379 0.748911 0.334553
0.658003 0.752561 0.336760
0.682636 0.756188 0.338941
0.707277 0.759791 0.341096
0.731924 0.763369 0.343227
0.756578 0.766923 0.345334
0.781236 0.770449 0.347419
0.805898 0.773949 0.349482
0.830562 0.777422 0.351524
0.855227 0.780866 0.353546
0.879890 0.784280 0.355549
0.904551 0.787666 0.357535
0.929207 0.791020 0.359504
0.953857 0.794344 0.361458
0.978499 0.797637 0.363397
1.000000 0.800569 0.371028
0.326725 0.713371 0.304109
0.345360 0.717232 0.306705
0.364003 0.721084 0.309268
0.382657 0.724927 0.311797
0.401320 0.728758 0.314293
0.419994 0.732577 0.316756
0.438679 0.736383 0.319187
0.457375 0.740174 0.321587
0.476081 0.743949 0.323956
0.494799 0.747707 0.326295
0.513527 0.751447 0.328604
0.532266 0.755167 0.330883
0.551016 0.758868 0.333135
0.569774 0.762547 0.335359
0.591445 0.766204 0.337557
0.616028 0.769838 0.339728
0.640618 0.773448 0.341875
0.665215 0.777034 0.343997
0.689818 0.780593 0.346096
