omv/luts/41_pripyat_memory.cube
# Original OMV LUT; redistribution permitted with OMV.
TITLE "Pripyat Memory"
LUT_3D_SIZE 8
DOMAIN_MIN 0.000000 0.000000 0.000000
DOMAIN_MAX 0.903226 0.903226 0.903226
0.034000 0.048000 0.039000
0.110919 0.062983 0.053983
0.188465 0.078594 0.069594
0.266425 0.094611 0.085610
0.346085 0.110691 0.101502
0.429146 0.126367 0.116701
0.516408 0.141350 0.130967
0.608395 0.155436 0.144139
0.086524 0.134103 0.091457
0.153757 0.153232 0.107130
0.234561 0.172368 0.122013
0.318324 0.188582 0.135895
0.405770 0.204188 0.148645
0.497339 0.218997 0.160210
0.593192 0.232898 0.170616
0.693205 0.245856 0.179964
0.139735 0.226664 0.140672
0.198737 0.246565 0.152993
0.284429 0.265843 0.164129
0.373945 0.284323 0.174134
0.467363 0.301912 0.183138
0.564476 0.316009 0.191350
0.664796 0.329254 0.199054
0.767554 0.341784 0.206612
0.184235 0.327038 0.177519
0.247808 0.346672 0.186206
0.326812 0.365328 0.194196
0.420960 0.383003 0.201801
0.518066 0.399772 0.209411
0.617279 0.415784 0.217494
0.717461 0.431269 0.226592
0.817194 0.443949 0.237328
0.219039 0.432936 0.204548
0.287901 0.451162 0.212272
0.359772 0.468323 0.220657
0.456943 0.484586 0.230276
0.554968 0.500194 0.241778
0.652873 0.515518 0.254518
0.750733 0.530756 0.267093
0.848945 0.546005 0.279135
0.253059 0.538276 0.234209
0.327361 0.553877 0.246426
0.402002 0.569164 0.259131
0.488257 0.584424 0.271545
0.586356 0.599747 0.283372
0.684748 0.615045 0.294614
0.783465 0.630235 0.305285
0.882515 0.645244 0.315409
0.295358 0.638140 0.275919
0.369993 0.653565 0.287532
0.444778 0.668980 0.298564
0.519766 0.684298 0.309033
0.618207 0.699440 0.318965
0.716874 0.714333 0.328392
0.815739 0.728912 0.337355
0.914746 0.743120 0.345903
0.336893 0.738485 0.312710
0.411438 0.753769 0.322453
0.486142 0.768796 0.331706
0.560995 0.783497 0.340512
0.647576 0.797810 0.348923
0.745820 0.811679 0.356997
0.844025 0.825058 0.364801
0.942076 0.837907 0.372409
0.038969 0.052969 0.072356
0.104555 0.068233 0.092781
0.182250 0.083992 0.113702
0.260492 0.100096 0.129834
0.341009 0.116076 0.146086
0.425050 0.131545 0.162081
0.513353 0.146242 0.177518
0.606375 0.159990 0.192172
0.092054 0.142278 0.130596
0.147950 0.161453 0.151957
0.229232 0.177927 0.167779
0.313614 0.193961 0.182953
0.401752 0.209314 0.197283
0.494024 0.223823 0.210652
0.590522 0.237403 0.223024
0.691060 0.250048 0.234436
0.144718 0.235183 0.188275
0.204135 0.254897 0.202265
0.278717 0.273919 0.215271
0.368760 0.292103 0.227285
0.462661 0.306800 0.238373
0.560151 0.320597 0.248678
0.660675 0.333580 0.258423
0.763397 0.345911 0.267906
0.188118 0.335516 0.231423
0.252201 0.354823 0.242205
0.320073 0.373143 0.252277
0.414606 0.390498 0.261888
0.511940 0.406989 0.271364
0.611154 0.422793 0.281109
0.711047 0.435582 0.291603
0.810134 0.448270 0.303402
0.222274 0.440956 0.265334
0.291691 0.458806 0.274857
0.363971 0.475640 0.284815
0.449726 0.491650 0.295716
0.547694 0.507114 0.308049
0.645564 0.522402 0.320757
0.743495 0.537639 0.333207
0.841831 0.552881 0.345128
0.257094 0.545380 0.300030
0.331688 0.560785 0.312688
0.406297 0.576039 0.325348
0.480992 0.591330 0.337609
0.579152 0.606653 0.349335
0.677602 0.621923 0.360528
0.776370 0.637060 0.371196
0.875456 0.651992 0.381355
0.299633 0.645078 0.341940
0.374271 0.660509 0.353472
0.449066 0.675901 0.364472
0.524062 0.691168 0.374952
0.610893 0.706233 0.384932
0.709550 0.721026 0.394438
0.808385 0.735485 0.403506
0.907337 0.749557 0.412177
0.340943 0.745404 0.378642
0.415463 0.760608 0.388446
0.490137 0.775533 0.397788
0.564949 0.790109 0.406706
0.639857 0.804277 0.415245
0.738018 0.817984 0.423458
0.836111 0.831187 0.431406
0.934014 0.843849 0.439158
0.044082 0.058082 0.105856
0.098247 0.073537 0.126473
0.176079 0.089434 0.147531
0.254789 0.105561 0.169092
0.336147 0.121401 0.191210
0.421143 0.136633 0.208295
0.510449 0.151025 0.225143
0.604458 0.164423 0.241468
0.097584 0.150485 0.164901
0.153771 0.167079 0.187113
0.223923 0.183436 0.209311
0.308916 0.199261 0.231159
0.397728 0.214342 0.247239
0.490670 0.228541 0.262531
0.587772 0.241801 0.276934
0.688781 0.254139 0.290424
0.149598 0.243647 0.226772
0.209441 0.263147 0.247743
0.272914 0.281898 0.267881
0.363472 0.297197 0.281950
0.457833 0.311584 0.295115
0.555663 0.325091 0.307458
0.656343 0.337831 0.319134
0.758971 0.349990 0.330379
0.191899 0.343886 0.281684
0.256497 0.362860 0.299697
0.324845 0.380846 0.311775
0.408135 0.397892 0.323263
0.505667 0.414126 0.334424
0.604842 0.427170 0.345599
0.704393 0.439884 0.357202
0.802866 0.452608 0.369672
0.225508 0.448845 0.327348
0.295481 0.466334 0.338471
0.368160 0.482862 0.349749
0.442476 0.498649 0.361627
0.540409 0.514022 0.374312
0.638249 0.529277 0.386978
0.736293 0.544523 0.399294
0.834744 0.557168 0.411132
0.261329 0.552361 0.366200
0.336003 0.567680 0.378938
0.410605 0.582927 0.391516
0.485352 0.598239 0.403660
0.571953 0.613554 0.415321
0.670455 0.628787 0.426495
0.769266 0.643862 0.437184
0.868378 0.658709 0.447399
0.303895 0.652022 0.407962
0.378535 0.667450 0.419446
0.453335 0.682808 0.430443
0.528336 0.698015 0.440957
0.603550 0.712995 0.451004
0.702189 0.727681 0.460602
0.800986 0.742014 0.469782
0.899875 0.755943 0.478580
0.344960 0.752299 0.444668
0.419452 0.767416 0.454549
0.494091 0.782229 0.463991
0.568856 0.796673 0.473027
0.643698 0.810690 0.481696
0.730156 0.824231 0.490045
0.828128 0.837254 0.498129
0.925872 0.849724 0.506010
0.049272 0.063272 0.139434
0.103601 0.078892 0.160214
0.169956 0.094915 0.181407
0.249289 0.110991 0.203575
0.331473 0.126656 0.226714
0.417397 0.141624 0.250314
0.507668 0.155691 0.273948
0.602614 0.168731 0.292106
0.103098 0.156126 0.199714
0.159591 0.172677 0.223075
0.218618 0.188882 0.246733
0.304214 0.204474 0.270289
0.393680 0.219267 0.293421
0.487263 0.233150 0.315887
0.584925 0.246091 0.332360
0.686350 0.258135 0.347911
0.154370 0.252047 0.266572
0.214652 0.271311 0.289486
0.278628 0.287195 0.311664
0.358074 0.302185 0.332969
0.452872 0.316266 0.353340
0.551006 0.329496 0.367633
0.651794 0.342014 0.381103
0.754268 0.354033 0.393920
0.195583 0.352145 0.328293
0.260704 0.370782 0.348324
0.329521 0.388440 0.367464
0.401551 0.405192 0.385834
0.499251 0.418612 0.398471
0.598345 0.431508 0.410813
0.697502 0.444188 0.423212
0.795581 0.456936 0.435936
0.228756 0.456607 0.380165
0.299287 0.473749 0.397820
0.372353 0.489998 0.415300
0.446822 0.505596 0.427822
0.533112 0.520918 0.440563
0.630965 0.536156 0.453157
0.729122 0.548823 0.465375
0.827678 0.561443 0.477164
0.265666 0.559279 0.427311
0.340305 0.574563 0.445176
0.414924 0.589825 0.457654
0.489718 0.605148 0.469718
0.564755 0.620444 0.481346
0.663302 0.635632 0.492529
0.762147 0.650637 0.503261
0.861278 0.665393 0.513549
0.308144 0.658968 0.474003
0.382782 0.674382 0.485469
0.457583 0.689698 0.496488
0.532583 0.704836 0.507058
0.607787 0.719723 0.517186
0.694788 0.734295 0.526888
0.793540 0.748496 0.536186
0.892355 0.762277 0.545111
0.348940 0.759167 0.510796
0.423401 0.774188 0.520767
0.498001 0.788883 0.530318
0.572713 0.803188 0.539477
0.647484 0.817049 0.548275
0.722231 0.830418 0.556754
0.820073 0.843257 0.564962
0.917649 0.855533 0.572957
0.054525 0.068525 0.173074
0.109002 0.084292 0.194002
0.163977 0.100399 0.215489
0.243966 0.116373 0.238623
0.326962 0.131829 0.263071
0.413786 0.146510 0.288262
0.504983 0.160239 0.313706
0.600815 0.172915 0.338989
0.108582 0.161766 0.235201
0.165396 0.178234 0.259982
0.224914 0.194257 0.285318
0.299492 0.209595 0.310747
0.389593 0.224087 0.335885
0.483784 0.237650 0.360425
0.581964 0.250277 0.384137
0.683749 0.262040 0.406871
0.159032 0.260374 0.307749
0.219762 0.276801 0.332700
0.284240 0.292388 0.356961
0.352562 0.307068 0.380331
0.447771 0.320849 0.402685
0.546174 0.333818 0.423977
0.647021 0.346138 0.444235
0.749280 0.358051 0.458407
0.199176 0.360290 0.376390
0.264826 0.378591 0.398358
0.334107 0.395929 0.419266
0.406471 0.409824 0.439171
0.492697 0.423036 0.458209
0.591670 0.435821 0.476591
0.690378 0.448510 0.489445
0.788285 0.461253 0.502188
0.232035 0.464245 0.433992
0.303124 0.481061 0.452762
0.376568 0.497058 0.470973
0.451160 0.512515 0.488934
0.525802 0.527802 0.506802
0.623715 0.540458 0.519313
0.721976 0.553119 0.531468
0.820630 0.565704 0.543239
0.269992 0.566185 0.483250
0.344598 0.581438 0.501072
0.419252 0.596731 0.518620
0.494087 0.612054 0.535799
0.569168 0.627322 0.547425
0.656140 0.642456 0.558640
0.755011 0.657383 0.569436
0.854151 0.669461 0.579812
0.312376 0.665913 0.529756
0.387009 0.681303 0.546395
0.461808 0.696567 0.562619
0.536802 0.711627 0.573262
0.611990 0.726414 0.583485
0.687346 0.740866 0.593298
0.786044 0.754930 0.602717
0.884776 0.768558 0.611767
0.352883 0.766005 0.571871
0.427309 0.780923 0.587105
0.501866 0.795492 0.596772
0.576521 0.809652 0.606053
0.651213 0.823350 0.614977
0.725855 0.836543 0.623577
0.811945 0.849194 0.631896
0.909344 0.861274 0.639985
0.059833 0.073833 0.206768
0.114446 0.089737 0.227833
0.169768 0.105863 0.249987
0.238797 0.121694 0.274398
0.322587 0.136912 0.300416
0.410284 0.151286 0.327408
0.502368 0.164665 0.354818
0.599036 0.176975 0.382171
0.114023 0.167390 0.271518
0.171174 0.183739 0.297959
0.231185 0.199552 0.325163
0.294737 0.214617 0.352604
0.385452 0.228799 0.379833
0.480220 0.242041 0.406481
0.578873 0.254363 0.432254
0.680962 0.265863 0.456937
0.163580 0.266040 0.350361
0.224769 0.282194 0.377417
0.289747 0.297476 0.403776
0.358545 0.311846 0.429173
0.442528 0.325338 0.453421
0.541161 0.338064 0.476407
0.642019 0.350215 0.498100
0.744002 0.362057 0.518541
0.202687 0.368320 0.425940
0.268870 0.386288 0.449737
0.338610 0.400737 0.472252
0.411289 0.414376 0.493480
0.486011 0.427411 0.513492
0.584819 0.440122 0.532435
0.683106 0.452848 0.550558
0.780976 0.465557 0.568428
0.235363 0.471766 0.488699
0.307011 0.488278 0.508300
0.380820 0.504054 0.526906
0.455487 0.519422 0.544874
0.530099 0.532095 0.562701
0.616494 0.544761 0.580302
0.714851 0.557405 0.597590
0.813593 0.569948 0.609372
0.274306 0.573080 0.539177
0.348898 0.588327 0.556941
0.423583 0.603640 0.574432
0.498456 0.618954 0.591598
0.573574 0.634185 0.608408
0.648964 0.649256 0.624840
0.747854 0.661518 0.635717
0.846994 0.673490 0.646192
0.316588 0.672852 0.585559
0.391213 0.688209 0.602234
0.466007 0.703412 0.618524
0.540989 0.718387 0.634416
0.616155 0.733067 0.649905
0.691472 0.747393 0.659834
0.778494 0.761313 0.669375
0.877135 0.774785 0.678546
0.356787 0.772811 0.627900
0.431175 0.787617 0.643243
0.505684 0.802054 0.658191
0.580276 0.816062 0.672755
0.654884 0.829594 0.681797
0.729412 0.842606 0.690507
0.803743 0.855066 0.698921
0.900953 0.866947 0.707084
0.065190 0.079190 0.240512
0.119936 0.095219 0.261729
0.175694 0.111290 0.285079
0.233757 0.126944 0.311053
0.318325 0.141898 0.338874
0.406868 0.155946 0.367847
0.499800 0.168966 0.397352
0.597252 0.180911 0.426852
0.119409 0.172986 0.308805
0.176911 0.189182 0.337121
0.237419 0.204761 0.366355
0.301549 0.219537 0.395917
0.381244 0.233402 0.425295
0.476556 0.246326 0.454056
0.575638 0.258354 0.481843
0.677975 0.269609 0.508377
0.168014 0.271618 0.394457
0.229671 0.287485 0.423656
0.295147 0.302458 0.452100
0.364407 0.316522 0.479459
0.437137 0.329738 0.505482
0.535964 0.342244 0.529994
0.636782 0.354256 0.552897
0.738429 0.366067 0.574172
0.206124 0.376236 0.476897
0.272846 0.391295 0.502386
0.343036 0.405451 0.526319
0.416012 0.418858 0.548628
0.490811 0.431748 0.569320
0.577801 0.444426 0.588479
0.675821 0.457176 0.606498
0.773663 0.469849 0.624330
0.238758 0.479175 0.544144
0.310966 0.495409 0.564264
0.385127 0.510998 0.582902
0.459802 0.523737 0.600802
0.534423 0.536394 0.618581
0.609296 0.549062 0.636143
0.707742 0.561680 0.653433
0.806564 0.574172 0.670413
0.278607 0.579962 0.595091
0.353202 0.595226 0.612801
0.427915 0.610549 0.630270
0.502821 0.625844 0.647451
0.577970 0.641029 0.664310
0.653384 0.653449 0.680816
0.740672 0.665619 0.696948
0.839803 0.677481 0.712694
0.320779 0.679784 0.641426
0.395393 0.695097 0.658159
0.470176 0.710231 0.674532
0.545143 0.725113 0.690524
0.620280 0.739679 0.706127
0.695551 0.753872 0.721336
0.770889 0.767645 0.736157
0.869428 0.778375 0.745440
0.360650 0.779581 0.684048
0.434997 0.794269 0.699508
0.509455 0.808566 0.714575
0.583978 0.822417 0.729257
0.658494 0.835777 0.743569
0.732902 0.848605 0.757536
0.807076 0.860871 0.766025
0.892476 0.872551 0.774237
0.070593 0.084593 0.274303
0.125516 0.100703 0.296016
0.181731 0.116669 0.320934
0.240436 0.132113 0.348727
0.314154 0.146778 0.378556
0.403514 0.160487 0.409661
0.497253 0.173143 0.441363
0.595437 0.184726 0.473057
0.124730 0.178540 0.347191
0.182596 0.194552 0.377568
0.243604 0.209876 0.408966
0.308302 0.224351 0.440730
0.376956 0.237896 0.472288
0.472778 0.250506 0.503139
0.572244 0.262254 0.532865
0.674773 0.273290 0.561123
0.172332 0.277102 0.440069
0.234468 0.292673 0.471423
0.300439 0.307335 0.501910
0.370146 0.321100 0.531137
0.443210 0.334055 0.558789
0.530580 0.346365 0.584628
0.631309 0.358273 0.608493
0.732556 0.370096 0.630300
0.209497 0.381458 0.529199
0.276762 0.396198 0.556215
0.347394 0.410078 0.581350
0.420648 0.423280 0.604471
0.495494 0.436059 0.625522
0.570621 0.448750 0.644524
0.668524 0.461492 0.662427
0.766394 0.474140 0.680218
0.242241 0.486482 0.600174
0.315007 0.502465 0.620472
0.389465 0.515336 0.638852
0.464104 0.528040 0.656717
0.538772 0.540696 0.674457
0.613730 0.553356 0.692014
0.700644 0.565940 0.709336
0.799537 0.578374 0.726376
0.282899 0.586838 0.650991
0.357508 0.602132 0.668671
0.432244 0.617455 0.686148
0.507178 0.632721 0.703373
0.582353 0.645271 0.720301
0.657784 0.657613 0.736898
0.733462 0.669685 0.753136
0.832574 0.681430 0.768997
0.324945 0.686704 0.697370
0.399546 0.701965 0.714181
0.474315 0.717021 0.730651
0.549260 0.731802 0.746754
0.624363 0.746248 0.762474
0.699580 0.760303 0.777802
0.774838 0.771342 0.792737
0.861653 0.781907 0.807285
0.364471 0.786313 0.740320
0.438773 0.800875 0.755898
0.513175 0.815027 0.771083
0.587625 0.828716 0.785876
0.662042 0.841899 0.800286
0.736322 0.854540 0.814331
0.810332 0.866609 0.828035
0.883911 0.878085 0.841431
